mach0312/omni-docking-bench/src/icros_test_setup/results/MPPI_sample/timeseries/trial_071.csv
t,x,y,yaw,vx,vy,wz,bl_x,bl_y,bl_yaw,front_steering_joint,front_wheel_joint,rear_steering_joint,rear_wheel_joint
0.0,0.070958,-0.021956,-0.070359,0.01055,-0.004456,-0.042779,0.032421,-0.529592,-0.064878,-1.238616,-259.872789,1.117737,68.045351
0.0004,0.07059,-0.021716,-0.070615,0.010099,-0.004266,-0.040948,0.033175,-0.529891,-0.065867,-1.238616,-259.858212,1.117737,68.056211
0.0006,0.072656,-0.021996,-0.072866,0.009585,-0.004049,-0.038867,0.033392,-0.529874,-0.066375,-1.238616,-259.844388,1.117737,68.06651
0.0009,0.072947,-0.022189,-0.07451,0.009016,-0.003808,-0.036559,0.033392,-0.529874,-0.066375,-1.238616,-259.831448,1.117737,68.07615
0.0012,0.072523,-0.021982,-0.072296,0.008387,-0.003542,-0.034006,0.03363,-0.530038,-0.068013,-1.238616,-259.820389,1.117737,68.084389
0.0015,0.074056,-0.022618,-0.073751,0.007696,-0.003251,-0.031206,0.03363,-0.530038,-0.068013,-1.238616,-259.810949,1.117737,68.091422
0.0017,0.073622,-0.022494,-0.075484,0.006942,-0.002932,-0.028148,0.033933,-0.529867,-0.069582,-1.238616,-259.810949,1.117737,68.091422
0.002,0.075207,-0.022663,-0.075752,0.006131,-0.00259,-0.02486,0.033933,-0.529867,-0.069582,-1.238616,-259.810949,1.117737,68.091422
0.0022,0.074988,-0.022942,-0.075779,0.005256,-0.00222,-0.021313,0.033933,-0.529867,-0.069582,-1.238616,-259.810949,1.117737,68.091422
0.0168,0.074519,-0.022438,-0.076771,0.0,0.0,0.0,0.03651,-0.531204,-0.075872,-1.238616,-259.810949,1.117737,68.091422
0.0363,0.075577,-0.022703,-0.077557,0.0,0.0,0.0,0.035617,-0.531045,-0.077664,-1.238616,-259.804502,1.117737,68.096226
0.0561,0.075779,-0.022648,-0.07808,0.0,0.0,0.0,0.035823,-0.531109,-0.077723,-1.238616,-259.804502,1.117737,68.096226
0.0763,0.075565,-0.023111,-0.07784,0.0,0.0,0.0,0.035998,-0.531094,-0.07808,-1.238616,-259.804502,1.117737,68.096226
0.0965,0.075519,-0.022902,-0.076584,0.0,0.0,0.0,0.035915,-0.531525,-0.077861,-1.238616,-259.804502,1.117737,68.096226
0.117,0.075319,-0.022769,-0.076459,-0.002373,0.002481,-0.010144,0.035915,-0.531525,-0.077861,-1.238616,-259.804502,1.117737,68.096226
0.1369,0.075288,-0.022376,-0.078762,-0.002607,0.002706,-0.009969,0.036363,-0.531279,-0.076459,-1.238616,-259.804502,1.117737,68.096226
0.1573,0.076147,-0.022951,-0.076293,-0.002816,0.002888,-0.008937,0.035881,-0.531085,-0.077382,-1.238616,-259.804502,1.117737,68.096226
0.1761,0.075664,-0.022849,-0.07728,-0.002996,0.003043,-0.00824,0.037275,-0.531467,-0.076293,-1.163655,-259.804502,1.042775,68.096226
0.1964,0.075464,-0.022612,-0.078414,-0.003153,0.003173,-0.006929,0.036381,-0.53134,-0.07719,-1.163655,-259.804502,1.042775,68.096226
0.2165,0.075561,-0.02302,-0.076197,-0.003287,0.003286,-0.005993,0.036381,-0.53134,-0.07719,-1.163655,-259.804502,1.042775,68.096226
0.237,0.075698,-0.022577,-0.076593,-0.003403,0.003383,-0.005336,0.036738,-0.53154,-0.076197,-1.08865,-259.804502,0.967771,68.096226
0.2566,0.075567,-0.022617,-0.077703,-0.003503,0.003465,-0.004151,0.036712,-0.531356,-0.076356,-1.08865,-259.804502,0.967771,68.096226
0.2762,0.075653,-0.023083,-0.077887,-0.00359,0.003536,-0.003275,0.035978,-0.531078,-0.077703,-1.013522,-259.804502,0.892643,68.096226
0.2965,0.075908,-0.022865,-0.077727,-0.003658,0.003611,-0.002076,0.035971,-0.531498,-0.077872,-1.013522,-259.804502,0.892643,68.096226
0.3161,0.07554,-0.022654,-0.076572,-0.003716,0.003677,-0.001157,0.035971,-0.531498,-0.077872,-1.013522,-259.804502,0.892643,68.096226
0.3362,0.07559,-0.02273,-0.077103,-0.003766,0.003736,-0.00046,0.036527,-0.531159,-0.076572,-0.93851,-259.804502,0.81763,68.096226
0.3561,0.075414,-0.022907,-0.077371,-0.003813,0.00378,0.0005,0.036437,-0.531182,-0.076787,-0.93851,-259.804502,0.81763,68.096226
0.3761,0.075667,-0.022777,-0.078932,-0.003853,0.00382,0.00125,0.035994,-0.531381,-0.077371,-0.86365,-259.804502,0.74277,68.096225
0.3964,0.075645,-0.022686,-0.078253,-0.003881,0.003866,0.002131,0.035502,-0.531207,-0.078792,-0.86365,-259.804502,0.74277,68.096225
0.4164,0.076029,-0.022687,-0.079021,-0.003905,0.003909,0.002837,0.035502,-0.531207,-0.078792,-0.86365,-259.804502,0.74277,68.096225
0.4363,0.075922,-0.023158,-0.076833,-0.003925,0.003948,0.003401,0.03577,-0.531095,-0.079021,-0.871849,-259.804502,0.667735,68.096225
0.4563,0.075907,-0.022552,-0.07851,-0.003944,0.003979,0.004044,0.036193,-0.53133,-0.0781,-0.871849,-259.804502,0.667735,68.096225
0.4762,0.075611,-0.022512,-0.078467,-0.003959,0.004009,0.004567,0.035908,-0.530981,-0.07851,-0.947316,-259.804502,0.592268,68.096225
0.4962,0.075688,-0.023138,-0.078146,-0.003972,0.004036,0.005108,0.035659,-0.530946,-0.078471,-0.947316,-259.804502,0.592268,68.096225
0.5167,0.075684,-0.022891,-0.077656,-0.003982,0.004061,0.005554,0.035659,-0.530946,-0.078471,-0.947316,-259.804502,0.592268,68.096225
0.5366,0.075428,-0.022645,-0.076557,-0.003991,0.004085,0.005921,0.03612,-0.531354,-0.077656,-1.021805,-259.804502,0.517778,68.096225
0.5566,0.075629,-0.02304,-0.078277,-0.003998,0.004109,0.006288,0.036242,-0.531272,-0.077212,-1.021805,-259.804502,0.517778,68.096225
0.5767,0.075517,-0.022945,-0.078358,-0.004003,0.004131,0.006591,0.035748,-0.531478,-0.078277,-1.092698,-259.804506,0.442724,68.096223
0.5964,0.075701,-0.02279,-0.076027,-0.004004,0.00416,0.00684,0.035609,-0.531389,-0.078351,-1.092698,-259.804506,0.442724,68.096223
0.6169,0.075354,-0.022914,-0.077617,-0.004004,0.004186,0.007045,0.035609,-0.531389,-0.078351,-1.092698,-259.804506,0.442724,68.096223
0.6366,0.075629,-0.02311,-0.079945,-0.004004,0.004209,0.007214,0.035806,-0.531375,-0.077608,-1.11453,-259.804599,0.367773,68.096182
0.6563,0.075423,-0.022993,-0.077773,-0.004003,0.004232,0.007354,0.035445,-0.531417,-0.078539,-1.11453,-259.804599,0.367773,68.096182
0.6758,0.075429,-0.022624,-0.077341,-0.004002,0.004253,0.007469,0.035777,-0.531427,-0.077724,-1.135724,-259.805322,0.29277,68.095877
0.6963,0.07552,-0.022751,-0.078278,-0.004006,0.004261,0.007566,0.036001,-0.531128,-0.077373,-1.135724,-259.805322,0.29277,68.095877
0.7162,0.075366,-0.022699,-0.077538,-0.00401,0.004268,0.007646,0.036001,-0.531128,-0.077373,-1.135724,-259.805322,0.29277,68.095877
0.7361,0.075209,-0.022968,-0.078316,-0.004012,0.004276,0.007711,0.035789,-0.531082,-0.077382,-1.144608,-259.807148,0.217774,68.09512
0.7559,0.075699,-0.02288,-0.077508,-0.004012,0.004289,0.007764,0.035585,-0.531204,-0.077745,-1.144608,-259.807148,0.217774,68.09512
0.7759,0.074993,-0.022437,-0.077441,-0.004011,0.004301,0.007807,0.036114,-0.531231,-0.077303,-1.150817,-259.810387,0.142676,68.093792
0.7962,0.074612,-0.022694,-0.078241,-0.004013,0.004306,0.007881,0.035583,-0.530931,-0.077419,-1.150817,-259.810387,0.142676,68.093792
0.8162,0.074949,-0.02265,-0.076075,-0.004014,0.004312,0.007941,0.035583,-0.530931,-0.077419,-1.150817,-259.810387,0.142676,68.093792
0.836,0.074639,-0.022219,-0.076377,-0.004015,0.004317,0.007992,0.036037,-0.530985,-0.075752,-1.154362,-259.814302,0.116057,68.092197
0.8565,0.074728,-0.021991,-0.07782,-0.004017,0.004317,0.008056,0.035892,-0.53086,-0.075969,-1.154362,-259.814302,0.116057,68.092197
0.876,0.074442,-0.021876,-0.076583,-0.00402,0.004318,0.00811,0.034964,-0.530302,-0.077568,-1.159221,-259.818286,0.139598,68.090588
0.8959,0.074535,-0.022217,-0.075525,-0.004023,0.004315,0.008176,0.035379,-0.530368,-0.076654,-1.159221,-259.818286,0.139598,68.090588
0.9161,0.074271,-0.022301,-0.076091,-0.004026,0.004313,0.008231,0.035379,-0.530368,-0.076654,-1.159221,-259.818286,0.139598,68.090588
0.9361,0.074002,-0.021687,-0.076429,-0.004028,0.004312,0.008276,0.03535,-0.530634,-0.075754,-1.161688,-259.822306,0.156747,68.088969
0.9561,0.074077,-0.021552,-0.075488,-0.004028,0.004315,0.008333,0.035213,-0.530432,-0.075993,-1.161688,-259.822306,0.156747,68.088969
0.976,0.073583,-0.02144,-0.075891,-0.004028,0.004318,0.008381,0.035498,-0.529954,-0.075228,-1.164648,-259.826342,0.182373,68.087347
0.9961,0.073653,-0.021448,-0.07649,-0.004031,0.004314,0.008443,0.03496,-0.529964,-0.075821,-1.164648,-259.826342,0.182373,68.087347
1.0164,0.073576,-0.021372,-0.076342,-0.004033,0.004312,0.008494,0.03496,-0.529964,-0.075821,-1.164648,-259.826342,0.182373,68.087347
1.0362,0.073363,-0.021275,-0.075266,-0.004035,0.00431,0.008536,0.034526,-0.529694,-0.075993,-1.167364,-259.830428,0.19626,68.085712
1.0564,0.073216,-0.021038,-0.075572,-0.004037,0.004307,0.008592,0.034707,-0.529728,-0.075657,-1.167364,-259.830428,0.19626,68.085712
1.076,0.072703,-0.021059,-0.072451,-0.004039,0.004305,0.008638,0.034594,-0.529437,-0.075303,-1.170034,-259.834532,0.220314,68.084072
1.096,0.072903,-0.02119,-0.073867,-0.004045,0.004293,0.008699,0.035677,-0.529689,-0.072685,-1.170034,-259.834532,0.220314,68.084072
1.1166,0.072822,-0.020836,-0.075222,-0.00405,0.004285,0.008749,0.035677,-0.529689,-0.072685,-1.170034,-259.834532,0.220314,68.084072
1.1365,0.072321,-0.020752,-0.07511,-0.004054,0.004278,0.00879,0.034341,-0.529202,-0.074861,-1.171811,-259.838669,0.236022,68.082418
1.1565,0.072579,-0.02061,-0.07425,-0.004055,0.004277,0.008842,0.034206,-0.529225,-0.07492,-1.171811,-259.838669,0.236022,68.082418
1.1763,0.071742,-0.020386,-0.07456,-0.004055,0.004278,0.008885,0.034629,-0.529061,-0.073973,-1.172976,-259.842811,0.26288,68.080757
1.1964,0.071764,-0.020199,-0.074006,-0.004056,0.004277,0.008936,0.033821,-0.52897,-0.074496,-1.172976,-259.842811,0.26288,68.080757
1.2165,0.071999,-0.020693,-0.074867,-0.004057,0.004277,0.008979,0.033821,-0.52897,-0.074496,-1.172976,-259.842811,0.26288,68.080757
1.2365,0.071466,-0.020616,-0.075393,-0.004057,0.004278,0.009015,0.033697,-0.529073,-0.074496,-1.174955,-259.847,0.276048,68.079078
1.2565,0.07168,-0.020239,-0.072515,-0.004054,0.004285,0.009054,0.033417,-0.52909,-0.074818,-1.174955,-259.847,0.276048,68.079078
1.2763,0.071225,-0.020313,-0.07385,-0.004052,0.004292,0.009087,0.034611,-0.528754,-0.072229,-1.177698,-259.851215,0.293977,68.077391
1.2964,0.071163,-0.019663,-0.072871,-0.004053,0.004291,0.009122,0.033682,-0.5289,-0.073688,-1.177698,-259.851215,0.293977,68.077391
1.3167,0.071268,-0.02007,-0.073215,-0.004053,0.004291,0.00915,0.033682,-0.5289,-0.073688,-1.177698,-259.851215,0.293977,68.077391
1.3366,0.070954,-0.019754,-0.071991,-0.004054,0.004291,0.009174,0.033806,-0.528512,-0.072835,-1.180267,-259.855476,0.301067,68.075692
1.3568,0.070757,-0.019614,-0.073537,-0.004059,0.004279,0.009199,0.033979,-0.528457,-0.072443,-1.180267,-259.855476,0.301067,68.075692
1.3761,0.070178,-0.019648,-0.072541,-0.004064,0.004269,0.00922,0.033169,-0.528091,-0.073247,-1.181949,-259.859741,0.313002,68.073993
1.3963,0.070088,-0.019583,-0.072018,-0.004066,0.004267,0.009238,0.033204,-0.528281,-0.072588,-1.181949,-259.859741,0.313002,68.073993
1.4165,0.06996,-0.019378,-0.07281,-0.004067,0.004265,0.009253,0.033204,-0.528281,-0.072588,-1.181949,-259.859741,0.313002,68.073993
1.4366,0.070224,-0.019025,-0.07204,-0.004068,0.004264,0.009265,0.032704,-0.527837,-0.072425,-1.181261,-259.86401,0.323234,68.072283
1.4566,0.069798,-0.019268,-0.070278,-0.004073,0.004254,0.00928,0.033016,-0.52776,-0.072224,-1.181261,-259.86401,0.323234,68.072283
1.4762,0.069199,-0.018769,-0.071188,-0.004077,0.004245,0.009292,0.033866,-0.527865,-0.069983,-1.181711,-259.868303,0.330346,68.070561
1.4963,0.06923,-0.019019,-0.073062,-0.004082,0.004234,0.009304,0.033003,-0.527505,-0.071064,-1.181711,-259.868303,0.330346,68.070561
1.5161,0.069164,-0.019067,-0.071739,-0.004087,0.004225,0.009315,0.033003,-0.527505,-0.071064,-1.181711,-259.868303,0.330346,68.070561
1.5362,0.069003,-0.018706,-0.070832,-0.00409,0.004217,0.009323,0.032451,-0.527566,-0.071351,-1.180868,-259.872582,0.337242,68.068838
1.5562,0.069199,-0.018907,-0.07028,-0.004091,0.004215,0.009331,0.032619,-0.527488,-0.071095,-1.180868,-259.872582,0.337242,68.068838
1.5759,0.068744,-0.01862,-0.072775,-0.004092,0.004214,0.009337,0.033266,-0.527505,-0.069984,-1.179396,-259.876865,0.346488,68.067101
1.5963,0.068831,-0.018483,-0.070452,-0.004091,0.004217,0.009343,0.031801,-0.527285,-0.072505,-1.179396,-259.876865,0.346488,68.067101
1.6169,0.069021,-0.018655,-0.070822,-0.00409,0.00422,0.009348,0.031801,-0.527285,-0.072505,-1.179396,-259.876865,0.346488,68.067101
1.6363,0.067782,-0.018365,-0.068941,-0.00409,0.004222,0.009353,0.032773,-0.527188,-0.070431,-1.179395,-259.881171,0.348886,68.065353
1.6565,0.068114,-0.018408,-0.070304,-0.004094,0.004212,0.00936,0.032704,-0.527152,-0.069769,-1.179395,-259.881171,0.348886,68.065353
1.6759,0.0681,-0.018344,-0.070224,-0.004098,0.004204,0.009366,0.032167,-0.527004,-0.070004,-1.180251,-259.885453,0.349433,68.063618
1.6968,0.067664,-0.018285,-0.070649,-0.0041,0.0042,0.009372,0.032296,-0.527072,-0.070189,-1.180251,-259.885453,0.349433,68.063618
1.7163,0.067829,-0.018066,-0.069125,-0.004102,0.004196,0.009376,0.032296,-0.527072,-0.070189,-1.180251,-259.885453,0.349433,68.063618
1.7364,0.067246,-0.017574,-0.06871,-0.004103,0.004194,0.00938,0.032444,-0.52666,-0.068731,-1.179195,-259.889746,0.354516,68.061871
1.7565,0.067266,-0.018162,-0.068564,-0.004109,0.004179,0.009386,0.03234,-0.526522,-0.068678,-1.179195,-259.889746,0.354516,68.061871
1.7764,0.067088,-0.017787,-0.069869,-0.004114,0.004167,0.009391,0.032204,-0.526822,-0.068265,-1.178721,-259.894046,0.358027,68.060117
1.7964,0.067206,-0.017677,-0.069468,-0.004114,0.004168,0.009394,0.031544,-0.526561,-0.069705,-1.178721,-259.894046,0.358027,68.060117
1.8162,0.067179,-0.017708,-0.069598,-0.004115,0.004168,0.009396,0.031544,-0.526561,-0.069705,-1.178721,-259.894046,0.358027,68.060117
1.836,0.066515,-0.017504,-0.067558,-0.004115,0.004168,0.009397,0.031553,-0.526287,-0.069206,-1.177045,-259.898327,0.364176,68.058359
1.8561,0.066164,-0.017079,-0.068318,-0.004118,0.00416,0.009401,0.031751,-0.526288,-0.068491,-1.177045,-259.898327,0.364176,68.058359
1.8765,0.065878,-0.017205,-0.0651,-0.004121,0.004153,0.009404,0.031227,-0.525747,-0.068019,-1.17717,-259.902619,0.364816,68.056597
1.8966,0.066478,-0.017314,-0.066444,-0.004128,0.004136,0.009409,0.032542,-0.526078,-0.065381,-1.17717,-259.902619,0.364816,68.056597
1.9164,0.065889,-0.01702,-0.067579,-0.004134,0.004122,0.009413,0.032542,-0.526078,-0.065381,-1.17717,-259.902619,0.364816,68.056597
1.9364,0.065772,-0.016713,-0.06638,-0.00414,0.00411,0.009415,0.031289,-0.525671,-0.067186,-1.176236,-259.906905,0.368219,68.054831
1.9564,0.06573,-0.01702,-0.06651,-0.004144,0.0041,0.009417,0.031537,-0.525617,-0.066813,-1.176236,-259.906905,0.368219,68.054831
1.9763,0.065338,-0.016401,-0.067024,-0.004148,0.004091,0.009419,0.031711,-0.525753,-0.06621,-1.173319,-259.911184,0.377272,68.053049
1.9963,0.065324,-0.016715,-0.065479,-0.004152,0.00408,0.009421,0.03122,-0.525292,-0.06694,-1.173319,-259.911184,0.377272,68.053049
2.0168,0.064834,-0.01658,-0.065058,-0.004156,0.00407,0.009422,0.03122,-0.525292,-0.06694,-1.173319,-259.911184,0.377272,68.053049
2.036,0.065169,-0.016913,-0.064585,-0.00416,0.004063,0.009423,0.031515,-0.525319,-0.064663,-1.172021,-259.915448,0.380941,68.051266
2.057,0.064847,-0.016607,-0.067923,-0.004162,0.004057,0.009423,0.031795,-0.525513,-0.064587,-1.172021,-259.915448,0.380941,68.051266
2.076,0.064508,-0.015897,-0.065564,-0.004165,0.004052,0.009424,0.030109,-0.525291,-0.067619,-1.170009,-259.91971,0.386384,68.04947
2.0961,0.064428,-0.016444,-0.065951,-0.00417,0.00404,0.009426,0.030998,-0.524839,-0.065738,-1.170009,-259.91971,0.386384,68.04947
2.116,0.06436,-0.016169,-0.065024,-0.004174,0.004029,0.009427,0.030998,-0.524839,-0.065738,-1.170009,-259.91971,0.386384,68.04947
2.136,0.063601,-0.015924,-0.066118,-0.004178,0.004021,0.009427,0.031059,-0.52491,-0.064629,-1.169236,-259.923972,0.388238,68.047671
2.1561,0.064599,-0.015864,-0.066049,-0.004178,0.00402,0.009427,0.030569,-0.524849,-0.065191,-1.169236,-259.923972,0.388238,68.047671
2.1766,0.063626,-0.015564,-0.063319,-0.004179,0.004019,0.009426,0.030814,-0.524616,-0.065749,-1.167046,-259.928224,0.394019,68.045862
2.1961,0.063423,-0.015654,-0.064177,-0.004185,0.004003,0.009429,0.031301,-0.524542,-0.063517,-1.167046,-259.928224,0.394019,68.045862
2.2159,0.06358,-0.015554,-0.063767,-0.004191,0.00399,0.00943,0.031301,-0.524542,-0.063517,-1.167046,-259.928224,0.394019,68.045862
2.2359,0.063004,-0.015445,-0.062352,-0.004195,0.003979,0.009431,0.030917,-0.524339,-0.063373,-1.166872,-259.932477,0.394033,68.044051
2.2563,0.062904,-0.015637,-0.065187,-0.004199,0.003969,0.009432,0.031024,-0.524366,-0.062908,-1.166872,-259.932477,0.394033,68.044051
2.2762,0.062723,-0.015503,-0.063014,-0.004202,0.003961,0.009432,0.029557,-0.524419,-0.064887,-1.164054,-259.936714,0.401582,68.04223
2.2959,0.062974,-0.015001,-0.062431,-0.004202,0.003963,0.00943,0.030508,-0.524478,-0.063164,-1.164054,-259.936714,0.401582,68.04223
2.316,0.062308,-0.015584,-0.064564,-0.004201,0.003965,0.009429,0.030508,-0.524478,-0.063164,-1.164054,-259.936714,0.401582,68.04223
2.3361,0.062074,-0.015153,-0.063943,-0.004201,0.003967,0.009428,0.029239,-0.524345,-0.06417,-1.162763,-259.940956,0.404679,68.040399
2.3562,0.062152,-0.015202,-0.063214,-0.004197,0.003976,0.009425,0.029322,-0.524228,-0.06403,-1.162763,-259.940956,0.404679,68.040399
2.3763,0.061593,-0.014674,-0.063687,-0.004194,0.003984,0.009423,0.029809,-0.524049,-0.062914,-1.163055,-259.945197,0.403022,68.038571
2.3962,0.061367,-0.014839,-0.062187,-0.004197,0.003977,0.009425,0.029185,-0.523667,-0.063609,-1.163055,-259.945197,0.403022,68.038571
2.4163,0.061641,-0.014967,-0.061906,-0.004199,0.003971,0.009426,0.029185,-0.523667,-0.063609,-1.163055,-259.945197,0.403022,68.038571
2.4364,0.061034,-0.014821,-0.062666,-0.004201,0.003966,0.009427,0.029925,-0.523814,-0.061513,-1.164164,-259.949427,0.39962,68.036755
2.4561,0.061107,-0.014777,-0.061778,-0.004202,0.003963,0.009427,0.029566,-0.523796,-0.06194,-1.164164,-259.949427,0.39962,68.036755
2.4759,0.060705,-0.014258,-0.062943,-0.004204,0.003959,0.009427,0.029494,-0.52367,-0.061479,-1.162983,-259.953663,0.403014,68.034928
2.496,0.061038,-0.014823,-0.060076,-0.004206,0.003953,0.009428,0.028697,-0.523279,-0.062796,-1.162983,-259.953663,0.403014,68.034928
2.5163,0.060811,-0.014535,-0.060875,-0.004208,0.003948,0.009428,0.028697,-0.523279,-0.062796,-1.162983,-259.953663,0.403014,68.034928
2.5361,0.060179,-0.014536,-0.06223,-0.00421,0.003943,0.009429,0.029618,-0.523414,-0.060481,-1.162507,-259.957898,0.404216,68.0331
2.5559,0.060049,-0.014325,-0.063323,-0.004211,0.00394,0.009429,0.029126,-0.523449,-0.061151,-1.162507,-259.957898,0.404216,68.0331
2.576,0.059952,-0.013601,-0.06248,-0.004212,0.003938,0.009428,0.027651,-0.523169,-0.063024,-1.161378,-259.962127,0.407144,68.031266
2.596,0.06024,-0.013692,-0.061812,-0.004217,0.003925,0.00943,0.028061,-0.52265,-0.062513,-1.161378,-259.962127,0.407144,68.031266
2.616,0.060087,-0.013791,-0.062215,-0.004221,0.003915,0.009431,0.028061,-0.52265,-0.062513,-1.161378,-259.962127,0.407144,68.031266
2.6361,0.059237,-0.013852,-0.060691,-0.004224,0.003907,0.009432,0.028212,-0.522629,-0.06182,-1.160986,-259.966356,0.407982,68.029431
2.6563,0.059776,-0.013811,-0.060783,-0.004226,0.003901,0.009432,0.028231,-0.522725,-0.061313,-1.160986,-259.966356,0.407982,68.029431
2.6761,0.059223,-0.013839,-0.061141,-0.004228,0.003896,0.009432,0.028669,-0.522737,-0.060484,-1.158867,-259.97058,0.413604,68.027583
2.6962,0.059249,-0.013279,-0.061518,-0.004227,0.003898,0.00943,0.028106,-0.522867,-0.061071,-1.158867,-259.97058,0.413604,68.027583
2.716,0.058524,-0.013311,-0.059897,-0.004227,0.0039,0.009429,0.028106,-0.522867,-0.061071,-1.158867,-259.97058,0.413604,68.027583
2.736,0.058693,-0.013187,-0.060007,-0.004226,0.003901,0.009428,0.027829,-0.522223,-0.059504,-1.158092,-259.974789,0.415322,68.025738
2.7563,0.058733,-0.013254,-0.059999,-0.004231,0.003887,0.00943,0.027923,-0.522222,-0.059663,-1.158092,-259.974789,0.415322,68.025738
2.7762,0.058273,-0.013168,-0.058154,-0.004236,0.003875,0.009432,0.028025,-0.522204,-0.059699,-1.158371,-259.979006,0.413941,68.023892
2.7959,0.058055,-0.013054,-0.059767,-0.004241,0.00386,0.009433,0.02857,-0.52229,-0.058278,-1.158371,-259.979006,0.413941,68.023892
2.816,0.057896,-0.012957,-0.058579,-0.004246,0.003848,0.009434,0.02857,-0.52229,-0.058278,-1.158371,-259.979006,0.413941,68.023892
2.8361,0.057989,-0.01318,-0.058443,-0.00425,0.003838,0.009435,0.02787,-0.521911,-0.058184,-1.156608,-259.983215,0.418747,68.022038
2.8566,0.057957,-0.012551,-0.059742,-0.004253,0.00383,0.009435,0.027986,-0.522054,-0.058245,-1.156608,-259.983215,0.418747,68.022038
2.8762,0.057427,-0.012782,-0.057058,-0.004255,0.003823,0.009434,0.027378,-0.521511,-0.059442,-1.154025,-259.987411,0.425274,68.020173
2.8965,0.057115,-0.012568,-0.057482,-0.00426,0.003811,0.009435,0.02825,-0.521906,-0.057257,-1.154025,-259.987411,0.425274,68.020173
2.9161,0.057459,-0.012755,-0.059007,-0.004264,0.0038,0.009436,0.02825,-0.521906,-0.057257,-1.154025,-259.987411,0.425274,68.020173
2.9367,0.05683,-0.012452,-0.056558,-0.004267,0.003792,0.009436,0.027214,-0.521697,-0.058613,-1.152981,-259.991611,0.427532,68.018301
2.9563,0.056632,-0.012366,-0.057487,-0.004269,0.003786,0.009435,0.027518,-0.521652,-0.057723,-1.152981,-259.991611,0.427532,68.018301
2.9765,0.056256,-0.012432,-0.057529,-0.004271,0.003781,0.009434,0.027201,-0.521395,-0.057187,-1.150785,-259.995794,0.432696,68.016422
2.9966,0.056187,-0.012391,-0.057962,-0.00427,0.003783,0.009432,0.026949,-0.521565,-0.057485,-1.150785,-259.995794,0.432696,68.016422
3.0165,0.056571,-0.01249,-0.056372,-0.00427,0.003784,0.009431,0.026949,-0.521565,-0.057485,-1.150785,-259.995794,0.432696,68.016422
3.0362,0.056135,-0.011924,-0.055714,-0.00427,0.003785,0.00943,0.027666,-0.521511,-0.055977,-1.150006,-259.999971,0.434201,68.014541
3.0568,0.056376,-0.012365,-0.05598,-0.004275,0.00377,0.009432,0.027675,-0.521339,-0.055826,-1.150006,-259.999971,0.434201,68.014541
3.0761,0.055482,-0.012108,-0.057246,-0.004279,0.003758,0.009433,0.027711,-0.521437,-0.055676,-1.150121,-260.004152,0.433122,68.01266
3.096,0.055499,-0.011716,-0.057256,-0.004278,0.003762,0.009431,0.026426,-0.521281,-0.057085,-1.150121,-260.004152,0.433122,68.01266
3.1163,0.055516,-0.011806,-0.056085,-0.004277,0.003765,0.009429,0.026426,-0.521281,-0.057085,-1.150121,-260.004152,0.433122,68.01266
3.1363,0.055227,-0.011728,-0.055812,-0.004276,0.003768,0.009428,0.026757,-0.520836,-0.055689,-1.148324,-260.008332,0.437834,68.010768
3.1563,0.05477,-0.011448,-0.055778,-0.004281,0.003753,0.009431,0.026746,-0.520857,-0.055694,-1.148324,-260.008332,0.437834,68.010768
3.1763,0.054833,-0.011353,-0.056913,-0.004285,0.003741,0.009432,0.026209,-0.520527,-0.055477,-1.148887,-260.01251,0.435662,68.00888
3.1964,0.054478,-0.011225,-0.055114,-0.004289,0.00373,0.009433,0.02585,-0.520521,-0.056776,-1.148887,-260.01251,0.435662,68.00888
3.217,0.054531,-0.011255,-0.055649,-0.004292,0.003722,0.009433,0.02585,-0.520521,-0.056776,-1.148887,-260.01251,0.435662,68.00888
3.2363,0.054089,-0.011168,-0.054294,-0.004294,0.003715,0.009433,0.025995,-0.5203,-0.055255,-1.147088,-260.016678,0.44049,68.006986
3.2561,0.054391,-0.01096,-0.05613,-0.004299,0.003701,0.009435,0.026147,-0.520329,-0.054814,-1.147088,-260.016678,0.44049,68.006986
3.2763,0.053624,-0.010643,-0.053473,-0.004303,0.003689,0.009435,0.02565,-0.520031,-0.05583,-1.145342,-260.020854,0.444691,68.005077
3.2965,0.053557,-0.010628,-0.05204,-0.004311,0.003664,0.009438,0.026305,-0.519917,-0.053639,-1.145342,-260.020854,0.444691,68.005077
3.3165,0.053788,-0.010991,-0.053023,-0.004318,0.003643,0.00944,0.026305,-0.519917,-0.053639,-1.145342,-260.020854,0.444691,68.005077
3.3363,0.05322,-0.010838,-0.055079,-0.004324,0.003626,0.009441,0.026588,-0.520112,-0.05263,-1.143561,-260.024983,0.449136,68.003177
3.3566,0.053081,-0.010422,-0.054493,-0.004325,0.003622,0.009439,0.025982,-0.520074,-0.05358,-1.143561,-260.024983,0.449136,68.003177
3.376,0.052715,-0.010615,-0.053789,-0.004327,0.003618,0.009438,0.025173,-0.519542,-0.054192,-1.139366,-260.029124,0.459654,68.001245
3.3961,0.053042,-0.010452,-0.05411,-0.004327,0.003617,0.009436,0.025278,-0.519841,-0.05381,-1.139366,-260.029124,0.459654,68.001245
3.4159,0.052675,-0.010865,-0.053755,-0.004328,0.003616,0.009435,0.025278,-0.519841,-0.05381,-1.139366,-260.029124,0.459654,68.001245
3.4371,0.052396,-0.010303,-0.052961,-0.004328,0.003614,0.009433,0.025102,-0.519968,-0.053362,-1.138733,-260.033243,0.460419,67.99932
3.4565,0.052636,-0.010132,-0.052391,-0.004328,0.003614,0.009432,0.025198,-0.519799,-0.053158,-1.138733,-260.033243,0.460419,67.99932
3.4763,0.05197,-0.009896,-0.052081,-0.004329,0.003613,0.009431,0.025797,-0.51931,-0.05209,-1.138325,-260.037373,0.460508,67.997387
3.4965,0.051993,-0.010129,-0.051434,-0.004336,0.003589,0.009435,0.025452,-0.519208,-0.052064,-1.138325,-260.037373,0.460508,67.997387
3.5165,0.051833,-0.010097,-0.052139,-0.004343,0.003569,0.009437,0.025452,-0.519208,-0.052064,-1.138325,-260.037373,0.460508,67.997387
3.5365,0.051286,-0.009664,-0.051924,-0.004348,0.003552,0.009439,0.025081,-0.519243,-0.051744,-1.138184,-260.041504,0.46043,67.995455
3.5563,0.051727,-0.010129,-0.051091,-0.004351,0.003542,0.009438,0.024954,-0.519117,-0.051771,-1.138184,-260.041504,0.46043,67.995455
3.5758,0.051067,-0.009798,-0.051583,-0.004354,0.003534,0.009438,0.02555,-0.519344,-0.05079,-1.134178,-260.045608,0.47071,67.993507
3.5963,0.050872,-0.010019,-0.051523,-0.004355,0.00353,0.009437,0.024834,-0.519134,-0.051496,-1.134178,-260.045608,0.47071,67.993507
3.6165,0.050926,-0.009839,-0.050328,-0.004356,0.003527,0.009436,0.024834,-0.519134,-0.051496,-1.134178,-260.045608,0.47071,67.993507
3.6368,0.050962,-0.008988,-0.051481,-0.004357,0.003524,0.009435,0.025095,-0.519037,-0.049932,-1.132907,-260.049724,0.473378,67.991546
3.6564,0.050665,-0.00912,-0.04988,-0.004363,0.003506,0.009437,0.024921,-0.518722,-0.050519,-1.132907,-260.049724,0.473378,67.991546
3.6763,0.050156,-0.009048,-0.048916,-0.004367,0.003491,0.009438,0.025103,-0.518366,-0.04958,-1.132089,-260.053826,0.474554,67.989587
3.6964,0.050326,-0.009577,-0.050787,-0.004375,0.003465,0.009441,0.025203,-0.518427,-0.048957,-1.132089,-260.053826,0.474554,67.989587
3.7165,0.050439,-0.009454,-0.050249,-0.004381,0.003445,0.009442,0.025203,-0.518427,-0.048957,-1.132089,-260.053826,0.474554,67.989587
3.7368,0.049772,-0.009185,-0.050678,-0.004386,0.003427,0.009443,0.024648,-0.518655,-0.049855,-1.12991,-260.057928,0.479913,67.987614
3.7572,0.049494,-0.008669,-0.051312,-0.004386,0.00343,0.00944,0.024336,-0.518586,-0.050146,-1.12991,-260.057928,0.479913,67.987614
3.7763,0.048954,-0.009121,-0.048354,-0.004385,0.003431,0.009437,0.023202,-0.517881,-0.051011,-1.125679,-260.061976,0.490099,67.985638
3.7962,0.049666,-0.009168,-0.048984,-0.004385,0.003432,0.009436,0.024196,-0.518461,-0.04858,-1.125679,-260.061976,0.490099,67.985638
3.8161,0.049305,-0.008971,-0.050136,-0.004385,0.003432,0.009434,0.024196,-0.518461,-0.04858,-1.125679,-260.061976,0.490099,67.985638
3.8363,0.048623,-0.008414,-0.047598,-0.004385,0.003432,0.009433,0.02357,-0.518178,-0.049741,-1.125797,-260.066075,0.488844,67.98364
3.8563,0.048935,-0.009001,-0.050997,-0.004389,0.003418,0.009434,0.023881,-0.518016,-0.048791,-1.125797,-260.066075,0.488844,67.98364
3.8762,0.048483,-0.008952,-0.050191,-0.004392,0.003407,0.009435,0.022805,-0.518223,-0.050699,-1.125691,-260.070124,0.48826,67.981666
3.8966,0.048264,-0.008248,-0.048528,-0.004388,0.003422,0.009431,0.022881,-0.518296,-0.050221,-1.125691,-260.070124,0.48826,67.981666
3.9162,0.048099,-0.008649,-0.0494,-0.004384,0.003435,0.009427,0.022881,-0.518296,-0.050221,-1.125691,-260.070124,0.48826,67.981666
3.9366,0.047825,-0.008543,-0.048525,-0.004381,0.003445,0.009425,0.022738,-0.517875,-0.049005,-1.124072,-260.074191,0.492218,67.979672
3.9563,0.047515,-0.008445,-0.047248,-0.004383,0.003438,0.009427,0.02286,-0.517886,-0.048764,-1.124072,-260.074191,0.492218,67.979672
3.9759,0.047592,-0.008187,-0.046906,-0.004384,0.003432,0.009428,0.023294,-0.517759,-0.046948,-1.126461,-260.078264,0.485543,67.977693
3.9966,0.047446,-0.008037,-0.046646,-0.004391,0.003408,0.009432,0.023637,-0.517632,-0.046895,-1.126461,-260.078264,0.485543,67.977693
4.0166,0.047373,-0.008364,-0.048346,-0.004397,0.003389,0.009435,0.023637,-0.517632,-0.046895,-1.126461,-260.078264,0.485543,67.977693
4.036,0.047131,-0.007749,-0.046628,-0.004401,0.003372,0.009436,0.02255,-0.517616,-0.047951,-1.125688,-260.082337,0.48769,67.975708
4.0561,0.046917,-0.007711,-0.049,-0.004405,0.003361,0.009437,0.022859,-0.517427,-0.047368,-1.125688,-260.082337,0.48769,67.975708
4.0761,0.046891,-0.007517,-0.047603,-0.004407,0.003351,0.009437,0.021803,-0.516985,-0.048699,-1.121837,-260.086385,0.497603,67.973708
4.0961,0.046428,-0.007654,-0.045797,-0.004414,0.003326,0.009439,0.022543,-0.516938,-0.047685,-1.121837,-260.086385,0.497603,67.973708
4.1164,0.046783,-0.007738,-0.046904,-0.004419,0.003305,0.009441,0.022543,-0.516938,-0.047685,-1.121837,-260.086385,0.497603,67.973708
4.1363,0.045959,-0.007571,-0.047984,-0.004424,0.003288,0.009442,0.022693,-0.517029,-0.04651,-1.120409,-260.090434,0.50082,67.971699
4.1561,0.045978,-0.007745,-0.044076,-0.004425,0.003283,0.00944,0.022183,-0.516993,-0.047067,-1.120409,-260.090434,0.50082,67.971699
4.1759,0.045823,-0.007484,-0.043917,-0.004426,0.003278,0.009439,0.023371,-0.517139,-0.043775,-1.116342,-260.094458,0.510633,67.969674
4.1964,0.045838,-0.007174,-0.045526,-0.004431,0.003261,0.00944,0.02342,-0.517,-0.043889,-1.116342,-260.094458,0.510633,67.969674
4.2168,0.045524,-0.007676,-0.04649,-0.004435,0.003247,0.00944,0.02342,-0.517,-0.043889,-1.116342,-260.094458,0.510633,67.969674
4.2366,0.045316,-0.007108,-0.046123,-0.004438,0.003236,0.00944,0.021643,-0.516979,-0.046094,-1.115565,-260.098484,0.511838,67.967644
4.2562,0.045059,-0.007255,-0.045154,-0.004437,0.003239,0.009437,0.021687,-0.516796,-0.04606,-1.115565,-260.098484,0.511838,67.967644
4.2763,0.044731,-0.006694,-0.044499,-0.004436,0.003241,0.009435,0.021902,-0.516625,-0.044853,-1.112713,-260.102496,0.518062,67.965602
4.2968,0.044743,-0.006998,-0.045243,-0.004443,0.003214,0.009438,0.022024,-0.516224,-0.044516,-1.112713,-260.102496,0.518062,67.965602
4.3167,0.044788,-0.006633,-0.044899,-0.004449,0.003191,0.00944,0.022024,-0.516224,-0.044516,-1.112713,-260.102496,0.518062,67.965602
4.3365,0.044191,-0.006608,-0.044922,-0.004453,0.003173,0.009442,0.021717,-0.515975,-0.044504,-1.112974,-260.106511,0.51677,67.96356
4.3562,0.044587,-0.006621,-0.042631,-0.004458,0.003154,0.009442,0.021522,-0.516007,-0.044628,-1.112974,-260.106511,0.51677,67.96356
4.3763,0.044144,-0.006635,-0.04242,-0.004461,0.003139,0.009443,0.022714,-0.516051,-0.042331,-1.108617,-260.110498,0.527391,67.961503
4.3963,0.043929,-0.006366,-0.04238,-0.004465,0.003123,0.009443,0.022527,-0.51616,-0.042396,-1.108617,-260.110498,0.527391,67.961503
4.4162,0.043495,-0.006603,-0.042423,-0.004469,0.00311,0.009443,0.022527,-0.51616,-0.042396,-1.108617,-260.110498,0.527391,67.961503
4.4361,0.04352,-0.006151,-0.042389,-0.004471,0.003099,0.009442,0.021684,-0.516005,-0.042028,-1.106398,-260.11448,0.532413,67.959433
4.4565,0.043476,-0.006883,-0.043724,-0.004474,0.003086,0.009442,0.021754,-0.515862,-0.042129,-1.106398,-260.11448,0.532413,67.959433
4.4762,0.042933,-0.00615,-0.044754,-0.004477,0.003076,0.009442,0.021046,-0.516291,-0.043423,-1.103675,-260.118449,0.538008,67.957352
4.4965,0.042782,-0.006537,-0.042469,-0.004476,0.003078,0.009439,0.020192,-0.515692,-0.04462,-1.103675,-260.118449,0.538008,67.957352
4.5163,0.042739,-0.006378,-0.042457,-0.004475,0.003079,0.009436,0.020192,-0.515692,-0.04462,-1.103675,-260.118449,0.538008,67.957352
4.5366,0.042269,-0.006214,-0.042787,-0.004474,0.003081,0.009435,0.02091,-0.515782,-0.042062,-1.10214,-260.122413,0.541165,67.955263
4.5564,0.04266,-0.006144,-0.043981,-0.004474,0.00308,0.009434,0.020704,-0.515752,-0.042311,-1.10214,-260.122413,0.541165,67.955263
4.5764,0.04222,-0.005297,-0.041086,-0.004474,0.003079,0.009433,0.020099,-0.515547,-0.043681,-1.102387,-260.126377,0.539937,67.953177
4.5966,0.042199,-0.006306,-0.042877,-0.004484,0.003032,0.00944,0.021161,-0.514922,-0.041301,-1.102387,-260.126377,0.539937,67.953177
4.6168,0.042034,-0.005977,-0.043098,-0.004493,0.002994,0.009445,0.021161,-0.514922,-0.041301,-1.102387,-260.126377,0.539937,67.953177
4.6364,0.041558,-0.005846,-0.042472,-0.004499,0.002963,0.009448,0.019878,-0.515367,-0.042703,-1.102265,-260.13034,0.539954,67.95109
4.6562,0.041426,-0.005413,-0.042224,-0.004496,0.002975,0.009443,0.019868,-0.515359,-0.042565,-1.102265,-260.13034,0.539954,67.95109
4.6762,0.041093,-0.005656,-0.040974,-0.004494,0.002985,0.009439,0.01976,-0.514858,-0.041924,-1.095062,-260.134246,0.557871,67.948981
4.6965,0.041294,-0.005521,-0.042086,-0.004494,0.002983,0.009437,0.020155,-0.51519,-0.041044,-1.095062,-260.134246,0.557871,67.948981
4.7167,0.040861,-0.005814,-0.041157,-0.004495,0.00298,0.009436,0.020155,-0.51519,-0.041044,-1.095062,-260.134246,0.557871,67.948981
4.7369,0.040629,-0.00545,-0.039925,-0.004495,0.002978,0.009435,0.019694,-0.515249,-0.040761,-1.096345,-260.138184,0.55386,67.946866
4.7565,0.040779,-0.005606,-0.041477,-0.004495,0.002979,0.009434,0.019909,-0.51515,-0.040374,-1.096345,-260.138184,0.55386,67.946866
4.7765,0.040345,-0.0051,-0.040445,-0.004495,0.002979,0.009433,0.019492,-0.515067,-0.041177,-1.095774,-260.142118,0.554588,67.944749
4.7965,0.040316,-0.005348,-0.042099,-0.004499,0.002958,0.009436,0.019697,-0.514711,-0.040493,-1.095774,-260.142118,0.554588,67.944749
4.8166,0.04045,-0.005137,-0.039837,-0.004503,0.002942,0.009438,0.019697,-0.514711,-0.040493,-1.095774,-260.142118,0.554588,67.944749
4.8365,0.039595,-0.004694,-0.041718,-0.004505,0.002928,0.009439,0.019955,-0.5146,-0.039443,-1.095781,-260.146042,0.554285,67.942639
4.8564,0.039687,-0.005085,-0.039051,-0.004509,0.002908,0.009441,0.019275,-0.514444,-0.040317,-1.095781,-260.146042,0.554285,67.942639
4.8767,0.03954,-0.005057,-0.04042,-0.004512,0.002891,0.009442,0.019637,-0.514598,-0.038751,-1.092624,-260.149965,0.561941,67.940506
4.8963,0.039078,-0.004874,-0.038722,-0.004512,0.002893,0.00944,0.018984,-0.514632,-0.040264,-1.092624,-260.149965,0.561941,67.940506
4.9163,0.039458,-0.004896,-0.040002,-0.004511,0.002894,0.009438,0.018984,-0.514632,-0.040264,-1.092624,-260.149965,0.561941,67.940506
4.9364,0.039081,-0.004543,-0.038978,-0.004511,0.002895,0.009436,0.018879,-0.51436,-0.039608,-1.090364,-260.153858,0.567312,67.938373
4.9563,0.038896,-0.004983,-0.038847,-0.004514,0.002875,0.009439,0.018992,-0.514262,-0.039306,-1.090364,-260.153858,0.567312,67.938373
4.9762,0.038709,-0.004513,-0.037073,-0.004517,0.002859,0.00944,0.018949,-0.5145,-0.038545,-1.090487,-260.157763,0.566437,67.936234
4.9961,0.038551,-0.004543,-0.036447,-0.004522,0.002836,0.009443,0.019721,-0.514188,-0.037192,-1.090487,-260.157763,0.566437,67.936234
5.0164,0.038321,-0.004738,-0.037654,-0.004526,0.002817,0.009444,0.019721,-0.514188,-0.037192,-1.090487,-260.157763,0.566437,67.936234
5.0363,0.038024,-0.004418,-0.038564,-0.004529,0.002801,0.009445,0.018938,-0.51425,-0.037259,-1.08832,-260.161661,0.571665,67.934083
5.0573,0.037923,-0.004641,-0.036828,-0.004529,0.002798,0.009443,0.01868,-0.514149,-0.03775,-1.08832,-260.161661,0.571665,67.934083
5.0767,0.037487,-0.004646,-0.037583,-0.004529,0.002796,0.009441,0.019002,-0.514199,-0.036523,-1.084593,-260.165536,0.580052,67.931919
5.0968,0.037209,-0.004604,-0.036531,-0.004527,0.002806,0.009438,0.018379,-0.514273,-0.03747,-1.084593,-260.165536,0.580052,67.931919
5.1165,0.037761,-0.004327,-0.036531,-0.004525,0.002814,0.009435,0.018379,-0.514273,-0.03747,-1.084593,-260.165536,0.580052,67.931919
5.1365,0.037255,-0.004073,-0.035575,-0.004523,0.00282,0.009433,0.01895,-0.513863,-0.036137,-1.084243,-260.169408,0.580456,67.929754
5.1568,0.037171,-0.004314,-0.035923,-0.004529,0.002792,0.009438,0.018997,-0.513802,-0.035859,-1.084243,-260.169408,0.580456,67.929754
5.1763,0.036549,-0.004257,-0.036064,-0.004533,0.002769,0.009441,0.018714,-0.513891,-0.035623,-1.085725,-260.173289,0.576513,67.927595
5.1966,0.036511,-0.003613,-0.035772,-0.004533,0.002767,0.00944,0.0182,-0.513917,-0.036012,-1.085725,-260.173289,0.576513,67.927595
5.2168,0.036653,-0.003796,-0.038276,-0.004533,0.002765,0.009439,0.0182,-0.513917,-0.036012,-1.085725,-260.173289,0.576513,67.927595
5.2365,0.03575,-0.003957,-0.037674,-0.004533,0.002764,0.009438,0.016953,-0.5133,-0.037882,-1.082593,-260.177142,0.584199,67.925429
5.2565,0.036195,-0.00374,-0.036244,-0.004535,0.002747,0.00944,0.016764,-0.513406,-0.037752,-1.082593,-260.177142,0.584199,67.925429
5.2762,0.035454,-0.003612,-0.033774,-0.004536,0.002734,0.009441,0.017573,-0.513311,-0.035943,-1.082241,-260.181013,0.584743,67.92325
5.2969,0.035627,-0.003544,-0.036607,-0.004541,0.002705,0.009445,0.01817,-0.513316,-0.033943,-1.082241,-260.181013,0.584743,67.92325
5.3165,0.035663,-0.00368,-0.037098,-0.004545,0.002681,0.009447,0.01817,-0.513316,-0.033943,-1.082241,-260.181013,0.584743,67.92325
5.3367,0.035275,-0.003684,-0.034919,-0.004549,0.002661,0.009449,0.016562,-0.513207,-0.036703,-1.080603,-260.184857,0.58921,67.921073
5.3567,0.035304,-0.003238,-0.034979,-0.004549,0.002655,0.009447,0.016909,-0.513261,-0.035935,-1.080603,-260.184857,0.58921,67.921073
5.3766,0.034653,-0.002946,-0.034085,-0.004549,0.002649,0.009446,0.017326,-0.512836,-0.034677,-1.076077,-260.188682,0.599689,67.918873
5.3965,0.0345,-0.003149,-0.036329,-0.004556,0.002603,0.009452,0.01727,-0.512663,-0.034124,-1.076077,-260.188682,0.599689,67.918873
5.4168,0.034405,-0.003363,-0.036443,-0.004561,0.002566,0.009456,0.01727,-0.512663,-0.034124,-1.076077,-260.188682,0.599689,67.918873
5.4365,0.034517,-0.003743,-0.03247,-0.004565,0.002536,0.009458,0.015637,-0.512906,-0.036048,-1.075394,-260.192518,0.601133,67.916662
5.4566,0.034202,-0.003157,-0.033883,-0.004562,0.00255,0.009452,0.016576,-0.513127,-0.034524,-1.075394,-260.192518,0.601133,67.916662
5.4759,0.033948,-0.002884,-0.03434,-0.004559,0.002562,0.009447,0.016783,-0.512779,-0.033584,-1.068573,-260.196284,0.617343,67.914439
5.4963,0.033723,-0.002713,-0.034255,-0.004563,0.002536,0.00945,0.016462,-0.512597,-0.034256,-1.068573,-260.196284,0.617343,67.914439
5.5162,0.03375,-0.003093,-0.034448,-0.004565,0.002516,0.009452,0.016462,-0.512597,-0.034256,-1.068573,-260.196284,0.617343,67.914439
5.5364,0.03364,-0.003038,-0.032167,-0.004567,0.002499,0.009452,0.015997,-0.512676,-0.03405,-1.070092,-260.200104,0.613153,67.912196
5.5566,0.033272,-0.002945,-0.030461,-0.004567,0.002494,0.009451,0.016491,-0.512704,-0.033223,-1.070092,-260.200104,0.613153,67.912196
5.5762,0.032702,-0.00273,-0.032217,-0.004568,0.00249,0.00945,0.017599,-0.512626,-0.030163,-1.066333,-260.203875,0.621968,67.909954
5.5963,0.03295,-0.002873,-0.031494,-0.00457,0.002473,0.009451,0.016372,-0.512474,-0.032042,-1.066333,-260.203875,0.621968,67.909954
5.6165,0.032877,-0.003038,-0.032949,-0.004571,0.002459,0.009451,0.016372,-0.512474,-0.032042,-1.066333,-260.203875,0.621968,67.909954
5.6363,0.032365,-0.002732,-0.031988,-0.004572,0.002448,0.009451,0.015889,-0.512652,-0.032556,-1.065712,-260.207632,0.623017,67.907715
5.6566,0.032324,-0.002655,-0.03204,-0.004571,0.002451,0.009449,0.015934,-0.512566,-0.03228,-1.065712,-260.207632,0.623017,67.907715
5.6758,0.0319,-0.002928,-0.031914,-0.00457,0.002453,0.009447,0.015843,-0.512311,-0.031738,-1.063196,-260.211397,0.628637,67.905453
5.6964,0.032248,-0.00243,-0.031722,-0.004568,0.002463,0.009444,0.015639,-0.512633,-0.031884,-1.063196,-260.211397,0.628637,67.905453
5.7166,0.031827,-0.002466,-0.030595,-0.004566,0.002472,0.009442,0.015639,-0.512633,-0.031884,-1.063196,-260.211397,0.628637,67.905453
5.7367,0.031796,-0.00252,-0.030955,-0.004565,0.002479,0.00944,0.016039,-0.512119,-0.030201,-1.063472,-260.215161,0.62786,67.903193
5.7564,0.031783,-0.002521,-0.031161,-0.004569,0.002448,0.009446,0.016006,-0.512171,-0.030465,-1.063472,-260.215161,0.62786,67.903193
5.7763,0.031314,-0.00228,-0.032324,-0.004572,0.002423,0.00945,0.01575,-0.512191,-0.030861,-1.065157,-260.218924,0.624103,67.900947
5.7965,0.03074,-0.002534,-0.031063,-0.004573,0.002401,0.009452,0.014908,-0.512025,-0.032174,-1.065157,-260.218924,0.624103,67.900947
5.8165,0.030772,-0.002746,-0.031376,-0.004574,0.002384,0.009454,0.014908,-0.512025,-0.032174,-1.065157,-260.218924,0.624103,67.900947
5.8367,0.030077,-0.002144,-0.030339,-0.004575,0.00237,0.009455,0.014585,-0.512388,-0.030982,-1.061888,-260.222678,0.632122,67.89868
5.8567,0.030481,-0.002112,-0.031497,-0.004573,0.002377,0.009451,0.014572,-0.512179,-0.030672,-1.061888,-260.222678,0.632122,67.89868
5.8769,0.029972,-0.001686,-0.028998,-0.004571,0.002382,0.009449,0.014277,-0.51178,-0.031197,-1.058969,-260.226412,0.639743,67.8964
5.8965,0.030047,-0.00226,-0.030135,-0.004577,0.002328,0.009458,0.015101,-0.511494,-0.02917,-1.058969,-260.226412,0.639743,67.8964
5.9161,0.030198,-0.001943,-0.031208,-0.004581,0.002285,0.009464,0.015101,-0.511494,-0.02917,-1.058969,-260.226412,0.639743,67.8964
5.9364,0.029452,-0.001883,-0.028585,-0.004584,0.00225,0.009467,0.014097,-0.51159,-0.030814,-1.059836,-260.230144,0.638004,67.894128
5.9567,0.029824,-0.001638,-0.029583,-0.004585,0.002236,0.009467,0.014393,-0.511612,-0.029858,-1.059836,-260.230144,0.638004,67.894128
5.9762,0.028779,-0.001832,-0.029562,-0.004585,0.002226,0.009466,0.014595,-0.51134,-0.029283,-1.052128,-260.233819,0.656528,67.891828
5.9965,0.029337,-0.00184,-0.027132,-0.004583,0.002221,0.009464,0.013778,-0.511581,-0.029521,-1.052128,-260.233819,0.656528,67.891828
6.0161,0.029227,-0.00149,-0.029195,-0.004582,0.002217,0.009462,0.013778,-0.511581,-0.029521,-1.052128,-260.233819,0.656528,67.891828
6.0364,0.02867,-0.001321,-0.029112,-0.004581,0.002214,0.009461,0.01415,-0.511174,-0.028798,-1.050763,-260.237509,0.659654,67.889508
6.0563,0.028716,-0.001526,-0.028718,-0.004584,0.002171,0.009467,0.013996,-0.511134,-0.02888,-1.050763,-260.237509,0.659654,67.889508
6.0758,0.0284,-0.001875,-0.027372,-0.004586,0.002136,0.009471,0.013928,-0.511241,-0.028417,-1.050347,-260.241198,0.661319,67.887183
6.096,0.028061,-0.001197,-0.026266,-0.004584,0.002151,0.009465,0.014391,-0.511642,-0.027447,-1.050347,-260.241198,0.661319,67.887183
6.1162,0.028189,-0.001507,-0.028518,-0.004583,0.002162,0.009461,0.014391,-0.511642,-0.027447,-1.050347,-260.241198,0.661319,67.887183
6.1362,0.027855,-0.001645,-0.028318,-0.004582,0.002171,0.009459,0.013457,-0.511205,-0.028122,-1.045989,-260.244853,0.671959,67.884844
6.1563,0.028175,-0.001073,-0.028116,-0.004582,0.002156,0.00946,0.013418,-0.51129,-0.028156,-1.045989,-260.244853,0.671959,67.884844
6.1763,0.027285,-0.001424,-0.028802,-0.004581,0.002144,0.009462,0.013693,-0.510798,-0.027814,-1.047831,-260.248514,0.666721,67.882516
6.1963,0.027168,-0.00132,-0.0271,-0.00458,0.002129,0.009463,0.01269,-0.511172,-0.028697,-1.047831,-260.248514,0.666721,67.882516
6.2168,0.027281,-0.000884,-0.025345,-0.004578,0.002117,0.009464,0.01269,-0.511172,-0.028697,-1.047831,-260.248514,0.666721,67.882516
6.2364,0.026735,-0.000762,-0.026889,-0.004577,0.002108,0.009465,0.014167,-0.510626,-0.024949,-1.046509,-260.252179,0.670674,67.880175
6.256,0.026842,-0.000939,-0.028048,-0.004581,0.002044,0.009475,0.013673,-0.510595,-0.025704,-1.046509,-260.252179,0.670674,67.880175
6.2763,0.026363,-0.000923,-0.027111,-0.004585,0.001992,0.009482,0.012396,-0.510668,-0.027747,-1.045072,-260.255826,0.676282,67.877828
6.2963,0.026383,-0.000925,-0.025406,-0.004584,0.001967,0.009483,0.012519,-0.510726,-0.027151,-1.045072,-260.255826,0.676282,67.877828
6.3163,0.026251,-0.000837,-0.026781,-0.004583,0.001947,0.009484,0.012519,-0.510726,-0.027151,-1.045072,-260.255826,0.676282,67.877828
6.336,0.026114,-0.000895,-0.026391,-0.004582,0.001931,0.009484,0.012406,-0.510566,-0.026387,-1.038442,-260.259417,0.691903,67.875461
6.3562,0.025788,-0.000946,-0.025621,-0.004581,0.001908,0.009485,0.012486,-0.510618,-0.026343,-1.038442,-260.259417,0.691903,67.875461
6.3762,0.025264,-0.000886,-0.026609,-0.00458,0.00189,0.009485,0.012579,-0.510713,-0.02532,-1.035356,-260.263009,0.700278,67.873065
6.3963,0.02576,-0.000732,-0.026115,-0.004576,0.001889,0.009483,0.011764,-0.510703,-0.026482,-1.035356,-260.263009,0.700278,67.873065
6.4165,0.025476,-0.000981,-0.024234,-0.004573,0.001888,0.009481,0.011764,-0.510703,-0.026482,-1.035356,-260.263009,0.700278,67.873065
6.4361,0.025141,-0.00069,-0.025248,-0.00457,0.001887,0.009479,0.012928,-0.510748,-0.023837,-1.033237,-260.266581,0.705689,67.870662
6.456,0.025096,-0.000663,-0.024415,-0.004571,0.001878,0.00948,0.012638,-0.510649,-0.024365,-1.033237,-260.266581,0.705689,67.870662
6.4762,0.024223,1.8e-05,-0.025339,-0.004572,0.001871,0.00948,0.012502,-0.510447,-0.024114,-1.033817,-260.270159,0.70677,67.868255
6.496,0.024928,-0.000709,-0.023795,-0.00457,0.001784,0.009495,0.011398,-0.50987,-0.025218,-1.033817,-260.270159,0.70677,67.868255
6.5163,0.024697,-0.000276,-0.022344,-0.004568,0.001715,0.009505,0.011398,-0.50987,-0.025218,-1.033817,-260.270159,0.70677,67.868255
6.5369,0.024088,-0.000351,-0.023,-0.004566,0.001661,0.009512,0.013114,-0.510067,-0.021948,-1.032769,-260.273728,0.708573,67.865846
6.5567,0.02415,-0.000816,-0.024495,-0.004568,0.001648,0.00951,0.012782,-0.510118,-0.022333,-1.032769,-260.273728,0.708573,67.865846
6.5763,0.023044,-0.000455,-0.022952,-0.00457,0.001637,0.009507,0.011517,-0.510608,-0.024197,-1.022151,-260.277177,0.737562,67.863416
6.5963,0.023567,-0.000748,-0.023484,-0.004565,0.001655,0.0095,0.011348,-0.510343,-0.023044,-1.022151,-260.277177,0.737562,67.863416
6.6164,0.023351,-0.000508,-0.023868,-0.004562,0.001669,0.009495,0.011348,-0.510343,-0.023044,-1.022151,-260.277177,0.737562,67.863416
6.6365,0.023002,-0.000222,-0.022614,-0.004559,0.001681,0.009492,0.01099,-0.51029,-0.023471,-1.020195,-260.280676,0.739594,67.860937
6.6567,0.023008,-9e-06,-0.021606,-0.004556,0.001674,0.009492,0.011167,-0.510199,-0.023068,-1.020195,-260.280676,0.739594,67.860937
6.6763,0.022795,-2.9e-05,-0.023499,-0.004554,0.001668,0.009493,0.011847,-0.509834,-0.021306,-1.023302,-260.284174,0.734437,67.858484
6.6965,0.022477,-0.000154,-0.022604,-0.004551,0.001627,0.0095,0.010892,-0.509881,-0.0233,-1.023302,-260.284174,0.734437,67.858484
6.7165,0.022741,-0.000393,-0.022104,-0.004549,0.001594,0.009505,0.010892,-0.509881,-0.0233,-1.023302,-260.284174,0.734437,67.858484
6.7364,0.022015,-0.000232,-0.021794,-0.004546,0.001567,0.009508,0.01128,-0.510195,-0.021707,-1.023082,-260.287664,0.736542,67.856031
6.7563,0.022247,-0.000199,-0.020946,-0.004544,0.001581,0.009504,0.011105,-0.510152,-0.021697,-1.023082,-260.287664,0.736542,67.856031
6.7762,0.02151,-0.000253,-0.021097,-0.004543,0.001592,0.0095,0.011422,-0.510035,-0.020645,-1.018361,-260.291117,0.75055,67.853553
6.7963,0.02179,-3.5e-05,-0.021308,-0.00454,0.001599,0.009498,0.010804,-0.510127,-0.021042,-1.018361,-260.291117,0.75055,67.853553
6.8164,0.02148,-2.5e-05,-0.021035,-0.004538,0.001605,0.009496,0.010804,-0.510127,-0.021042,-1.018361,-260.291117,0.75055,67.853553
6.8364,0.021161,9.6e-05,-0.020985,-0.004537,0.00161,0.009494,0.010564,-0.509842,-0.020637,-1.019855,-260.294588,0.747435,67.851076
6.8563,0.020906,-4.3e-05,-0.020894,-0.004534,0.001576,0.009501,0.0105,-0.509813,-0.020733,-1.019855,-260.294588,0.747435,67.851076
6.8763,0.020916,0.000136,-0.021957,-0.004532,0.001549,0.009505,0.010107,-0.509878,-0.020592,-1.021353,-260.298067,0.745542,67.848603
6.896,0.02077,-0.000112,-0.020293,-0.004524,0.001515,0.009512,0.009745,-0.50975,-0.021823,-1.021353,-260.298067,0.745542,67.848603
6.9163,0.020711,7.1e-05,-0.020118,-0.004516,0.001488,0.009516,0.009745,-0.50975,-0.021823,-1.021353,-260.298067,0.745542,67.848603
6.9364,0.01998,0.000244,-0.019556,-0.00451,0.001468,0.009519,0.010264,-0.509757,-0.019721,-1.018529,-260.301513,0.75406,67.846123
6.956,0.020088,0.000508,-0.018495,-0.004508,0.001452,0.009518,0.010137,-0.509709,-0.019608,-1.018529,-260.301513,0.75406,67.846123
6.9762,0.019845,0.000365,-0.019377,-0.004507,0.001439,0.009516,0.010513,-0.509355,-0.018192,-1.016256,-260.304936,0.766934,67.84362
6.9964,0.019402,0.00041,-0.018708,-0.004504,0.001404,0.009518,0.010003,-0.509521,-0.01926,-1.016256,-260.304936,0.766934,67.84362
7.0161,0.019689,0.000639,-0.019766,-0.004502,0.001377,0.009519,0.010003,-0.509521,-0.01926,-1.016256,-260.304936,0.766934,67.84362
7.0363,0.019332,0.00064,-0.018866,-0.0045,0.001356,0.009519,0.009421,-0.509198,-0.019368,-1.014687,-260.308344,0.770372,67.841113
7.0567,0.019311,0.000343,-0.019646,-0.004492,0.001294,0.009527,0.009517,-0.509219,-0.01912,-1.014687,-260.308344,0.770372,67.841113
7.0761,0.018604,0.000664,-0.01941,-0.004485,0.001245,0.009533,0.00915,-0.509513,-0.019344,-1.010324,-260.311742,0.780727,67.83857
7.0964,0.018534,0.000709,-0.018163,-0.00447,0.001202,0.009539,0.008733,-0.509258,-0.019392,-1.010324,-260.311742,0.780727,67.83857
7.1161,0.019172,0.000681,-0.017191,-0.004456,0.001168,0.009544,0.008733,-0.509258,-0.019392,-1.010324,-260.311742,0.780727,67.83857
7.1363,0.018661,0.000805,-0.017509,-0.004444,0.001142,0.009546,0.010221,-0.509189,-0.016797,-1.005268,-260.315065,0.795488,67.836026
7.1564,0.018572,0.000303,-0.018418,-0.004449,0.001129,0.009532,0.01,-0.509153,-0.017039,-1.005268,-260.315065,0.795488,67.836026
7.1762,0.018051,0.000291,-0.017315,-0.004453,0.001118,0.009519,0.009039,-0.509572,-0.018116,-1.003334,-260.318351,0.812133,67.833459
7.196,0.01746,0.000303,-0.017708,-0.00445,0.001167,0.009501,0.009197,-0.509625,-0.017373,-1.003334,-260.318351,0.812133,67.833459
7.216,0.017914,0.00076,-0.01727,-0.004448,0.001206,0.009489,0.009197,-0.509625,-0.017373,-1.003334,-260.318351,0.812133,67.833459
7.2361,0.017216,0.000549,-0.014817,-0.004446,0.001236,0.00948,0.008921,-0.509114,-0.016872,-0.999774,-260.321646,0.811943,67.830871
7.256,0.017516,0.000411,-0.018413,-0.004444,0.001206,0.009467,0.009199,-0.509222,-0.015992,-0.999774,-260.321646,0.811943,67.830871
7.2763,0.017156,0.000701,-0.016926,-0.004443,0.001183,0.009455,0.007985,-0.509461,-0.018112,-1.006587,-260.324958,0.797362,67.828335
7.2963,0.017512,0.00089,-0.01556,-0.00443,0.001155,0.009463,0.008468,-0.509245,-0.017018,-1.006587,-260.324958,0.797362,67.828335
7.3167,0.017137,0.00067,-0.015494,-0.00442,0.001133,0.009469,0.008468,-0.509245,-0.017018,-1.006587,-260.324958,0.797362,67.828335
7.3365,0.016962,0.001133,-0.015171,-0.00441,0.001115,0.009473,0.00905,-0.509217,-0.015098,-1.002562,-260.328277,0.801914,67.825767
7.3566,0.01642,0.000879,-0.015499,-0.004411,0.001088,0.009445,0.009102,-0.50904,-0.015083,-1.002562,-260.328277,0.801914,67.825767
7.3762,0.016269,0.00079,-0.014736,-0.004413,0.001067,0.009422,0.008377,-0.509023,-0.0152,-1.002129,-260.331528,0.81399,67.823217
7.3963,0.016018,0.000588,-0.015068,-0.004409,0.001061,0.009393,0.008714,-0.509141,-0.014762,-1.002129,-260.331528,0.81399,67.823217
7.4163,0.015908,0.000961,-0.015418,-0.004407,0.001055,0.009369,0.008714,-0.509141,-0.014762,-1.002129,-260.331528,0.81399,67.823217
7.4359,0.015516,0.000899,-0.014402,-0.004404,0.001051,0.00935,0.007861,-0.508931,-0.015023,-0.996592,-260.334774,0.815594,67.820644
7.4567,0.015666,0.000508,-0.016275,-0.004387,0.001007,0.009345,0.007964,-0.508973,-0.014728,-0.996592,-260.334774,0.815594,67.820644
7.4759,0.015075,0.001042,-0.014151,-0.004372,0.000972,0.009339,0.007226,-0.509389,-0.015976,-0.993463,-260.338001,0.813555,67.81808
7.4967,0.015344,0.000895,-0.014117,-0.004355,0.00094,0.009322,0.007794,-0.508949,-0.0143,-0.993463,-260.338001,0.813555,67.81808
7.5166,0.015018,0.001262,-0.014288,-0.004341,0.000915,0.009308,0.007794,-0.508949,-0.0143,-0.993463,-260.338001,0.813555,67.81808
7.5361,0.01481,0.000977,-0.015858,-0.004329,0.000896,0.009296,0.007549,-0.508643,-0.013899,-0.991025,-260.341192,0.824875,67.815505
7.5564,0.014822,0.001337,-0.01322,-0.004297,0.000829,0.009309,0.007188,-0.508768,-0.014659,-0.991025,-260.341192,0.824875,67.815505
7.5763,0.013835,0.001298,-0.014286,-0.00427,0.000778,0.009318,0.007943,-0.508589,-0.012926,-0.988358,-260.34433,0.835035,67.812933
7.5965,0.014032,0.000889,-0.014484,-0.004222,0.0007,0.009315,0.006669,-0.508643,-0.014147,-0.988358,-260.34433,0.835035,67.812933
7.6163,0.014403,0.001136,-0.013508,-0.004181,0.00064,0.009312,0.006669,-0.508643,-0.014147,-0.988358,-260.34433,0.835035,67.812933
7.6364,0.013732,0.001134,-0.011532,-0.004148,0.000594,0.009308,0.007337,-0.508783,-0.01312,-0.987348,-260.347408,0.855224,67.810348
7.6565,0.01398,0.001437,-0.013284,-0.004154,0.000631,0.0092,0.007525,-0.508799,-0.012432,-0.987348,-260.347408,0.855224,67.810348
7.6764,0.013744,0.000896,-0.012108,-0.00416,0.000659,0.009117,0.007076,-0.508498,-0.012992,-0.987065,-260.350371,0.88712,67.807762
7.6963,0.013336,0.001358,-0.014502,-0.004167,0.000729,0.009025,0.007515,-0.509011,-0.012176,-0.987065,-260.350371,0.88712,67.807762
7.7163,0.013332,0.000749,-0.013451,-0.004175,0.000782,0.008955,0.007515,-0.509011,-0.012176,-0.987065,-260.350371,0.88712,67.807762
7.7359,0.012645,0.001193,-0.011298,-0.004182,0.000821,0.008902,0.0063,-0.509176,-0.013072,-0.981816,-260.353348,0.867865,67.805205
7.756,0.013037,0.001045,-0.012179,-0.004149,0.000826,0.008877,0.006517,-0.509009,-0.012306,-0.981816,-260.353348,0.867865,67.805205
7.7763,0.012283,0.001269,-0.012348,-0.004123,0.000829,0.008859,0.006695,-0.50889,-0.0119,-0.9817,-260.356306,0.834602,67.802757
7.7962,0.012449,0.001127,-0.010861,-0.004064,0.000749,0.008858,0.006042,-0.508708,-0.012294,-0.9817,-260.356306,0.834602,67.802757
7.8162,0.012591,0.001245,-0.013729,-0.004016,0.000689,0.008857,0.006042,-0.508708,-0.012294,-0.9817,-260.356306,0.834602,67.802757
7.8362,0.011827,0.001792,-0.011216,-0.003976,0.000644,0.008856,0.005417,-0.50867,-0.013359,-0.986894,-260.359295,0.838107,67.800293
7.8563,0.011879,0.001422,-0.011923,-0.003907,0.000537,0.008874,0.005679,-0.508464,-0.01244,-0.986894,-260.359295,0.838107,67.800293
7.876,0.011474,0.001553,-0.010808,-0.00385,0.000456,0.008887,0.005675,-0.50852,-0.011647,-0.989548,-260.362128,0.875395,67.797866
7.8961,0.011687,0.00121,-0.011398,-0.003813,0.000423,0.008763,0.00593,-0.508426,-0.01087,-0.989548,-260.362128,0.875395,67.797866
7.9163,0.011613,0.001044,-0.011093,-0.003785,0.000397,0.008669,0.00593,-0.508426,-0.01087,-0.989548,-260.362128,0.875395,67.797866
7.9366,0.011394,0.001496,-0.011033,-0.003762,0.000375,0.008598,0.005799,-0.508904,-0.010729,-0.991334,-260.364881,0.911787,67.795403
7.9561,0.011256,0.001163,-0.010403,-0.00374,0.000419,0.008527,0.005767,-0.508729,-0.010809,-0.991334,-260.364881,0.911787,67.795403
7.976,0.010885,0.00126,-0.009164,-0.003723,0.000451,0.008475,0.005831,-0.508796,-0.010128,-0.98134,-260.367584,0.913665,67.792944
7.9961,0.011015,0.001239,-0.009785,-0.003721,0.000525,0.008226,0.006171,-0.508725,-0.009237,-0.98134,-260.367584,0.913665,67.792944
8.0163,0.010846,0.001615,-0.011945,-0.003723,0.000577,0.008045,0.006171,-0.508725,-0.009237,-0.98134,-260.367584,0.913665,67.792944
8.0361,0.010312,0.001501,-0.009862,-0.003727,0.000612,0.007914,0.004598,-0.508328,-0.011591,-0.986299,-260.370277,0.903407,67.790543
8.0564,0.010684,0.001552,-0.009552,-0.003612,0.000462,0.008021,0.004859,-0.508385,-0.010846,-0.986299,-260.370277,0.903407,67.790543
8.0762,0.009858,0.00123,-0.008245,-0.003519,0.000351,0.008105,0.0057,-0.508405,-0.009313,-0.970656,-260.372778,0.847489,67.788409
8.0962,0.009796,0.001445,-0.009943,-0.003511,0.000446,0.007806,0.005652,-0.508719,-0.008332,-0.970656,-260.372778,0.847489,67.788409
8.1162,0.010233,0.001071,-0.00885,-0.003507,0.000511,0.007593,0.005652,-0.508719,-0.008332,-0.970656,-260.372778,0.847489,67.788409
8.1366,0.009751,0.001669,-0.008273,-0.003508,0.000555,0.007441,0.005584,-0.508895,-0.008538,-0.984743,-260.375123,0.917556,67.786274
8.1563,0.009655,0.001552,-0.008607,-0.003501,0.000565,0.007346,0.005547,-0.508656,-0.008394,-0.984743,-260.375123,0.917556,67.786274
8.176,0.00937,0.001702,-0.008408,-0.003497,0.000569,0.007279,0.005162,-0.508412,-0.008388,-0.968302,-260.377413,0.849575,67.78431
8.197,0.009682,0.001273,-0.0091,-0.003436,0.000462,0.007242,0.005084,-0.508291,-0.008395,-0.968302,-260.377413,0.849575,67.78431
8.2161,0.009518,0.001689,-0.00926,-0.003388,0.00038,0.007215,0.005084,-0.508291,-0.008395,-0.968302,-260.377413,0.849575,67.78431
8.2364,0.008993,0.001545,-0.00878,-0.00335,0.000317,0.007196,0.00465,-0.508264,-0.008957,-0.96184,-260.379851,0.836797,67.782228
8.2563,0.009033,0.001566,-0.009792,-0.003262,0.00024,0.007246,0.004577,-0.508332,-0.008849,-0.96184,-260.379851,0.836797,67.782228
8.2764,0.008639,0.001362,-0.007684,-0.003192,0.000184,0.007285,0.003936,-0.508399,-0.009572,-0.952814,-260.382082,0.883118,67.780191
8.2963,0.008617,0.001709,-0.008039,-0.003144,0.000242,0.007135,0.004643,-0.508602,-0.007845,-0.952814,-260.382082,0.883118,67.780191
8.3165,0.008472,0.001655,-0.008051,-0.003106,0.000282,0.007029,0.004643,-0.508602,-0.007845,-0.952814,-260.382082,0.883118,67.780191
8.3362,0.008483,0.001442,-0.006894,-0.003078,0.000311,0.006955,0.004237,-0.50832,-0.007756,-0.967429,-260.384252,0.928329,67.778136
8.3565,0.008303,0.0015,-0.00654,-0.003026,0.00029,0.006814,0.004518,-0.508411,-0.007373,-0.967429,-260.384252,0.928329,67.778136
8.3766,0.008037,0.001891,-0.008624,-0.002987,0.000271,0.006714,0.00487,-0.508479,-0.006321,-0.976946,-260.386437,0.907286,67.776151
8.3966,0.008076,0.001694,-0.007577,-0.002834,0.000108,0.00681,0.003746,-0.508125,-0.008402,-0.976946,-260.386437,0.907286,67.776151
8.4165,0.007845,0.001529,-0.007096,-0.002713,-1e-05,0.006885,0.003746,-0.508125,-0.008402,-0.976946,-260.386437,0.907286,67.776151
8.4365,0.007889,0.00159,-0.007522,-0.002617,-9.5e-05,0.006942,0.004102,-0.508446,-0.006816,-0.971311,-260.388551,0.908331,67.774212
8.4562,0.00755,0.001627,-0.007651,-0.002592,-2.1e-05,0.006735,0.004067,-0.508424,-0.00707,-0.971311,-260.388551,0.908331,67.774212
8.4766,0.007379,0.001446,-0.006553,-0.002574,3e-05,0.006589,0.003581,-0.508358,-0.007481,-1.007554,-260.390079,0.983238,67.772634
8.4963,0.007261,0.001917,-0.005193,-0.002548,0.000103,0.006384,0.003992,-0.508526,-0.006629,-1.007554,-260.390079,0.983238,67.772634
8.5166,0.007488,0.001645,-0.006421,-0.002531,0.000153,0.00624,0.003992,-0.508526,-0.006629,-1.007554,-260.390079,0.983238,67.772634
8.5364,0.007111,0.001962,-0.007108,-0.002519,0.000187,0.00614,0.004105,-0.508343,-0.006146,-1.00526,-260.391993,0.998418,67.77074
8.5561,0.006807,0.001818,-0.007146,-0.002473,0.000122,0.006046,0.003842,-0.508214,-0.006504,-1.00526,-260.391993,0.998418,67.77074
8.5761,0.006706,0.00171,-0.006117,-0.002437,7.1e-05,0.00598,0.003085,-0.508163,-0.006956,-1.001483,-260.393807,0.955368,67.769046
8.5965,0.006902,0.001769,-0.006142,-0.002356,4e-05,0.005846,0.003537,-0.508269,-0.006183,-1.001483,-260.393807,0.955368,67.769046
8.6162,0.007083,0.001364,-0.005532,-0.002294,1.4e-05,0.005752,0.003537,-0.508269,-0.006183,-1.001483,-260.393807,0.955368,67.769046
8.6364,0.006661,0.001412,-0.00544,-0.002246,-7e-06,0.005687,0.004161,-0.508624,-0.005282,-0.991166,-260.395575,0.973125,67.767325
8.6561,0.006663,0.001627,-0.005829,-0.002295,0.000123,0.005424,0.004038,-0.508606,-0.005318,-0.991166,-260.395575,0.973125,67.767325
8.6759,0.006438,0.001511,-0.0058,-0.002337,0.000214,0.005244,0.00362,-0.508365,-0.00565,-0.995803,-260.397211,0.997742,67.765684
8.6961,0.006532,0.001574,-0.006804,-0.002282,0.000195,0.005227,0.003489,-0.50847,-0.005778,-0.995803,-260.397211,0.997742,67.765684
8.7159,0.006575,0.001722,-0.00429,-0.00224,0.00018,0.005216,0.003489,-0.50847,-0.005778,-0.995803,-260.397211,0.997742,67.765684
8.7363,0.006214,0.001365,-0.003532,-0.002207,0.000168,0.005211,0.004302,-0.508266,-0.004099,-0.970961,-260.398651,0.922787,67.764364
8.7563,0.006322,0.001398,-0.005892,-0.002287,0.00026,0.00464,0.004338,-0.508416,-0.003843,-0.970961,-260.398651,0.922787,67.764364
8.776,0.005635,0.00163,-0.005348,-0.002357,0.000315,0.004252,0.003247,-0.508587,-0.005728,-0.988311,-260.400241,0.938782,67.762884
8.796,0.005696,0.001523,-0.00511,-0.002193,0.0002,0.00439,0.002933,-0.508382,-0.005373,-0.988311,-260.400241,0.938782,67.762884
8.8161,0.00571,0.001704,-0.005679,-0.002064,0.000118,0.004493,0.002933,-0.508382,-0.005373,-0.988311,-260.400241,0.938782,67.762884
8.8362,0.005706,0.001559,-0.005665,-0.001962,6.1e-05,0.004571,0.002764,-0.508282,-0.005578,-0.913352,-260.40105,0.863823,67.762175
8.856,0.005585,0.001845,-0.004831,-0.001853,-9e-06,0.004678,0.00278,-0.508343,-0.005602,-0.913352,-260.40105,0.863823,67.762175
8.8762,0.005384,0.001809,-0.006517,-0.001766,-5.7e-05,0.004757,0.003067,-0.508147,-0.004708,-0.968262,-260.402227,0.938865,67.761032
8.8961,0.006192,0.001492,-0.005893,-0.001551,-0.000205,0.004946,0.002148,-0.508177,-0.006348,-0.968262,-260.402227,0.938865,67.761032
8.916,0.005366,0.001353,-0.004808,-0.001382,-0.000308,0.005086,0.002148,-0.508177,-0.006348,-0.968262,-260.402227,0.938865,67.761032
8.9361,0.005165,0.001637,-0.004063,-0.001248,-0.00038,0.00519,0.002852,-0.508642,-0.004643,-1.01589,-260.403348,1.013713,67.759879
8.9567,0.005459,0.001649,-0.002634,-0.001313,-0.000209,0.004779,0.002943,-0.508526,-0.004386,-1.01589,-260.403348,1.013713,67.759879
8.9761,0.005502,0.001775,-0.004389,-0.001367,-9e-05,0.004498,0.004099,-0.508353,-0.002579,-1.090948,-260.40377,1.08877,67.759359
8.9964,0.005215,0.001522,-0.004586,-0.001473,-6.2e-05,0.004277,0.003339,-0.508232,-0.004222,-1.090948,-260.40377,1.08877,67.759359
9.0165,0.005133,0.001823,-0.005434,-0.001561,-4.7e-05,0.004126,0.003339,-0.508232,-0.004222,-1.090948,-260.40377,1.08877,67.759359
9.0363,0.005012,0.001509,-0.004511,-0.001633,-4.2e-05,0.004022,0.002305,-0.508173,-0.005249,-1.095504,-260.404946,1.121702,67.75812
9.0564,0.005521,0.001548,-0.003161,-0.001524,-0.000104,0.004106,0.002464,-0.508301,-0.004926,-1.095504,-260.404946,1.121702,67.75812
9.0762,0.005409,0.001986,-0.005365,-0.001439,-0.000148,0.004168,0.00388,-0.50845,-0.003081,-1.02042,-260.405654,1.046619,67.757395
9.0963,0.005283,0.001497,-0.005196,-0.001436,-0.000237,0.004297,0.002776,-0.508045,-0.005163,-1.02042,-260.405654,1.046619,67.757395
9.1162,0.004888,0.001511,-0.001951,-0.001432,-0.000302,0.004388,0.002776,-0.508045,-0.005163,-1.02042,-260.405654,1.046619,67.757395
9.1365,0.004531,0.001918,-0.004163,-0.001428,-0.000348,0.004451,0.003834,-0.508494,-0.00178,-1.030251,-260.406752,1.080009,67.756196
9.1567,0.005135,0.00194,-0.002682,-0.001496,-0.000187,0.003683,0.003239,-0.508323,-0.002743,-1.030251,-260.406752,1.080009,67.756196
9.1768,0.005247,0.001138,-0.003774,-0.001557,-8.2e-05,0.003162,0.003724,-0.508069,-0.002547,-1.0287,-260.407803,1.135178,67.754911
9.1966,0.004855,0.001571,-0.004452,-0.001662,8.8e-05,0.003135,0.003357,-0.508786,-0.003654,-1.0287,-260.407803,1.135178,67.754911
9.2167,0.004624,0.001826,-0.00343,-0.001747,0.00021,0.003124,0.003357,-0.508786,-0.003654,-1.0287,-260.407803,1.135178,67.754911
9.2363,0.004686,0.001328,-0.004285,-0.001815,0.000299,0.003121,0.002858,-0.508172,-0.003386,-0.953886,-260.408094,1.060363,67.754604
9.2564,0.004573,0.0019,-0.003186,-0.001725,0.000203,0.003132,0.002712,-0.508372,-0.003744,-0.953886,-260.408094,1.060363,67.754604
9.2763,0.004661,0.001269,-0.003989,-0.001656,0.000132,0.00314,0.002941,-0.508097,-0.003169,-0.882312,-260.408262,0.985363,67.754462
9.2961,0.004776,0.001543,-0.003495,-0.001609,0.000159,0.00319,0.002656,-0.508669,-0.003913,-0.882312,-260.408262,0.985363,67.754462
9.3163,0.004549,0.001475,-0.00269,-0.001572,0.00018,0.003227,0.002656,-0.508669,-0.003913,-0.882312,-260.408262,0.985363,67.754462
9.3361,0.004696,0.001433,-0.00426,-0.001543,0.000197,0.003254,0.003135,-0.508521,-0.002601,-0.891237,-260.408951,0.910372,67.753825
9.3561,0.00484,0.001629,-0.003024,-0.001552,0.000207,0.003072,0.002881,-0.508538,-0.003265,-0.891237,-260.408951,0.910372,67.753825
9.3763,0.004298,0.001703,-0.002235,-0.001562,0.000211,0.002946,0.003253,-0.508363,-0.002931,-0.955852,-260.409911,0.859512,67.752976
9.3964,0.004432,0.002079,-0.002494,-0.001602,0.000199,0.002491,0.003164,-0.508302,-0.002293,-0.955852,-260.409911,0.859512,67.752976
9.4162,0.004324,0.001901,-0.003661,-0.00164,0.000179,0.002177,0.003164,-0.508302,-0.002293,-0.955852,-260.409911,0.859512,67.752976
9.4362,0.0042,0.001971,-0.004021,-0.001673,0.000157,0.001961,0.002398,-0.508088,-0.003549,-0.910435,-260.410831,0.793793,67.752172
9.4562,0.004249,0.001619,-0.001903,-0.001522,-4.6e-05,0.00228,0.002291,-0.508061,-0.003727,-0.910435,-260.410831,0.793793,67.752172
9.4766,0.004316,0.001731,-0.003831,-0.001401,-0.00019,0.002508,0.00327,-0.508379,-0.00189,-0.835437,-260.410979,0.718795,67.752037
9.4962,0.004278,0.000957,-0.002829,-0.001363,-0.000213,0.002655,0.002447,-0.508276,-0.003648,-0.835437,-260.410979,0.718795,67.752037
9.5164,0.004159,0.001515,-0.001869,-0.001332,-0.000228,0.002762,0.002447,-0.508276,-0.003648,-0.835437,-260.410979,0.718795,67.752037
9.5364,0.004201,0.001882,-0.002185,-0.001306,-0.000237,0.002838,0.003169,-0.508487,-0.001811,-0.763791,-260.411431,0.793791,67.751519
9.5561,0.004371,0.001486,-0.002733,-0.001404,-0.000118,0.00226,0.003131,-0.508337,-0.001956,-0.763791,-260.411431,0.793791,67.751519
9.5764,0.004122,0.001611,-0.003035,-0.001487,-4.2e-05,0.001864,0.002956,-0.508514,-0.002691,-0.838785,-260.411817,0.868785,67.751059
9.5963,0.003984,0.001685,-0.001742,-0.001468,-4.9e-05,0.001987,0.002607,-0.508398,-0.003002,-0.838785,-260.411817,0.868785,67.751059
9.6163,0.00433,0.00132,-0.003625,-0.001452,-5.3e-05,0.002077,0.002607,-0.508398,-0.003002,-0.838785,-260.411817,0.868785,67.751059
9.6363,0.004301,0.001785,-0.002089,-0.001439,-5.5e-05,0.002142,0.002467,-0.508677,-0.0036,-0.763783,-260.41202,0.793783,67.750851
9.6562,0.003832,0.00138,-0.001617,-0.001469,-1.8e-05,0.002189,0.002779,-0.508488,-0.00298,-0.763783,-260.41202,0.793783,67.750851
9.6761,0.003723,0.00187,-0.002959,-0.001492,9e-06,0.002224,0.002964,-0.508621,-0.001553,-0.716616,-260.412741,0.758236,67.750103
9.6963,0.003827,0.00165,-0.002576,-0.001381,-8.9e-05,0.002173,0.002279,-0.508172,-0.00283,-0.716616,-260.412741,0.758236,67.750103
9.7162,0.004126,0.001684,-0.002653,-0.001295,-0.000161,0.002136,0.002279,-0.508172,-0.00283,-0.716616,-260.412741,0.758236,67.750103
9.7363,0.003822,0.001675,-0.001955,-0.001229,-0.000214,0.002111,0.002712,-0.508313,-0.002561,-0.741656,-260.413536,0.734943,67.749313
9.7566,0.003624,0.001733,-0.004903,-0.001282,-0.00016,0.001911,0.002751,-0.508317,-0.002304,-0.741656,-260.413536,0.734943,67.749313
9.7765,0.003499,0.001644,-0.002853,-0.001325,-0.000126,0.001774,0.001095,-0.508265,-0.004858,-0.718974,-260.413986,0.809948,67.748778
9.7962,0.003544,0.001647,-0.003712,-0.001188,-0.000174,0.001903,0.001957,-0.508346,-0.003031,-0.718974,-260.413986,0.809948,67.748778
9.8162,0.003437,0.001424,-0.002837,-0.00108,-0.000207,0.001997,0.001957,-0.508346,-0.003031,-0.718974,-260.413986,0.809948,67.748778
9.8362,0.003683,0.001705,-0.002162,-0.000996,-0.000227,0.002067,0.001946,-0.508578,-0.002777,-0.643976,-260.414511,0.739485,67.748201
9.856,0.003951,0.001448,-0.002576,-0.000986,-0.000171,0.001943,0.002198,-0.508463,-0.00252,-0.643976,-260.414511,0.739485,67.748201
9.8761,0.003661,0.001693,-0.00022,-0.00098,-0.000131,0.00186,0.002628,-0.508552,-0.002561,-0.718976,-260.414658,0.814485,67.748018
9.8962,0.003578,0.001355,-0.002238,-0.001188,1.8e-05,0.000816,0.003469,-0.508328,-0.00042,-0.718976,-260.414658,0.814485,67.748018
9.9163,0.003342,0.001356,-0.002474,-0.001363,0.000108,8.6e-05,0.003469,-0.508328,-0.00042,-0.718976,-260.414658,0.814485,67.748018
9.9362,0.003829,0.001729,-0.003297,-0.001509,0.000158,-0.000424,0.002047,-0.508647,-0.002415,-0.794069,-260.415094,0.889578,67.74752
9.9564,0.003666,0.001778,-0.002578,-0.001384,5.1e-05,0.000208,0.002084,-0.508492,-0.002769,-0.794069,-260.415094,0.889578,67.74752
9.9759,0.003697,0.00145,-0.002232,-0.001283,-1.7e-05,0.000671,0.002352,-0.50822,-0.002578,-0.719068,-260.415094,0.814577,67.74752
9.9961,0.003705,0.001593,-0.003278,-0.001302,-2e-06,0.000852,0.00254,-0.508519,-0.002263,-0.719068,-260.415094,0.814577,67.74752
10.0161,0.003806,0.001664,-0.002838,-0.001315,1e-05,0.000986,0.00254,-0.508519,-0.002263,-0.719068,-260.415094,0.814577,67.74752
10.0363,0.003655,0.001487,-0.001927,-0.001324,2.2e-05,0.001087,0.002359,-0.508334,-0.002838,-0.644157,-260.415094,0.739666,67.74752
10.0572,0.003384,0.001425,-0.002947,-0.001317,-1.3e-05,0.001241,0.002487,-0.508407,-0.002465,-0.644157,-260.415094,0.739666,67.74752
10.0763,0.003335,0.001772,-0.001004,-0.001311,-3.7e-05,0.001351,0.001874,-0.508573,-0.00294,-0.569056,-260.415194,0.664565,67.747422
10.0965,0.003926,0.001248,-0.003424,-0.001335,-3e-05,0.000867,0.00274,-0.508258,-0.001171,-0.569056,-260.415194,0.664565,67.747422
10.1165,0.003077,0.001839,-0.0017,0.0,0.0,0.0,0.00274,-0.508258,-0.001171,-0.569056,-260.415194,0.664565,67.747422
10.1363,0.00353,0.0012,-0.003343,0.0,0.0,0.0,0.002162,-0.508162,-0.00165,-0.541837,-260.415736,0.589514,67.746866
10.1567,0.003639,0.001903,-0.00234,0.0,0.0,0.0,0.002018,-0.508423,-0.00234,-0.541837,-260.415736,0.589514,67.746866
10.176,0.003377,0.001677,-0.004154,0.0,0.0,0.0,0.002445,-0.508096,-0.00234,-0.541837,-260.415736,0.589514,67.746866
10.1963,0.003428,0.002101,-0.003142,0.0,0.0,0.0,0.001359,-0.508299,-0.004,-0.541837,-260.415736,0.589514,67.746866
10.2165,0.003617,0.001216,-0.002816,0.0,0.0,0.0,0.001359,-0.508299,-0.004,-0.541837,-260.415736,0.589514,67.746866
10.2365,0.003608,0.001554,-0.002738,0.0,0.0,0.0,0.002181,-0.508782,-0.002816,-0.541837,-260.415736,0.589514,67.746866
10.2567,0.003401,0.001491,-0.002256,0.0,0.0,0.0,0.002194,-0.508645,-0.002784,-0.541837,-260.415736,0.589514,67.746866
10.2763,0.003513,0.001646,-0.00088,0.0,0.0,0.0,0.002251,-0.508508,-0.002256,-0.541837,-260.415736,0.589514,67.746866
10.296,0.003238,0.002002,-0.00401,0.0,0.0,0.0,0.002992,-0.508368,-0.001002,-0.541837,-260.415736,0.589514,67.746866
10.3163,0.002981,0.00137,-0.000611,0.0,0.0,0.0,0.002992,-0.508368,-0.001002,-0.541837,-260.415736,0.589514,67.746866
10.3366,0.003323,0.00181,-0.002886,0.0,0.0,0.0,0.00267,-0.50863,-0.000611,-0.541837,-260.415736,0.589514,67.746866
10.356,0.003142,0.001668,-0.002865,0.0,0.0,0.0,0.002339,-0.508452,-0.001529,-0.541837,-260.415736,0.589514,67.746866
10.376,0.003654,0.00177,-0.001937,0.0,0.0,0.0,0.001681,-0.50833,-0.002865,-0.541837,-260.415736,0.589514,67.746866
10.3962,0.00326,0.001214,-0.001719,0.0,0.0,0.0,0.002576,-0.508238,-0.002022,-0.541837,-260.415736,0.589514,67.746866
10.4165,0.003278,0.001275,-0.002473,0.0,0.0,0.0,0.002576,-0.508238,-0.002022,-0.541837,-260.415736,0.589514,67.746866
10.4368,0.00338,0.001908,-0.001834,0.0,0.0,0.0,0.002017,-0.508724,-0.002473,-0.541837,-260.415736,0.589514,67.746866
10.4569,0.003787,0.001513,-0.000942,0.0,0.0,0.0,0.00219,-0.508467,-0.002214,-0.541837,-260.415736,0.589514,67.746866
10.4759,0.003005,0.001493,-0.003697,0.0,0.0,0.0,0.003306,-0.508487,-0.000942,-0.541837,-260.415736,0.589514,67.746866
10.4962,0.003316,0.001931,-0.003658,0.0,0.0,0.0,0.001303,-0.508502,-0.003466,-0.541837,-260.415736,0.589514,67.746866
10.5161,0.003468,0.001449,-0.001683,0.0,0.0,0.0,0.001303,-0.508502,-0.003466,-0.541837,-260.415736,0.589514,67.746866
10.5363,0.003709,0.001488,-0.002538,0.0,0.0,0.0,0.002609,-0.50855,-0.001683,-0.541837,-260.415736,0.589514,67.746866
10.5564,0.003258,0.001185,-0.001881,0.0,0.0,0.0,0.002529,-0.508533,-0.002037,-0.541837,-260.415736,0.589514,67.746866
10.5765,0.003832,0.001927,-0.00351,0.0,0.0,0.0,0.002299,-0.508814,-0.001881,-0.541837,-260.415736,0.589514,67.746866
10.5964,0.003579,0.00144,-0.001598,0.0,0.0,0.0,0.002064,-0.508135,-0.003367,-0.541837,-260.415736,0.589514,67.746866
10.6165,0.003648,0.001415,-0.002223,0.0,0.0,0.0,0.002064,-0.508135,-0.003367,-0.541837,-260.415736,0.589514,67.746866
10.6361,0.003543,0.001584,-0.00244,0.0,0.0,0.0,0.002514,-0.508584,-0.002223,-0.541837,-260.415736,0.589514,67.746866
10.6561,0.003466,0.001604,-0.00281,0.0,0.0,0.0,0.002425,-0.508514,-0.002313,-0.541837,-260.415736,0.589514,67.746866
10.6761,0.003075,0.001741,-0.002673,0.0,0.0,0.0,0.002033,-0.508394,-0.00281,-0.541837,-260.415736,0.589514,67.746866
10.6961,0.003022,0.001802,-0.003287,0.0,0.0,0.0,0.00174,-0.508269,-0.002684,-0.541837,-260.415736,0.589514,67.746866
10.7165,0.003521,0.001693,-0.001286,0.0,0.0,0.0,0.00174,-0.508269,-0.002684,-0.541837,-260.415736,0.589514,67.746866
10.7361,0.003349,0.001825,-0.003283,0.0,0.0,0.0,0.002865,-0.508307,-0.001286,-0.541837,-260.415736,0.589514,67.746866
10.7565,0.003464,0.001821,-0.002049,0.0,0.0,0.0,0.002377,-0.508251,-0.002105,-0.541837,-260.415736,0.589514,67.746866
10.7759,0.003526,0.0014,-0.002152,0.0,0.0,0.0,0.002419,-0.508178,-0.002049,-0.541837,-260.415736,0.589514,67.746866
10.7959,0.00355,0.001785,-0.003032,0.0,0.0,0.0,0.002428,-0.508562,-0.002143,-0.541837,-260.415736,0.589514,67.746866
10.8161,0.003307,0.001427,-0.002676,0.0,0.0,0.0,0.002428,-0.508562,-0.002143,-0.541837,-260.415736,0.589514,67.746866
10.8362,0.003488,0.001453,-0.002811,0.0,0.0,0.0,0.001942,-0.508571,-0.002676,-0.541837,-260.415736,0.589514,67.746866
10.8564,0.003176,0.001745,-0.002906,0.0,0.0,0.0,0.001987,-0.508561,-0.002731,-0.541837,-260.415736,0.589514,67.746866
10.8763,0.003395,0.001728,-0.001687,0.0,0.0,0.0,0.001694,-0.508253,-0.002906,-0.541837,-260.415736,0.589514,67.746866
10.8963,0.003225,0.001535,-0.001831,0.0,0.0,0.0,0.002463,-0.50827,-0.001792,-0.541837,-260.415736,0.589514,67.746866
10.9166,0.003204,0.001504,-0.002481,0.0,0.0,0.0,0.002463,-0.50827,-0.001792,-0.541837,-260.415736,0.589514,67.746866
10.9364,0.00299,0.001614,-0.001787,0.0,0.0,0.0,0.001939,-0.508494,-0.002481,-0.541837,-260.415736,0.589514,67.746866
10.956,0.003689,0.001731,-0.002294,0.0,0.0,0.0,0.001996,-0.50845,-0.002199,-0.541837,-260.415736,0.589514,67.746866
10.9765,0.0037,0.001498,-0.002939,0.0,0.0,0.0,0.00252,-0.508267,-0.002294,-0.541837,-260.415736,0.589514,67.746866
10.9963,0.003437,0.00166,-0.002329,0.0,0.0,0.0,0.002228,-0.50848,-0.002884,-0.541837,-260.415736,0.589514,67.746866
11.0165,0.00352,0.001637,-0.003147,0.0,0.0,0.0,0.002228,-0.50848,-0.002884,-0.541837,-260.415736,0.589514,67.746866
11.0363,0.003447,0.001454,-0.002166,0.0,0.0,0.0,0.001915,-0.508361,-0.003147,-0.541837,-260.415736,0.589514,67.746866
11.0568,0.0035,0.00148,-0.001348,0.0,0.0,0.0,0.002087,-0.508435,-0.002751,-0.541837,-260.415736,0.589514,67.746866
11.0761,0.003322,0.00167,-0.003169,0.0,0.0,0.0,0.002812,-0.50852,-0.001348,-0.541837,-260.415736,0.589514,67.746866
11.096,0.003641,0.001132,-0.003632,0.0,0.0,0.0,0.001806,-0.508345,-0.003005,-0.541837,-260.415736,0.589514,67.746866
11.1162,0.003225,0.001428,-0.002411,0.0,0.0,0.0,0.001806,-0.508345,-0.003005,-0.541837,-260.415736,0.589514,67.746866
11.136,0.003331,0.001731,-0.001172,0.0,0.0,0.0,0.001995,-0.508571,-0.002411,-0.541837,-260.415736,0.589514,67.746866
11.1563,0.00319,0.001758,-0.003165,0.0,0.0,0.0,0.002297,-0.508447,-0.001905,-0.541837,-260.415736,0.589514,67.746866
11.1763,0.003266,0.001824,-0.002129,0.0,0.0,0.0,0.001576,-0.508239,-0.003165,-0.541837,-260.415736,0.589514,67.746866
11.1966,0.003132,0.001672,-0.00254,0.0,0.0,0.0,0.002128,-0.50818,-0.002218,-0.541837,-260.415736,0.589514,67.746866
11.2164,0.003326,0.001782,-0.001945,0.0,0.0,0.0,0.002128,-0.50818,-0.002218,-0.541837,-260.415736,0.589514,67.746866
11.2365,0.003406,0.001697,-0.002568,0.0,0.0,0.0,0.002334,-0.508217,-0.001945,-0.541837,-260.415736,0.589514,67.746866
11.2563,0.003445,0.001775,-0.001097,0.0,0.0,0.0,0.002238,-0.508252,-0.002198,-0.541837,-260.415736,0.589514,67.746866
11.276,0.003226,0.001594,-0.002011,0.0,0.0,0.0,0.002885,-0.508224,-0.001097,-0.541837,-260.415736,0.589514,67.746866
11.2962,0.003415,0.001759,-0.001103,0.0,0.0,0.0,0.002258,-0.508389,-0.001934,-0.541837,-260.415736,0.589514,67.746866
11.3163,0.003396,0.001537,-0.001587,0.0,0.0,0.0,0.002258,-0.508389,-0.001934,-0.541837,-260.415736,0.589514,67.746866
11.3363,0.003162,0.001597,-0.003956,0.0,0.0,0.0,0.002587,-0.508463,-0.001587,-0.541837,-260.415736,0.589514,67.746866
11.3568,0.003741,0.001668,-0.003721,0.0,0.0,0.0,0.001993,-0.508437,-0.002562,-0.541837,-260.415736,0.589514,67.746866
11.3761,0.003718,0.001648,-0.001379,0.0,0.0,0.0,0.001843,-0.508329,-0.003721,-0.541837,-260.415736,0.589514,67.746866
11.3964,0.003721,0.001702,-0.003249,0.0,0.0,0.0,0.00292,-0.50835,-0.001567,-0.541837,-260.415736,0.589514,67.746866
11.4163,0.003432,0.001473,-0.000666,0.0,0.0,0.0,0.00292,-0.50835,-0.001567,-0.541837,-260.415736,0.589514,67.746866
11.4363,0.003377,0.001801,-0.002129,0.0,0.0,0.0,0.003092,-0.508526,-0.000666,-0.541837,-260.415736,0.589514,67.746866
11.4564,0.003264,0.001851,-0.002484,0.0,0.0,0.0,0.002767,-0.508393,-0.001261,-0.541837,-260.415736,0.589514,67.746866
11.4765,0.003676,0.001147,-0.002852,0.0,0.0,0.0,0.001998,-0.508147,-0.002484,-0.541837,-260.415736,0.589514,67.746866
11.4964,0.003193,0.001884,-0.003112,0.0,0.0,0.0,0.002201,-0.508784,-0.002817,-0.541837,-260.415736,0.589514,67.746866
11.5163,0.003507,0.001603,-0.003325,0.0,0.0,0.0,0.002201,-0.508784,-0.002817,-0.541837,-260.415736,0.589514,67.746866
11.5363,0.003638,0.001398,-0.003882,0.0,0.0,0.0,0.001811,-0.508394,-0.003325,-0.541837,-260.415736,0.589514,67.746866
11.5561,0.003401,0.001739,-0.003036,0.0,0.0,0.0,0.001749,-0.508477,-0.003551,-0.541837,-260.415736,0.589514,67.746866
11.5759,0.003197,0.001543,-0.00193,0.0,0.0,0.0,0.001853,-0.508258,-0.003036,-0.541837,-260.415736,0.589514,67.746866
11.5961,0.003502,0.002089,-0.002738,0.0,0.0,0.0,0.00218,-0.508438,-0.00203,-0.541837,-260.415736,0.589514,67.746866
11.6163,0.003478,0.001458,-0.003977,0.0,0.0,0.0,0.00218,-0.508438,-0.00203,-0.541837,-260.415736,0.589514,67.746866
11.6364,0.003691,0.001735,-0.001994,0.0,0.0,0.0,0.001449,-0.508538,-0.003977,-0.541837,-260.415736,0.589514,67.746866
11.6562,0.003485,0.001632,-0.003536,0.0,0.0,0.0,0.00195,-0.508426,-0.003167,-0.541837,-260.415736,0.589514,67.746866
11.6766,0.003392,0.001777,-0.00278,0.0,0.0,0.0,0.001682,-0.508364,-0.003536,-0.541837,-260.415736,0.589514,67.746866
11.6964,0.003226,0.001802,-0.001469,0.0,0.0,0.0,0.001947,-0.508234,-0.002848,-0.541837,-260.415736,0.589514,67.746866
11.7164,0.002947,0.001947,-0.001036,0.0,0.0,0.0,0.001947,-0.508234,-0.002848,-0.541837,-260.415736,0.589514,67.746866
11.7362,0.003542,0.001848,-0.002555,0.0,0.0,0.0,0.002419,-0.508052,-0.001036,-0.541837,-260.415736,0.589514,67.746866
11.7564,0.003359,0.001679,-0.003159,0.0,0.0,0.0,0.002347,-0.508092,-0.001647,-0.541837,-260.415736,0.589514,67.746866
11.7762,0.003115,0.001815,-0.00221,0.0,0.0,0.0,0.001748,-0.508318,-0.003159,-0.541837,-260.415736,0.589514,67.746866
11.7965,0.003555,0.001814,-0.004206,0.0,0.0,0.0,0.001966,-0.508196,-0.002295,-0.541837,-260.415736,0.589514,67.746866
11.8164,0.003561,0.001554,-0.003001,0.0,0.0,0.0,0.001966,-0.508196,-0.002295,-0.541837,-260.415736,0.589514,67.746866
11.8363,0.003282,0.001199,-0.001668,0.0,0.0,0.0,0.00203,-0.508443,-0.003001,-0.541837,-260.415736,0.589514,67.746866
11.8565,0.003658,0.001369,-0.002359,0.0,0.0,0.0,0.002195,-0.50859,-0.002453,-0.541837,-260.415736,0.589514,67.746866
11.8763,0.00344,0.001862,-0.002712,0.0,0.0,0.0,0.002455,-0.50863,-0.002359,-0.541837,-260.415736,0.589514,67.746866
11.8964,0.003686,0.001495,-0.003017,0.0,0.0,0.0,0.00209,-0.508178,-0.002682,-0.541837,-260.415736,0.589514,67.746866
11.9167,0.003382,0.001567,-0.002254,0.0,0.0,0.0,0.00209,-0.508178,-0.002682,-0.541837,-260.415736,0.589514,67.746866
11.9363,0.003338,0.001606,-0.004448,0.0,0.0,0.0,0.002233,-0.508432,-0.002254,-0.541837,-260.415736,0.589514,67.746866
11.9567,0.003467,0.001765,-0.001113,0.0,0.0,0.0,0.001764,-0.508415,-0.003137,-0.541837,-260.415736,0.589514,67.746866
11.976,0.003456,0.001954,-0.003141,0.0,0.0,0.0,0.0029,-0.508234,-0.001113,-0.541837,-260.415736,0.589514,67.746866
11.9962,0.003119,0.001712,-0.00254,0.0,0.0,0.0,0.001944,-0.50806,-0.002966,-0.541837,-260.415736,0.589514,67.746866
12.0163,0.003399,0.001395,-0.001767,0.0,0.0,0.0,0.001944,-0.50806,-0.002966,-0.541837,-260.415736,0.589514,67.746866
12.036,0.00326,0.001663,-0.003501,0.0,0.0,0.0,0.002498,-0.508605,-0.001767,-0.541837,-260.415736,0.589514,67.746866
12.056,0.003156,0.001226,-0.003019,0.0,0.0,0.0,0.002077,-0.508494,-0.002479,-0.541837,-260.415736,0.589514,67.746866
12.0761,0.003335,0.001829,-0.00316,0.0,0.0,0.0,0.001617,-0.508772,-0.003019,-0.541837,-260.415736,0.589514,67.746866
12.0961,0.003125,0.001494,-0.00314,0.0,0.0,0.0,0.001714,-0.508222,-0.003147,-0.541837,-260.415736,0.589514,67.746866
12.1163,0.003307,0.001669,-0.004102,0.0,0.0,0.0,0.001714,-0.508222,-0.003147,-0.541837,-260.415736,0.589514,67.746866
12.1361,0.003583,0.001629,-0.001438,0.0,0.0,0.0,0.001215,-0.508327,-0.004102,-0.541837,-260.415736,0.589514,67.746866
12.1563,0.003337,0.001675,-0.00254,0.0,0.0,0.0,0.001879,-0.508344,-0.003021,-0.541837,-260.415736,0.589514,67.746866
12.1761,0.003761,0.001605,-0.002624,0.0,0.0,0.0,0.002042,-0.508323,-0.00254,-0.541837,-260.415736,0.589514,67.746866
12.1965,0.003171,0.001372,-0.002628,0.0,0.0,0.0,0.002388,-0.508387,-0.002617,-0.541837,-260.415736,0.589514,67.746866
12.2166,0.003454,0.001417,-0.002036,0.0,0.0,0.0,0.002388,-0.508387,-0.002617,-0.541837,-260.415736,0.589514,67.746866
12.2362,0.003425,0.001727,-0.00238,0.0,0.0,0.0,0.002416,-0.508582,-0.002036,-0.541837,-260.415736,0.589514,67.746866
12.2561,0.003761,0.001614,-0.002922,0.0,0.0,0.0,0.002332,-0.508456,-0.002176,-0.541837,-260.415736,0.589514,67.746866
12.2761,0.003483,0.0018,-0.001711,0.0,0.0,0.0,0.00227,-0.508384,-0.002922,-0.541837,-260.415736,0.589514,67.746866
12.2961,0.003374,0.001819,-0.001872,0.0,0.0,0.0,0.00258,-0.508215,-0.001818,-0.541837,-260.415736,0.589514,67.746866
12.3162,0.003091,0.001815,-0.003182,0.0,0.0,0.0,0.00258,-0.508215,-0.001818,-0.541837,-260.415736,0.589514,67.746866
12.3362,0.003212,0.001707,-0.002587,0.0,0.0,0.0,0.001468,-0.508183,-0.003182,-0.541837,-260.415736,0.589514,67.746866
12.3564,0.003464,0.001596,-0.001747,0.0,0.0,0.0,0.001642,-0.508227,-0.002939,-0.541837,-260.415736,0.589514,67.746866
12.3758,0.003536,0.001396,-0.002094,0.0,0.0,0.0,0.002573,-0.508403,-0.001747,-0.541837,-260.415736,0.589514,67.746866
12.3961,0.003844,0.001613,-0.003029,0.0,0.0,0.0,0.002477,-0.508585,-0.002063,-0.541837,-260.415736,0.589514,67.746866
12.4161,0.003366,0.00187,-0.001988,0.0,0.0,0.0,0.002477,-0.508585,-0.002063,-0.541837,-260.415736,0.589514,67.746866
12.4359,0.003375,0.001683,-0.001503,0.0,0.0,0.0,0.002351,-0.508129,-0.001988,-0.541837,-260.415736,0.589514,67.746866
12.4562,0.003565,0.0018,-0.000441,0.0,0.0,0.0,0.002456,-0.508205,-0.001791,-0.541837,-260.415736,0.589514,67.746866
12.4759,0.003325,0.001495,-0.002558,0.0,0.0,0.0,0.00334,-0.5082,-0.000441,-0.541837,-260.415736,0.589514,67.746866
12.4966,0.003341,0.001774,-0.003973,0.0,0.0,0.0,0.002128,-0.508479,-0.002386,-0.541837,-260.415736,0.589514,67.746866
12.5165,0.00307,0.001561,-0.002402,0.0,0.0,0.0,0.002128,-0.508479,-0.002386,-0.541837,-260.415736,0.589514,67.746866
12.5359,0.003113,0.001366,-0.001287,0.0,0.0,0.0,0.001845,-0.508437,-0.002402,-0.541837,-260.415736,0.589514,67.746866
12.5564,0.00332,0.001706,-0.001749,0.0,0.0,0.0,0.002097,-0.508518,-0.001942,-0.541837,-260.415736,0.589514,67.746866
12.5763,0.003695,0.001367,-0.005169,0.0,0.0,0.0,0.002428,-0.508294,-0.001749,-0.541837,-260.415736,0.589514,67.746866
12.5962,0.003534,0.001364,-0.002165,0.0,0.0,0.0,0.001176,-0.508598,-0.004877,-0.541837,-260.415736,0.589514,67.746866
12.6163,0.003367,0.002153,-0.002803,0.0,0.0,0.0,0.001176,-0.508598,-0.004877,-0.541837,-260.415736,0.589514,67.746866
12.636,0.003197,0.001468,-0.003027,0.0,0.0,0.0,0.001937,-0.507845,-0.002803,-0.541837,-260.415736,0.589514,67.746866
12.656,0.003253,0.001811,-0.00254,0.0,0.0,0.0,0.001819,-0.50813,-0.002896,-0.541837,-260.415736,0.589514,67.746866
12.6763,0.003556,0.001672,-0.002162,0.0,0.0,0.0,0.001958,-0.508187,-0.00254,-0.541837,-260.415736,0.589514,67.746866
12.696,0.003458,0.001336,-0.002275,0.0,0.0,0.0,0.00241,-0.508315,-0.002195,-0.541837,-260.415736,0.589514,67.746866
12.7161,0.003451,0.001876,-0.00112,0.0,0.0,0.0,0.00241,-0.508315,-0.002195,-0.541837,-260.415736,0.589514,67.746866
12.7362,0.003488,0.001469,-0.002346,0.0,0.0,0.0,0.00288,-0.508124,-0.00112,-0.541837,-260.415736,0.589514,67.746866
12.7563,0.003164,0.001808,-0.000855,0.0,0.0,0.0,0.002636,-0.508292,-0.001628,-0.541837,-260.415736,0.589514,67.746866
12.7762,0.003408,0.001221,-0.001924,0.0,0.0,0.0,0.002728,-0.508191,-0.000855,-0.541837,-260.415736,0.589514,67.746866
12.7962,0.003212,0.001811,-0.004547,0.0,0.0,0.0,0.002454,-0.508724,-0.001826,-0.541837,-260.415736,0.589514,67.746866
12.8162,0.00364,0.001137,-0.003449,0.0,0.0,0.0,0.002454,-0.508724,-0.001826,-0.541837,-260.415736,0.589514,67.746866
12.8364,0.003126,0.00142,-0.001202,0.0,0.0,0.0,0.00188,-0.50886,-0.003449,-0.541837,-260.415736,0.589514,67.746866
12.8564,0.003415,0.001689,-0.001231,0.0,0.0,0.0,0.002137,-0.508746,-0.002537,-0.541837,-260.415736,0.589514,67.746866
12.8762,0.003604,0.001646,-0.002722,0.0,0.0,0.0,0.002787,-0.508311,-0.001231,-0.541837,-260.415736,0.589514,67.746866
12.8964,0.003696,0.001661,-0.000799,0.0,0.0,0.0,0.002265,-0.508349,-0.002594,-0.541837,-260.415736,0.589514,67.746866
12.9163,0.003596,0.001675,-0.001444,0.0,0.0,0.0,0.002265,-0.508349,-0.002594,-0.541837,-260.415736,0.589514,67.746866
12.9363,0.003464,0.001519,-0.002952,0.0,0.0,0.0,0.002859,-0.508324,-0.001444,-0.541837,-260.415736,0.589514,67.746866
12.9561,0.003778,0.001597,-0.001731,0.0,0.0,0.0,0.002491,-0.508387,-0.00206,-0.541837,-260.415736,0.589514,67.746866
12.9759,0.003481,0.001427,-0.002081,0.0,0.0,0.0,0.002896,-0.508402,-0.001731,-0.541837,-260.415736,0.589514,67.746866
12.9962,0.00375,0.001539,-0.001389,0.0,0.0,0.0,0.00246,-0.508558,-0.002052,-0.541837,-260.415736,0.589514,67.746866
13.0163,0.003146,0.001923,-0.001801,0.0,0.0,0.0,0.00246,-0.508558,-0.002052,-0.541837,-260.415736,0.589514,67.746866
13.0362,0.00328,0.001591,-0.001398,0.0,0.0,0.0,0.002228,-0.508076,-0.001801,-0.541837,-260.415736,0.589514,67.746866
13.056,0.003078,0.001721,-0.002696,0.0,0.0,0.0,0.002367,-0.508212,-0.001636,-0.541837,-260.415736,0.589514,67.746866
13.076,0.003435,0.001539,-0.002901,0.0,0.0,0.0,0.001703,-0.508277,-0.002696,-0.541837,-260.415736,0.589514,67.746866
13.0965,0.00371,0.00171,-0.00165,0.0,0.0,0.0,0.001933,-0.508442,-0.002883,-0.541837,-260.415736,0.589514,67.746866
13.1165,0.003662,0.001622,-0.003529,0.0,0.0,0.0,0.001933,-0.508442,-0.002883,-0.541837,-260.415736,0.589514,67.746866
13.1361,0.003572,0.00184,-0.002434,0.0,0.0,0.0,0.001862,-0.508375,-0.003529,-0.541837,-260.415736,0.589514,67.746866
13.1563,0.003366,0.001562,-0.001761,0.0,0.0,0.0,0.002054,-0.508286,-0.00308,-0.541837,-260.415736,0.589514,67.746866
13.1762,0.003215,0.001639,-0.002753,0.0,0.0,0.0,0.002468,-0.508437,-0.001761,-0.541837,-260.415736,0.589514,67.746866
13.196,0.003482,0.001686,-0.002418,0.0,0.0,0.0,0.00187,-0.508366,-0.002664,-0.541837,-260.415736,0.589514,67.746866
13.2163,0.003363,0.001817,-0.002859,0.0,0.0,0.0,0.00187,-0.508366,-0.002664,-0.541837,-260.415736,0.589514,67.746866
13.2366,0.003527,0.001875,-0.001585,0.0,0.0,0.0,0.001904,-0.508181,-0.002859,-0.541837,-260.415736,0.589514,67.746866
13.2568,0.003626,0.001799,-0.002886,0.0,0.0,0.0,0.002233,-0.508158,-0.002345,-0.541837,-260.415736,0.589514,67.746866
13.2763,0.003673,0.001492,-0.001982,0.0,0.0,0.0,0.002154,-0.508199,-0.002886,-0.541837,-260.415736,0.589514,67.746866
13.2961,0.003512,0.001655,-0.002184,0.0,0.0,0.0,0.002617,-0.50848,-0.002061,-0.541837,-260.415736,0.589514,67.746866
13.3163,0.003442,0.001622,-0.001028,0.0,0.0,0.0,0.002617,-0.50848,-0.002061,-0.541837,-260.415736,0.589514,67.746866
13.3363,0.003276,0.001818,-0.001119,0.0,0.0,0.0,0.002918,-0.508378,-0.001028,-0.541837,-260.415736,0.589514,67.746866
13.3564,0.003351,0.001758,-0.003068,0.0,0.0,0.0,0.00283,-0.508297,-0.001065,-0.541837,-260.415736,0.589514,67.746866
13.3764,0.003151,0.001275,-0.001954,0.0,0.0,0.0,0.001786,-0.50824,-0.003068,-0.541837,-260.415736,0.589514,67.746866
13.3964,0.003495,0.001504,-0.00198,0.0,0.0,0.0,0.002123,-0.508683,-0.00205,-0.541837,-260.415736,0.589514,67.746866
13.4165,0.003765,0.00163,-0.001533,0.0,0.0,0.0,0.002123,-0.508683,-0.00205,-0.541837,-260.415736,0.589514,67.746866
13.436,0.003564,0.001597,-0.003264,0.0,0.0,0.0,0.002983,-0.50837,-0.001533,-0.541837,-260.415736,0.589514,67.746866
13.4561,0.003473,0.001491,-0.002418,0.0,0.0,0.0,0.002539,-0.508382,-0.002241,-0.541837,-260.415736,0.589514,67.746866
13.4764,0.003337,0.001711,-0.00284,0.0,0.0,0.0,0.00224,-0.508507,-0.002418,-0.541837,-260.415736,0.589514,67.746866
13.4962,0.003716,0.001522,-0.001615,0.0,0.0,0.0,0.00192,-0.508307,-0.002802,-0.541837,-260.415736,0.589514,67.746866
13.5169,0.003213,0.001688,-0.00188,0.0,0.0,0.0,0.00192,-0.508307,-0.002802,-0.541837,-260.415736,0.589514,67.746866
13.5365,0.00342,0.001799,-0.002896,0.0,0.0,0.0,0.002254,-0.508311,-0.00188,-0.541837,-260.415736,0.589514,67.746866
13.5562,0.003831,0.001598,-0.002721,0.0,0.0,0.0,0.002127,-0.508266,-0.002294,-0.541837,-260.415736,0.589514,67.746866
13.5764,0.003326,0.001526,-0.001243,0.0,0.0,0.0,0.002443,-0.5084,-0.002721,-0.541837,-260.415736,0.589514,67.746866
13.5962,0.003572,0.001869,-0.003163,0.0,0.0,0.0,0.00267,-0.508467,-0.001375,-0.541837,-260.415736,0.589514,67.746866
13.6166,0.00367,0.001752,-0.001932,0.0,0.0,0.0,0.00267,-0.508467,-0.001375,-0.541837,-260.415736,0.589514,67.746866
13.6364,0.002934,0.001573,-0.00404,0.0,0.0,0.0,0.002685,-0.508247,-0.001932,-0.541837,-260.415736,0.589514,67.746866
13.656,0.003411,0.001451,-0.003455,0.0,0.0,0.0,0.00195,-0.508318,-0.002787,-0.541837,-260.415736,0.589514,67.746866
13.6763,0.003813,0.001935,-0.002262,0.0,0.0,0.0,0.001649,-0.508546,-0.003455,-0.541837,-260.415736,0.589514,67.746866
13.696,0.002909,0.001766,-0.000881,0.0,0.0,0.0,0.002569,-0.508107,-0.002369,-0.541837,-260.415736,0.589514,67.746866
13.716,0.003476,0.001723,-0.001503,0.0,0.0,0.0,0.002569,-0.508107,-0.002369,-0.541837,-260.415736,0.589514,67.746866
13.7363,0.003249,0.001764,-0.00355,0.0,0.0,0.0,0.002709,-0.508277,-0.001503,-0.541837,-260.415736,0.589514,67.746866
13.7568,0.003628,0.00179,-0.001014,0.0,0.0,0.0,0.002185,-0.508259,-0.002347,-0.541837,-260.415736,0.589514,67.746866
13.7764,0.003706,0.001703,-0.001905,0.0,0.0,0.0,0.003111,-0.50821,-0.001014,-0.541837,-260.415736,0.589514,67.746866
13.7962,0.003434,0.001632,-0.002348,0.0,0.0,0.0,0.002768,-0.508289,-0.001825,-0.541837,-260.415736,0.589514,67.746866
13.8161,0.003533,0.001354,-0.002669,0.0,0.0,0.0,0.002768,-0.508289,-0.001825,-0.541837,-260.415736,0.589514,67.746866
13.8367,0.003378,0.001624,-0.00449,0.0,0.0,0.0,0.002172,-0.508644,-0.002669,-0.541837,-260.415736,0.589514,67.746866
13.8565,0.003575,0.001095,-0.001545,0.0,0.0,0.0,0.001721,-0.508531,-0.003426,-0.541837,-260.415736,0.589514,67.746866
13.8764,0.003357,0.002005,-0.004393,0.0,0.0,0.0,0.002787,-0.508904,-0.001545,-0.541837,-260.415736,0.589514,67.746866
13.8962,0.003659,0.001588,-0.002207,0.0,0.0,0.0,0.001264,-0.508071,-0.004142,-0.541837,-260.415736,0.589514,67.746866
13.9164,0.003286,0.001794,-0.002042,0.0,0.0,0.0,0.001264,-0.508071,-0.004142,-0.541837,-260.415736,0.589514,67.746866
13.9367,0.00343,0.001388,-0.002322,0.0,0.0,0.0,0.002245,-0.508205,-0.002042,-0.541837,-260.415736,0.589514,67.746866
13.9564,0.003328,0.001698,-0.002367,0.0,0.0,0.0,0.002245,-0.508371,-0.002157,-0.541837,-260.415736,0.589514,67.746866
13.9765,0.003593,0.001765,-0.002228,0.0,0.0,0.0,0.002121,-0.508301,-0.002367,-0.541837,-260.415736,0.589514,67.746866
13.9963,0.003162,0.001775,-0.002102,0.0,0.0,0.0,0.002427,-0.50824,-0.00224,-0.541837,-260.415736,0.589514,67.746866
14.0165,0.003461,0.001445,-0.002989,0.0,0.0,0.0,0.002427,-0.50824,-0.00224,-0.541837,-260.415736,0.589514,67.746866
14.0366,0.003528,0.001462,-0.002628,0.0,0.0,0.0,0.001937,-0.508553,-0.002989,-0.541837,-260.415736,0.589514,67.746866
14.0568,0.003357,0.001829,-0.002109,0.0,0.0,0.0,0.002039,-0.508546,-0.002841,-0.541837,-260.415736,0.589514,67.746866
14.0763,0.003165,0.001742,-0.000835,0.0,0.0,0.0,0.002282,-0.50817,-0.002109,-0.541837,-260.415736,0.589514,67.746866
14.0961,0.003747,0.001574,-0.002173,0.0,0.0,0.0,0.002697,-0.50825,-0.000951,-0.541837,-260.415736,0.589514,67.746866
14.1166,0.003461,0.001651,-0.002132,0.0,0.0,0.0,0.002697,-0.50825,-0.000951,-0.541837,-260.415736,0.589514,67.746866
14.1365,0.003144,0.001352,-0.002121,0.0,0.0,0.0,0.002374,-0.508347,-0.002132,-0.541837,-260.415736,0.589514,67.746866
14.1567,0.003573,0.001465,-0.001244,0.0,0.0,0.0,0.002247,-0.508469,-0.002127,-0.541837,-260.415736,0.589514,67.746866
14.1762,0.003552,0.001436,-0.001882,0.0,0.0,0.0,0.002939,-0.508535,-0.001244,-0.541837,-260.415736,0.589514,67.746866
14.1968,0.003172,0.001773,-0.002632,0.0,0.0,0.0,0.002623,-0.50856,-0.001824,-0.541837,-260.415736,0.589514,67.746866
14.2164,0.003624,0.001619,-0.001363,0.0,0.0,0.0,0.002623,-0.50856,-0.001824,-0.541837,-260.415736,0.589514,67.746866
14.2365,0.003362,0.001692,-0.001453,0.0,0.0,0.0,0.002929,-0.50838,-0.001363,-0.541837,-260.415736,0.589514,67.746866
14.2562,0.003721,0.001638,-0.002269,0.0,0.0,0.0,0.002803,-0.508351,-0.0014,-0.541837,-260.415736,0.589514,67.746866
14.2765,0.00375,0.001531,-0.0014,0.0,0.0,0.0,0.002564,-0.508361,-0.002269,-0.541837,-260.415736,0.589514,67.746866
14.2962,0.003151,0.001456,-0.00224,0.0,0.0,0.0,0.002992,-0.508459,-0.001482,-0.541837,-260.415736,0.589514,67.746866
14.3162,0.003394,0.00142,-0.002164,0.0,0.0,0.0,0.002992,-0.508459,-0.001482,-0.541837,-260.415736,0.589514,67.746866
14.3359,0.003139,0.001407,-0.001611,0.0,0.0,0.0,0.002291,-0.508579,-0.002164,-0.541837,-260.415736,0.589514,67.746866
14.356,0.003423,0.001417,-0.002763,0.0,0.0,0.0,0.002302,-0.508584,-0.001939,-0.541837,-260.415736,0.589514,67.746866
14.3762,0.00359,0.001252,-0.002687,0.0,0.0,0.0,0.002014,-0.508581,-0.002763,-0.541837,-260.415736,0.589514,67.746866
14.3961,0.003399,0.001168,-0.002311,0.0,0.0,0.0,0.0022,-0.50873,-0.002695,-0.541837,-260.415736,0.589514,67.746866
14.4162,0.003667,0.00135,-0.004077,0.0,0.0,0.0,0.0022,-0.50873,-0.002695,-0.541837,-260.415736,0.589514,67.746866
14.436,0.003008,0.001275,-0.002299,0.0,0.0,0.0,0.001588,-0.508646,-0.004077,-0.541837,-260.415736,0.589514,67.746866
14.4561,0.003501,0.001645,-0.003004,0.0,0.0,0.0,0.001689,-0.508678,-0.003348,-0.541837,-260.415736,0.589514,67.746866
14.4761,0.003698,0.001753,-0.001511,0.0,0.0,0.0,0.00197,-0.508353,-0.003004,-0.541837,-260.415736,0.589514,67.746866
14.4969,0.00357,0.001688,-0.003544,0.0,0.0,0.0,0.002848,-0.508255,-0.001634,-0.541837,-260.415736,0.589514,67.746866
14.5165,0.003615,0.001897,-0.004285,0.0,0.0,0.0,0.002848,-0.508255,-0.001634,-0.541837,-260.415736,0.589514,67.746866
14.5361,0.003515,0.00185,-0.002855,0.0,0.0,0.0,0.00143,-0.508099,-0.004285,-0.541837,-260.415736,0.589514,67.746866
14.5562,0.003484,0.001692,-0.002706,0.0,0.0,0.0,0.001687,-0.508119,-0.0037,-0.541837,-260.415736,0.589514,67.746866
14.5761,0.003524,0.001769,-0.002597,0.0,0.0,0.0,0.002104,-0.508306,-0.002706,-0.541837,-260.415736,0.589514,67.746866
14.5962,0.002891,0.001723,-0.003035,0.0,0.0,0.0,0.002191,-0.508236,-0.002607,-0.541837,-260.415736,0.589514,67.746866
14.6163,0.003512,0.00166,-0.001034,0.0,0.0,0.0,0.002191,-0.508236,-0.002607,-0.541837,-260.415736,0.589514,67.746866
14.6361,0.003448,0.001472,-0.001497,0.0,0.0,0.0,0.002985,-0.50834,-0.001034,-0.541837,-260.415736,0.589514,67.746866
14.6564,0.003482,0.001518,-0.001936,0.0,0.0,0.0,0.002861,-0.508418,-0.001226,-0.541837,-260.415736,0.589514,67.746866
14.6763,0.003602,0.001465,-0.003345,0.0,0.0,0.0,0.002495,-0.508481,-0.001936,-0.541837,-260.415736,0.589514,67.746866
14.6962,0.003591,0.001849,-0.003158,0.0,0.0,0.0,0.001947,-0.508528,-0.003225,-0.541837,-260.415736,0.589514,67.746866
14.7161,0.003416,0.001756,-0.002145,0.0,0.0,0.0,0.001947,-0.508528,-0.003225,-0.541837,-260.415736,0.589514,67.746866
14.7361,0.003473,0.001402,-0.002741,0.0,0.0,0.0,0.002322,-0.508242,-0.002145,-0.541837,-260.415736,0.589514,67.746866
14.7564,0.003485,0.001802,-0.000818,0.0,0.0,0.0,0.00222,-0.508388,-0.002391,-0.541837,-260.415736,0.589514,67.746866
14.7762,0.003642,0.001473,-0.002271,0.0,0.0,0.0,0.003068,-0.508198,-0.000818,-0.541837,-260.415736,0.589514,67.746866
14.7964,0.003205,0.001796,-0.001105,0.0,0.0,0.0,0.002534,-0.508498,-0.002146,-0.541837,-260.415736,0.589514,67.746866
14.8162,0.003147,0.001714,-0.002409,0.0,0.0,0.0,0.002534,-0.508498,-0.002146,-0.541837,-260.415736,0.589514,67.746866
14.8368,0.003688,0.001267,-0.002854,0.0,0.0,0.0,0.001918,-0.508284,-0.002409,-0.541837,-260.415736,0.589514,67.746866
14.8561,0.003342,0.001648,-0.002344,0.0,0.0,0.0,0.002048,-0.50847,-0.002593,-0.541837,-260.415736,0.589514,67.746866
14.8767,0.00361,0.001916,-0.002723,0.0,0.0,0.0,0.002147,-0.50835,-0.002344,-0.541837,-260.415736,0.589514,67.746866
14.8961,0.003238,0.002024,-0.000873,0.0,0.0,0.0,0.002215,-0.508105,-0.002691,-0.541837,-260.415736,0.589514,67.746866
14.9161,0.003241,0.001489,-0.00265,0.0,0.0,0.0,0.002215,-0.508105,-0.002691,-0.541837,-260.415736,0.589514,67.746866
14.9362,0.00385,0.001844,-0.003512,0.0,0.0,0.0,0.001889,-0.508509,-0.00265,-0.541837,-260.415736,0.589514,67.746866
14.956,0.00335,0.0013,-0.001891,0.0,0.0,0.0,0.001961,-0.508359,-0.003014,-0.541837,-260.415736,0.589514,67.746866
14.9762,0.00359,0.001844,-0.00242,0.0,0.0,0.0,0.002386,-0.508699,-0.001891,-0.541837,-260.415736,0.589514,67.746866
14.9961,0.003528,0.001506,-0.002441,0.0,0.0,0.0,0.002358,-0.508195,-0.00238,-0.541837,-260.415736,0.589514,67.746866
15.0162,0.003256,0.001251,-0.002925,0.0,0.0,0.0,0.002358,-0.508195,-0.00238,-0.541837,-260.415736,0.589514,67.746866
15.0361,0.003378,0.001696,-0.001591,0.0,0.0,0.0,0.001764,-0.508746,-0.002925,-0.541837,-260.415736,0.589514,67.746866
15.0561,0.003636,0.001766,-0.001052,0.0,0.0,0.0,0.002091,-0.508566,-0.002381,-0.541837,-260.415736,0.589514,67.746866
15.0762,0.003584,0.00171,-0.003241,0.0,0.0,0.0,0.003099,-0.508234,-0.001052,-0.541837,-260.415736,0.589514,67.746866
15.0963,0.003355,0.001393,-0.002071,0.0,0.0,0.0,0.002022,-0.508284,-0.003071,-0.541837,-260.415736,0.589514,67.746866
15.1161,0.003191,0.001611,-0.001671,0.0,0.0,0.0,0.002022,-0.508284,-0.003071,-0.541837,-260.415736,0.589514,67.746866
