mach0312/omni-docking-bench/src/icros_test_setup/results/MPPI_sample/timeseries/trial_015.csv
t,x,y,yaw,vx,vy,wz,bl_x,bl_y,bl_yaw,front_steering_joint,front_wheel_joint,rear_steering_joint,rear_wheel_joint
0.0,0.06095,0.019028,-0.068332,-0.0001,6e-06,0.0,0.02637,-0.489438,-0.06926,0.146879,-264.149126,-0.53628,62.347073
0.0003,0.061631,0.019139,-0.069565,-0.0001,6e-06,0.0,0.02637,-0.489438,-0.06926,0.071881,-264.149126,-0.461282,62.347073
0.0006,0.061377,0.019139,-0.068757,-0.0001,6e-06,0.0,0.02637,-0.489438,-0.06926,-0.003074,-264.149128,-0.386327,62.347071
0.0008,0.061601,0.018941,-0.069077,-0.0001,6e-06,0.0,0.027156,-0.489324,-0.067189,-0.003074,-264.149128,-0.386327,62.347071
0.001,0.061722,0.019233,-0.066789,-0.0001,6e-06,0.0,0.027394,-0.489323,-0.066849,-0.003074,-264.149128,-0.386327,62.347071
0.0012,0.06136,0.019302,-0.068688,-0.0001,6e-06,0.0,0.027394,-0.489323,-0.066849,-0.003074,-264.149128,-0.386327,62.347071
0.0158,0.061156,0.019332,-0.068612,0.0,0.0,0.0,0.026356,-0.489495,-0.068688,-0.062377,-264.149135,-0.311344,62.347064
0.0363,0.061076,0.019171,-0.068965,0.0,0.0,0.0,0.026205,-0.48947,-0.068618,-0.062377,-264.149135,-0.311344,62.347064
0.056,0.061157,0.019578,-0.068471,0.0,0.0,0.0,0.026205,-0.48947,-0.068618,-0.062377,-264.149135,-0.311344,62.347064
0.0763,0.060823,0.019518,-0.066736,0.0,0.0,0.0,0.026264,-0.489227,-0.068471,-0.062377,-264.149135,-0.311344,62.347064
0.096,0.061449,0.019054,-0.069276,0.0,0.0,0.0,0.026488,-0.489276,-0.067762,-0.062377,-264.149135,-0.311344,62.347064
0.1158,0.061337,0.019084,-0.068013,-0.000112,-0.001502,0.008601,0.026146,-0.489723,-0.069276,-0.062377,-264.149135,-0.311344,62.347064
0.1361,0.061416,0.019306,-0.067776,-0.000169,-0.001692,0.009303,0.026631,-0.489735,-0.068122,-0.062377,-264.149135,-0.311344,62.347064
0.156,0.061383,0.019335,-0.067539,-0.000227,-0.001869,0.009873,0.026631,-0.489735,-0.068122,-0.062377,-264.149135,-0.311344,62.347064
0.1761,0.061211,0.019477,-0.067164,-0.000284,-0.002032,0.010337,0.026965,-0.489502,-0.067539,-0.137387,-264.149135,-0.386354,62.347064
0.1964,0.061363,0.018823,-0.067599,-0.00034,-0.002182,0.010713,0.026972,-0.48945,-0.067386,-0.137387,-264.149135,-0.386354,62.347064
0.2157,0.061258,0.019421,-0.069559,-0.000393,-0.002319,0.011017,0.026914,-0.490012,-0.067599,-0.212284,-264.149135,-0.461251,62.347064
0.2357,0.061495,0.019216,-0.068978,-0.000431,-0.00246,0.01126,0.025909,-0.489404,-0.069387,-0.212284,-264.149135,-0.461251,62.347064
0.2559,0.061273,0.019304,-0.067649,-0.000468,-0.002586,0.011457,0.025909,-0.489404,-0.069387,-0.212284,-264.149135,-0.461251,62.347064
0.2759,0.061407,0.018995,-0.067806,-0.000502,-0.002699,0.011618,0.026799,-0.489529,-0.067649,-0.28735,-264.149135,-0.536317,62.347064
0.2958,0.061497,0.019277,-0.067526,-0.000546,-0.002782,0.011753,0.02682,-0.489652,-0.067712,-0.28735,-264.149135,-0.536317,62.347064
0.3161,0.061359,0.019166,-0.067266,-0.000586,-0.002857,0.011861,0.027085,-0.489561,-0.067526,-0.362282,-264.149135,-0.611249,62.347064
0.3359,0.061562,0.019004,-0.067739,-0.000626,-0.00292,0.01195,0.02708,-0.48967,-0.067289,-0.362282,-264.149135,-0.611249,62.347064
0.3557,0.061493,0.019514,-0.068267,-0.000661,-0.002977,0.01202,0.02708,-0.48967,-0.067289,-0.362282,-264.149135,-0.611249,62.347064
0.3759,0.061476,0.019425,-0.068297,-0.000694,-0.003029,0.012077,0.026704,-0.489298,-0.068267,-0.437318,-264.149135,-0.686285,62.347064
0.3961,0.061633,0.019024,-0.066462,-0.000715,-0.003087,0.01212,0.026691,-0.489334,-0.068279,-0.437318,-264.149135,-0.686285,62.347064
0.4161,0.061558,0.019321,-0.069622,-0.000733,-0.003138,0.012155,0.027762,-0.48985,-0.066462,-0.512312,-264.149135,-0.761279,62.347064
0.4361,0.061548,0.019368,-0.067732,-0.000747,-0.003188,0.012183,0.026232,-0.48948,-0.069335,-0.512312,-264.149135,-0.761279,62.347064
0.4559,0.061377,0.019297,-0.069095,-0.00076,-0.003231,0.012205,0.026232,-0.48948,-0.069335,-0.512312,-264.149135,-0.761279,62.347064
0.4761,0.061677,0.019069,-0.068995,-0.000771,-0.00327,0.012224,0.026166,-0.489486,-0.069095,-0.587273,-264.149135,-0.83624,62.347064
0.4963,0.061595,0.019001,-0.068038,-0.000784,-0.0033,0.01224,0.026308,-0.48958,-0.069054,-0.587273,-264.149135,-0.83624,62.347064
0.5158,0.061698,0.019206,-0.068856,-0.000795,-0.003328,0.012253,0.026923,-0.489819,-0.068038,-0.662271,-264.149135,-0.911238,62.347064
0.5361,0.061752,0.019563,-0.068354,-0.000809,-0.003346,0.012265,0.026637,-0.489606,-0.068783,-0.662271,-264.149135,-0.911238,62.347064
0.556,0.061359,0.019215,-0.066621,-0.000821,-0.003363,0.012274,0.026637,-0.489606,-0.068783,-0.662271,-264.149135,-0.911238,62.347064
0.5758,0.061743,0.019438,-0.068009,-0.000831,-0.003378,0.012282,0.027407,-0.489654,-0.066621,-0.73728,-264.149135,-0.986247,62.347064
0.596,0.061352,0.019006,-0.069427,-0.000846,-0.003383,0.012289,0.027276,-0.489543,-0.067187,-0.73728,-264.149135,-0.986247,62.347064
0.6161,0.061546,0.019077,-0.068074,-0.00086,-0.003388,0.012295,0.025973,-0.489766,-0.069427,-0.812277,-264.149135,-1.061244,62.347064
0.6361,0.061335,0.019262,-0.068115,-0.000869,-0.003396,0.012299,0.026775,-0.489744,-0.068196,-0.812277,-264.149135,-1.061244,62.347064
0.6561,0.061515,0.019065,-0.066696,-0.000878,-0.003404,0.012302,0.026775,-0.489744,-0.068196,-0.812277,-264.149135,-1.061244,62.347064
0.6759,0.061478,0.019383,-0.067174,-0.000885,-0.003411,0.012304,0.027525,-0.489802,-0.066696,-0.887269,-264.149135,-1.136236,62.347064
0.6962,0.061299,0.019275,-0.067706,-0.000897,-0.003409,0.012308,0.027412,-0.489665,-0.06689,-0.887269,-264.149135,-1.136236,62.347064
0.7161,0.06116,0.019541,-0.067733,-0.000907,-0.003408,0.012311,0.026795,-0.489557,-0.067706,-0.96227,-264.149136,-1.211237,62.347065
0.7361,0.061395,0.019199,-0.067769,-0.000905,-0.003425,0.012309,0.026656,-0.489313,-0.06773,-0.96227,-264.149136,-1.211237,62.347065
0.756,0.061338,0.019238,-0.066644,-0.000903,-0.003439,0.012308,0.026656,-0.489313,-0.06773,-0.96227,-264.149136,-1.211237,62.347065
0.7757,0.06121,0.019182,-0.067254,-0.000901,-0.003451,0.012307,0.027374,-0.489631,-0.066642,-1.037276,-264.149141,-1.286243,62.347079
0.7959,0.061937,0.018846,-0.068488,-0.000908,-0.003447,0.01231,0.027195,-0.489645,-0.066893,-1.037276,-264.149141,-1.286243,62.347079
0.8167,0.061584,0.019335,-0.06751,-0.000915,-0.003444,0.012312,0.027035,-0.489961,-0.06848,-1.112351,-264.149177,-1.361318,62.347175
0.8367,0.061944,0.018699,-0.06858,-0.00092,-0.003445,0.012313,0.027167,-0.489547,-0.067603,-1.112351,-264.149177,-1.361318,62.347175
0.856,0.061792,0.01899,-0.066867,-0.000923,-0.003445,0.012313,0.027167,-0.489547,-0.067603,-1.112351,-264.149177,-1.361318,62.347175
0.876,0.061452,0.019365,-0.065779,-0.000926,-0.003446,0.012314,0.027714,-0.489885,-0.066817,-1.187421,-264.149345,-1.436388,62.347616
0.8958,0.061221,0.01933,-0.068388,-0.000938,-0.003434,0.012317,0.027803,-0.48974,-0.066379,-1.187421,-264.149345,-1.436388,62.347616
0.9159,0.06141,0.019209,-0.06699,-0.000948,-0.003424,0.012319,0.026365,-0.489512,-0.068268,-1.262603,-264.149855,-1.51157,62.34896
0.9363,0.061037,0.018866,-0.067573,-0.000949,-0.003426,0.012317,0.027189,-0.489637,-0.0671,-1.262603,-264.149855,-1.51157,62.34896
0.9565,0.061186,0.01913,-0.067429,-0.000951,-0.003428,0.012316,0.027189,-0.489637,-0.0671,-1.262603,-264.149855,-1.51157,62.34896
0.9762,0.061044,0.018649,-0.066534,-0.000952,-0.00343,0.012316,0.026802,-0.489802,-0.067098,-1.337306,-264.150933,-1.586273,62.351774
0.9964,0.061172,0.018795,-0.067068,-0.000955,-0.003428,0.012394,0.026936,-0.489984,-0.06683,-1.337306,-264.150933,-1.586273,62.351774
1.0159,0.060704,0.018971,-0.065727,-0.000958,-0.003426,0.012456,0.026958,-0.490157,-0.066707,-1.342143,-264.152481,-1.657535,62.355827
1.0365,0.060477,0.018567,-0.067069,-0.000962,-0.003421,0.012564,0.027183,-0.489954,-0.065797,-1.342143,-264.152481,-1.657535,62.355827
1.0564,0.060367,0.018836,-0.067618,-0.000965,-0.003417,0.01265,0.027183,-0.489954,-0.065797,-1.342143,-264.152481,-1.657535,62.355827
1.0762,0.06001,0.01868,-0.066732,-0.000968,-0.003413,0.012719,0.025858,-0.490138,-0.067097,-1.345605,-264.154197,-1.657393,62.360256
1.0963,0.060023,0.018469,-0.065079,-0.00096,-0.003423,0.012828,0.025911,-0.490173,-0.066888,-1.345605,-264.154197,-1.657393,62.360256
1.1157,0.059868,0.018488,-0.065419,-0.000954,-0.003432,0.012915,0.026818,-0.490558,-0.064674,-1.35219,-264.15598,-1.657115,62.364742
1.1358,0.059954,0.018485,-0.064672,-0.000958,-0.003423,0.013038,0.026552,-0.490439,-0.065331,-1.35219,-264.15598,-1.657115,62.364742
1.156,0.060025,0.018425,-0.066388,-0.00096,-0.003416,0.013138,0.026552,-0.490439,-0.065331,-1.35219,-264.15598,-1.657115,62.364742
1.1763,0.060067,0.018731,-0.064049,-0.000963,-0.00341,0.013219,0.026142,-0.490592,-0.065848,-1.359962,-264.157801,-1.654852,62.369281
1.1962,0.059586,0.018349,-0.064756,-0.000966,-0.003403,0.013329,0.026659,-0.490458,-0.065053,-1.359962,-264.157801,-1.654852,62.369281
1.2159,0.059011,0.017556,-0.065188,-0.000968,-0.003397,0.013419,0.026545,-0.490689,-0.064334,-1.36724,-264.159704,-1.654421,62.373887
1.2365,0.059017,0.018265,-0.065736,-0.000973,-0.003386,0.01353,0.025855,-0.491305,-0.06509,-1.36724,-264.159704,-1.654421,62.373887
1.2558,0.059218,0.018376,-0.065247,-0.000977,-0.003378,0.01362,0.025855,-0.491305,-0.06509,-1.36724,-264.159704,-1.654421,62.373887
1.2761,0.058873,0.018275,-0.063787,-0.00098,-0.00337,0.013695,0.025916,-0.490678,-0.064685,-1.371773,-264.161662,-1.654085,62.378538
1.2958,0.058876,0.018232,-0.063617,-0.000977,-0.003372,0.013787,0.026093,-0.490698,-0.064254,-1.371773,-264.161662,-1.654085,62.378538
1.3159,0.058341,0.017399,-0.063372,-0.000975,-0.003374,0.013863,0.026415,-0.490842,-0.063181,-1.377037,-264.163696,-1.654106,62.383246
1.3357,0.058288,0.017946,-0.061433,-0.000983,-0.003358,0.013955,0.026074,-0.491516,-0.063332,-1.377037,-264.163696,-1.654106,62.383246
1.3558,0.05886,0.017813,-0.063226,-0.00099,-0.003345,0.014032,0.026074,-0.491516,-0.063332,-1.377037,-264.163696,-1.654106,62.383246
1.3759,0.05786,0.017918,-0.063118,-0.000995,-0.003334,0.014094,0.026586,-0.491306,-0.062645,-1.381681,-264.165781,-1.652943,62.388022
1.396,0.057928,0.017463,-0.062581,-0.000998,-0.003329,0.014171,0.026205,-0.491222,-0.062776,-1.381681,-264.165781,-1.652943,62.388022
1.4161,0.057293,0.017508,-0.06248,-0.000999,-0.003324,0.014233,0.025995,-0.491642,-0.062134,-1.384312,-264.167918,-1.653927,62.392794
1.4359,0.057331,0.017607,-0.062232,-0.000998,-0.003324,0.014305,0.025495,-0.491515,-0.062427,-1.384312,-264.167918,-1.653927,62.392794
1.456,0.057735,0.017771,-0.061503,-0.000997,-0.003325,0.014364,0.025495,-0.491515,-0.062427,-1.384312,-264.167918,-1.653927,62.392794
1.4759,0.057108,0.017431,-0.060411,-0.000996,-0.003325,0.014413,0.026338,-0.491401,-0.060908,-1.386739,-264.1701,-1.653771,62.397613
1.496,0.057182,0.017407,-0.060889,-0.001003,-0.003312,0.01447,0.026324,-0.491514,-0.060636,-1.386739,-264.1701,-1.653771,62.397613
1.5163,0.056776,0.017281,-0.061648,-0.001008,-0.003301,0.014516,0.026109,-0.491752,-0.06043,-1.390955,-264.172327,-1.652733,62.402479
1.5361,0.056392,0.017378,-0.060354,-0.001008,-0.003301,0.014559,0.025422,-0.491755,-0.061513,-1.390955,-264.172327,-1.652733,62.402479
1.5564,0.056582,0.017401,-0.058529,-0.001008,-0.003301,0.014594,0.025422,-0.491755,-0.061513,-1.390955,-264.172327,-1.652733,62.402479
1.5765,0.056428,0.017456,-0.057901,-0.001007,-0.003301,0.014624,0.026698,-0.491861,-0.057922,-1.391508,-264.174589,-1.653493,62.407362
1.5962,0.056289,0.01714,-0.059407,-0.00102,-0.003278,0.014657,0.026781,-0.491807,-0.057843,-1.391508,-264.174589,-1.653493,62.407362
1.616,0.056031,0.017477,-0.058003,-0.001032,-0.003259,0.014685,0.025971,-0.492063,-0.05894,-1.393832,-264.176879,-1.652926,62.412278
1.6363,0.055882,0.017393,-0.059234,-0.001037,-0.003251,0.014709,0.026422,-0.491704,-0.05806,-1.393832,-264.176879,-1.652926,62.412278
1.6566,0.055909,0.017056,-0.058974,-0.001042,-0.003243,0.014729,0.026422,-0.491704,-0.05806,-1.393832,-264.176879,-1.652926,62.412278
1.676,0.055368,0.01731,-0.058667,-0.001046,-0.003238,0.014746,0.025798,-0.492191,-0.058361,-1.392047,-264.179197,-1.654963,62.417179
1.6959,0.055188,0.0169,-0.058214,-0.001048,-0.003237,0.014762,0.025656,-0.492052,-0.058415,-1.392047,-264.179197,-1.654963,62.417179
1.7163,0.054702,0.016687,-0.055369,-0.001049,-0.003236,0.014775,0.025476,-0.492337,-0.057743,-1.391325,-264.181542,-1.656061,62.422094
1.7364,0.05512,0.016963,-0.056315,-0.001062,-0.003214,0.014795,0.026382,-0.492518,-0.055567,-1.391325,-264.181542,-1.656061,62.422094
1.756,0.055068,0.016603,-0.056479,-0.001074,-0.003195,0.01481,0.026382,-0.492518,-0.055567,-1.391325,-264.181542,-1.656061,62.422094
1.7758,0.054641,0.016979,-0.057424,-0.001084,-0.00318,0.014822,0.026228,-0.492717,-0.05586,-1.391544,-264.183894,-1.656135,62.427016
1.7959,0.05432,0.016755,-0.057297,-0.001089,-0.003175,0.014833,0.025874,-0.492514,-0.056423,-1.391544,-264.183894,-1.656135,62.427016
1.8158,0.054319,0.016186,-0.057289,-0.001093,-0.003171,0.014842,0.025074,-0.492508,-0.056824,-1.388231,-264.186287,-1.659206,62.431935
1.8359,0.054072,0.016671,-0.053647,-0.001094,-0.00317,0.014851,0.025112,-0.492941,-0.057225,-1.388231,-264.186287,-1.659206,62.431935
1.8559,0.053861,0.016576,-0.056252,-0.001096,-0.003169,0.014859,0.025112,-0.492941,-0.057225,-1.388231,-264.186287,-1.659206,62.431935
1.8758,0.053487,0.016452,-0.055853,-0.001097,-0.003168,0.014865,0.025134,-0.492747,-0.055632,-1.387515,-264.188681,-1.659854,62.43684
1.8958,0.053716,0.016762,-0.054762,-0.001097,-0.00317,0.014872,0.02508,-0.492764,-0.055651,-1.387515,-264.188681,-1.659854,62.43684
1.9157,0.052931,0.016317,-0.054329,-0.001096,-0.003173,0.014878,0.025762,-0.492573,-0.054289,-1.387244,-264.191089,-1.660159,62.441767
1.9359,0.053388,0.016191,-0.053624,-0.0011,-0.003167,0.014886,0.02528,-0.492905,-0.054302,-1.387244,-264.191089,-1.660159,62.441767
1.9558,0.053378,0.016202,-0.055218,-0.001103,-0.003163,0.014893,0.02528,-0.492905,-0.054302,-1.387244,-264.191089,-1.660159,62.441767
1.9759,0.052734,0.016293,-0.053008,-0.001105,-0.003159,0.014898,0.025179,-0.49315,-0.054597,-1.387551,-264.193494,-1.659964,62.446688
1.9958,0.053045,0.016563,-0.054116,-0.001111,-0.00315,0.014905,0.025392,-0.4931,-0.053872,-1.387551,-264.193494,-1.659964,62.446688
2.0157,0.052525,0.016404,-0.051854,-0.001116,-0.003142,0.014911,0.025418,-0.492789,-0.053642,-1.386826,-264.195911,-1.660719,62.451611
2.0357,0.052393,0.015856,-0.05296,-0.001124,-0.003129,0.014918,0.026031,-0.492905,-0.051987,-1.386826,-264.195911,-1.660719,62.451611
2.0557,0.052323,0.015934,-0.051874,-0.001131,-0.003119,0.014923,0.026031,-0.492905,-0.051987,-1.386826,-264.195911,-1.660719,62.451611
2.0761,0.052084,0.015772,-0.051815,-0.001138,-0.00311,0.014927,0.025825,-0.493509,-0.05125,-1.385792,-264.198335,-1.661681,62.456525
2.0967,0.052063,0.015879,-0.05126,-0.001149,-0.003091,0.014934,0.025756,-0.493538,-0.051408,-1.385792,-264.198335,-1.661681,62.456525
2.1158,0.051291,0.015812,-0.051566,-0.001159,-0.003076,0.014938,0.02589,-0.493548,-0.050784,-1.383634,-264.200783,-1.663578,62.46144
2.1361,0.051326,0.015785,-0.051778,-0.001162,-0.003074,0.01494,0.02508,-0.493518,-0.051473,-1.383634,-264.200783,-1.663578,62.46144
2.1566,0.051581,0.015712,-0.050748,-0.001164,-0.003072,0.014941,0.02508,-0.493518,-0.051473,-1.383634,-264.200783,-1.663578,62.46144
2.1762,0.050769,0.015812,-0.048491,-0.001166,-0.00307,0.014942,0.025656,-0.493758,-0.050123,-1.381479,-264.203243,-1.665495,62.466337
2.1965,0.050749,0.015491,-0.052986,-0.001177,-0.003052,0.014947,0.025809,-0.493703,-0.049387,-1.381479,-264.203243,-1.665495,62.466337
2.2161,0.050753,0.015866,-0.048354,-0.001187,-0.003037,0.01495,0.023696,-0.493889,-0.052509,-1.380507,-264.205711,-1.666154,62.471239
2.2361,0.050487,0.015554,-0.050455,-0.001195,-0.003026,0.014953,0.025887,-0.493574,-0.048698,-1.380507,-264.205711,-1.666154,62.471239
2.2565,0.05047,0.015808,-0.050097,-0.001201,-0.003016,0.014955,0.025887,-0.493574,-0.048698,-1.380507,-264.205711,-1.666154,62.471239
2.276,0.049882,0.015253,-0.047707,-0.001207,-0.003008,0.014956,0.024875,-0.493676,-0.049472,-1.378441,-264.208193,-1.668033,62.476127
2.296,0.050174,0.015409,-0.049456,-0.00121,-0.003005,0.014956,0.025148,-0.49389,-0.048682,-1.378441,-264.208193,-1.668033,62.476127
2.3158,0.049491,0.015394,-0.048136,-0.001213,-0.003002,0.014956,0.024919,-0.494062,-0.048979,-1.376232,-264.21069,-1.669885,62.481007
2.3361,0.049235,0.015529,-0.04848,-0.001216,-0.002999,0.014957,0.024946,-0.494024,-0.048188,-1.376232,-264.21069,-1.669885,62.481007
2.3562,0.049463,0.01518,-0.047561,-0.001218,-0.002997,0.014957,0.024946,-0.494024,-0.048188,-1.376232,-264.21069,-1.669885,62.481007
2.3759,0.049195,0.015045,-0.048234,-0.00122,-0.002995,0.014957,0.025159,-0.494367,-0.046934,-1.37547,-264.213191,-1.670429,62.485887
2.3962,0.049172,0.014743,-0.046944,-0.001227,-0.002984,0.01496,0.024927,-0.494379,-0.047392,-1.37547,-264.213191,-1.670429,62.485887
2.4162,0.048748,0.014721,-0.047836,-0.001233,-0.002975,0.014961,0.025196,-0.49479,-0.046465,-1.374589,-264.215695,-1.671076,62.490763
2.4363,0.048731,0.014793,-0.047842,-0.001238,-0.002967,0.014962,0.024439,-0.49471,-0.047678,-1.374589,-264.215695,-1.671076,62.490763
2.4562,0.048892,0.014823,-0.045913,-0.001242,-0.002961,0.014963,0.024439,-0.49471,-0.047678,-1.374589,-264.215695,-1.671076,62.490763
2.476,0.048385,0.015122,-0.04563,-0.001246,-0.002955,0.014963,0.025428,-0.494762,-0.045287,-1.373376,-264.218212,-1.672205,62.495639
2.4963,0.048247,0.01499,-0.047781,-0.001256,-0.002938,0.014966,0.025295,-0.494605,-0.045356,-1.373376,-264.218212,-1.672205,62.495639
2.5159,0.047921,0.014874,-0.045458,-0.001264,-0.002925,0.014968,0.023844,-0.49452,-0.047304,-1.371935,-264.220738,-1.673477,62.500508
2.5361,0.047649,0.014716,-0.044587,-0.001267,-0.002923,0.014967,0.024668,-0.494597,-0.045589,-1.371935,-264.220738,-1.673477,62.500508
2.5562,0.047788,0.014848,-0.045546,-0.001269,-0.002921,0.014967,0.024668,-0.494597,-0.045589,-1.371935,-264.220738,-1.673477,62.500508
2.5757,0.047473,0.014953,-0.04431,-0.001271,-0.002919,0.014966,0.02451,-0.494743,-0.044921,-1.37018,-264.223272,-1.675194,62.505354
2.5956,0.047224,0.014458,-0.043109,-0.001274,-0.002916,0.014966,0.024656,-0.494676,-0.044598,-1.37018,-264.223272,-1.675194,62.505354
2.6156,0.046864,0.014808,-0.04389,-0.001276,-0.002912,0.014966,0.025202,-0.495159,-0.042634,-1.369306,-264.225815,-1.675778,62.510211
2.6359,0.046769,0.014328,-0.043935,-0.001279,-0.002909,0.014966,0.024545,-0.494744,-0.043761,-1.369306,-264.225815,-1.675778,62.510211
2.6562,0.046884,0.014581,-0.043507,-0.001281,-0.002906,0.014966,0.024545,-0.494744,-0.043761,-1.369306,-264.225815,-1.675778,62.510211
2.6761,0.046289,0.014354,-0.045,-0.001283,-0.002904,0.014966,0.024644,-0.495055,-0.042881,-1.368687,-264.22836,-1.676286,62.515062
2.6962,0.046832,0.014501,-0.044504,-0.001286,-0.002899,0.014966,0.0241,-0.4951,-0.043687,-1.368687,-264.22836,-1.676286,62.515062
2.7162,0.046217,0.014398,-0.042725,-0.001288,-0.002896,0.014967,0.024097,-0.495084,-0.044028,-1.367919,-264.230899,-1.676917,62.519892
2.7363,0.046358,0.014147,-0.041059,-0.001293,-0.002887,0.014968,0.0244,-0.495136,-0.042822,-1.367919,-264.230899,-1.676917,62.519892
2.7563,0.046386,0.014154,-0.042057,-0.001298,-0.002879,0.014969,0.0244,-0.495136,-0.042822,-1.367919,-264.230899,-1.676917,62.519892
2.7762,0.0455,0.014166,-0.043096,-0.001302,-0.002873,0.014969,0.024884,-0.495514,-0.04143,-1.367379,-264.233456,-1.677409,62.524746
2.7964,0.045534,0.014619,-0.042813,-0.001309,-0.00286,0.014971,0.024319,-0.495465,-0.042044,-1.367379,-264.233456,-1.677409,62.524746
2.816,0.045015,0.014102,-0.040363,-0.001316,-0.002849,0.014972,0.023661,-0.495003,-0.042338,-1.366039,-264.236016,-1.67874,62.529577
2.8363,0.045373,0.014265,-0.043733,-0.001322,-0.002838,0.014973,0.024366,-0.495445,-0.040511,-1.366039,-264.236016,-1.67874,62.529577
2.8562,0.044968,0.013905,-0.041474,-0.001328,-0.002829,0.014974,0.024366,-0.495445,-0.040511,-1.366039,-264.236016,-1.67874,62.529577
2.8759,0.044565,0.013853,-0.039242,-0.001333,-0.002821,0.014974,0.023763,-0.495773,-0.040848,-1.364756,-264.238583,-1.680078,62.534394
2.8959,0.04411,0.013738,-0.038676,-0.001339,-0.002811,0.014974,0.024079,-0.495779,-0.040122,-1.364756,-264.238583,-1.680078,62.534394
2.916,0.044159,0.013705,-0.039167,-0.001345,-0.002801,0.014975,0.024345,-0.495968,-0.038199,-1.36308,-264.241172,-1.681711,62.539217
2.9362,0.04412,0.013904,-0.039105,-0.001353,-0.002787,0.014976,0.0242,-0.495914,-0.039058,-1.36308,-264.241172,-1.681711,62.539217
2.9564,0.044259,0.013637,-0.038465,-0.00136,-0.002776,0.014976,0.0242,-0.495914,-0.039058,-1.36308,-264.241172,-1.681711,62.539217
2.9759,0.0438,0.013288,-0.038554,-0.001366,-0.002766,0.014976,0.024586,-0.496101,-0.037839,-1.361901,-264.243767,-1.682898,62.544027
2.9959,0.043723,0.013873,-0.038781,-0.001377,-0.002746,0.014979,0.024398,-0.496209,-0.038058,-1.361901,-264.243767,-1.682898,62.544027
3.0156,0.043527,0.013332,-0.036637,-0.001386,-0.00273,0.01498,0.023903,-0.49583,-0.038303,-1.359899,-264.246378,-1.684966,62.548824
3.0364,0.043424,0.013311,-0.038429,-0.001398,-0.002707,0.014982,0.024764,-0.496288,-0.036755,-1.359899,-264.246378,-1.684966,62.548824
3.0562,0.043724,0.013031,-0.039096,-0.001409,-0.002689,0.014983,0.024764,-0.496288,-0.036755,-1.359899,-264.246378,-1.684966,62.548824
3.0759,0.042855,0.013362,-0.037711,-0.001419,-0.002673,0.014984,0.023728,-0.496691,-0.03847,-1.358113,-264.249002,-1.686972,62.553603
3.0958,0.042942,0.013426,-0.039101,-0.001422,-0.00267,0.014981,0.023679,-0.496534,-0.038087,-1.358113,-264.249002,-1.686972,62.553603
3.1159,0.042329,0.013199,-0.036846,-0.001425,-0.002668,0.014979,0.022957,-0.496268,-0.038625,-1.355238,-264.25165,-1.690193,62.558359
3.1362,0.042499,0.013208,-0.036002,-0.001425,-0.002671,0.014976,0.023486,-0.496442,-0.036983,-1.355238,-264.25165,-1.690193,62.558359
3.1562,0.042755,0.013347,-0.037164,-0.001425,-0.002673,0.014974,0.023486,-0.496442,-0.036983,-1.355238,-264.25165,-1.690193,62.558359
3.1762,0.041942,0.012668,-0.034976,-0.001425,-0.002675,0.014972,0.023742,-0.49641,-0.036537,-1.354397,-264.254304,-1.690781,62.56312
3.1962,0.04197,0.013004,-0.035394,-0.001432,-0.002663,0.014973,0.023883,-0.49667,-0.035832,-1.354397,-264.254304,-1.690781,62.56312
3.2157,0.041596,0.01318,-0.035566,-0.001437,-0.002653,0.014974,0.023874,-0.49676,-0.034915,-1.353933,-264.256954,-1.690822,62.567881
3.2362,0.041593,0.013214,-0.035817,-0.001438,-0.002654,0.014973,0.023496,-0.496525,-0.035482,-1.353933,-264.256954,-1.690822,62.567881
3.2562,0.042026,0.012805,-0.034842,-0.001438,-0.002655,0.014971,0.023496,-0.496525,-0.035482,-1.353933,-264.256954,-1.690822,62.567881
3.2758,0.04097,0.013228,-0.034343,-0.001438,-0.002656,0.01497,0.024196,-0.496994,-0.034215,-1.352957,-264.259614,-1.692007,62.572635
3.2961,0.04109,0.012641,-0.033839,-0.001445,-0.002643,0.014973,0.023888,-0.496794,-0.034195,-1.352957,-264.259614,-1.692007,62.572635
3.3159,0.040393,0.012482,-0.0335,-0.001451,-0.002631,0.014974,0.023787,-0.49715,-0.033362,-1.352623,-264.262272,-1.69208,62.57739
3.3365,0.040586,0.012838,-0.032799,-0.001458,-0.002617,0.014976,0.023352,-0.497229,-0.033463,-1.352623,-264.262272,-1.69208,62.57739
3.356,0.040437,0.012958,-0.0327,-0.001465,-0.002604,0.014977,0.023352,-0.497229,-0.033463,-1.352623,-264.262272,-1.69208,62.57739
3.3759,0.040605,0.012824,-0.03351,-0.00147,-0.002594,0.014977,0.023699,-0.496878,-0.032072,-1.351648,-264.264941,-1.693384,62.582136
3.396,0.040009,0.012425,-0.032274,-0.001473,-0.002591,0.014976,0.023618,-0.496895,-0.032583,-1.351648,-264.264941,-1.693384,62.582136
3.4161,0.039412,0.012435,-0.031503,-0.001476,-0.002587,0.014975,0.023502,-0.497391,-0.031795,-1.350105,-264.267628,-1.695353,62.58687
3.4358,0.039555,0.012243,-0.031519,-0.001482,-0.002576,0.014976,0.02336,-0.497324,-0.031505,-1.350105,-264.267628,-1.695353,62.58687
3.4561,0.039488,0.01286,-0.03103,-0.001487,-0.002566,0.014977,0.02336,-0.497324,-0.031505,-1.350105,-264.267628,-1.695353,62.58687
3.4759,0.039283,0.012239,-0.030442,-0.001492,-0.002557,0.014977,0.0236,-0.497001,-0.030403,-1.349504,-264.270317,-1.695893,62.591601
3.4957,0.039177,0.012963,-0.029771,-0.001497,-0.002548,0.014977,0.023658,-0.497225,-0.030346,-1.349504,-264.270317,-1.695893,62.591601
3.516,0.03823,0.012508,-0.031783,-0.001502,-0.00254,0.014977,0.023947,-0.496891,-0.029294,-1.348168,-264.273018,-1.697567,62.596319
3.5359,0.038676,0.012448,-0.030391,-0.001495,-0.002557,0.014971,0.022197,-0.497207,-0.03153,-1.348168,-264.273018,-1.697567,62.596319
3.556,0.038195,0.012101,-0.031376,-0.001489,-0.002572,0.014967,0.022197,-0.497207,-0.03153,-1.348168,-264.273018,-1.697567,62.596319
3.576,0.038334,0.012427,-0.030549,-0.001483,-0.002585,0.014965,0.02213,-0.497752,-0.030748,-1.347312,-264.275729,-1.698596,62.601032
3.5961,0.038127,0.012331,-0.030366,-0.001485,-0.00258,0.014966,0.022376,-0.497595,-0.030595,-1.347312,-264.275729,-1.698596,62.601032
3.616,0.037748,0.011589,-0.029965,-0.001487,-0.002576,0.014967,0.022592,-0.497515,-0.029888,-1.348298,-264.278423,-1.696622,62.605769
3.6365,0.037848,0.011981,-0.02943,-0.001496,-0.002554,0.014972,0.022477,-0.498128,-0.029935,-1.348298,-264.278423,-1.696622,62.605769
3.656,0.037745,0.012075,-0.030336,-0.001504,-0.002536,0.014974,0.022477,-0.498128,-0.029935,-1.348298,-264.278423,-1.696622,62.605769
3.6761,0.03715,0.011991,-0.027605,-0.001512,-0.002521,0.014976,0.022211,-0.497796,-0.029709,-1.348097,-264.281113,-1.697019,62.610488
3.6961,0.037511,0.011936,-0.027304,-0.001515,-0.002515,0.014976,0.022553,-0.497816,-0.028784,-1.348097,-264.281113,-1.697019,62.610488
3.7161,0.036416,0.011945,-0.027881,-0.001518,-0.002511,0.014975,0.023538,-0.497953,-0.026826,-1.346514,-264.283833,-1.699635,62.615197
3.7361,0.036924,0.011902,-0.026848,-0.00152,-0.002508,0.014974,0.02231,-0.497869,-0.027768,-1.346514,-264.283833,-1.699635,62.615197
3.756,0.037158,0.012042,-0.02654,-0.001521,-0.002506,0.014973,0.02231,-0.497869,-0.027768,-1.346514,-264.283833,-1.699635,62.615197
3.7758,0.036469,0.011752,-0.02647,-0.001523,-0.002505,0.014972,0.023558,-0.497881,-0.025915,-1.345915,-264.286552,-1.700277,62.619893
3.7963,0.036285,0.011817,-0.027545,-0.001533,-0.002483,0.014976,0.02331,-0.49797,-0.02607,-1.345915,-264.286552,-1.700277,62.619893
3.8161,0.035991,0.011736,-0.02652,-0.001541,-0.002465,0.014978,0.022189,-0.498068,-0.027068,-1.345347,-264.28928,-1.700783,62.624597
3.8365,0.035802,0.01178,-0.026351,-0.001544,-0.002461,0.014977,0.02244,-0.498087,-0.026545,-1.345347,-264.28928,-1.700783,62.624597
3.8559,0.036348,0.011904,-0.025891,-0.001547,-0.002457,0.014976,0.02244,-0.498087,-0.026545,-1.345347,-264.28928,-1.700783,62.624597
3.8764,0.035728,0.011526,-0.023974,-0.001549,-0.002453,0.014975,0.023078,-0.498026,-0.025265,-1.344155,-264.292018,-1.702724,62.629275
3.8962,0.03567,0.011708,-0.025202,-0.001558,-0.002434,0.014978,0.023242,-0.49816,-0.024669,-1.344155,-264.292018,-1.702724,62.629275
3.9162,0.034805,0.012031,-0.024981,-0.001566,-0.002418,0.014979,0.022767,-0.498207,-0.024724,-1.343308,-264.29477,-1.703582,62.633963
3.9361,0.035079,0.011296,-0.023432,-0.001561,-0.002432,0.014974,0.022128,-0.497851,-0.024932,-1.343308,-264.29477,-1.703582,62.633963
3.9558,0.034626,0.011621,-0.023675,-0.001557,-0.002444,0.01497,0.022128,-0.497851,-0.024932,-1.343308,-264.29477,-1.703582,62.633963
3.9762,0.034795,0.011395,-0.024489,-0.001554,-0.002453,0.014968,0.022485,-0.498336,-0.02305,-1.342202,-264.297534,-1.705351,62.638632
3.9959,0.034284,0.011595,-0.022086,-0.00156,-0.002439,0.014971,0.022404,-0.498395,-0.023571,-1.342202,-264.297534,-1.705351,62.638632
4.016,0.03444,0.011323,-0.022568,-0.001565,-0.002427,0.014973,0.02297,-0.498357,-0.021611,-1.342537,-264.300276,-1.704008,62.643303
4.0362,0.034449,0.011039,-0.022109,-0.001575,-0.002403,0.014977,0.022932,-0.498534,-0.022458,-1.342537,-264.300276,-1.704008,62.643303
4.0561,0.034115,0.011286,-0.022491,-0.001584,-0.002383,0.014979,0.022932,-0.498534,-0.022458,-1.342537,-264.300276,-1.704008,62.643303
4.076,0.033147,0.011201,-0.023555,-0.001592,-0.002367,0.01498,0.022578,-0.498685,-0.021865,-1.341878,-264.303048,-1.705254,62.647996
4.0961,0.033456,0.011637,-0.022572,-0.001595,-0.002364,0.014978,0.021964,-0.498685,-0.022501,-1.341878,-264.303048,-1.705254,62.647996
4.1159,0.033231,0.010747,-0.020585,-0.001597,-0.002361,0.014977,0.021894,-0.498307,-0.022097,-1.340213,-264.305825,-1.708179,62.65263
4.1363,0.033751,0.010833,-0.020712,-0.001609,-0.002333,0.014981,0.022658,-0.499075,-0.020693,-1.340213,-264.305825,-1.708179,62.65263
4.156,0.033269,0.011026,-0.02274,-0.00162,-0.00231,0.014983,0.022658,-0.499075,-0.020693,-1.340213,-264.305825,-1.708179,62.65263
4.1763,0.032984,0.011283,-0.020672,-0.001629,-0.002291,0.014984,0.021604,-0.498939,-0.022114,-1.339647,-264.308618,-1.708706,62.657284
4.1959,0.03281,0.010581,-0.022309,-0.001629,-0.002295,0.01498,0.021942,-0.498814,-0.021445,-1.339647,-264.308618,-1.708706,62.657284
4.2157,0.032227,0.010709,-0.018303,-0.001629,-0.002299,0.014976,0.02138,-0.499364,-0.021834,-1.337662,-264.311434,-1.712204,62.6619
4.236,0.032218,0.010734,-0.019261,-0.001641,-0.002273,0.014978,0.022759,-0.499223,-0.018586,-1.337662,-264.311434,-1.712204,62.6619
4.2564,0.031923,0.010581,-0.020053,-0.001651,-0.002251,0.014979,0.022759,-0.499223,-0.018586,-1.337662,-264.311434,-1.712204,62.6619
4.2761,0.031641,0.010454,-0.02017,-0.00166,-0.002233,0.014979,0.021627,-0.499412,-0.019427,-1.337225,-264.314249,-1.712187,62.666523
4.2961,0.031699,0.010514,-0.017869,-0.001662,-0.002231,0.014977,0.021507,-0.499435,-0.019659,-1.337225,-264.314249,-1.712187,62.666523
4.3161,0.031668,0.010902,-0.018229,-0.001664,-0.00223,0.014975,0.022532,-0.499475,-0.017393,-1.335206,-264.317089,-1.715638,62.671117
4.3359,0.031133,0.010698,-0.017565,-0.001668,-0.002225,0.014972,0.022384,-0.499059,-0.018128,-1.335206,-264.317089,-1.715638,62.671117
4.3558,0.031319,0.010383,-0.018562,-0.001671,-0.002221,0.014969,0.022384,-0.499059,-0.018128,-1.335206,-264.317089,-1.715638,62.671117
4.3763,0.03083,0.010654,-0.018597,-0.001674,-0.002218,0.014967,0.021781,-0.499621,-0.017935,-1.334626,-264.319944,-1.716087,62.675731
4.3962,0.030641,0.010469,-0.017686,-0.001676,-0.002214,0.014965,0.021592,-0.499481,-0.018137,-1.334626,-264.319944,-1.716087,62.675731
4.4161,0.030074,0.010557,-0.01658,-0.001679,-0.00221,0.014964,0.021567,-0.499521,-0.017212,-1.333577,-264.322783,-1.717092,62.680308
4.4358,0.030387,0.010586,-0.016905,-0.00168,-0.002209,0.014955,0.021611,-0.499389,-0.016612,-1.333577,-264.322783,-1.717092,62.680308
4.4559,0.030462,0.010054,-0.01751,-0.001681,-0.002208,0.014948,0.021611,-0.499389,-0.016612,-1.333577,-264.322783,-1.717092,62.680308
4.4759,0.029873,0.010538,-0.015063,-0.001683,-0.002207,0.014942,0.021461,-0.499959,-0.016883,-1.333109,-264.325636,-1.717634,62.684898
4.4959,0.029871,0.010306,-0.016758,-0.001688,-0.002191,0.014935,0.021751,-0.499743,-0.016068,-1.333109,-264.325636,-1.717634,62.684898
4.5163,0.029041,0.00997,-0.015021,-0.001693,-0.002179,0.01493,0.02127,-0.499692,-0.016281,-1.332253,-264.328483,-1.718192,62.68948
4.5362,0.029253,0.010459,-0.014855,-0.001697,-0.002167,0.014913,0.021368,-0.49995,-0.015111,-1.332253,-264.328483,-1.718192,62.68948
4.5562,0.02971,0.010312,-0.014301,-0.0017,-0.002157,0.014899,0.021368,-0.49995,-0.015111,-1.332253,-264.328483,-1.718192,62.68948
4.5763,0.028996,0.009789,-0.015141,-0.001703,-0.002149,0.014889,0.022344,-0.499726,-0.013675,-1.331449,-264.33134,-1.71959,62.694049
4.5962,0.029107,0.009946,-0.013946,-0.001707,-0.002135,0.014865,0.021902,-0.49991,-0.014199,-1.331449,-264.33134,-1.71959,62.694049
4.6158,0.028733,0.009991,-0.012911,-0.00171,-0.002123,0.014846,0.02194,-0.500072,-0.013471,-1.33028,-264.3342,-1.721167,62.698596
4.6364,0.028866,0.009663,-0.014176,-0.001712,-0.002108,0.014796,0.022127,-0.499979,-0.012937,-1.33028,-264.3342,-1.721167,62.698596
4.656,0.028481,0.010132,-0.013687,-0.001714,-0.002096,0.014757,0.022127,-0.499979,-0.012937,-1.33028,-264.3342,-1.721167,62.698596
4.6764,0.02823,0.009676,-0.013826,-0.001716,-0.002085,0.014727,0.021428,-0.499908,-0.013065,-1.329354,-264.337061,-1.722437,62.703124
4.6964,0.02817,0.009736,-0.011744,-0.001715,-0.002085,0.014714,0.021318,-0.500067,-0.013302,-1.329354,-264.337061,-1.722437,62.703124
4.7161,0.027498,0.009752,-0.011666,-0.001715,-0.002084,0.014704,0.022126,-0.500294,-0.011275,-1.327342,-264.339909,-1.72448,62.707609
4.7364,0.02718,0.009534,-0.011848,-0.001714,-0.002076,0.014614,0.021597,-0.500224,-0.011607,-1.327342,-264.339909,-1.72448,62.707609
4.7567,0.027431,0.009817,-0.010956,-0.001713,-0.002068,0.014545,0.021597,-0.500224,-0.011607,-1.327342,-264.339909,-1.72448,62.707609
4.7764,0.02738,0.009575,-0.012802,-0.001713,-0.002062,0.014494,0.021771,-0.500239,-0.01034,-1.327104,-264.342752,-1.724533,62.712088
4.7961,0.027141,0.009609,-0.012886,-0.001712,-0.002056,0.014429,0.021389,-0.500307,-0.011268,-1.327104,-264.342752,-1.724533,62.712088
4.8158,0.026525,0.0096,-0.01167,-0.001712,-0.002051,0.014381,0.020513,-0.500414,-0.012426,-1.323695,-264.345552,-1.726478,62.716505
4.8364,0.026991,0.009487,-0.01146,-0.001709,-0.002057,0.014375,0.020565,-0.500373,-0.011714,-1.323695,-264.345552,-1.726478,62.716505
4.8562,0.026422,0.009659,-0.010642,-0.001706,-0.002062,0.014371,0.020565,-0.500373,-0.011714,-1.323695,-264.345552,-1.726478,62.716505
4.876,0.026291,0.009021,-0.012072,-0.001704,-0.002066,0.014368,0.020922,-0.500397,-0.01004,-1.32178,-264.348333,-1.727503,62.720898
4.8962,0.026182,0.009539,-0.009764,-0.001703,-0.002059,0.014296,0.020591,-0.50063,-0.010803,-1.32178,-264.348333,-1.727503,62.720898
4.916,0.025968,0.009452,-0.008339,-0.001703,-0.002054,0.014243,0.021147,-0.500502,-0.009306,-1.322151,-264.351099,-1.726668,62.725282
4.9361,0.025965,0.009348,-0.010384,-0.001711,-0.002038,0.013856,0.021661,-0.500531,-0.008402,-1.322151,-264.351099,-1.726668,62.725282
4.9563,0.025914,0.009513,-0.009808,-0.001717,-0.002024,0.013582,0.021661,-0.500531,-0.008402,-1.322151,-264.351099,-1.726668,62.725282
4.9762,0.025005,0.009149,-0.00822,-0.001721,-0.002011,0.013389,0.020839,-0.500548,-0.009211,-1.319919,-264.353843,-1.727878,62.729636
4.9961,0.025345,0.009624,-0.008212,-0.001721,-0.002006,0.013311,0.02082,-0.500673,-0.008742,-1.319919,-264.353843,-1.727878,62.729636
5.0163,0.024706,0.009533,-0.007876,-0.001721,-0.002001,0.013258,0.021103,-0.500422,-0.00779,-1.298583,-264.356385,-1.738154,62.733739
5.0361,0.025051,0.008954,-0.008194,-0.00172,-0.002008,0.013053,0.020721,-0.500452,-0.007849,-1.298583,-264.356385,-1.738154,62.733739
5.0561,0.025106,0.008934,-0.008196,-0.001718,-0.002013,0.01291,0.020721,-0.500452,-0.007849,-1.298583,-264.356385,-1.738154,62.733739
5.0761,0.024568,0.008941,-0.006835,-0.001716,-0.002016,0.012812,0.020854,-0.501132,-0.007642,-1.295703,-264.358917,-1.739571,62.737834
5.0962,0.02468,0.009313,-0.007116,-0.001724,-0.001992,0.01262,0.02094,-0.501106,-0.007245,-1.295703,-264.358917,-1.739571,62.737834
5.1162,0.024026,0.008985,-0.005302,-0.001731,-0.001971,0.012487,0.020996,-0.500738,-0.00671,-1.283562,-264.361336,-1.743436,62.741823
5.1364,0.024145,0.009301,-0.007979,-0.001738,-0.001972,0.011885,0.021291,-0.500989,-0.005401,-1.283562,-264.361336,-1.743436,62.741823
5.156,0.024122,0.009008,-0.006608,-0.001743,-0.001967,0.011481,0.021291,-0.500989,-0.005401,-1.283562,-264.361336,-1.743436,62.741823
5.1757,0.024003,0.009007,-0.006482,-0.001748,-0.001959,0.011212,0.020752,-0.50098,-0.006608,-1.273763,-264.361336,-1.668366,62.741822
5.1959,0.0241,0.009228,-0.006761,-0.001747,-0.001945,0.01133,0.020729,-0.500981,-0.006556,-1.273763,-264.361336,-1.668366,62.741822
5.2159,0.023713,0.009157,-0.006851,-0.001746,-0.001933,0.011418,0.020652,-0.50076,-0.006761,-1.22749,-264.361336,-1.593308,62.741822
5.2361,0.024175,0.008791,-0.005961,-0.001741,-0.001934,0.01153,0.020258,-0.500824,-0.006843,-1.22749,-264.361336,-1.593308,62.741822
5.2558,0.024132,0.0091,-0.006532,-0.001736,-0.001935,0.01161,0.020258,-0.500824,-0.006843,-1.22749,-264.361336,-1.593308,62.741822
5.2756,0.024476,0.008942,-0.007367,-0.001732,-0.001935,0.011667,0.020801,-0.500889,-0.006532,-1.237237,-264.361336,-1.518525,62.741822
5.2958,0.02436,0.009128,-0.006164,-0.001732,-0.001922,0.011704,0.020766,-0.500954,-0.00688,-1.237237,-264.361336,-1.518525,62.741822
5.3159,0.023951,0.008863,-0.006368,-0.001733,-0.001911,0.011727,0.021216,-0.500862,-0.006164,-1.248695,-264.361337,-1.443263,62.741821
5.3359,0.024369,0.008932,-0.008098,-0.001736,-0.0019,0.011611,0.020752,-0.501102,-0.006349,-1.248695,-264.361337,-1.443263,62.741821
5.3561,0.024052,0.008944,-0.005469,-0.001738,-0.00189,0.011523,0.020752,-0.501102,-0.006349,-1.248695,-264.361337,-1.443263,62.741821
5.3761,0.023759,0.009009,-0.008926,-0.001741,-0.001882,0.011455,0.021263,-0.501049,-0.005469,-1.25202,-264.361337,-1.368478,62.741821
5.3958,0.023648,0.008736,-0.006766,-0.001739,-0.001879,0.011507,0.020425,-0.501017,-0.006878,-1.25202,-264.361337,-1.368478,62.741821
5.4158,0.024404,0.008962,-0.006775,-0.001738,-0.001877,0.01154,0.020197,-0.501252,-0.006766,-1.242726,-264.361337,-1.293535,62.741821
5.4363,0.02346,0.008944,-0.007744,-0.00174,-0.00187,0.011522,0.020882,-0.501046,-0.006774,-1.242726,-264.361337,-1.293535,62.741821
5.4559,0.024236,0.008773,-0.007923,-0.001742,-0.001863,0.011501,0.020882,-0.501046,-0.006774,-1.242726,-264.361337,-1.293535,62.741821
5.4762,0.02399,0.008967,-0.006284,-0.001743,-0.001858,0.011481,0.020195,-0.501211,-0.007923,-1.246523,-264.361337,-1.218484,62.74182
5.4968,0.024058,0.0089,-0.006624,-0.001743,-0.001856,0.011524,0.020437,-0.501134,-0.007251,-1.246523,-264.361337,-1.218484,62.74182
5.5163,0.024001,0.008861,-0.007014,-0.001743,-0.001855,0.011547,0.02068,-0.501089,-0.006624,-1.244592,-264.361337,-1.143388,62.74182
5.5363,0.023817,0.009061,-0.006135,-0.001744,-0.001854,0.011475,0.020447,-0.501123,-0.006979,-1.244592,-264.361337,-1.143388,62.74182
5.5562,0.024332,0.009115,-0.007931,-0.001745,-0.001855,0.011414,0.020447,-0.501123,-0.006979,-1.244592,-264.361337,-1.143388,62.74182
5.5761,0.02426,0.009165,-0.006129,-0.001747,-0.001855,0.011363,0.020288,-0.500869,-0.007931,-1.247205,-264.361338,-1.068486,62.74182
5.5962,0.023897,0.008916,-0.007415,-0.001746,-0.001862,0.011315,0.020633,-0.500851,-0.007195,-1.247205,-264.361338,-1.068486,62.74182
5.6158,0.024033,0.009034,-0.006665,-0.001746,-0.001868,0.01127,0.020115,-0.50107,-0.007415,-1.239913,-264.361338,-0.993527,62.741819
5.6365,0.023907,0.008885,-0.006967,-0.001748,-0.001871,0.011097,0.020587,-0.500965,-0.006734,-1.239913,-264.361338,-0.993527,62.741819
5.6562,0.024072,0.008782,-0.006698,-0.00175,-0.001874,0.010963,0.020587,-0.500965,-0.006734,-1.239913,-264.361338,-0.993527,62.741819
5.676,0.023728,0.009047,-0.005736,-0.001752,-0.001876,0.01086,0.020656,-0.501207,-0.006698,-1.235847,-264.361338,-0.918528,62.741819
5.6961,0.024212,0.009221,-0.004762,-0.001758,-0.001872,0.010698,0.020715,-0.501102,-0.006313,-1.235847,-264.361338,-0.918528,62.741819
5.7161,0.02407,0.008952,-0.00653,-0.001763,-0.001869,0.010581,0.021783,-0.500773,-0.004762,-1.21784,-264.361338,-0.843525,62.741819
5.7364,0.023901,0.008761,-0.006111,-0.001766,-0.001867,0.010506,0.020835,-0.501013,-0.006369,-1.21784,-264.361338,-0.843525,62.741819
5.7562,0.024306,0.009247,-0.007056,-0.00177,-0.001865,0.010451,0.020835,-0.501013,-0.006369,-1.21784,-264.361338,-0.843525,62.741819
5.7758,0.024122,0.00872,-0.007493,-0.001773,-0.001863,0.010411,0.020707,-0.500741,-0.007056,-1.204372,-264.361338,-0.768529,62.741818
5.7963,0.024419,0.008673,-0.006478,-0.001772,-0.001865,0.010535,0.020541,-0.500954,-0.007234,-1.204372,-264.361338,-0.768529,62.741818
5.816,0.024189,0.008925,-0.007408,-0.001771,-0.001867,0.010622,0.021115,-0.501316,-0.006478,-1.195252,-264.361339,-0.693534,62.741818
5.8364,0.023856,0.009092,-0.005318,-0.001772,-0.001865,0.010696,0.020475,-0.501084,-0.007324,-1.195252,-264.361339,-0.693534,62.741818
5.8561,0.023897,0.008971,-0.007437,-0.001773,-0.001864,0.010745,0.020475,-0.501084,-0.007324,-1.195252,-264.361339,-0.693534,62.741818
5.8758,0.023971,0.009196,-0.008241,-0.001774,-0.001863,0.010778,0.020105,-0.501015,-0.007437,-1.204708,-264.361339,-0.618529,62.741818
5.8961,0.024179,0.008718,-0.005832,-0.001771,-0.001876,0.010863,0.019967,-0.500922,-0.007765,-1.204708,-264.361339,-0.618529,62.741818
5.9161,0.024221,0.009005,-0.007269,-0.001768,-0.001888,0.010922,0.021205,-0.501273,-0.005832,-1.211205,-264.361339,-0.543529,62.741817
5.9366,0.02441,0.009095,-0.006379,-0.00177,-0.001886,0.010863,0.020577,-0.501008,-0.007139,-1.211205,-264.361339,-0.543529,62.741817
5.9559,0.024239,0.008969,-0.005969,-0.001772,-0.001884,0.01082,0.020577,-0.501008,-0.007139,-1.211205,-264.361339,-0.543529,62.741817
5.976,0.02424,0.00875,-0.007152,-0.001774,-0.001882,0.010787,0.021195,-0.501022,-0.005969,-1.216738,-264.361339,-0.468528,62.741817
5.9959,0.024215,0.008994,-0.007603,-0.001781,-0.001874,0.010635,0.02095,-0.501109,-0.006451,-1.216738,-264.361339,-0.468528,62.741817
6.0158,0.023814,0.00885,-0.005825,-0.001786,-0.001866,0.01053,0.020338,-0.500992,-0.007603,-1.210254,-264.361339,-0.393523,62.741816
6.0358,0.024151,0.009042,-0.005967,-0.00179,-0.001863,0.010358,0.020797,-0.501128,-0.005986,-1.210254,-264.361339,-0.393523,62.741816
6.0559,0.023682,0.009403,-0.006596,-0.001794,-0.00186,0.010241,0.020797,-0.501128,-0.005986,-1.210254,-264.361339,-0.393523,62.741816
6.0758,0.023985,0.008775,-0.008147,-0.001796,-0.001857,0.010164,0.020318,-0.500586,-0.006596,-1.197935,-264.36134,-0.318523,62.741816
6.0959,0.024164,0.00882,-0.007357,-0.001789,-0.001871,0.010343,0.020116,-0.500843,-0.007237,-1.197935,-264.36134,-0.318523,62.741816
6.1159,0.0241,0.00916,-0.007067,-0.001783,-0.001883,0.010471,0.020412,-0.501166,-0.007357,-1.179204,-264.36134,-0.243382,62.741816
6.1358,0.023978,0.008634,-0.007916,-0.00178,-0.001887,0.01054,0.020488,-0.500858,-0.007093,-1.179204,-264.36134,-0.243382,62.741816
6.1563,0.024094,0.009206,-0.006297,-0.001778,-0.00189,0.010588,0.020488,-0.500858,-0.007093,-1.179204,-264.36134,-0.243382,62.741816
6.1758,0.024485,0.008966,-0.006198,-0.001776,-0.001893,0.010622,0.020883,-0.500784,-0.006297,-1.194426,-264.36134,-0.168391,62.741815
6.1957,0.023969,0.008765,-0.007575,-0.00178,-0.001888,0.010487,0.021057,-0.500879,-0.006258,-1.194426,-264.36134,-0.168391,62.741815
6.2158,0.024228,0.009185,-0.008848,-0.001782,-0.001884,0.010394,0.020105,-0.501221,-0.007575,-1.201943,-264.36134,-0.093392,62.741815
6.2356,0.024048,0.009092,-0.008667,-0.001776,-0.0019,0.010693,0.019749,-0.500831,-0.008739,-1.201943,-264.36134,-0.093392,62.741815
6.2559,0.023816,0.008785,-0.006185,-0.00177,-0.001915,0.01091,0.019749,-0.500831,-0.008739,-1.201943,-264.36134,-0.093392,62.741815
6.2761,0.024285,0.009001,-0.007476,-0.001765,-0.001927,0.011068,0.020662,-0.501206,-0.006185,-1.190956,-264.36134,-0.018397,62.741815
6.2958,0.024072,0.009156,-0.006546,-0.001771,-0.001915,0.010883,0.020584,-0.501115,-0.006716,-1.190956,-264.36134,-0.018397,62.741815
6.3158,0.0242,0.009045,-0.007602,-0.001776,-0.001906,0.010752,0.020734,-0.500833,-0.006546,-1.220539,-264.361341,0.056621,62.741814
6.3364,0.02409,0.009107,-0.006475,-0.001775,-0.001907,0.010796,0.020359,-0.500931,-0.00751,-1.220539,-264.361341,0.056621,62.741814
6.3559,0.024205,0.009014,-0.007146,-0.001774,-0.001907,0.010826,0.020359,-0.500931,-0.00751,-1.220539,-264.361341,0.056621,62.741814
6.3757,0.024119,0.009007,-0.00602,-0.001773,-0.001908,0.010847,0.020561,-0.500973,-0.007146,-1.206786,-264.361341,0.131566,62.741814
6.3959,0.024083,0.009031,-0.005438,-0.001777,-0.001902,0.010716,0.020764,-0.500978,-0.006677,-1.206786,-264.361341,0.131566,62.741814
6.4161,0.02398,0.009045,-0.006562,-0.00178,-0.001898,0.010624,0.02131,-0.500962,-0.005438,-1.211214,-264.361341,0.206846,62.741814
6.4363,0.023978,0.008757,-0.006573,-0.001782,-0.001896,0.010519,0.020692,-0.500946,-0.006465,-1.211214,-264.361341,0.206846,62.741814
6.4558,0.024028,0.009011,-0.007396,-0.001784,-0.001895,0.010447,0.020692,-0.500946,-0.006465,-1.211214,-264.361341,0.206846,62.741814
6.4757,0.024069,0.008985,-0.00708,-0.001785,-0.001893,0.010399,0.020256,-0.500975,-0.007396,-1.200934,-264.361341,0.28158,62.741813
6.4958,0.023638,0.008827,-0.005454,-0.001782,-0.001894,0.01051,0.020339,-0.500986,-0.007265,-1.200934,-264.361341,0.28158,62.741813
6.5158,0.024687,0.008815,-0.006927,-0.001781,-0.001894,0.01059,0.020857,-0.501165,-0.005454,-1.190018,-264.361341,0.356612,62.741813
6.5359,0.024091,0.008678,-0.006833,-0.001786,-0.001876,0.010569,0.021129,-0.501172,-0.006799,-1.190018,-264.361341,0.356612,62.741813
6.5559,0.024075,0.009313,-0.008016,-0.001791,-0.001861,0.010555,0.021129,-0.501172,-0.006799,-1.190018,-264.361341,0.356612,62.741813
6.5759,0.023889,0.009,-0.005624,-0.001795,-0.001848,0.010545,0.019987,-0.500671,-0.008016,-1.199523,-264.361342,0.431566,62.741813
6.5961,0.02411,0.009207,-0.005244,-0.00179,-0.001862,0.010577,0.020406,-0.500801,-0.007046,-1.199523,-264.361342,0.431566,62.741813
6.6157,0.024143,0.00905,-0.007005,-0.001786,-0.001873,0.010599,0.021436,-0.500786,-0.005244,-1.198207,-264.361342,0.506477,62.741812
6.6361,0.024215,0.009079,-0.006986,-0.001785,-0.001875,0.010582,0.020648,-0.500924,-0.006847,-1.198207,-264.361342,0.506477,62.741812
6.6557,0.024106,0.008993,-0.006257,-0.001785,-0.001876,0.01057,0.020648,-0.500924,-0.006847,-1.198207,-264.361342,0.506477,62.741812
6.6759,0.024263,0.008944,-0.00679,-0.001784,-0.001877,0.010562,0.020914,-0.500997,-0.006257,-1.200475,-264.361342,0.581473,62.741812
6.6962,0.024411,0.008793,-0.007021,-0.001787,-0.001873,0.010487,0.020867,-0.501016,-0.006477,-1.200475,-264.361342,0.581473,62.741812
6.7162,0.024307,0.009026,-0.00609,-0.001789,-0.001868,0.010435,0.02083,-0.501195,-0.007021,-1.198819,-264.361342,0.656579,62.741812
6.7358,0.023944,0.009165,-0.006323,-0.001792,-0.001862,0.010339,0.021168,-0.500985,-0.006174,-1.198819,-264.361342,0.656579,62.741812
6.7564,0.02394,0.00927,-0.00675,-0.001795,-0.001857,0.010273,0.021168,-0.500985,-0.006174,-1.198819,-264.361342,0.656579,62.741812
6.7764,0.023799,0.008504,-0.007249,-0.001797,-0.001852,0.01023,0.020497,-0.500718,-0.00675,-1.192804,-264.361343,0.731438,62.741811
6.7962,0.023791,0.008833,-0.006107,-0.001794,-0.001857,0.010346,0.020338,-0.501027,-0.006951,-1.192804,-264.361343,0.731438,62.741811
6.8157,0.024082,0.008771,-0.008909,-0.001791,-0.00186,0.010429,0.020677,-0.501158,-0.006106,-1.182625,-264.361346,0.806472,62.741806
6.8363,0.02406,0.008823,-0.005715,-0.001787,-0.001868,0.010714,0.019641,-0.501204,-0.008658,-1.182625,-264.361346,0.806472,62.741806
6.856,0.023921,0.009208,-0.006652,-0.001784,-0.001874,0.010922,0.019641,-0.501204,-0.008658,-1.182625,-264.361346,0.806472,62.741806
6.876,0.024398,0.009137,-0.006724,-0.001782,-0.001881,0.011071,0.020528,-0.500781,-0.00665,-1.192756,-264.361357,0.881475,62.741785
6.8958,0.024075,0.008853,-0.007437,-0.001783,-0.001886,0.010876,0.020707,-0.50081,-0.00668,-1.192756,-264.361357,0.881475,62.741785
6.9158,0.024038,0.008861,-0.007518,-0.001783,-0.00189,0.01074,0.02028,-0.501134,-0.007431,-1.220793,-264.361398,0.956472,62.741717
6.9365,0.024065,0.00892,-0.00744,-0.001782,-0.001888,0.010789,0.02021,-0.501125,-0.00751,-1.220793,-264.361398,0.956472,62.741717
6.9561,0.024062,0.00888,-0.007989,-0.001782,-0.001887,0.010823,0.02021,-0.501125,-0.00751,-1.220793,-264.361398,0.956472,62.741717
6.9763,0.023781,0.008991,-0.007095,-0.001782,-0.001885,0.010846,0.019979,-0.501108,-0.007962,-1.206002,-264.361529,1.031471,62.74149
6.9961,0.024177,0.009093,-0.008326,-0.00178,-0.00189,0.010875,0.020053,-0.501063,-0.007608,-1.206002,-264.361529,1.031471,62.74149
7.0157,0.024093,0.008769,-0.005835,-0.001779,-0.001893,0.010895,0.019916,-0.500897,-0.008273,-1.211125,-264.361861,1.106472,62.74092
7.0361,0.023886,0.008516,-0.007381,-0.001787,-0.001882,0.010616,0.021008,-0.501194,-0.006052,-1.211125,-264.361861,1.106472,62.74092
7.0558,0.023898,0.00904,-0.00741,-0.001794,-0.001871,0.010425,0.021008,-0.501194,-0.006052,-1.211125,-264.361861,1.106472,62.74092
7.076,0.023704,0.008921,-0.006818,-0.001799,-0.001862,0.010296,0.020083,-0.50097,-0.007261,-1.213272,-264.362546,1.181482,62.739742
7.0961,0.02403,0.009013,-0.004882,-0.001794,-0.00187,0.010401,0.020138,-0.501012,-0.007064,-1.213272,-264.362546,1.181482,62.739742
7.1159,0.02337,0.00904,-0.007249,-0.00179,-0.001877,0.010477,0.021497,-0.501015,-0.004683,-1.184828,-264.363718,1.256476,62.737696
7.136,0.023528,0.008947,-0.008607,-0.001785,-0.00189,0.010567,0.019837,-0.500954,-0.007005,-1.184828,-264.363718,1.256476,62.737696
7.1562,0.02373,0.008862,-0.006781,-0.001779,-0.0019,0.010636,0.019837,-0.500954,-0.007005,-1.184828,-264.363718,1.256476,62.737696
7.1759,0.023333,0.008912,-0.0061,-0.001775,-0.001909,0.010689,0.020203,-0.501192,-0.006411,-1.193835,-264.365367,1.331473,62.734826
7.1959,0.023363,0.008784,-0.004978,-0.001777,-0.001906,0.010606,0.020203,-0.501154,-0.006243,-1.193835,-264.365367,1.331473,62.734826
7.2159,0.022811,0.008424,-0.004907,-0.001778,-0.001902,0.010555,0.020768,-0.501269,-0.004643,-1.204007,-264.367311,1.363479,62.731439
7.2361,0.022836,0.008524,-0.004559,-0.001785,-0.001896,0.010186,0.020347,-0.501546,-0.004867,-1.204007,-264.367311,1.363479,62.731439
7.2563,0.022729,0.008318,-0.005537,-0.00179,-0.001887,0.009945,0.020347,-0.501546,-0.004867,-1.204007,-264.367311,1.363479,62.731439
7.2758,0.022337,0.008548,-0.004926,-0.001793,-0.001878,0.009791,0.01983,-0.501753,-0.005096,-1.197839,-264.369261,1.36098,62.728027
7.296,0.02304,0.008509,-0.004666,-0.001794,-0.001873,0.009736,0.019819,-0.501638,-0.004976,-1.197839,-264.369261,1.36098,62.728027
7.3157,0.022127,0.008652,-0.003531,-0.001795,-0.001867,0.00971,0.020604,-0.501543,-0.004363,-1.158646,-264.371002,1.346439,62.724892
7.3363,0.022332,0.00883,-0.006229,-0.001794,-0.001883,0.009239,0.020348,-0.501366,-0.003591,-1.158646,-264.371002,1.346439,62.724892
7.3563,0.022396,0.008673,-0.004485,-0.001793,-0.001891,0.008933,0.020348,-0.501366,-0.003591,-1.158646,-264.371002,1.346439,62.724892
7.3758,0.022083,0.008194,-0.004473,-0.001792,-0.001895,0.008738,0.020033,-0.5014,-0.004079,-1.154903,-264.372779,1.344538,62.721693
7.3962,0.022162,0.008562,-0.003229,-0.001791,-0.001885,0.008826,0.01993,-0.501572,-0.004193,-1.154903,-264.372779,1.344538,62.721693
7.4161,0.021874,0.008599,-0.00331,-0.00179,-0.001876,0.008901,0.020461,-0.501491,-0.002967,-1.090816,-264.374225,1.327905,62.718915
7.4358,0.02144,0.008327,-0.003738,-0.001788,-0.001883,0.008624,0.020209,-0.50141,-0.003265,-1.090816,-264.374225,1.327905,62.718915
7.4559,0.021799,0.00829,-0.003612,-0.001786,-0.001886,0.008446,0.020209,-0.50141,-0.003265,-1.090816,-264.374225,1.327905,62.718915
7.476,0.021231,0.00819,-0.003615,-0.001784,-0.001885,0.008335,0.019882,-0.501785,-0.003239,-1.104963,-264.375813,1.330705,62.715916
7.4966,0.02125,0.007924,-0.002984,-0.001783,-0.001875,0.008302,0.019676,-0.501802,-0.003347,-1.104963,-264.375813,1.330705,62.715916
7.5157,0.020777,0.008127,-0.002416,-0.001783,-0.001866,0.008289,0.019673,-0.502132,-0.002726,-1.063054,-264.377238,1.320493,62.713118
7.5359,0.021002,0.008266,-0.001885,-0.001778,-0.001868,0.007885,0.019554,-0.501899,-0.002431,-1.063054,-264.377238,1.320493,62.713118
7.5563,0.020779,0.007868,-0.002854,-0.001775,-0.001866,0.007619,0.019554,-0.501899,-0.002431,-1.063054,-264.377238,1.320493,62.713118
7.5762,0.020706,0.008005,-0.001871,-0.001774,-0.001862,0.007447,0.019248,-0.502208,-0.002506,-1.062056,-264.378703,1.318911,62.710257
7.5964,0.020715,0.008139,-0.003996,-0.001773,-0.00185,0.007228,0.019444,-0.50213,-0.002209,-1.062056,-264.378703,1.318911,62.710257
7.6161,0.020363,0.007662,-0.000231,-0.001773,-0.001838,0.007087,0.018626,-0.501911,-0.00378,-0.987213,-264.379874,1.300781,62.707838
7.6364,0.020416,0.008325,-0.002245,-0.001752,-0.001824,0.006046,0.020098,-0.502303,-0.000538,-0.987213,-264.379874,1.300781,62.707838
7.6559,0.020365,0.008151,-0.001134,-0.001741,-0.001808,0.005335,0.020098,-0.502303,-0.000538,-0.987213,-264.379874,1.300781,62.707838
7.676,0.020474,0.008305,-0.001207,-0.001738,-0.00179,0.004853,0.019714,-0.501924,-0.000844,-0.952043,-264.381071,1.290758,62.705326
7.6961,0.02047,0.007883,-0.001882,-0.001737,-0.001792,0.004776,0.019764,-0.50184,-0.000958,-0.952043,-264.381071,1.290758,62.705326
7.7156,0.020101,0.00764,-0.000557,-0.001737,-0.001791,0.004731,0.019504,-0.502122,-0.001863,-0.877043,-264.381166,1.220381,62.705096
7.7363,0.019909,0.007592,-0.001984,-0.00174,-0.001769,0.004545,0.019789,-0.502339,-0.000672,-0.877043,-264.381166,1.220381,62.705096
7.7562,0.02033,0.008074,-0.00137,-0.001743,-0.001749,0.004419,0.019789,-0.502339,-0.000672,-0.877043,-264.381166,1.220381,62.705096
7.7763,0.019894,0.007975,-0.000257,-0.001747,-0.00173,0.004334,0.019618,-0.50194,-0.001327,-0.801984,-264.381333,1.215376,62.704691
7.7965,0.02005,0.007751,-0.001062,-0.00175,-0.001728,0.004408,0.019675,-0.501976,-0.000886,-0.801984,-264.381333,1.215376,62.704691
7.8164,0.019725,0.008108,-0.002149,-0.001752,-0.001726,0.00446,0.019498,-0.502258,-0.001034,-0.727045,-264.381482,1.191034,62.704334
7.8363,0.020209,0.007909,-0.000935,-0.001758,-0.001729,0.005114,0.018708,-0.501925,-0.002046,-0.727045,-264.381482,1.191034,62.704334
7.856,0.020201,0.00757,-0.001598,-0.001761,-0.001735,0.005576,0.018708,-0.501925,-0.002046,-0.727045,-264.381482,1.191034,62.704334
7.8761,0.020228,0.00768,-0.001168,-0.001762,-0.001741,0.0059,0.019352,-0.502463,-0.001502,-0.652044,-264.38188,1.195695,62.70339
7.896,0.019871,0.007687,-0.000869,-0.001766,-0.001722,0.005777,0.019462,-0.502408,-0.001355,-0.652044,-264.38188,1.195695,62.70339
7.9158,0.019715,0.007803,-0.001409,-0.001769,-0.001707,0.005688,0.019391,-0.502349,-0.000753,-0.727046,-264.382522,1.252342,62.701982
7.9363,0.019637,0.007777,-0.000811,-0.001769,-0.00171,0.00562,0.01903,-0.502212,-0.001344,-0.727046,-264.382522,1.252342,62.701982
7.9561,0.019811,0.007751,-0.00134,-0.001769,-0.001712,0.00557,0.01903,-0.502212,-0.001344,-0.727046,-264.382522,1.252342,62.701982
7.9761,0.019579,0.007895,-0.000592,-0.001769,-0.001714,0.005534,0.019058,-0.502316,-0.001115,-0.78468,-264.383469,1.241717,62.699906
7.9962,0.020044,0.007603,0.00032,-0.001763,-0.001717,0.005241,0.01914,-0.502237,-0.000873,-0.78468,-264.383469,1.241717,62.699906
8.0164,0.019595,0.007557,0.000494,-0.00176,-0.001719,0.005036,0.020152,-0.502451,0.000494,-0.755553,-264.384427,1.236616,62.697782
8.0357,0.019222,0.008037,-0.000857,-0.001742,-0.001712,0.004093,0.019872,-0.502446,0.000503,-0.755553,-264.384427,1.236616,62.697782
8.056,0.019438,0.00763,-7.9e-05,-0.001733,-0.001703,0.003435,0.019872,-0.502446,0.000503,-0.755553,-264.384427,1.236616,62.697782
8.0757,0.019165,0.007525,0.000258,-0.00173,-0.001692,0.002976,0.019336,-0.502431,0.000102,-0.680648,-264.385184,1.218977,62.696042
8.0959,0.019196,0.007495,0.000123,-0.001733,-0.001684,0.002839,0.019313,-0.502456,0.000187,-0.680648,-264.385184,1.218977,62.696042
8.1156,0.019311,0.007482,-0.001003,-0.001736,-0.001676,0.002744,0.019259,-0.502505,0.000124,-0.605554,-264.385185,1.143883,62.696039
8.1356,0.019361,0.007469,-0.001063,-0.001751,-0.001664,0.003322,0.018841,-0.502516,-0.000902,-0.605554,-264.385185,1.143883,62.696039
8.1557,0.019092,0.007169,-0.001397,-0.001763,-0.001655,0.003726,0.018841,-0.502516,-0.000902,-0.605554,-264.385185,1.143883,62.696039
8.1758,0.019204,0.007788,0.000137,-0.001771,-0.001649,0.004007,0.01838,-0.502831,-0.001396,-0.530645,-264.385187,1.092813,62.696036
8.1958,0.019054,0.007342,-0.001391,-0.001776,-0.001645,0.004135,0.018745,-0.502578,-0.00077,-0.530645,-264.385187,1.092813,62.696036
8.2159,0.018998,0.00769,-9e-05,-0.00178,-0.001642,0.004221,0.018302,-0.502697,-0.001292,-0.455653,-264.385784,1.162673,62.694663
8.2357,0.018968,0.007472,0.000377,-0.001773,-0.001653,0.00393,0.018892,-0.502346,-0.000191,-0.455653,-264.385784,1.162673,62.694663
8.2559,0.019043,0.007507,-0.00041,-0.001769,-0.001662,0.003726,0.018892,-0.502346,-0.000191,-0.455653,-264.385784,1.162673,62.694663
8.2757,0.018728,0.006928,0.000388,-0.001766,-0.001668,0.003583,0.018761,-0.502561,-0.000236,-0.483916,-264.386578,1.171625,62.692856
8.296,0.018933,0.007058,0.000989,-0.001765,-0.001658,0.003345,0.01882,-0.502777,3.9e-05,-0.483916,-264.386578,1.171625,62.692856
8.3159,0.018298,0.007441,1.9e-05,-0.001765,-0.001649,0.003179,0.019408,-0.502968,0.001052,-0.408929,-264.386965,1.141401,62.691964
8.336,0.018862,0.007295,0.000482,-0.001762,-0.001654,0.003014,0.018406,-0.502597,0.000116,-0.408929,-264.386965,1.141401,62.691964
8.3557,0.018466,0.007514,0.00124,-0.00176,-0.001657,0.0029,0.018406,-0.502597,0.000116,-0.408929,-264.386965,1.141401,62.691964
8.3763,0.01875,0.007133,0.000554,-0.001758,-0.001659,0.002821,0.019072,-0.502509,0.001294,-0.333977,-264.387233,1.113877,62.691364
8.3961,0.019003,0.007445,0.000988,-0.001748,-0.001656,0.002277,0.019053,-0.502658,0.000998,-0.333977,-264.387233,1.113877,62.691364
8.4156,0.018825,0.007226,0.000706,-0.001742,-0.001651,0.0019,0.019494,-0.502566,0.001012,-0.258925,-264.387399,1.091363,62.691005
8.4356,0.018435,0.007324,0.000731,-0.001745,-0.001635,0.001782,0.019212,-0.502756,0.000735,-0.258925,-264.387399,1.091363,62.691005
8.4557,0.018833,0.007319,0.001694,-0.001749,-0.001621,0.0017,0.019212,-0.502756,0.000735,-0.258925,-264.387399,1.091363,62.691005
8.476,0.01872,0.007189,0.000329,-0.001752,-0.001608,0.001642,0.019697,-0.502681,0.001695,-0.183975,-264.387404,1.016413,62.690995
8.4961,0.018506,0.007218,0.00107,-0.001751,-0.0016,0.001392,0.019364,-0.502734,0.001134,-0.183975,-264.387404,1.016413,62.690995
8.5158,0.018606,0.007161,-0.000514,-0.001752,-0.001591,0.001218,0.01905,-0.502782,0.00107,-0.10887,-264.387413,0.979873,62.690981
8.5358,0.018544,0.007305,-3e-05,-0.001769,-0.001578,0.001953,0.018413,-0.502833,-0.000358,-0.10887,-264.387413,0.979873,62.690981
8.5556,0.018677,0.00713,0.000818,-0.001781,-0.001569,0.002467,0.018413,-0.502833,-0.000358,-0.10887,-264.387413,0.979873,62.690981
8.576,0.018685,0.007504,-0.00062,-0.001789,-0.001564,0.002823,0.019094,-0.50287,0.000818,-0.03397,-264.387417,0.926964,62.690975
8.596,0.018411,0.007284,0.000231,-0.001788,-0.001566,0.002724,0.018798,-0.502717,0.000231,-0.03397,-264.387417,0.926964,62.690975
8.6163,0.018589,0.007185,-0.001143,-0.001787,-0.001567,0.002651,0.018488,-0.502748,0.00029,-0.089142,-264.387903,1.001965,62.68996
8.6362,0.018328,0.007198,-0.001026,-0.001797,-0.001565,0.003307,0.018052,-0.502809,-0.000994,-0.089142,-264.387903,1.001965,62.68996
8.6559,0.018337,0.006977,8.8e-05,-0.001805,-0.001566,0.003768,0.018052,-0.502809,-0.000994,-0.089142,-264.387903,1.001965,62.68996
8.676,0.018032,0.007081,0.001586,-0.001809,-0.001569,0.004091,0.018314,-0.503082,0.000187,-0.029213,-264.388544,1.059603,62.688652
8.6964,0.018925,0.006945,0.000799,-0.001791,-0.001574,0.003291,0.018521,-0.503022,0.000768,-0.029213,-264.388544,1.059603,62.688652
8.7156,0.018434,0.007056,0.001533,-0.00178,-0.001576,0.00273,0.019331,-0.503057,0.000803,-0.104253,-264.38857,1.134643,62.688594
8.736,0.018779,0.007033,0.000931,-0.001766,-0.001576,0.001987,0.019226,-0.502954,0.001466,-0.104253,-264.38857,1.134643,62.688594
8.7562,0.018205,0.007127,-0.000471,-0.001758,-0.001572,0.001465,0.019226,-0.502954,0.001466,-0.104253,-264.38857,1.134643,62.688594
8.7759,0.01822,0.006808,0.000555,-0.001756,-0.001565,0.001101,0.017898,-0.502931,-0.000369,-0.051383,-264.389206,1.068862,62.687273
8.7963,0.017928,0.007384,-0.000255,-0.00177,-0.001556,0.001651,0.018137,-0.503044,1.9e-05,-0.051383,-264.389206,1.068862,62.687273
8.8161,0.01816,0.006595,0.000107,-0.00178,-0.00155,0.002033,0.017798,-0.502617,-0.000254,0.023612,-264.389212,0.993866,62.687266
8.8363,0.018402,0.007211,-0.000438,-0.001791,-0.001532,0.00228,0.018178,-0.503334,7.5e-05,0.023612,-264.389212,0.993866,62.687266
8.8565,0.018032,0.007425,0.001376,-0.001799,-0.001518,0.002448,0.018178,-0.503334,7.5e-05,0.023612,-264.389212,0.993866,62.687266
8.8761,0.018441,0.007074,5.1e-05,-0.001806,-0.001507,0.002563,0.018681,-0.502618,0.001439,0.098614,-264.38972,1.003062,62.686335
8.8962,0.01802,0.006998,-0.000322,-0.001795,-0.001526,0.002167,0.018588,-0.502748,0.000884,0.098614,-264.38972,1.003062,62.686335
8.9158,0.01816,0.006787,0.001537,-0.001787,-0.001541,0.001888,0.017813,-0.503039,-0.000263,0.023619,-264.390257,1.039402,62.685275
8.9364,0.017903,0.00682,-0.000237,-0.00178,-0.001534,0.001431,0.018838,-0.503199,0.001375,0.023619,-264.390257,1.039402,62.685275
8.9562,0.017832,0.007211,0.000322,-0.001777,-0.001526,0.001114,0.018838,-0.503199,0.001375,0.023619,-264.390257,1.039402,62.685275
8.9765,0.018041,0.007197,-0.000672,-0.001777,-0.001518,0.000893,0.017956,-0.502821,0.000368,0.098621,-264.390647,0.985225,62.684585
8.9963,0.017903,0.007012,-0.000316,-0.001787,-0.001528,0.001537,0.017846,-0.502817,-5.2e-05,0.098621,-264.390647,0.985225,62.684585
9.0158,0.017837,0.006668,0.002218,-0.001792,-0.001539,0.001987,0.017739,-0.502991,-0.000313,0.173621,-264.390691,0.910225,62.684526
9.0366,0.018012,0.007048,0.000377,-0.001778,-0.001533,0.001227,0.018857,-0.5033,0.00199,0.173621,-264.390691,0.910225,62.684526
9.0564,0.018271,0.006887,0.00139,-0.001771,-0.001525,0.000695,0.018857,-0.5033,0.00199,0.173621,-264.390691,0.910225,62.684526
9.0763,0.017643,0.006938,-5.7e-05,-0.001768,-0.001515,0.000324,0.018912,-0.50317,0.001464,0.179665,-264.391343,0.985235,62.683351
9.0963,0.018024,0.006893,0.001372,-0.001778,-0.001507,0.000635,0.018375,-0.503132,0.000852,0.179665,-264.391343,0.985235,62.683351
9.1161,0.017801,0.006851,0.001082,-0.001784,-0.001501,0.000848,0.018723,-0.503108,0.001372,0.25466,-264.391355,0.91024,62.683337
9.1365,0.018203,0.006859,0.000935,-0.001786,-0.001499,0.000857,0.018386,-0.503145,0.001108,0.25466,-264.391355,0.91024,62.683337
9.1563,0.017893,0.007043,0.001258,-0.001788,-0.001496,0.000861,0.018386,-0.503145,0.001108,0.25466,-264.391355,0.91024,62.683337
9.1762,0.017796,0.006429,-0.00081,-0.00179,-0.001494,0.000862,0.018508,-0.502976,0.001274,0.329657,-264.391636,0.847155,62.682966
9.1963,0.018076,0.007002,0.001599,-0.001799,-0.001487,0.001258,0.018045,-0.503221,0.000425,0.329657,-264.391636,0.847155,62.682966
9.216,0.017436,0.006973,0.000631,-0.001805,-0.001483,0.00153,0.018854,-0.503026,0.001619,0.404654,-264.392158,0.846017,62.682273
9.236,0.017603,0.00685,0.001194,-0.001801,-0.001496,0.001541,0.017854,-0.503028,0.000721,0.404654,-264.392158,0.846017,62.682273
9.256,0.018013,0.006962,-0.001311,-0.001798,-0.001507,0.001547,0.017854,-0.503028,0.000721,0.404654,-264.392158,0.846017,62.682273
9.2758,0.017761,0.006748,0.001284,-0.001795,-0.001516,0.001549,0.017288,-0.503084,-0.001266,0.329655,-264.392715,0.921016,62.681383
9.2957,0.017515,0.006667,0.000591,-0.001804,-0.001511,0.002103,0.017742,-0.503157,-0.000221,0.329655,-264.392715,0.921016,62.681383
9.3157,0.017679,0.006637,0.002678,-0.001811,-0.001509,0.00249,0.017761,-0.50338,0.00064,0.302846,-264.393456,0.938028,62.680186
9.3359,0.017596,0.006543,0.001461,-0.001789,-0.001512,0.001381,0.018927,-0.503366,0.002498,0.302846,-264.393456,0.938028,62.680186
9.3562,0.017526,0.00653,0.000945,-0.001776,-0.001509,0.000594,0.018927,-0.503366,0.002498,0.302846,-264.393456,0.938028,62.680186
9.3758,0.017424,0.007016,0.002759,-0.001769,-0.001504,4.1e-05,0.017994,-0.503483,0.000961,0.227849,-264.393589,1.013025,62.679927
9.3958,0.01742,0.006508,0.001088,-0.001773,-0.0015,8e-06,0.018335,-0.503279,0.001699,0.227849,-264.393589,1.013025,62.679927
9.4159,0.017715,0.00678,0.002103,-0.001776,-0.001495,-1.7e-05,0.017974,-0.503492,0.001088,0.302939,-264.393595,0.937935,62.679922
9.4361,0.017391,0.006675,0.001105,-0.001778,-0.00149,-0.000184,0.018717,-0.503243,0.002015,0.302939,-264.393595,0.937935,62.679922
9.4559,0.016982,0.006207,0.002079,-0.00178,-0.001484,-0.000301,0.018717,-0.503243,0.002015,0.302939,-264.393595,0.937935,62.679922
9.4757,0.017715,0.0067,0.000768,-0.001782,-0.001479,-0.000382,0.01804,-0.503793,0.002079,0.377957,-264.393621,0.862916,62.679896
9.4957,0.017235,0.00677,5.5e-05,-0.001791,-0.001462,-0.000212,0.018067,-0.503592,0.001546,0.377957,-264.393621,0.862916,62.679896
9.5156,0.017582,0.006717,0.002423,-0.001798,-0.001449,-9.6e-05,0.017261,-0.503231,5.5e-05,0.452853,-264.393651,0.788021,62.679869
9.5358,0.017675,0.00667,0.001337,-0.001795,-0.001449,-0.00033,0.018678,-0.503277,0.00221,0.452853,-264.393651,0.788021,62.679869
9.5557,0.017694,0.006646,-0.000114,-0.001795,-0.001449,-0.000492,0.018678,-0.503277,0.00221,0.452853,-264.393651,0.788021,62.679869
9.5761,0.01733,0.006499,0.00057,-0.001795,-0.001448,-0.000604,0.017613,-0.50337,-0.000111,0.52785,-264.393923,0.713024,62.679606
9.5961,0.01725,0.006176,0.001186,-0.001813,-0.001435,0.000402,0.017614,-0.503425,0.000167,0.52785,-264.393923,0.713024,62.679606
9.6159,0.017285,0.006515,-0.000764,-0.001826,-0.001426,0.001101,0.017843,-0.503833,0.001185,0.602867,-264.394129,0.638007,62.679437
9.6361,0.017097,0.006543,0.001004,-0.001838,-0.001422,0.002018,0.016978,-0.503516,-0.000593,0.602867,-264.394129,0.638007,62.679437
9.6561,0.017452,0.006958,0.002944,-0.001845,-0.001422,0.002661,0.016978,-0.503516,-0.000593,0.602867,-264.394129,0.638007,62.679437
9.676,0.017464,0.006746,0.001377,-0.001849,-0.001426,0.00311,0.018935,-0.503054,0.002951,0.527813,-264.394309,0.713061,62.679183
9.6961,0.017017,0.006933,-0.000371,-0.001818,-0.001454,0.001903,0.018618,-0.503137,0.002307,0.527813,-264.394309,0.713061,62.679183
9.7162,0.017349,0.006995,0.001006,-0.001796,-0.001474,0.001046,0.016828,-0.503067,-0.000371,0.452824,-264.394309,0.78805,62.679183
9.7363,0.016991,0.006535,-0.000455,-0.001793,-0.00149,0.001131,0.017764,-0.503011,0.000876,0.452824,-264.394309,0.78805,62.679183
9.7564,0.017663,0.006381,0.000262,-0.00179,-0.001504,0.001186,0.017764,-0.503011,0.000876,0.452824,-264.394309,0.78805,62.679183
9.7763,0.017113,0.006574,0.001548,-0.001787,-0.001516,0.00122,0.017728,-0.503675,0.000301,0.43523,-264.395024,0.862999,62.678182
9.796,0.017595,0.006165,0.001211,-0.001792,-0.001499,0.001284,0.01779,-0.503581,0.000808,0.43523,-264.395024,0.862999,62.678182
9.8156,0.016949,0.006499,0.002018,-0.001796,-0.001484,0.001325,0.018158,-0.503881,0.001249,0.407231,-264.395775,0.901985,62.677071
9.8358,0.016762,0.006152,0.001629,-0.001785,-0.001484,0.000774,0.017992,-0.503537,0.001949,0.407231,-264.395775,0.901985,62.677071
9.8558,0.016925,0.006534,0.00136,-0.00178,-0.001482,0.000389,0.017992,-0.503537,0.001949,0.407231,-264.395775,0.901985,62.677071
9.8761,0.017153,0.006852,-1.5e-05,-0.001779,-0.001478,0.000121,0.017546,-0.503525,0.001414,0.359698,-264.396514,0.906466,62.675948
9.8961,0.01748,0.006666,0.001207,-0.001786,-0.00148,0.000503,0.017374,-0.503379,0.000838,0.359698,-264.396514,0.906466,62.675948
9.9159,0.016965,0.006306,-0.000218,-0.001791,-0.001482,0.000766,0.018089,-0.503339,0.001209,0.434701,-264.396623,0.831463,62.675835
9.9361,0.016419,0.00631,0.000878,-0.001807,-0.001468,0.001488,0.016964,-0.503663,-9e-05,0.434701,-264.396623,0.831463,62.675835
9.956,0.017477,0.006643,0.000139,-0.001817,-0.00146,0.001992,0.016964,-0.503663,-9e-05,0.434701,-264.396623,0.831463,62.675835
9.976,0.017169,0.006325,0.002384,-0.001823,-0.001455,0.002342,0.017481,-0.503413,0.000169,0.509693,-264.397366,0.82763,62.674879
9.9958,0.016744,0.006308,0.000326,-0.001814,-0.001457,0.001908,0.017846,-0.503527,0.001086,0.509693,-264.397366,0.82763,62.674879
10.0161,0.017216,0.006169,0.001581,-0.001808,-0.001457,0.001603,0.01691,-0.503692,0.000326,0.434587,-264.397373,0.902736,62.674866
10.0369,0.017236,0.006699,0.001772,-0.001802,-0.001446,0.001192,0.017927,-0.503819,0.001473,0.434587,-264.397373,0.902736,62.674866
10.0563,0.017615,0.006086,0.000619,-0.001801,-0.001435,0.000903,0.017927,-0.503819,0.001473,0.434587,-264.397373,0.902736,62.674866
10.0758,0.016814,0.006044,0.000977,-0.001802,-0.001425,0.000702,0.017886,-0.503952,0.000655,0.359588,-264.397821,0.932413,62.674138
10.0962,0.016513,0.00631,0.001446,-0.001812,-0.001406,0.000927,0.017644,-0.503958,0.000792,0.359588,-264.397821,0.932413,62.674138
10.1159,0.016872,0.006337,0.000191,-0.00182,-0.00139,0.001082,0.01722,-0.503714,0.001461,0.434575,-264.398263,0.857427,62.673584
10.1362,0.016618,0.006319,0.00014,-0.001827,-0.001398,0.001468,0.01699,-0.503668,0.000301,0.434575,-264.398263,0.857427,62.673584
10.1565,0.016668,0.006358,0.000213,-0.001831,-0.001406,0.001737,0.01699,-0.503668,0.000301,0.434575,-264.398263,0.857427,62.673584
10.1763,0.016393,0.006469,0.001622,-0.001832,-0.001414,0.001922,0.016704,-0.503698,0.000256,0.381252,-264.39901,0.844921,62.67254
10.1959,0.016828,0.006108,0.002316,-0.001824,-0.001431,0.00175,0.016906,-0.503636,0.000819,0.381252,-264.39901,0.844921,62.67254
10.2156,0.017016,0.006213,0.000103,-0.001818,-0.001444,0.001629,0.017992,-0.503905,0.002331,0.306365,-264.39923,0.919808,62.672162
10.2361,0.01639,0.00583,0.00242,-0.001823,-0.001438,0.00185,0.017147,-0.503798,0.000295,0.306365,-264.39923,0.919808,62.672162
10.2563,0.017098,0.005968,0.001728,-0.001827,-0.001434,0.002003,0.017147,-0.503798,0.000295,0.306365,-264.39923,0.919808,62.672162
10.2761,0.016582,0.005985,0.001782,-0.001829,-0.001432,0.002109,0.017909,-0.504087,0.001791,0.242521,-264.39993,0.930292,62.671025
10.2962,0.016344,0.006007,0.000478,-0.001815,-0.001424,0.001391,0.017731,-0.504064,0.001795,0.242521,-264.39993,0.930292,62.671025
10.3162,0.016695,0.006551,0.001594,-0.001808,-0.001414,0.000888,0.016552,-0.504023,0.000517,0.167632,-264.400388,0.978732,62.670207
10.3362,0.016681,0.006253,0.002056,-0.001802,-0.001433,0.000673,0.017419,-0.503502,0.001498,0.167632,-264.400388,0.978732,62.670207
10.3562,0.016354,0.005819,0.002988,-0.001798,-0.001448,0.000524,0.017419,-0.503502,0.001498,0.167632,-264.400388,0.978732,62.670207
10.376,0.016539,0.006256,0.001496,-0.001796,-0.001458,0.000421,0.017864,-0.504189,0.002999,0.242621,-264.400539,0.903743,62.670006
10.3962,0.016336,0.0059,0.001065,-0.001791,-0.001448,-5.2e-05,0.017634,-0.504009,0.00239,0.242621,-264.400539,0.903743,62.670006
10.416,0.016368,0.005858,0.001329,-0.00179,-0.001436,-0.000379,0.016873,-0.504103,0.001068,0.317619,-264.400628,0.828744,62.669904
10.4362,0.015959,0.006213,0.000325,-0.001801,-0.001417,-9.2e-05,0.017031,-0.504138,0.001307,0.317619,-264.400628,0.828744,62.669904
10.4561,0.016341,0.005895,0.002261,-0.00181,-0.001401,0.000106,0.017031,-0.504138,0.001307,0.317619,-264.400628,0.828744,62.669904
10.476,0.016658,0.00579,0.002054,-0.001817,-0.001387,0.00024,0.017492,-0.504104,0.002261,0.393322,-264.400645,0.753041,62.669889
10.496,0.016377,0.006004,0.00282,-0.001815,-0.001376,-8.3e-05,0.017579,-0.504147,0.002176,0.393322,-264.400645,0.753041,62.669889
10.5161,0.016175,0.005783,0.001071,-0.001815,-0.001366,-0.000307,0.017786,-0.504014,0.002827,0.467725,-264.401071,0.701281,62.669429
10.5371,0.01637,0.006306,0.002546,-0.001824,-0.001356,-0.0,0.016815,-0.504199,0.001229,0.467725,-264.401071,0.701281,62.669429
10.5565,0.016328,0.006003,0.00254,-0.00183,-0.001348,0.00021,0.016815,-0.504199,0.001229,0.467725,-264.401071,0.701281,62.669429
10.5761,0.016096,0.005971,0.000307,-0.001835,-0.001342,0.000353,0.017599,-0.504011,0.002541,0.542622,-264.401363,0.626384,62.669164
10.5961,0.016286,0.005713,0.002212,-0.001833,-0.001347,0.000241,0.017052,-0.50402,0.001638,0.542622,-264.401363,0.626384,62.669164
10.6158,0.016272,0.006008,0.002175,-0.001832,-0.00135,0.000163,0.017361,-0.504325,0.002222,0.550633,-264.402145,0.70138,62.66829
10.6362,0.015954,0.006152,0.00106,-0.001826,-0.001354,-0.000143,0.017376,-0.504023,0.002179,0.550633,-264.402145,0.70138,62.66829
10.6562,0.01639,0.006454,0.002125,-0.001823,-0.001355,-0.000353,0.017376,-0.504023,0.002179,0.550633,-264.402145,0.70138,62.66829
10.6759,0.016202,0.005627,0.002128,-0.001822,-0.001356,-0.000498,0.017401,-0.503598,0.002131,0.599304,-264.402986,0.669532,62.667404
10.6962,0.016096,0.005713,0.001956,-0.001822,-0.00136,-0.000576,0.017346,-0.503922,0.002131,0.599304,-264.402986,0.669532,62.667404
10.7161,0.015921,0.005976,0.001484,-0.001822,-0.001363,-0.000629,0.017063,-0.504309,0.001951,0.674376,-264.403498,0.594461,62.666967
10.736,0.015878,0.005383,0.001108,-0.001826,-0.001363,-0.000376,0.016711,-0.50405,0.001526,0.674376,-264.403498,0.594461,62.666967
10.7564,0.015847,0.005526,0.001976,-0.001829,-0.001363,-0.000202,0.016711,-0.50405,0.001526,0.674376,-264.403498,0.594461,62.666967
10.7765,0.015925,0.005567,0.002017,-0.00183,-0.001364,-8.3e-05,0.016799,-0.504516,0.001959,0.749354,-264.404248,0.519483,62.666353
10.796,0.016125,0.005664,0.000247,-0.001832,-0.001345,-0.000216,0.016855,-0.504487,0.00198,0.749354,-264.404248,0.519483,62.666353
10.8159,0.016407,0.005697,0.002629,-0.001834,-0.001329,-0.000309,0.016208,-0.504368,0.000243,0.674449,-264.404932,0.594388,62.665687
10.8361,0.015784,0.005722,0.001511,-0.001833,-0.001317,-0.000565,0.017609,-0.504309,0.002417,0.674449,-264.404932,0.594388,62.665687
10.8564,0.015685,0.005814,0.001014,-0.001834,-0.001306,-0.000743,0.017609,-0.504309,0.002417,0.674449,-264.404932,0.594388,62.665687
10.876,0.01609,0.00577,0.002045,-0.001836,-0.001295,-0.000865,0.016127,-0.50424,0.001001,0.691403,-264.405858,0.556412,62.664847
10.8959,0.016032,0.005578,0.001891,-0.001842,-0.001298,-0.000478,0.01652,-0.504242,0.001416,0.691403,-264.405858,0.556412,62.664847
10.9161,0.015783,0.005677,0.002174,-0.001845,-0.001301,-0.000212,0.016963,-0.504446,0.001878,0.766347,-264.406459,0.481469,62.664385
10.9358,0.01609,0.005842,0.000588,-0.001843,-0.001301,-0.00038,0.016897,-0.504333,0.002147,0.766347,-264.406459,0.481469,62.664385
10.9559,0.015721,0.005548,0.001675,-0.001841,-0.001301,-0.000497,0.016897,-0.504333,0.002147,0.766347,-264.406459,0.481469,62.664385
10.9763,0.01596,0.005488,0.00109,-0.001841,-0.0013,-0.000577,0.016519,-0.504492,0.001667,0.691212,-264.407152,0.556604,62.663736
10.9962,0.015719,0.005637,0.00058,-0.001847,-0.001289,-0.000287,0.016511,-0.504505,0.001432,0.691212,-264.407152,0.556604,62.663736
11.0159,0.015489,0.005262,0.001147,-0.001852,-0.001281,-8.9e-05,0.015963,-0.5044,0.000564,0.731567,-264.408026,0.481739,62.663005
11.0363,0.015563,0.005425,0.001741,-0.001859,-0.001268,0.000222,0.016064,-0.504714,0.001103,0.731567,-264.408026,0.481739,62.663005
11.0565,0.015767,0.005065,0.00184,-0.001864,-0.001259,0.000433,0.016064,-0.504714,0.001103,0.731567,-264.408026,0.481739,62.663005
11.0761,0.015405,0.005448,0.001459,-0.001866,-0.001252,0.000576,0.016652,-0.504972,0.001834,0.655963,-264.408661,0.557344,62.662386
11.0962,0.0156,0.005531,0.002246,-0.001865,-0.001239,0.000378,0.016442,-0.504806,0.001682,0.655963,-264.408661,0.557344,62.662386
11.1156,0.015139,0.005456,0.001626,-0.001865,-0.001228,0.00024,0.016725,-0.504482,0.002249,0.581566,-264.408948,0.63174,62.662046
11.1361,0.015868,0.005327,0.001129,-0.00186,-0.001243,0.000141,0.016032,-0.504539,0.001679,0.581566,-264.408948,0.63174,62.662046
11.1561,0.01604,0.005251,0.001215,-0.001857,-0.001256,7.2e-05,0.016032,-0.504539,0.001679,0.581566,-264.408948,0.63174,62.662046
11.1761,0.015453,0.005354,0.000961,-0.001855,-0.001266,2.4e-05,0.016586,-0.504797,0.001225,0.525521,-264.409768,0.635381,62.661165
11.1963,0.015543,0.004917,0.001418,-0.001862,-0.001252,0.000283,0.016314,-0.504741,0.001118,0.525521,-264.409768,0.635381,62.661165
11.2163,0.015436,0.005603,0.000576,-0.001867,-0.001241,0.000461,0.016212,-0.50512,0.001418,0.593449,-264.410585,0.604171,62.660341
11.2361,0.01535,0.005318,0.001767,-0.00187,-0.001253,0.000838,0.01577,-0.504463,0.000652,0.593449,-264.410585,0.604171,62.660341
11.2559,0.015314,0.005565,0.00084,-0.00187,-0.001264,0.001098,0.01577,-0.504463,0.000652,0.593449,-264.410585,0.604171,62.660341
11.2762,0.015261,0.005625,0.000737,-0.001869,-0.001275,0.001277,0.015687,-0.504473,0.000851,0.518477,-264.411193,0.679143,62.659643
11.296,0.015414,0.004974,0.000902,-0.001864,-0.00129,0.001312,0.015659,-0.504436,0.000805,0.518477,-264.411193,0.679143,62.659643
11.316,0.015487,0.004988,0.001005,-0.001859,-0.001304,0.001335,0.015861,-0.505036,0.000909,0.443101,-264.411371,0.754519,62.659388
11.3358,0.015165,0.005285,0.003392,-0.001861,-0.00128,0.00125,0.015988,-0.505014,0.000998,0.443101,-264.411371,0.754519,62.659388
11.3559,0.015277,0.005398,0.002312,-0.001863,-0.00126,0.001189,0.015988,-0.505014,0.000998,0.443101,-264.411371,0.754519,62.659388
11.3758,0.015296,0.00541,0.002072,-0.001865,-0.001243,0.001146,0.016418,-0.504629,0.002336,0.368214,-264.411748,0.829406,62.658835
11.396,0.015408,0.005366,0.000627,-0.00185,-0.001259,0.000518,0.016387,-0.504616,0.002231,0.368214,-264.411748,0.829406,62.658835
11.4161,0.015139,0.005142,0.000519,-0.001841,-0.001269,8e-05,0.015675,-0.50467,0.000659,0.293571,-264.412436,0.805896,62.657882
11.4361,0.014777,0.005327,0.001268,-0.001854,-0.001262,0.00065,0.015425,-0.504843,0.000533,0.293571,-264.412436,0.805896,62.657882
11.4562,0.01515,0.005343,0.001764,-0.001862,-0.001257,0.001042,0.015425,-0.504843,0.000533,0.293571,-264.412436,0.805896,62.657882
11.4761,0.015294,0.005247,0.001086,-0.001867,-0.001254,0.001313,0.016038,-0.504663,0.001767,0.36867,-264.412564,0.730796,62.65775
11.496,0.015124,0.004731,-0.000161,-0.001858,-0.001262,0.000978,0.015959,-0.504701,0.001491,0.36867,-264.412564,0.730796,62.65775
11.5159,0.015044,0.004765,0.000775,-0.001853,-0.001267,0.000744,0.015004,-0.505296,-0.000136,0.293623,-264.413057,0.805843,62.657038
11.5362,0.01502,0.005201,0.001003,-0.001863,-0.001241,0.001012,0.0154,-0.505241,0.000698,0.293623,-264.413057,0.805843,62.657038
11.5559,0.015033,0.005286,0.002358,-0.00187,-0.001221,0.001196,0.0154,-0.505241,0.000698,0.293623,-264.413057,0.805843,62.657038
11.576,0.015038,0.005301,0.002497,-0.001876,-0.001205,0.001322,0.016177,-0.504751,0.002384,0.368601,-264.413666,0.748551,62.656276
11.5961,0.015435,0.00523,0.001944,-0.001858,-0.001226,0.000563,0.016224,-0.504734,0.002433,0.368601,-264.413666,0.748551,62.656276
11.6166,0.014708,0.005042,0.002762,-0.001846,-0.001241,3.2e-05,0.01639,-0.504795,0.001967,0.293723,-264.414135,0.820567,62.655603
11.6369,0.015019,0.004848,0.003425,-0.001839,-0.001244,-0.000439,0.016138,-0.504943,0.002694,0.293723,-264.414135,0.820567,62.655603
11.6562,0.014889,0.005007,0.002316,-0.001836,-0.001243,-0.000766,0.016138,-0.504943,0.002694,0.293723,-264.414135,0.820567,62.655603
11.676,0.01517,0.00499,0.00137,-0.001836,-0.00124,-0.000992,0.016061,-0.504997,0.002318,0.368873,-264.414237,0.745417,62.6555
11.6959,0.01497,0.004654,0.001753,-0.001845,-0.001227,-0.000814,0.015982,-0.505003,0.001933,0.368873,-264.414237,0.745417,62.6555
11.7159,0.014962,0.004737,0.001707,-0.001852,-0.001215,-0.000692,0.015864,-0.505345,0.001753,0.443841,-264.41424,0.670449,62.655497
11.7358,0.014888,0.004833,0.002239,-0.001862,-0.00119,-0.0005,0.015836,-0.505269,0.001711,0.443841,-264.41424,0.670449,62.655497
11.7558,0.015177,0.005026,0.000994,-0.00187,-0.001169,-0.000369,0.015836,-0.505269,0.001711,0.443841,-264.41424,0.670449,62.655497
11.7758,0.015022,0.004934,0.002369,-0.001876,-0.001153,-0.000281,0.015677,-0.504978,0.000994,0.518884,-264.414328,0.595406,62.655426
11.7959,0.014993,0.005234,0.001811,-0.00188,-0.001151,-0.000148,0.015903,-0.505014,0.001558,0.518884,-264.414328,0.595406,62.655426
11.8158,0.015006,0.005115,0.001457,-0.001883,-0.00115,-5.9e-05,0.015875,-0.504791,0.001807,0.593872,-264.414973,0.520418,62.654831
11.8359,0.014769,0.005043,0.002023,-0.001884,-0.001158,3.6e-05,0.015757,-0.504878,0.001487,0.593872,-264.414973,0.520418,62.654831
11.8561,0.014803,0.005037,0.002969,-0.001884,-0.001166,0.0001,0.015757,-0.504878,0.001487,0.593872,-264.414973,0.520418,62.654831
11.876,0.01476,0.005043,0.003827,-0.001884,-0.001173,0.000142,0.016241,-0.505008,0.002967,0.561738,-264.415846,0.534079,62.653973
11.8959,0.014877,0.004878,0.002327,-0.001868,-0.001183,-0.000589,0.016424,-0.504992,0.003317,0.561738,-264.415846,0.534079,62.653973
11.9158,0.014493,0.004992,0.000251,-0.001859,-0.001188,-0.0011,0.016009,-0.505155,0.002331,0.522921,-264.416654,0.589474,62.653131
11.9366,0.014847,0.004856,0.002009,-0.001874,-0.001185,-8.4e-05,0.014739,-0.505023,0.000433,0.522921,-264.416654,0.589474,62.653131
11.9559,0.014688,0.005008,0.001239,-0.001884,-0.001186,0.000619,0.014739,-0.505023,0.000433,0.522921,-264.416654,0.589474,62.653131
11.9758,0.014668,0.004608,0.004155,-0.001889,-0.001189,0.001099,0.015315,-0.504995,0.001238,0.5979,-264.416719,0.514495,62.653083
11.9958,0.014708,0.004757,0.001512,-0.001874,-0.001187,0.000437,0.015908,-0.505154,0.002414,0.5979,-264.416719,0.514495,62.653083
12.0156,0.014727,0.004684,0.00072,-0.001866,-0.001184,-2.9e-05,0.015459,-0.505255,0.001515,0.522998,-264.41699,0.589397,62.65276
12.0357,0.015322,0.004568,0.002795,-0.001877,-0.001166,0.00045,0.015125,-0.505311,0.000789,0.522998,-264.41699,0.589397,62.65276
12.0557,0.014367,0.004838,0.002042,-0.001885,-0.001153,0.000775,0.015125,-0.505311,0.000789,0.522998,-264.41699,0.589397,62.65276
12.0757,0.014894,0.00495,0.002786,-0.00189,-0.001144,0.000994,0.015335,-0.505208,0.002041,0.572069,-264.417831,0.558608,62.651926
12.096,0.014511,0.004977,0.001181,-0.001876,-0.001154,0.000379,0.015729,-0.505147,0.002347,0.572069,-264.417831,0.558608,62.651926
12.1162,0.014816,0.004565,0.001574,-0.001868,-0.00116,-5.1e-05,0.015105,-0.505028,0.001183,0.49708,-264.417938,0.633597,62.651785
12.1357,0.014713,0.004703,0.001417,-0.001874,-0.001143,2.4e-05,0.015574,-0.505399,0.001541,0.49708,-264.417938,0.633597,62.651785
12.1557,0.014758,0.004545,0.000774,-0.00188,-0.001128,7.4e-05,0.015574,-0.505399,0.001541,0.49708,-264.417938,0.633597,62.651785
12.1758,0.014593,0.004658,0.001848,-0.001884,-0.001117,0.000106,0.01509,-0.505495,0.000773,0.567647,-264.418656,0.558578,62.651078
12.1965,0.014609,0.004575,0.002026,-0.00189,-0.001107,0.000295,0.015264,-0.505437,0.001211,0.567647,-264.418656,0.558578,62.651078
12.2156,0.014462,0.004868,0.002801,-0.001895,-0.001099,0.000424,0.015586,-0.505457,0.00203,0.509295,-264.419473,0.560007,62.650236
12.2358,0.014179,0.004572,0.002051,-0.001881,-0.001117,-0.000182,0.01586,-0.505162,0.002732,0.509295,-264.419473,0.560007,62.650236
12.2558,0.013939,0.004245,0.002157,-0.001873,-0.00113,-0.000603,0.01586,-0.505162,0.002732,0.509295,-264.419473,0.560007,62.650236
12.2758,0.014351,0.004334,0.00135,-0.001868,-0.001138,-0.000894,0.014974,-0.505793,0.002171,0.434321,-264.420154,0.62173,62.64947
12.296,0.014108,0.004825,0.002866,-0.001877,-0.001113,-0.0007,0.014993,-0.505745,0.001839,0.434321,-264.420154,0.62173,62.64947
12.3159,0.014184,0.004574,0.002909,-0.001884,-0.001093,-0.000567,0.015567,-0.505175,0.002866,0.509311,-264.420201,0.54674,62.649434
12.3359,0.014791,0.004772,0.003278,-0.001878,-0.001098,-0.000934,0.015659,-0.505403,0.002905,0.509311,-264.420201,0.54674,62.649434
12.3557,0.014349,0.004625,0.00106,-0.001875,-0.001099,-0.001189,0.015659,-0.505403,0.002905,0.509311,-264.420201,0.54674,62.649434
12.3757,0.014316,0.005383,0.003017,-0.001874,-0.001099,-0.001363,0.014854,-0.505396,0.001054,0.58442,-264.420634,0.471631,62.649064
12.3956,0.014347,0.004005,0.002188,-0.001879,-0.001111,-0.001041,0.015271,-0.50507,0.00188,0.58442,-264.420634,0.471631,62.649064
12.4156,0.014251,0.004268,0.00173,-0.001881,-0.001122,-0.000821,0.015458,-0.505997,0.002186,0.659765,-264.420718,0.396285,62.649004
12.4357,0.013847,0.004647,0.001403,-0.00189,-0.001092,-0.00061,0.01516,-0.505753,0.001769,0.659765,-264.420718,0.396285,62.649004
12.4557,0.014037,0.004604,0.00293,-0.001897,-0.001067,-0.000467,0.01516,-0.505753,0.001769,0.659765,-264.420718,0.396285,62.649004
12.4757,0.013778,0.004341,0.002121,-0.001902,-0.001048,-0.00037,0.015463,-0.505435,0.002901,0.712071,-264.421582,0.321589,62.648316
12.496,0.013877,0.004457,0.001857,-0.001896,-0.001055,-0.000669,0.015208,-0.505531,0.002578,0.712071,-264.421582,0.321589,62.648316
12.5167,0.014324,0.004563,0.001269,-0.001892,-0.00106,-0.000876,0.014782,-0.505567,0.001847,0.63713,-264.422222,0.39653,62.647737
12.5363,0.014029,0.004443,0.002635,-0.001899,-0.001059,-0.000432,0.01495,-0.505451,0.001327,0.63713,-264.422222,0.39653,62.647737
12.5563,0.014145,0.004129,0.001774,-0.001904,-0.00106,-0.000128,0.01495,-0.505451,0.001327,0.63713,-264.422222,0.39653,62.647737
12.576,0.01409,0.004521,0.001499,-0.001907,-0.001062,7.9e-05,0.014992,-0.505905,0.00175,0.700303,-264.422941,0.321618,62.647166
12.5963,0.014086,0.004329,0.003173,-0.001908,-0.001051,5.9e-05,0.014931,-0.505739,0.001647,0.700303,-264.422941,0.321618,62.647166
12.6159,0.014081,0.004221,0.001923,-0.001909,-0.001042,4.4e-05,0.01569,-0.505677,0.00317,0.625294,-264.423154,0.396627,62.646949
12.6365,0.013855,0.004435,0.002717,-0.001907,-0.001034,-0.000155,0.015121,-0.505769,0.002042,0.625294,-264.423154,0.396627,62.646949
12.6561,0.01394,0.004348,0.002186,-0.001906,-0.001028,-0.000293,0.015121,-0.505769,0.002042,0.625294,-264.423154,0.396627,62.646949
12.6759,0.013612,0.004694,0.000855,-0.001906,-0.001022,-0.000389,0.015007,-0.505678,0.002183,0.550266,-264.423675,0.471656,62.646421
12.6961,0.013911,0.004263,0.001766,-0.001907,-0.001036,-0.000267,0.014608,-0.505529,0.001638,0.550266,-264.423675,0.471656,62.646421
12.7161,0.013912,0.004208,0.001414,-0.001906,-0.001047,-0.000184,0.014759,-0.505765,0.001755,0.583677,-264.424483,0.396633,62.645692
12.7362,0.01416,0.004639,0.001214,-0.00191,-0.001039,-2.6e-05,0.014641,-0.50579,0.001443,0.583677,-264.424483,0.396633,62.645692
12.756,0.014154,0.004621,0.001702,-0.001913,-0.001032,8.2e-05,0.014641,-0.50579,0.001443,0.583677,-264.424483,0.396633,62.645692
12.7762,0.013748,0.004494,0.001825,-0.001915,-0.001027,0.000154,0.014948,-0.505419,0.001695,0.546554,-264.425307,0.45598,62.644908
12.7962,0.013588,0.004049,0.001424,-0.00191,-0.001044,5e-05,0.01483,-0.505459,0.001747,0.546554,-264.425307,0.45598,62.644908
12.8161,0.014154,0.00389,0.002627,-0.001906,-0.001057,-2.2e-05,0.014265,-0.505977,0.001427,0.47165,-264.425987,0.529756,62.6442
12.8358,0.013782,0.004582,0.000309,-0.001903,-0.00103,-0.000407,0.015383,-0.506098,0.002521,0.47165,-264.425987,0.529756,62.6442
12.8562,0.01337,0.004368,0.001989,-0.001903,-0.001005,-0.000673,0.015383,-0.506098,0.002521,0.47165,-264.425987,0.529756,62.6442
12.8763,0.013931,0.004378,0.002391,-0.001905,-0.000983,-0.000857,0.014308,-0.505674,0.001988,0.511827,-264.426828,0.500929,62.643364
12.8962,0.01352,0.004659,0.000758,-0.001905,-0.000999,-0.000829,0.014638,-0.505657,0.00215,0.511827,-264.426828,0.500929,62.643364
12.9163,0.013734,0.00427,0.001522,-0.001905,-0.001011,-0.000809,0.013893,-0.505348,0.000755,0.586817,-264.427039,0.425939,62.643194
12.9363,0.013366,0.004516,0.002943,-0.00191,-0.001015,-0.00046,0.014457,-0.505697,0.001457,0.586817,-264.427039,0.425939,62.643194
12.9561,0.013503,0.004082,0.003106,-0.001913,-0.001019,-0.00022,0.014457,-0.505697,0.001457,0.586817,-264.427039,0.425939,62.643194
12.9759,0.013544,0.003929,0.003197,-0.001914,-0.001024,-5.6e-05,0.015041,-0.505943,0.003089,0.661936,-264.427614,0.35082,62.642726
12.9962,0.013887,0.003933,0.0006,-0.001903,-0.001018,-0.00066,0.01509,-0.505997,0.003131,0.661936,-264.427614,0.35082,62.642726
13.016,0.013475,0.004206,0.002331,-0.001897,-0.001011,-0.00108,0.014161,-0.506085,0.000596,0.586962,-264.42807,0.425794,62.642277
13.0359,0.013432,0.004058,0.001597,-0.001901,-0.00101,-0.000986,0.014618,-0.505818,0.002181,0.586962,-264.42807,0.425794,62.642277
13.0561,0.012833,0.004043,0.002268,-0.001903,-0.001009,-0.000921,0.014618,-0.505818,0.002181,0.586962,-264.42807,0.425794,62.642277
13.0762,0.013398,0.004256,0.001981,-0.001905,-0.001009,-0.000878,0.013967,-0.505969,0.002259,0.661969,-264.428363,0.350787,62.642053
13.0964,0.013458,0.004089,0.002287,-0.001905,-0.001012,-0.000832,0.014148,-0.505876,0.002142,0.661969,-264.428363,0.350787,62.642053
13.1162,0.013321,0.004131,0.002832,-0.001905,-0.001015,-0.000801,0.014575,-0.505937,0.002265,0.68132,-264.429172,0.275513,62.641406
13.1364,0.01348,0.004195,0.00261,-0.0019,-0.001015,-0.001049,0.014747,-0.505874,0.002785,0.68132,-264.429172,0.275513,62.641406
13.1562,0.013521,0.004327,0.002923,-0.001898,-0.001013,-0.001221,0.014747,-0.505874,0.002785,0.68132,-264.429172,0.275513,62.641406
13.1762,0.013486,0.004503,0.001617,-0.001897,-0.00101,-0.001338,0.014933,-0.505713,0.00289,0.668343,-264.430136,0.269518,62.640621
13.1961,0.01334,0.004426,0.001359,-0.001898,-0.001019,-0.001246,0.01467,-0.505629,0.002368,0.668343,-264.430136,0.269518,62.640621
13.216,0.013271,0.003772,0.002465,-0.001899,-0.001026,-0.001183,0.014,-0.505593,0.001339,0.743041,-264.430709,0.194819,62.640207
13.2361,0.013241,0.00448,0.002546,-0.001904,-0.001001,-0.001131,0.014479,-0.50617,0.002362,0.743041,-264.430709,0.194819,62.640207
13.2558,0.01316,0.004402,0.001478,-0.001908,-0.000981,-0.001096,0.014479,-0.50617,0.002362,0.743041,-264.430709,0.194819,62.640207
13.2758,0.013548,0.003992,0.001556,-0.001912,-0.000964,-0.001072,0.013836,-0.50564,0.00143,0.744114,-264.43172,0.158628,62.639453
13.2958,0.013083,0.003715,0.001459,-0.001916,-0.000974,-0.000641,0.014033,-0.505794,0.001476,0.744114,-264.43172,0.158628,62.639453
13.3158,0.013267,0.003976,0.000555,-0.001918,-0.000983,-0.000346,0.013768,-0.506315,0.001426,0.702734,-264.432695,0.160611,62.6387
13.3358,0.012722,0.003844,0.001742,-0.001928,-0.000975,0.000318,0.013567,-0.506052,0.000633,0.702734,-264.432695,0.160611,62.6387
13.3559,0.012899,0.004143,0.002029,-0.001935,-0.000972,0.000773,0.013567,-0.506052,0.000633,0.702734,-264.432695,0.160611,62.6387
13.376,0.013259,0.003659,0.0022,-0.001937,-0.000971,0.001083,0.013909,-0.505869,0.00202,0.627785,-264.432985,0.235561,62.638433
13.3958,0.013116,0.003666,0.002493,-0.001923,-0.000977,0.00055,0.014101,-0.506065,0.002094,0.627785,-264.432985,0.235561,62.638433
13.4161,0.013198,0.004184,0.002075,-0.001914,-0.000982,0.000177,0.014387,-0.506332,0.002493,0.552627,-264.432986,0.310718,62.638433
13.4361,0.012846,0.003889,0.002217,-0.001907,-0.000995,-9.4e-05,0.014268,-0.505862,0.002112,0.552627,-264.432986,0.310718,62.638433
13.4559,0.013273,0.003904,0.000342,-0.001902,-0.001005,-0.000283,0.014268,-0.505862,0.002112,0.552627,-264.432986,0.310718,62.638433
13.4761,0.013455,0.004099,0.001956,-0.0019,-0.001013,-0.000413,0.013416,-0.506111,0.00034,0.477787,-264.433315,0.385558,62.638088
13.4959,0.012975,0.003905,0.000766,-0.001909,-0.001004,5.9e-05,0.013833,-0.506027,0.000996,0.477787,-264.433315,0.385558,62.638088
13.5159,0.012915,0.003775,0.00261,-0.001915,-0.000998,0.000383,0.013315,-0.506121,0.000757,0.552793,-264.434067,0.380953,62.637414
13.5361,0.013411,0.003847,0.000533,-0.001906,-0.000992,-8.8e-05,0.014159,-0.506216,0.002441,0.552793,-264.434067,0.380953,62.637414
13.5559,0.01352,0.003413,0.000953,-0.001901,-0.000986,-0.000416,0.014159,-0.506216,0.002441,0.552793,-264.434067,0.380953,62.637414
13.5757,0.013064,0.003575,0.001425,-0.0019,-0.000979,-0.000644,0.013978,-0.506601,0.000954,0.477795,-264.434351,0.455952,62.637101
13.5958,0.01309,0.003869,0.000679,-0.001914,-0.000942,-0.000173,0.013899,-0.50653,0.001147,0.477795,-264.434351,0.455952,62.637101
13.6158,0.01295,0.003736,0.00307,-0.001925,-0.000912,0.00015,0.013407,-0.506146,0.000673,0.552896,-264.434795,0.380851,62.636724
13.6361,0.012641,0.003664,0.000146,-0.001914,-0.000919,-0.000411,0.014413,-0.506251,0.002851,0.552896,-264.434795,0.380851,62.636724
13.6561,0.013251,0.003845,0.001288,-0.001909,-0.000922,-0.000801,0.014413,-0.506251,0.002851,0.552896,-264.434795,0.380851,62.636724
13.6761,0.012991,0.003622,-0.00038,-0.001906,-0.000921,-0.001072,0.01386,-0.506178,0.001288,0.477993,-264.435292,0.455754,62.636208
13.6961,0.013148,0.003811,0.000387,-0.001923,-0.000911,-0.000161,0.013422,-0.506262,0.000608,0.477993,-264.435292,0.455754,62.636208
13.7164,0.012768,0.003831,0.00104,-0.001934,-0.000906,0.000466,0.01334,-0.506192,0.000386,0.552991,-264.435386,0.380755,62.636135
13.7357,0.013246,0.003718,0.000144,-0.001935,-0.000916,0.000679,0.013301,-0.506171,0.000984,0.552991,-264.435386,0.380755,62.636135
13.7559,0.012711,0.003872,0.00087,-0.001935,-0.000925,0.000821,0.013301,-0.506171,0.000984,0.552991,-264.435386,0.380755,62.636135
13.7761,0.012667,0.003808,0.002429,-0.001933,-0.000934,0.000914,0.013135,-0.506137,0.00087,0.477862,-264.435582,0.455885,62.635916
13.7961,0.013131,0.003925,0.001863,-0.001926,-0.000946,0.000703,0.013445,-0.50616,0.001501,0.477862,-264.435582,0.455885,62.635916
13.816,0.012915,0.003881,0.002803,-0.001921,-0.000955,0.000555,0.014073,-0.506078,0.001865,0.402989,-264.435691,0.530758,62.635781
13.836,0.012931,0.003734,0.001154,-0.001908,-0.000965,-8.3e-05,0.01432,-0.506114,0.002721,0.402989,-264.435691,0.530758,62.635781
13.8564,0.013043,0.004018,0.001115,-0.0019,-0.000971,-0.000526,0.01432,-0.506114,0.002721,0.402989,-264.435691,0.530758,62.635781
13.8759,0.012608,0.003919,0.001749,-0.001896,-0.000974,-0.000834,0.013546,-0.506015,0.001133,0.327888,-264.436352,0.592807,62.635022
13.8959,0.012665,0.003947,0.000704,-0.001902,-0.000978,-0.000436,0.01352,-0.506046,0.001385,0.327888,-264.436352,0.592807,62.635022
13.916,0.012735,0.003739,0.002845,-0.001907,-0.000983,-0.000164,0.013022,-0.506053,0.000704,0.402793,-264.436372,0.517903,62.635006
13.9363,0.01294,0.003587,0.00184,-0.001901,-0.000978,-0.000554,0.014083,-0.50624,0.002656,0.402793,-264.436372,0.517903,62.635006
13.9561,0.01296,0.00347,0.002524,-0.001898,-0.000973,-0.000825,0.014083,-0.50624,0.002656,0.402793,-264.436372,0.517903,62.635006
13.9759,0.013079,0.003368,0.0011,-0.001897,-0.000966,-0.001013,0.014189,-0.506557,0.002521,0.477813,-264.437009,0.442883,62.634395
13.9958,0.013099,0.003835,0.002794,-0.001908,-0.00093,-0.000819,0.013955,-0.506591,0.001932,0.477813,-264.437009,0.442883,62.634395
14.0157,0.01303,0.003504,0.001157,-0.001917,-0.000901,-0.000688,0.014515,-0.506168,0.002792,0.55293,-264.43716,0.367766,62.634277
14.036,0.012607,0.003462,0.000329,-0.001927,-0.000884,-0.000283,0.013696,-0.506468,0.001297,0.55293,-264.43716,0.367766,62.634277
14.0558,0.012501,0.003676,0.002944,-0.001935,-0.000871,-7e-06,0.013696,-0.506468,0.001297,0.55293,-264.43716,0.367766,62.634277
14.076,0.012272,0.004048,0.001568,-0.00194,-0.000861,0.00018,0.013943,-0.506352,0.002925,0.603477,-264.437864,0.29279,62.63368
14.0958,0.012249,0.003804,1e-06,-0.001929,-0.000887,-0.000203,0.013579,-0.506191,0.002366,0.603477,-264.437864,0.29279,62.63368
14.1157,0.012505,0.00399,0.000544,-0.001921,-0.000906,-0.00047,0.012234,-0.506204,-1e-06,0.52857,-264.438079,0.367697,62.633456
14.1357,0.012755,0.003706,0.002017,-0.001929,-0.00093,0.0003,0.012735,-0.506027,0.000497,0.52857,-264.438079,0.367697,62.633456
14.156,0.013034,0.004035,0.001832,-0.001932,-0.000952,0.000831,0.012735,-0.506027,0.000497,0.52857,-264.438079,0.367697,62.633456
14.1758,0.012125,0.003552,0.002354,-0.001932,-0.000972,0.001195,0.013893,-0.506,0.001813,0.55582,-264.438928,0.311961,62.632698
14.1961,0.012485,0.003474,0.002059,-0.001918,-0.000978,0.000655,0.013652,-0.506187,0.002033,0.55582,-264.438928,0.311961,62.632698
14.2159,0.012674,0.003795,0.00215,-0.001909,-0.000982,0.000275,0.013534,-0.506525,0.002059,0.480948,-264.43893,0.386832,62.632695
14.2361,0.012488,0.003827,0.001058,-0.001903,-0.000981,-3.7e-05,0.01375,-0.506232,0.002142,0.480948,-264.43893,0.386832,62.632695
14.2564,0.012988,0.00376,0.000781,-0.0019,-0.000979,-0.000255,0.01375,-0.506232,0.002142,0.480948,-264.43893,0.386832,62.632695
14.2759,0.012517,0.003498,0.0006,-0.001899,-0.000976,-0.000406,0.013336,-0.506263,0.000785,0.405878,-264.43944,0.461902,62.632147
14.2959,0.01275,0.003254,0.002269,-0.001913,-0.00096,0.000227,0.01312,-0.506363,0.000709,0.405878,-264.43944,0.461902,62.632147
14.316,0.012954,0.00349,0.002613,-0.001922,-0.000949,0.000661,0.013873,-0.506761,0.002265,0.480816,-264.439941,0.386965,62.631697
14.336,0.012395,0.003479,0.002025,-0.001913,-0.000932,5.5e-05,0.01425,-0.50653,0.002583,0.480816,-264.439941,0.386965,62.631697
14.3561,0.012311,0.003451,0.001772,-0.001909,-0.000915,-0.000368,0.01425,-0.50653,0.002583,0.480816,-264.439941,0.386965,62.631697
14.3761,0.012219,0.003297,0.002993,-0.001908,-0.0009,-0.000663,0.013196,-0.506557,0.001774,0.405705,-264.440119,0.462075,62.631487
14.3962,0.0128,0.00343,0.000997,-0.001911,-0.000889,-0.000739,0.013419,-0.506617,0.002273,0.405705,-264.440119,0.462075,62.631487
14.4156,0.012212,0.003676,0.000821,-0.001914,-0.00088,-0.000792,0.013292,-0.506578,0.000995,0.48056,-264.440369,0.38722,62.631273
14.4359,0.012498,0.003465,0.001546,-0.001924,-0.000888,-0.000108,0.012689,-0.506347,0.000836,0.48056,-264.440369,0.38722,62.631273
14.4558,0.012631,0.003433,0.002629,-0.00193,-0.000898,0.000362,0.012689,-0.506347,0.000836,0.48056,-264.440369,0.38722,62.631273
14.4758,0.01282,0.003565,0.000632,-0.001933,-0.000907,0.000682,0.013937,-0.506582,0.002619,0.55557,-264.440772,0.31221,62.630938
14.4959,0.012338,0.003562,9e-06,-0.001928,-0.000897,0.0004,0.013611,-0.506524,0.001811,0.55557,-264.440772,0.31221,62.630938
14.5158,0.012185,0.003875,0.000367,-0.001926,-0.000889,0.000202,0.012339,-0.506439,9e-06,0.480568,-264.440817,0.387212,62.630886
14.5361,0.011886,0.003591,0.000645,-0.001932,-0.000916,0.000851,0.012369,-0.506153,0.000335,0.480568,-264.440817,0.387212,62.630886
14.5565,0.012234,0.003645,0.000248,-0.001934,-0.000941,0.0013,0.012369,-0.506153,0.000335,0.480568,-264.440817,0.387212,62.630886
14.5758,0.012208,0.003447,0.002766,-0.001933,-0.000964,0.001608,0.012302,-0.506382,0.000252,0.405548,-264.441421,0.462233,62.630252
14.5958,0.012032,0.003484,-0.000315,-0.001924,-0.000963,0.001301,0.012831,-0.506454,0.001275,0.405548,-264.441421,0.462233,62.630252
14.6158,0.012389,0.003082,0.00184,-0.001918,-0.000962,0.001083,0.011871,-0.506516,-0.000315,0.330569,-264.441429,0.537211,62.630241
14.6364,0.012305,0.003575,0.001154,-0.001915,-0.000928,0.000752,0.013196,-0.506881,0.001646,0.330569,-264.441429,0.537211,62.630241
14.6565,0.012093,0.003375,0.000514,-0.001915,-0.000899,0.000519,0.013196,-0.506881,0.001646,0.330569,-264.441429,0.537211,62.630241
14.676,0.011995,0.003257,0.001051,-0.001917,-0.000874,0.000357,0.012323,-0.506641,0.000527,0.255565,-264.441735,0.612215,62.629845
14.6965,0.01218,0.003447,0.001523,-0.001925,-0.000872,0.000718,0.012404,-0.506684,0.000743,0.255565,-264.441735,0.612215,62.629845
14.7159,0.012032,0.003645,0.000726,-0.00193,-0.000871,0.000966,0.012908,-0.506575,0.001533,0.329784,-264.442377,0.537116,62.629145
14.7361,0.012084,0.003089,0.000681,-0.001929,-0.000894,0.001101,0.012446,-0.506376,0.0008,0.329784,-264.442377,0.537116,62.629145
14.756,0.012116,0.003194,0.001958,-0.001927,-0.000913,0.001193,0.012446,-0.506376,0.0008,0.329784,-264.442377,0.537116,62.629145
14.7758,0.011904,0.003325,0.001343,-0.001924,-0.00093,0.001256,0.013076,-0.506824,0.001972,0.254898,-264.442745,0.612003,62.628688
14.7962,0.01231,0.003518,0.001439,-0.001916,-0.000917,0.000828,0.012874,-0.506766,0.001719,0.254898,-264.442745,0.612003,62.628688
14.8165,0.012203,0.003332,0.002406,-0.001913,-0.000905,0.00053,0.013012,-0.506498,0.001456,0.179901,-264.443143,0.686999,62.62816
14.8364,0.01205,0.003361,0.002208,-0.001906,-0.000901,6.1e-05,0.013384,-0.506649,0.002306,0.179901,-264.443143,0.686999,62.62816
14.8559,0.012032,0.003119,0.000345,-0.001903,-0.000895,-0.000265,0.013384,-0.506649,0.002306,0.179901,-264.443143,0.686999,62.62816
14.8758,0.012067,0.003322,0.000732,-0.001904,-0.000888,-0.00049,0.012156,-0.506906,0.000363,0.254919,-264.443664,0.611982,62.627567
14.8961,0.012246,0.003299,0.001516,-0.001921,-0.00087,0.000278,0.012265,-0.506816,0.000515,0.254919,-264.443664,0.611982,62.627567
14.9159,0.01196,0.003467,0.001792,-0.001933,-0.000857,0.000807,0.01301,-0.506704,0.001517,0.329958,-264.443783,0.536943,62.627455
14.9358,0.011601,0.003122,0.000999,-0.001926,-0.000869,0.000501,0.012885,-0.506548,0.001767,0.329958,-264.443783,0.536943,62.627455
14.9559,0.011548,0.003271,0.002114,-0.001921,-0.000879,0.000286,0.012885,-0.506548,0.001767,0.329958,-264.443783,0.536943,62.627455
14.9761,0.011686,0.0037,0.001415,-0.001919,-0.000886,0.000136,0.012574,-0.506753,0.002133,0.254994,-264.444302,0.609748,62.626834
14.9962,0.012289,0.002994,0.001481,-0.001915,-0.000897,-6e-06,0.0125,-0.506572,0.001844,0.254994,-264.444302,0.609748,62.626834
15.0159,0.012119,0.002863,0.002229,-0.001912,-0.000907,-0.000105,0.013013,-0.50702,0.001487,0.330007,-264.444739,0.534735,62.626382
