mach0312/omni-docking-bench/src/icros_test_setup/results/MPPI_sample/timeseries/trial_111.csv
t,x,y,yaw,vx,vy,wz,bl_x,bl_y,bl_yaw,front_steering_joint,front_wheel_joint,rear_steering_joint,rear_wheel_joint
0.0,-0.048553,-0.000229,0.031117,-0.009094,-0.000363,0.012321,-0.031586,-0.50979,0.028093,-0.667114,-262.710285,0.714568,69.883008
0.0005,-0.049369,-0.000274,0.031051,-0.008201,-0.000328,0.011112,-0.031586,-0.50979,0.028093,-0.667114,-262.716598,0.714568,69.876442
0.0008,-0.049728,-0.000182,0.029943,-0.007236,-0.000289,0.009805,-0.03281,-0.510041,0.027293,-0.667114,-262.722027,0.714568,69.870796
0.0011,-0.050646,-0.000508,0.031817,-0.006201,-0.000248,0.008401,-0.03281,-0.510041,0.027293,-0.667114,-262.726656,0.714568,69.865981
0.0014,-0.0504,-0.000271,0.030896,-0.005116,-0.000204,0.006932,-0.03281,-0.510041,0.027293,-0.667114,-262.729813,0.714568,69.862697
0.0018,-0.050152,-0.000184,0.030263,-0.003943,-0.000158,0.005343,-0.03281,-0.510041,0.027293,-0.667114,-262.731821,0.714568,69.86061
0.0021,-0.050624,-0.000398,0.032749,-0.0027,-0.000108,0.003659,-0.032455,-0.510127,0.029407,-0.667114,-262.731821,0.714568,69.86061
0.0024,-0.051023,-0.000276,0.031503,-0.001384,-5.5e-05,0.001875,-0.03271,-0.50998,0.029429,-0.667114,-262.731821,0.714568,69.86061
0.0027,-0.050976,-0.000355,0.032973,0.0,0.0,0.0,-0.03271,-0.50998,0.029429,-0.667114,-262.731821,0.714568,69.86061
0.0182,-0.050991,-0.000143,0.031756,0.0,0.0,0.0,-0.034249,-0.510074,0.032868,-0.667114,-262.731821,0.714568,69.86061
0.0384,-0.051205,-0.000594,0.031799,0.0,0.0,0.0,-0.034249,-0.510074,0.032868,-0.667114,-262.731821,0.714568,69.86061
0.0584,-0.051321,-0.000321,0.031079,0.0,0.0,0.0,-0.03499,-0.510336,0.031799,-0.667114,-262.731821,0.714568,69.86061
0.0786,-0.051421,-0.000249,0.03306,0.0,0.0,0.0,-0.035188,-0.510229,0.031504,-0.667114,-262.731821,0.714568,69.86061
0.0983,-0.051035,-0.00026,0.031955,0.0,0.0,0.0,-0.034564,-0.50997,0.03306,-0.667114,-262.731821,0.714568,69.86061
0.1182,-0.051199,-0.000234,0.032814,0.003952,0.000545,-0.005664,-0.034725,-0.509997,0.032053,-0.667114,-262.731821,0.714568,69.86061
0.1385,-0.051211,-0.000282,0.032877,0.004366,0.000606,-0.006117,-0.034725,-0.509997,0.032053,-0.667114,-262.731821,0.714568,69.86061
0.1582,-0.051231,-0.000692,0.030643,0.004729,0.000662,-0.006446,-0.034447,-0.510006,0.032877,-0.667114,-262.731821,0.714568,69.86061
0.1782,-0.050987,-0.000289,0.032526,0.005047,0.000719,-0.006879,-0.034923,-0.51019,0.03196,-0.667114,-262.731821,0.714568,69.86061
0.198,-0.05089,-0.000433,0.031571,0.005325,0.00077,-0.007206,-0.034268,-0.509996,0.032342,-0.605738,-262.729763,0.771426,69.86297
0.2185,-0.05087,-0.000306,0.031605,0.005568,0.000815,-0.007665,-0.03474,-0.510162,0.031628,-0.605738,-262.729763,0.771426,69.86297
0.2382,-0.050516,-0.00018,0.032881,0.005779,0.000854,-0.00802,-0.03474,-0.510162,0.031628,-0.605738,-262.729763,0.771426,69.86297
0.2581,-0.050388,-0.000252,0.031777,0.005962,0.000888,-0.008295,-0.033528,-0.509865,0.03258,-0.598506,-262.727191,0.770728,69.865931
0.2785,-0.050122,-0.000248,0.031545,0.006122,0.000911,-0.008692,-0.033769,-0.509913,0.032219,-0.598506,-262.727191,0.770728,69.865931
0.2979,-0.04979,0.000193,0.031429,0.00626,0.000931,-0.009007,-0.033849,-0.50996,0.031283,-0.611177,-262.72429,0.784743,69.869288
0.3185,-0.049532,7e-06,0.031151,0.00638,0.00094,-0.009411,-0.033762,-0.509588,0.031404,-0.611177,-262.72429,0.784743,69.869288
0.3385,-0.049383,-0.000167,0.029426,0.006485,0.000947,-0.009737,-0.033762,-0.509588,0.031404,-0.611177,-262.72429,0.784743,69.869288
0.3585,-0.049206,-0.000319,0.031036,0.006575,0.000953,-0.009998,-0.03412,-0.509901,0.029054,-0.630636,-262.721225,0.798967,69.872839
0.3785,-0.049507,-6.2e-05,0.030602,0.006654,0.00097,-0.010317,-0.033792,-0.509965,0.029809,-0.630636,-262.721225,0.798967,69.872839
0.3983,-0.048575,4.3e-05,0.029616,0.006723,0.000985,-0.010575,-0.033699,-0.509788,0.030292,-0.664742,-262.71797,0.820895,69.876597
0.4186,-0.048678,0.000162,0.03046,0.006782,0.00099,-0.010915,-0.033484,-0.509736,0.02966,-0.664742,-262.71797,0.820895,69.876597
0.4386,-0.04871,-8.5e-05,0.029652,0.006834,0.000994,-0.011193,-0.033484,-0.509736,0.02966,-0.664742,-262.71797,0.820895,69.876597
0.4588,-0.047965,-0.000373,0.030013,0.006878,0.000996,-0.01142,-0.033313,-0.509812,0.029213,-0.68336,-262.714525,0.836219,69.880583
0.4786,-0.047989,0.000377,0.029045,0.006917,0.001003,-0.011689,-0.033012,-0.509943,0.029492,-0.68336,-262.714525,0.836219,69.880583
0.499,-0.047243,0.000474,0.027926,0.00695,0.001009,-0.01191,-0.032967,-0.509371,0.028692,-0.715585,-262.710979,0.858846,69.884679
0.5183,-0.047732,-0.000147,0.029251,0.006979,0.000996,-0.012153,-0.032986,-0.50933,0.027986,-0.715585,-262.710979,0.858846,69.884679
0.5385,-0.04775,-0.000132,0.02897,0.007003,0.000985,-0.012354,-0.032986,-0.50933,0.027986,-0.715585,-262.710979,0.858846,69.884679
0.5581,-0.047281,-2.1e-05,0.028596,0.007025,0.000974,-0.01252,-0.032689,-0.509868,0.028473,-0.733583,-262.707266,0.872625,69.88897
0.5788,-0.047176,0.000137,0.029367,0.007044,0.000979,-0.012703,-0.03266,-0.50984,0.028466,-0.733583,-262.707266,0.872625,69.88897
0.5985,-0.046399,0.000287,0.029679,0.00706,0.000982,-0.012855,-0.031982,-0.509606,0.028974,-0.759718,-262.703426,0.887079,69.893376
0.6182,-0.046596,0.000504,0.0294,0.007074,0.000973,-0.013022,-0.031309,-0.509496,0.029609,-0.759718,-262.703426,0.887079,69.893376
0.6386,-0.046005,0.000223,0.027613,0.007086,0.000965,-0.01316,-0.031309,-0.509496,0.029609,-0.759718,-262.703426,0.887079,69.893376
0.6585,-0.045488,0.000579,0.025942,0.007096,0.000957,-0.013275,-0.031633,-0.509534,0.027081,-0.771658,-262.69952,0.896506,69.897861
0.6786,-0.045425,0.000657,0.028152,0.007105,0.00095,-0.013411,-0.031855,-0.509412,0.026553,-0.771658,-262.69952,0.896506,69.897861
0.6983,-0.044805,0.000193,0.026189,0.007113,0.000944,-0.013525,-0.030846,-0.509104,0.027733,-0.789232,-262.695513,0.906601,69.90244
0.7188,-0.044825,-9e-06,0.026044,0.00712,0.000944,-0.013642,-0.031387,-0.509585,0.0263,-0.789232,-262.695513,0.906601,69.90244
0.7384,-0.044899,0.000275,0.026491,0.007126,0.000943,-0.01374,-0.031387,-0.509585,0.0263,-0.789232,-262.695513,0.906601,69.90244
0.7586,-0.044127,0.000115,0.025637,0.007131,0.000942,-0.013822,-0.031095,-0.509499,0.025927,-0.799498,-262.691378,0.912897,69.907154
0.7786,-0.04415,0.000609,0.025117,0.007135,0.000942,-0.013906,-0.031041,-0.509591,0.02573,-0.799498,-262.691378,0.912897,69.907154
0.7987,-0.043303,0.000672,0.025471,0.007139,0.000941,-0.013977,-0.031122,-0.509196,0.024689,-0.810575,-262.687315,0.920979,69.911781
0.8184,-0.043299,0.000416,0.02392,0.007142,0.000927,-0.014047,-0.030374,-0.509163,0.02538,-0.810575,-262.687315,0.920979,69.911781
0.8384,-0.043523,0.000776,0.02538,0.007144,0.000914,-0.014106,-0.030374,-0.509163,0.02538,-0.810575,-262.687315,0.920979,69.911781
0.8583,-0.042674,0.000315,0.024298,0.007147,0.000903,-0.014156,-0.030283,-0.509013,0.024796,-0.816346,-262.683114,0.925183,69.916564
0.8786,-0.042522,0.000573,0.024963,0.007149,0.000897,-0.014211,-0.030248,-0.509232,0.024513,-0.816346,-262.683114,0.925183,69.916564
0.8988,-0.041935,0.000674,0.02392,0.007151,0.000891,-0.014258,-0.029569,-0.509234,0.02452,-0.825402,-262.678946,0.928323,69.921281
0.9185,-0.042062,0.000662,0.024436,0.007152,0.000885,-0.014308,-0.02971,-0.509183,0.023951,-0.825402,-262.678946,0.928323,69.921281
0.9385,-0.042084,0.000549,0.025081,0.007153,0.00088,-0.01435,-0.02971,-0.509183,0.023951,-0.825402,-262.678946,0.928323,69.921281
0.9588,-0.041351,0.000809,0.023913,0.007155,0.000875,-0.014385,-0.028995,-0.509246,0.024483,-0.829871,-262.674703,0.930565,69.926075
0.9786,-0.041539,0.000806,0.022517,0.007155,0.000869,-0.014423,-0.029027,-0.509159,0.024182,-0.829871,-262.674703,0.930565,69.926075
0.9984,-0.040786,0.000406,0.021863,0.007156,0.000864,-0.014456,-0.029829,-0.509032,0.02206,-0.835549,-262.670446,0.933319,69.930873
1.0183,-0.040548,0.000846,0.02178,0.007158,0.000871,-0.014491,-0.029643,-0.50943,0.021857,-0.835549,-262.670446,0.933319,69.930873
1.0382,-0.040462,0.000677,0.022663,0.007159,0.000877,-0.014521,-0.029643,-0.50943,0.021857,-0.835549,-262.670446,0.933319,69.930873
1.0584,-0.039984,0.000932,0.022289,0.00716,0.000881,-0.014545,-0.028606,-0.509149,0.022058,-0.838829,-262.666164,0.934837,69.935692
1.0783,-0.039631,0.000468,0.021761,0.00716,0.000872,-0.01457,-0.028576,-0.50906,0.022083,-0.838829,-262.666164,0.934837,69.935692
1.0983,-0.038985,0.000727,0.018474,0.007161,0.000864,-0.014591,-0.028306,-0.509378,0.021298,-0.840844,-262.66187,0.938081,69.940534
1.1185,-0.039287,0.000957,0.021579,0.007164,0.000866,-0.0146,-0.029438,-0.509201,0.018707,-0.840844,-262.66187,0.938081,69.940534
1.1387,-0.038913,0.000955,0.019528,0.007166,0.000868,-0.014608,-0.029438,-0.509201,0.018707,-0.840844,-262.66187,0.938081,69.940534
1.1585,-0.038294,0.001119,0.020352,0.007168,0.000869,-0.014614,-0.028653,-0.508905,0.018913,-0.843625,-262.657522,0.938598,69.945425
1.1783,-0.038664,0.000719,0.020075,0.007168,0.000856,-0.014627,-0.028309,-0.508846,0.019446,-0.843625,-262.657522,0.938598,69.945425
1.1984,-0.037336,0.001054,0.019186,0.007168,0.000846,-0.014639,-0.028202,-0.509146,0.019614,-0.843687,-262.653249,0.939008,69.950235
1.2185,-0.037824,0.000815,0.019456,0.007169,0.000837,-0.014651,-0.027599,-0.508877,0.019201,-0.843687,-262.653249,0.939008,69.950235
1.2382,-0.03748,0.001457,0.019857,0.007169,0.00083,-0.014661,-0.027599,-0.508877,0.019201,-0.843687,-262.653249,0.939008,69.950235
1.2585,-0.037036,0.001098,0.018741,0.007169,0.000824,-0.01467,-0.027055,-0.508401,0.019244,-0.846041,-262.648924,0.938588,69.955087
1.2787,-0.036951,0.001093,0.019411,0.007169,0.000807,-0.014676,-0.027193,-0.508564,0.018968,-0.846041,-262.648924,0.938588,69.955087
1.2983,-0.036113,0.000802,0.01875,0.007169,0.000793,-0.014682,-0.026824,-0.50878,0.018942,-0.848457,-262.644569,0.938358,69.959958
1.3184,-0.035973,0.000892,0.019816,0.00717,0.000799,-0.01469,-0.026563,-0.50908,0.018744,-0.848457,-262.644569,0.938358,69.959958
1.3382,-0.036147,0.001134,0.018173,0.007172,0.000805,-0.014697,-0.026563,-0.50908,0.018744,-0.848457,-262.644569,0.938358,69.959958
1.3585,-0.035069,0.001202,0.017614,0.007172,0.000809,-0.014703,-0.026581,-0.508743,0.017562,-0.850801,-262.640238,0.937237,69.964781
1.3785,-0.035586,0.001038,0.017369,0.007174,0.000801,-0.01469,-0.026345,-0.508729,0.017512,-0.850801,-262.640238,0.937237,69.964781
1.3983,-0.034849,0.001538,0.015374,0.007176,0.000795,-0.01468,-0.0265,-0.508856,0.016901,-0.850379,-262.635889,0.938453,69.969635
1.4186,-0.03513,0.001076,0.016115,0.00718,0.000783,-0.014603,-0.026951,-0.508441,0.015489,-0.850379,-262.635889,0.938453,69.969635
1.4385,-0.034601,0.000766,0.015716,0.007183,0.000774,-0.014543,-0.026951,-0.508441,0.015489,-0.850379,-262.635889,0.938453,69.969635
1.4586,-0.034217,0.001251,0.016092,0.007186,0.000767,-0.014495,-0.026286,-0.509133,0.015102,-0.850165,-262.631524,0.936831,69.974498
1.4784,-0.033945,0.00126,0.014989,0.00719,0.000778,-0.014459,-0.026136,-0.508941,0.015443,-0.850165,-262.631524,0.936831,69.974498
1.4984,-0.033185,0.001395,0.014175,0.007193,0.000788,-0.01443,-0.026074,-0.508655,0.01453,-0.844242,-262.627199,0.929178,69.979299
1.5182,-0.033148,0.001423,0.016268,0.007196,0.000783,-0.014324,-0.025955,-0.508561,0.014182,-0.844242,-262.627199,0.929178,69.979299
1.5387,-0.033578,0.001143,0.01439,0.007198,0.00078,-0.014242,-0.025955,-0.508561,0.014182,-0.844242,-262.627199,0.929178,69.979299
1.5583,-0.032755,0.001725,0.015989,0.0072,0.000777,-0.014178,-0.025937,-0.508767,0.013783,-0.839996,-262.622909,0.927835,69.984074
1.5782,-0.033062,0.001623,0.015952,0.007201,0.000774,-0.014156,-0.025378,-0.508544,0.014584,-0.839996,-262.622909,0.927835,69.984074
1.5984,-0.031701,0.001776,0.01338,0.007201,0.000772,-0.014139,-0.024699,-0.508284,0.015501,-0.830601,-262.61865,0.919044,69.988809
1.6187,-0.031985,0.001058,0.01427,0.007202,0.000754,-0.014041,-0.02485,-0.508187,0.013548,-0.830601,-262.61865,0.919044,69.988809
1.6383,-0.031767,0.000801,0.014234,0.007202,0.00074,-0.013966,-0.02485,-0.508187,0.013548,-0.830601,-262.61865,0.919044,69.988809
1.6582,-0.030802,0.001309,0.013269,0.007202,0.000729,-0.013908,-0.024207,-0.509111,0.013642,-0.829314,-262.614385,0.917447,69.993548
1.6784,-0.031048,0.001327,0.013012,0.007204,0.000748,-0.013856,-0.024102,-0.508918,0.013422,-0.829314,-262.614385,0.917447,69.993548
1.6983,-0.030229,0.001493,0.012767,0.007206,0.000765,-0.013816,-0.024183,-0.508604,0.012569,-0.822996,-262.610153,0.907844,69.998225
1.7181,-0.030573,0.001388,0.012892,0.007207,0.000758,-0.013711,-0.023747,-0.508476,0.012728,-0.822996,-262.610153,0.907844,69.998225
1.7382,-0.029926,0.001241,0.011721,0.007208,0.000753,-0.01363,-0.023747,-0.508476,0.012728,-0.822996,-262.610153,0.907844,69.998225
1.7582,-0.029952,0.001632,0.011427,0.007208,0.00075,-0.013569,-0.023648,-0.508688,0.011145,-0.816801,-262.605943,0.90652,70.002899
1.7786,-0.029816,0.001689,0.009427,0.007214,0.000748,-0.013322,-0.02381,-0.508538,0.011195,-0.816801,-262.605943,0.90652,70.002899
1.7985,-0.029271,0.001657,0.009365,0.007219,0.000747,-0.013141,-0.02478,-0.508262,0.008997,-0.807678,-262.601783,0.897508,70.007511
1.8185,-0.028999,0.001798,0.010437,0.007233,0.000736,-0.012664,-0.024509,-0.508315,0.009312,-0.807678,-262.601783,0.897508,70.007511
1.8388,-0.028824,0.001625,0.01066,0.007245,0.000731,-0.012323,-0.024509,-0.508315,0.009312,-0.807678,-262.601783,0.897508,70.007511
1.8584,-0.027911,0.001428,0.011865,0.007254,0.00073,-0.012079,-0.02309,-0.508312,0.010116,-0.789508,-262.597725,0.882296,70.012007
1.8786,-0.028164,0.001488,0.010883,0.007251,0.000731,-0.012151,-0.022555,-0.508399,0.010764,-0.789508,-262.597725,0.882296,70.012007
1.8985,-0.027526,0.00149,0.010483,0.007249,0.000732,-0.012206,-0.022397,-0.508457,0.010522,-0.741809,-262.594026,0.840885,70.016098
1.9183,-0.027507,0.001579,0.008805,0.007249,0.000735,-0.012197,-0.022188,-0.508478,0.010468,-0.741809,-262.594026,0.840885,70.016098
1.9386,-0.027905,0.001603,0.008712,0.007249,0.000738,-0.01219,-0.022188,-0.508478,0.010468,-0.741809,-262.594026,0.840885,70.016098
1.9586,-0.026564,0.001814,0.008447,0.007249,0.000741,-0.012184,-0.02316,-0.508345,0.008202,-0.747759,-262.590083,0.846104,70.020459
1.9785,-0.027185,0.00166,0.009794,0.007262,0.000728,-0.011737,-0.022759,-0.508269,0.008242,-0.747759,-262.590083,0.846104,70.020459
1.998,-0.026429,0.001915,0.007097,0.007273,0.000722,-0.011419,-0.021959,-0.508289,0.009405,-0.746116,-262.586101,0.845788,70.024868
2.0185,-0.026229,0.002032,0.007905,0.007286,0.000703,-0.010938,-0.022742,-0.508086,0.00724,-0.746116,-262.586101,0.845788,70.024868
2.0383,-0.026387,0.001364,0.009035,0.007297,0.000692,-0.010599,-0.022742,-0.508086,0.00724,-0.746116,-262.586101,0.845788,70.024868
2.0585,-0.025481,0.001225,0.007668,0.007306,0.000686,-0.010361,-0.021489,-0.508584,0.008579,-0.710046,-262.582437,0.813629,70.028914
2.0787,-0.025833,0.001903,0.006768,0.007309,0.00071,-0.010409,-0.021488,-0.508652,0.008156,-0.710046,-262.582437,0.813629,70.028914
2.0983,-0.025264,0.001511,0.007965,0.007311,0.000731,-0.010444,-0.022166,-0.508064,0.006464,-0.657607,-262.579016,0.764975,70.032667
2.1183,-0.025087,0.001613,0.007408,0.007315,0.000737,-0.010392,-0.021265,-0.508441,0.007838,-0.657607,-262.579016,0.764975,70.032667
2.1383,-0.025018,0.00195,0.008282,0.007318,0.000743,-0.010355,-0.021265,-0.508441,0.007838,-0.657607,-262.579016,0.764975,70.032667
2.1584,-0.024404,0.001748,0.007416,0.00732,0.000748,-0.010328,-0.020491,-0.507999,0.007848,-0.657701,-262.575344,0.77145,70.036721
2.1786,-0.024444,0.001597,0.006696,0.007322,0.000733,-0.010251,-0.020509,-0.508092,0.007622,-0.657701,-262.575344,0.77145,70.036721
2.1984,-0.023839,0.002293,0.006628,0.007323,0.000721,-0.010195,-0.020797,-0.508366,0.006367,-0.649534,-262.571673,0.767018,70.040782
2.2187,-0.024053,0.001728,0.005729,0.007328,0.000686,-0.009884,-0.020478,-0.507755,0.006588,-0.649534,-262.571673,0.767018,70.040782
2.2389,-0.023526,0.001844,0.00514,0.007332,0.00066,-0.009665,-0.020478,-0.507755,0.006588,-0.649534,-262.571673,0.767018,70.040782
2.2584,-0.023111,0.002011,0.006064,0.007335,0.00064,-0.009512,-0.020598,-0.508117,0.004714,-0.644679,-262.568013,0.759073,70.044814
2.2783,-0.023291,0.002144,0.006903,0.007344,0.000621,-0.008986,-0.020327,-0.508058,0.005214,-0.644679,-262.568013,0.759073,70.044814
2.2984,-0.022571,0.001859,0.006186,0.007352,0.000611,-0.008621,-0.019546,-0.507823,0.006611,-0.613928,-262.564551,0.72124,70.048581
2.3189,-0.022286,0.001692,0.004717,0.007352,0.000618,-0.008662,-0.019416,-0.508102,0.006209,-0.613928,-262.564551,0.72124,70.048581
2.3385,-0.022733,0.001732,0.005759,0.007352,0.000623,-0.008691,-0.019416,-0.508102,0.006209,-0.613928,-262.564551,0.72124,70.048581
2.3584,-0.022114,0.001908,0.005593,0.007353,0.000627,-0.008712,-0.01951,-0.508235,0.005424,-0.564364,-262.561321,0.674347,70.052075
2.3784,-0.021798,0.001853,0.004677,0.007357,0.000626,-0.008503,-0.019376,-0.50817,0.005455,-0.564364,-262.561321,0.674347,70.052075
2.3981,-0.021392,0.002137,0.005946,0.00736,0.000627,-0.008355,-0.019179,-0.50812,0.0044,-0.568151,-262.557835,0.680198,70.055855
2.4181,-0.02161,0.001685,0.002594,0.007358,0.000613,-0.008348,-0.018418,-0.507876,0.0058,-0.568151,-262.557835,0.680198,70.055855
2.4382,-0.021375,0.002137,0.006855,0.007357,0.000601,-0.008341,-0.018418,-0.507876,0.0058,-0.568151,-262.557835,0.680198,70.055855
2.4582,-0.021142,0.001917,0.005826,0.007356,0.000591,-0.008336,-0.017576,-0.507823,0.00651,-0.546362,-262.554434,0.661468,70.059537
2.4786,-0.020547,0.001883,0.004063,0.007352,0.000586,-0.008435,-0.017787,-0.507924,0.006187,-0.546362,-262.554434,0.661468,70.059537
2.4981,-0.020082,0.002085,0.003759,0.007349,0.000581,-0.008504,-0.018241,-0.508093,0.003798,-0.549049,-262.550977,0.65777,70.063264
2.5185,-0.020514,0.001864,0.004844,0.007354,0.000542,-0.007742,-0.018161,-0.507925,0.00375,-0.549049,-262.550977,0.65777,70.063264
2.5385,-0.020482,0.001563,0.003601,0.00736,0.000517,-0.00721,-0.018161,-0.507925,0.00375,-0.549049,-262.550977,0.65777,70.063264
2.5581,-0.019417,0.002311,0.003134,0.007366,0.000504,-0.006839,-0.018341,-0.508409,0.003248,-0.560492,-262.547525,0.666033,70.066982
2.5789,-0.019612,0.002241,0.002747,0.007372,0.000494,-0.006349,-0.018089,-0.508107,0.00316,-0.560492,-262.547525,0.666033,70.066982
2.5983,-0.019471,0.001857,0.003801,0.007378,0.000492,-0.006005,-0.018041,-0.507744,0.00258,-0.485672,-262.545121,0.591213,70.069531
2.6185,-0.019484,0.002027,0.003445,0.007381,0.000501,-0.005972,-0.017569,-0.508104,0.003686,-0.485672,-262.545121,0.591213,70.069531
2.6384,-0.019351,0.002346,0.003092,0.007383,0.000509,-0.00595,-0.017569,-0.508104,0.003686,-0.485672,-262.545121,0.591213,70.069531
2.6582,-0.019284,0.002039,0.003702,0.007385,0.000516,-0.005934,-0.017522,-0.507634,0.002884,-0.410701,-262.542489,0.516241,70.072307
2.6782,-0.019171,0.00197,0.002878,0.007386,0.000492,-0.005727,-0.017442,-0.507763,0.003192,-0.410701,-262.542489,0.516241,70.072307
2.698,-0.01842,0.001975,0.002284,0.007387,0.000475,-0.00558,-0.017469,-0.50801,0.002689,-0.398462,-262.539288,0.510942,70.075689
2.7186,-0.017933,0.002258,0.002922,0.007391,0.000458,-0.005104,-0.017262,-0.508021,0.00231,-0.398462,-262.539288,0.510942,70.075689
2.7387,-0.018427,0.002203,0.002501,0.007394,0.000449,-0.004765,-0.017262,-0.508021,0.00231,-0.398462,-262.539288,0.510942,70.075689
2.7581,-0.017902,0.002522,0.003049,0.007397,0.000444,-0.004524,-0.016848,-0.507775,0.002272,-0.377948,-262.53617,0.483962,70.078963
2.7781,-0.017625,0.001976,0.001679,0.007396,0.000423,-0.004462,-0.016608,-0.50765,0.002564,-0.377948,-262.53617,0.483962,70.078963
2.7981,-0.017723,0.001988,0.001361,0.007394,0.000405,-0.004417,-0.016572,-0.508011,0.001559,-0.303763,-262.533575,0.409164,70.081662
2.8184,-0.017043,0.002241,0.002111,0.007396,0.00039,-0.003839,-0.016978,-0.508011,0.001372,-0.303763,-262.533575,0.409164,70.081662
2.8385,-0.017526,0.002195,0.002073,0.007397,0.000382,-0.003422,-0.016978,-0.508011,0.001372,-0.303763,-262.533575,0.409164,70.081662
2.8582,-0.016959,0.002376,0.001688,0.007398,0.000379,-0.003122,-0.01616,-0.507786,0.001889,-0.300597,-262.530486,0.397297,70.084862
2.8781,-0.017002,0.002335,0.001173,0.007396,0.000367,-0.003104,-0.016099,-0.507717,0.001785,-0.300597,-262.530486,0.397297,70.084862
2.8986,-0.016803,0.002096,0.001524,0.007394,0.000356,-0.003089,-0.016231,-0.507655,0.001093,-0.225591,-262.528251,0.322291,70.087152
2.9185,-0.016515,0.002554,0.000774,0.007393,0.000351,-0.002939,-0.016035,-0.507881,0.001483,-0.225591,-262.528251,0.322291,70.087152
2.9383,-0.016438,0.002355,0.001927,0.007393,0.000348,-0.002829,-0.016035,-0.507881,0.001483,-0.225591,-262.528251,0.322291,70.087152
2.9586,-0.015902,0.002369,0.00108,0.007393,0.000346,-0.002748,-0.015152,-0.507629,0.0018,-0.204145,-262.525295,0.294532,70.090178
2.9791,-0.016189,0.002579,0.000442,0.007388,0.000324,-0.002694,-0.015197,-0.507628,0.001495,-0.204145,-262.525295,0.294532,70.090178
2.9982,-0.015632,0.002131,0.00135,0.007384,0.000305,-0.002653,-0.01573,-0.50741,0.000356,-0.178286,-262.522357,0.267359,70.093175
3.0183,-0.015401,0.002393,0.001083,0.007382,0.000297,-0.00251,-0.015004,-0.507826,0.001254,-0.178286,-262.522357,0.267359,70.093175
3.0386,-0.015856,0.002505,0.000765,0.007381,0.000291,-0.002405,-0.015004,-0.507826,0.001254,-0.178286,-262.522357,0.267359,70.093175
3.058,-0.015362,0.002365,0.00199,0.007379,0.000288,-0.002328,-0.015157,-0.507482,0.000655,-0.176271,-262.519364,0.255125,70.09622
3.0784,-0.015471,0.002272,0.000133,0.007375,0.000263,-0.002235,-0.014793,-0.507542,0.001183,-0.176271,-262.519364,0.255125,70.09622
3.098,-0.014992,0.002625,0.000598,0.007371,0.000243,-0.002166,-0.015171,-0.507719,6e-05,-0.152461,-262.516422,0.227661,70.099205
3.1182,-0.014766,0.002367,0.001317,0.007363,0.000202,-0.001795,-0.014714,-0.5074,0.000555,-0.152461,-262.516422,0.227661,70.099205
3.1383,-0.014608,0.002141,-0.000251,0.007358,0.000171,-0.001526,-0.014714,-0.5074,0.000555,-0.152461,-262.516422,0.227661,70.099205
3.1581,-0.014503,0.002471,0.001327,0.007353,0.000147,-0.00133,-0.014432,-0.507849,-0.000341,-0.145418,-262.513475,0.209379,70.102186
3.1784,-0.01444,0.002298,-0.001577,0.00735,0.000141,-0.00108,-0.014147,-0.507716,0.000336,-0.145418,-262.513475,0.209379,70.102186
3.1985,-0.014111,0.002274,0.000685,0.007348,0.000138,-0.000897,-0.015043,-0.507697,-0.001614,-0.090152,-262.510934,0.134754,70.104739
3.2185,-0.014109,0.002222,0.000709,0.007346,0.000138,-0.000841,-0.013864,-0.507723,0.000482,-0.090152,-262.510934,0.134754,70.104739
3.2384,-0.014081,0.002235,-9.5e-05,0.007344,0.000138,-0.000798,-0.013864,-0.507723,0.000482,-0.090152,-262.510934,0.134754,70.104739
3.2584,-0.013762,0.002566,0.000161,0.007343,0.000139,-0.000766,-0.013837,-0.50776,-0.00013,-0.055764,-262.508129,0.093015,70.107551
3.2786,-0.01378,0.002454,0.00182,0.007338,0.000121,-0.000488,-0.013739,-0.507627,-1.6e-05,-0.055764,-262.508129,0.093015,70.107551
3.2983,-0.01364,0.002354,0.001274,0.007334,0.000108,-0.000285,-0.012619,-0.507541,0.001796,-0.044692,-262.505194,0.082448,70.110493
3.3187,-0.013529,0.00226,-0.000232,0.007327,0.000122,-0.000818,-0.012946,-0.507636,0.001319,-0.044692,-262.505194,0.082448,70.110493
3.3382,-0.013228,0.002496,0.000757,0.007322,0.00013,-0.001197,-0.012946,-0.507636,0.001319,-0.044692,-262.505194,0.082448,70.110493
3.3583,-0.012985,0.002211,0.002152,0.007319,0.000133,-0.001467,-0.012551,-0.507499,0.000746,-0.009083,-262.502408,0.038424,70.113281
3.3783,-0.012621,0.002155,0.002436,0.007312,0.000123,-0.001664,-0.012243,-0.507618,0.001326,-0.009083,-262.502408,0.038424,70.113281
3.3984,-0.012669,0.002388,0.001513,0.007307,0.000113,-0.001805,-0.011208,-0.507841,0.002409,-0.08405,-262.500246,0.113391,70.115452
3.4182,-0.012703,0.002379,0.001117,0.007299,0.000104,-0.002031,-0.011829,-0.507631,0.001589,-0.08405,-262.500246,0.113391,70.115452
3.4384,-0.012717,0.002136,-0.00039,0.007293,9.5e-05,-0.002194,-0.011829,-0.507631,0.001589,-0.08405,-262.500246,0.113391,70.115452
3.4585,-0.012418,0.002176,0.000366,0.007288,8.6e-05,-0.00231,-0.012635,-0.507859,-0.000459,-0.134635,-262.497534,0.164833,70.118177
3.4785,-0.012426,0.002182,-0.000501,0.007285,6.7e-05,-0.001555,-0.012437,-0.507844,-0.00013,-0.134635,-262.497534,0.164833,70.118177
3.4985,-0.011964,0.002155,0.00088,0.007284,5.7e-05,-0.001003,-0.012462,-0.507816,-0.00057,-0.179863,-262.494734,0.202554,70.120989
3.5182,-0.01191,0.00218,0.000104,0.007283,6.1e-05,-0.001043,-0.011589,-0.507842,0.000745,-0.179863,-262.494734,0.202554,70.120989
3.5385,-0.012183,0.002195,0.002313,0.007281,6.4e-05,-0.001071,-0.011589,-0.507842,0.000745,-0.179863,-262.494734,0.202554,70.120989
3.5582,-0.011813,0.002613,0.00212,0.00728,6.7e-05,-0.001091,-0.010793,-0.507801,0.002273,-0.104953,-262.492712,0.127644,70.123014
3.5782,-0.011615,0.002798,-0.000692,0.007262,6.4e-05,-0.001782,-0.010744,-0.507629,0.002205,-0.104953,-262.492712,0.127644,70.123014
3.5983,-0.011429,0.002409,0.000302,0.007248,5.7e-05,-0.002278,-0.011741,-0.5072,-0.000726,-0.082175,-262.489853,0.100357,70.125878
3.6182,-0.011149,0.002529,-0.000505,0.007241,8e-06,-0.001679,-0.011305,-0.507555,0.000208,-0.082175,-262.489853,0.100357,70.125878
3.6382,-0.011161,0.002442,0.000282,0.007236,-2.9e-05,-0.001247,-0.011305,-0.507555,0.000208,-0.082175,-262.489853,0.100357,70.125878
3.6583,-0.010802,0.002507,0.000448,0.007233,-5.5e-05,-0.000934,-0.010794,-0.507556,0.000221,-0.157071,-262.487688,0.175253,70.128049
3.6782,-0.01141,0.002631,0.002573,0.007225,-8.6e-05,-0.000758,-0.010677,-0.50753,0.000307,-0.157071,-262.487688,0.175253,70.128049
3.6982,-0.010593,0.002706,-0.001881,0.007219,-0.00011,-0.000632,-0.009919,-0.507366,0.002546,-0.086296,-262.485435,0.100131,70.130299
3.7185,-0.010319,0.002615,-0.001558,0.007205,-0.000164,0.000249,-0.011405,-0.507299,-0.001506,-0.086296,-262.485435,0.100131,70.130299
3.7387,-0.011177,0.002422,-0.000404,0.007196,-0.000204,0.000903,-0.011405,-0.507299,-0.001506,-0.086296,-262.485435,0.100131,70.130299
3.7582,-0.009972,0.001996,-0.001182,0.00719,-0.000232,0.001388,-0.0111,-0.507582,-0.000429,-0.068538,-262.48273,0.038289,70.133
3.7785,-0.010166,0.002403,-0.001241,0.007193,-0.000208,0.001424,-0.010855,-0.507753,-0.000736,-0.068538,-262.48273,0.038289,70.133
3.7987,-0.010145,0.001942,-0.000344,0.007195,-0.000189,0.001455,-0.010709,-0.507599,-0.001238,0.00633,-262.481609,-0.036579,70.13413
3.8185,-0.010174,0.002373,0.001497,0.0072,-0.000145,0.001322,-0.010351,-0.508016,-0.000425,0.00633,-262.481609,-0.036579,70.13413
3.8385,-0.010123,0.002389,0.000719,0.007202,-0.00011,0.001231,-0.010351,-0.508016,-0.000425,0.00633,-262.481609,-0.036579,70.13413
3.8586,-0.00989,0.002027,0.002688,0.007204,-8.2e-05,0.001168,-0.00954,-0.507614,0.000753,0.08135,-262.47953,-0.1116,70.136222
3.8785,-0.010087,0.00254,0.000599,0.007177,-7e-05,0.000142,-0.009092,-0.507762,0.001559,0.08135,-262.47953,-0.1116,70.136222
3.8982,-0.009569,0.002244,0.001355,0.007157,-6.7e-05,-0.000596,-0.009553,-0.507462,0.000636,0.08739,-262.476643,-0.110055,70.139115
3.9185,-0.009649,0.002623,-3.5e-05,0.007139,-8.2e-05,-0.001001,-0.008925,-0.50773,0.001294,0.08739,-262.476643,-0.110055,70.139115
3.9385,-0.009883,0.002531,0.000117,0.007125,-9.7e-05,-0.001294,-0.008925,-0.50773,0.001294,0.08739,-262.476643,-0.110055,70.139115
3.9585,-0.009472,0.002237,7.6e-05,0.007114,-0.000112,-0.001507,-0.009678,-0.50747,0.000123,0.012489,-262.475248,-0.035154,70.140509
3.9784,-0.009508,0.002472,0.001246,0.007109,-0.000156,-0.001065,-0.009561,-0.50759,0.000104,0.012489,-262.475248,-0.035154,70.140509
3.9979,-0.009304,0.002186,0.001356,0.007107,-0.000189,-0.000746,-0.008765,-0.507529,0.001237,-0.062378,-262.473886,0.039714,70.141865
4.0185,-0.009494,0.002451,0.001492,0.007094,-0.000181,-0.001143,-0.008621,-0.507788,0.001345,-0.062378,-262.473886,0.039714,70.141865
4.0386,-0.009349,0.002561,0.002072,0.007084,-0.000177,-0.001428,-0.008621,-0.507788,0.001345,-0.062378,-262.473886,0.039714,70.141865
4.0585,-0.009071,0.002211,0.00033,0.007075,-0.000177,-0.001635,-0.007999,-0.507445,0.002041,-0.090514,-262.471064,0.037497,70.144678
4.0791,-0.008644,0.002404,0.000806,0.007056,-0.000212,-0.001772,-0.008338,-0.507588,0.001332,-0.090514,-262.471064,0.037497,70.144678
4.0981,-0.008696,0.002458,0.000175,0.007039,-0.000242,-0.001873,-0.008046,-0.507601,0.000763,-0.164618,-262.468685,0.112602,70.147041
4.1184,-0.008256,0.002489,-0.000421,0.007027,-0.000292,-0.001395,-0.008547,-0.507547,0.000226,-0.164618,-262.468685,0.112602,70.147041
4.1383,-0.008837,0.002581,-0.000517,0.007018,-0.000329,-0.001051,-0.008547,-0.507547,0.000226,-0.164618,-262.468685,0.112602,70.147041
4.1582,-0.008175,0.002468,0.001009,0.007011,-0.000357,-0.000804,-0.008812,-0.507429,-0.000594,-0.194316,-262.465862,0.127482,70.149833
4.1784,-0.008328,0.002623,0.001699,0.006997,-0.000398,-0.000534,-0.008308,-0.507472,5.2e-05,-0.194316,-262.465862,0.127482,70.149833
4.1982,-0.007811,0.002442,0.00106,0.006985,-0.000429,-0.000341,-0.007292,-0.507382,0.001675,-0.120342,-262.463721,0.052402,70.151959
4.2183,-0.007976,0.002272,-0.000556,0.006943,-0.000451,-0.000737,-0.007263,-0.507542,0.001115,-0.120342,-262.463721,0.052402,70.151959
4.2381,-0.008303,0.00267,-0.000865,0.006909,-0.000471,-0.001022,-0.007263,-0.507542,0.001115,-0.120342,-262.463721,0.052402,70.151959
4.2581,-0.007794,0.002265,0.000174,0.006881,-0.000489,-0.001228,-0.008487,-0.507345,-0.00088,-0.091022,-262.461237,-0.022517,70.154434
4.2781,-0.007837,0.002241,-0.001141,0.00688,-0.000518,-0.000613,-0.008128,-0.507511,-0.000438,-0.091022,-262.461237,-0.022517,70.154434
4.2981,-0.007531,0.002413,0.000335,0.00688,-0.000537,-0.000165,-0.008237,-0.50777,-0.001172,-0.166451,-262.458911,0.037928,70.156725
4.3188,-0.007438,0.002491,-0.000268,0.006865,-0.000544,-0.000157,-0.007427,-0.507604,0.000204,-0.166451,-262.458911,0.037928,70.156725
4.3385,-0.007155,0.00262,0.000592,0.006852,-0.000551,-0.000151,-0.007427,-0.507604,0.000204,-0.166451,-262.458911,0.037928,70.156725
4.3582,-0.006781,0.002425,0.000504,0.006841,-0.000556,-0.000148,-0.00663,-0.507395,0.000582,-0.092421,-262.456764,-0.036776,70.158867
4.3786,-0.007118,0.002369,0.001279,0.006784,-0.000603,-0.000309,-0.00656,-0.507471,0.000549,-0.092421,-262.456764,-0.036776,70.158867
4.3982,-0.006342,0.002386,-0.000762,0.006737,-0.000642,-0.000427,-0.006251,-0.507648,0.001275,-0.094142,-262.454061,-0.0679,70.161564
4.4182,-0.00654,0.002085,0.00042,0.006706,-0.00067,4.1e-05,-0.006676,-0.507618,-0.000578,-0.094142,-262.454061,-0.0679,70.161564
4.4383,-0.00676,0.00222,0.000854,0.006681,-0.00069,0.000382,-0.006676,-0.507618,-0.000578,-0.094142,-262.454061,-0.0679,70.161564
4.4582,-0.006212,0.002402,-0.000312,0.006661,-0.000703,0.000628,-0.006049,-0.507806,0.000837,-0.133142,-262.45141,-0.056495,70.164196
4.4782,-0.006221,0.002393,0.001061,0.006619,-0.000694,0.000335,-0.00615,-0.507723,0.000362,-0.133142,-262.45141,-0.056495,70.164196
4.498,-0.005988,0.002435,-5.1e-05,0.006585,-0.000689,0.000124,-0.005521,-0.507622,0.001071,-0.058056,-262.449421,-0.13158,70.166209
4.5182,-0.006064,0.00185,-0.001229,0.006532,-0.000728,0.000146,-0.005965,-0.50757,4.5e-05,-0.058056,-262.449421,-0.13158,70.166209
4.5383,-0.006082,0.002373,-0.00019,0.00649,-0.00076,0.00016,-0.005965,-0.50757,4.5e-05,-0.058056,-262.449421,-0.13158,70.166209
4.5582,-0.006016,0.001957,-0.000329,0.006455,-0.000784,0.000167,-0.005911,-0.507656,-0.000185,-0.092779,-262.446837,-0.115619,70.168799
4.579,-0.005706,0.001887,-0.000901,0.006439,-0.000765,0.000307,-0.005992,-0.507818,-0.000244,-0.092779,-262.446837,-0.115619,70.168799
4.5986,-0.005821,0.001773,0.000674,0.006425,-0.000749,0.000408,-0.00596,-0.508138,-0.000895,-0.105237,-262.444265,-0.136431,70.171381
4.6186,-0.005789,0.002074,-0.000243,0.006392,-0.000657,6.8e-05,-0.005509,-0.508221,0.00054,-0.105237,-262.444265,-0.136431,70.171381
4.6387,-0.005168,0.00223,0.001122,0.006364,-0.000587,-0.000175,-0.005509,-0.508221,0.00054,-0.105237,-262.444265,-0.136431,70.171381
4.6585,-0.005136,0.002076,-0.000624,0.006339,-0.000535,-0.00035,-0.004332,-0.5078,0.001139,-0.077647,-262.441731,-0.15409,70.173937
4.6788,-0.004985,0.002096,-0.000236,0.006217,-0.000604,-0.000368,-0.004765,-0.507855,0.000412,-0.077647,-262.441731,-0.15409,70.173937
4.6982,-0.005084,0.001749,0.000453,0.006119,-0.000658,-0.000386,-0.00494,-0.50792,-0.000242,-0.117461,-262.439638,-0.079106,70.176019
4.719,-0.005316,0.002207,-0.001001,0.006071,-0.000619,-0.000413,-0.004852,-0.508222,0.000391,-0.117461,-262.439638,-0.079106,70.176019
4.7387,-0.004395,0.001885,0.000114,0.006031,-0.000588,-0.000434,-0.004852,-0.508222,0.000391,-0.117461,-262.439638,-0.079106,70.176019
4.7585,-0.00476,0.001973,-0.000338,0.005999,-0.000564,-0.000451,-0.004085,-0.508142,9.8e-05,-0.145078,-262.437198,-0.068946,70.178439
4.7789,-0.004717,0.002504,0.000755,0.005901,-0.000603,-0.000199,-0.004401,-0.508098,-8.1e-05,-0.145078,-262.437198,-0.068946,70.178439
4.7984,-0.004349,0.002057,-0.000209,0.005825,-0.000631,-2.1e-05,-0.004142,-0.507514,0.00074,-0.139064,-262.434791,-0.04802,70.180826
4.8184,-0.004617,0.002012,-0.001822,0.005756,-0.000693,0.000138,-0.004419,-0.507907,-0.000128,-0.139064,-262.434791,-0.04802,70.180826
4.8382,-0.004311,0.002374,0.000117,0.005702,-0.00074,0.000249,-0.004419,-0.507907,-0.000128,-0.139064,-262.434791,-0.04802,70.180826
4.8586,-0.003575,0.001798,-0.000559,0.005659,-0.000776,0.000327,-0.004024,-0.507651,0.000116,-0.110011,-262.432601,-0.105725,70.183015
4.8787,-0.003816,0.001976,-0.000955,0.005546,-0.000837,0.000419,-0.00393,-0.507879,-0.00016,-0.110011,-262.432601,-0.105725,70.183015
4.898,-0.003633,0.001874,-0.001091,0.005456,-0.000883,0.000482,-0.004135,-0.508047,-0.000945,-0.101617,-262.430474,-0.17076,70.185162
4.9187,-0.004081,0.001954,0.000991,0.005433,-0.000868,0.000923,-0.004177,-0.50812,-0.001078,-0.101617,-262.430474,-0.17076,70.185162
4.9385,-0.004049,0.001996,0.000616,0.005414,-0.000854,0.001245,-0.004177,-0.50812,-0.001078,-0.101617,-262.430474,-0.17076,70.185162
4.9583,-0.003699,0.001908,0.002231,0.005399,-0.000842,0.00148,-0.003513,-0.50804,0.000636,-0.107415,-262.428343,-0.21246,70.187329
4.9783,-0.003605,0.001744,0.002088,0.00518,-0.000845,0.000531,-0.003102,-0.508065,0.001284,-0.107415,-262.428343,-0.21246,70.187329
4.9984,-0.003128,0.00177,0.000962,0.005014,-0.000853,-0.000155,-0.002422,-0.508274,0.002114,-0.032538,-262.426878,-0.287337,70.188868
5.0182,-0.003504,0.002098,-0.00019,0.004777,-0.000844,-0.000532,-0.002612,-0.508235,0.001068,-0.032538,-262.426878,-0.287337,70.188868
5.0384,-0.003772,0.001934,0.00031,0.004595,-0.000842,-0.00081,-0.002612,-0.508235,0.001068,-0.032538,-262.426878,-0.287337,70.188868
5.0582,-0.00312,0.002051,0.001074,0.004454,-0.000844,-0.001017,-0.003508,-0.508083,0.000319,-0.107548,-262.42585,-0.212327,70.18989
5.0782,-0.003341,0.001955,-0.000384,0.004454,-0.000886,-0.000964,-0.003118,-0.508031,0.000625,-0.107548,-262.42585,-0.212327,70.18989
5.0983,-0.00337,0.001644,0.000423,0.004453,-0.000919,-0.00093,-0.003491,-0.508053,-0.000386,-0.182551,-262.425247,-0.137324,70.190463
5.1183,-0.003323,0.001855,-0.00052,0.004483,-0.000873,-0.00079,-0.003182,-0.508329,0.00035,-0.182551,-262.425247,-0.137324,70.190463
5.1385,-0.002946,0.001546,0.00219,0.004505,-0.000837,-0.00069,-0.003182,-0.508329,0.00035,-0.182551,-262.425247,-0.137324,70.190463
5.1583,-0.003242,0.001693,0.000547,0.004522,-0.000808,-0.000619,-0.001699,-0.508475,0.00217,-0.257548,-262.423949,-0.07867,70.191698
5.178,-0.00319,0.001452,0.001479,0.004301,-0.000777,-0.001097,-0.002194,-0.50841,0.001512,-0.257548,-262.423949,-0.07867,70.191698
5.1983,-0.002795,0.001722,-0.000276,0.004133,-0.000758,-0.001445,-0.002293,-0.508573,0.001459,-0.25649,-262.422087,-0.094786,70.193508
5.2184,-0.002472,0.001835,-0.000607,0.004161,-0.000783,-0.000919,-0.00287,-0.508306,-0.000119,-0.25649,-262.422087,-0.094786,70.193508
5.2387,-0.002893,0.001688,0.0012,0.004183,-0.000799,-0.000538,-0.00287,-0.508306,-0.000119,-0.25649,-262.422087,-0.094786,70.193508
5.2586,-0.002672,0.001459,-0.000496,0.0042,-0.000808,-0.000262,-0.002174,-0.508331,0.001171,-0.331492,-262.420994,-0.019784,70.194524
5.2786,-0.00241,0.001977,-0.000977,0.004131,-0.000787,-0.000364,-0.002468,-0.508419,0.000488,-0.331492,-262.420994,-0.019784,70.194524
5.2984,-0.002387,0.001708,-0.000125,0.004078,-0.000771,-0.000438,-0.002824,-0.508037,-0.000989,-0.256497,-262.419906,-0.094779,70.195597
5.3185,-0.002097,0.001777,0.001304,0.004032,-0.000815,-0.000131,-0.00248,-0.50827,-0.000205,-0.256497,-262.419906,-0.094779,70.195597
5.3383,-0.002675,0.001839,-0.001029,0.003997,-0.000847,8.9e-05,-0.00248,-0.50827,-0.000205,-0.256497,-262.419906,-0.094779,70.195597
5.3584,-0.002385,0.001697,-0.000148,0.00397,-0.00087,0.000247,-0.003032,-0.508193,-0.001047,-0.249361,-262.418237,-0.122825,70.197227
5.3785,-0.002241,0.002023,-0.000169,0.004013,-0.000889,0.000569,-0.00277,-0.508243,-0.000668,-0.249361,-262.418237,-0.122825,70.197227
5.3984,-0.002281,0.00214,-0.000704,0.004047,-0.000903,0.000805,-0.002238,-0.507994,-0.000167,-0.179133,-262.41709,-0.198174,70.198392
5.4183,-0.002227,0.001775,0.000254,0.00402,-0.00101,0.001006,-0.002611,-0.507869,-0.00067,-0.179133,-262.41709,-0.198174,70.198392
5.4386,-0.001828,0.001357,0.000575,0.004001,-0.001093,0.001151,-0.002611,-0.507869,-0.00067,-0.179133,-262.41709,-0.198174,70.198392
5.4582,-0.001963,0.001388,0.000585,0.003986,-0.001156,0.001254,-0.001419,-0.508665,0.000592,-0.103804,-262.415993,-0.273503,70.199546
5.4782,-0.00211,0.001909,-0.000946,0.003703,-0.000999,0.000699,-0.001505,-0.508646,0.000592,-0.103804,-262.415993,-0.273503,70.199546
5.4981,-0.001822,0.001281,-0.000423,0.003488,-0.000888,0.000296,-0.002514,-0.50811,-0.000929,-0.097385,-262.415015,-0.347718,70.200627
5.5181,-0.001859,0.001563,0.000341,0.003492,-0.000809,0.000508,-0.002072,-0.50867,-0.000463,-0.097385,-262.415015,-0.347718,70.200627
5.5383,-0.002088,0.001643,-0.000953,0.003495,-0.000748,0.000661,-0.002072,-0.50867,-0.000463,-0.097385,-262.415015,-0.347718,70.200627
5.5581,-0.001792,0.001237,0.000804,0.003496,-0.000701,0.000774,-0.002456,-0.508385,-0.000941,-0.172684,-262.413863,-0.297238,70.201808
5.5787,-0.001637,0.001682,0.00135,0.003473,-0.000698,0.000747,-0.002001,-0.508544,-0.000223,-0.172684,-262.413863,-0.297238,70.201808
5.598,-0.001881,0.001628,-0.000139,0.003455,-0.000696,0.000728,-0.000857,-0.508337,0.001368,-0.097842,-262.412714,-0.323868,70.203018
5.6186,-0.001357,0.001488,-0.001592,0.00339,-0.000745,0.00062,-0.00185,-0.50837,-4e-06,-0.097842,-262.412714,-0.323868,70.203018
5.6382,-0.001522,0.001298,0.000711,0.00334,-0.000783,0.000539,-0.00185,-0.50837,-4e-06,-0.097842,-262.412714,-0.323868,70.203018
5.6584,-0.001344,0.001469,0.000286,0.003301,-0.000814,0.000478,-0.001016,-0.50873,0.000741,-0.072549,-262.411343,-0.318796,70.204458
5.6782,-0.001424,0.001286,-0.001103,0.00303,-0.000759,0.00017,-0.001074,-0.508653,0.000559,-0.072549,-262.411343,-0.318796,70.204458
5.6982,-0.001439,0.001245,0.000656,0.002824,-0.000723,-5.7e-05,-0.001893,-0.508736,-0.001088,-0.147545,-262.410147,-0.323247,70.205703
5.7182,-0.001575,0.00162,0.001024,0.002703,-0.000667,-0.000213,-0.001167,-0.508755,0.000508,-0.147545,-262.410147,-0.323247,70.205703
5.7386,-0.001512,0.001523,-0.00043,0.00261,-0.000627,-0.000328,-0.001167,-0.508755,0.000508,-0.147545,-262.410147,-0.323247,70.205703
5.7586,-0.001211,0.00154,0.000512,0.002538,-0.000599,-0.000415,-0.001645,-0.508497,-0.000428,-0.222655,-262.409304,-0.248137,70.206541
5.7783,-0.001089,0.001405,0.001419,0.002533,-0.000668,-0.000187,-0.00136,-0.508485,-5.6e-05,-0.222655,-262.409304,-0.248137,70.206541
5.798,-0.00087,0.00134,0.00045,0.002529,-0.00072,-2.6e-05,-0.00031,-0.508608,0.001413,-0.297509,-262.408564,-0.173283,70.207249
5.8186,-0.001194,0.001111,-0.000289,0.002272,-0.000702,-0.000181,-0.000608,-0.508656,0.000535,-0.297509,-262.408564,-0.173283,70.207249
5.8388,-0.001083,0.001444,0.001514,0.002075,-0.000692,-0.000299,-0.000608,-0.508656,0.000535,-0.297509,-262.408564,-0.173283,70.207249
5.8586,-0.001427,0.001353,-0.000202,0.001923,-0.000687,-0.00039,-0.00022,-0.50858,0.001511,-0.282904,-262.407664,-0.248308,70.208146
5.8785,-0.000955,0.001371,0.001656,0.001853,-0.000691,-0.000616,-0.000731,-0.508609,0.000828,-0.282904,-262.407664,-0.248308,70.208146
5.8989,-0.00081,0.001469,0.000795,0.001797,-0.000697,-0.000781,-7e-05,-0.50864,0.001651,-0.357889,-262.407117,-0.229207,70.208652
5.9185,-0.000779,0.001423,0.001386,0.001623,-0.000719,-0.00091,-0.000363,-0.508544,0.000894,-0.357889,-262.407117,-0.229207,70.208652
5.9382,-0.000498,0.001391,-0.000956,0.001487,-0.000739,-0.001008,-0.000363,-0.508544,0.000894,-0.357889,-262.407117,-0.229207,70.208652
5.9587,-0.0011,0.001301,0.000438,0.001382,-0.000756,-0.001085,-0.000956,-0.508618,-0.000964,-0.432854,-262.406792,-0.154242,70.208926
5.9785,-0.001164,0.001597,-0.000286,0.001495,-0.000766,-0.000536,-0.000921,-0.508652,-0.000401,-0.432854,-262.406792,-0.154242,70.208926
5.9984,-0.000858,0.001402,0.000784,0.001581,-0.000771,-0.000135,-0.001305,-0.508405,-0.000288,-0.50788,-262.406714,-0.079217,70.208981
6.0186,-0.000908,0.001478,0.000746,0.001517,-0.000769,-0.000371,-0.000534,-0.508581,0.000688,-0.50788,-262.406714,-0.079217,70.208981
6.0384,-0.001065,0.001125,0.000628,0.001468,-0.000771,-0.000542,-0.000534,-0.508581,0.000688,-0.50788,-262.406714,-0.079217,70.208981
6.0581,-0.000791,0.001287,0.000113,0.001429,-0.000774,-0.000666,-0.000734,-0.508878,0.000625,-0.494815,-262.406594,-0.154217,70.209096
6.0785,-0.001486,0.00152,0.001204,0.001478,-0.000713,-0.000642,-0.000732,-0.508811,0.000415,-0.494815,-262.406594,-0.154217,70.209096
6.0982,-0.000402,0.001453,-0.00086,0.001515,-0.000667,-0.000624,-0.00085,-0.508489,0.001196,-0.569798,-262.406249,-0.229199,70.20937
6.1182,-0.000993,0.001071,0.00019,0.001571,-0.000734,-6e-05,-0.00084,-0.508542,-0.000686,-0.569798,-262.406249,-0.229199,70.20937
6.1381,-0.000612,0.001514,-0.001921,0.001614,-0.000783,0.000353,-0.00084,-0.508542,-0.000686,-0.569798,-262.406249,-0.229199,70.20937
6.1581,-0.000898,0.001126,-0.002269,0.001649,-0.000817,0.000655,-0.001531,-0.508511,-0.001946,-0.604992,-262.405548,-0.186143,70.209957
6.1787,-0.000758,0.001079,0.001019,0.00195,-0.000794,0.00134,-0.00174,-0.508663,-0.002082,-0.604992,-262.405548,-0.186143,70.209957
6.1986,-0.0004,0.001397,-0.000474,0.002186,-0.000773,0.001856,-0.000238,-0.508921,0.001019,-0.53004,-262.405545,-0.261095,70.209961
6.2188,-0.000506,0.001293,0.001803,0.002016,-0.00076,0.001593,-0.000607,-0.50863,-0.000347,-0.53004,-262.405545,-0.261095,70.209961
6.2387,-0.001109,0.00133,0.000229,0.001889,-0.000754,0.001406,-0.000607,-0.50863,-0.000347,-0.53004,-262.405545,-0.261095,70.209961
6.2586,-0.000693,0.001691,-0.000805,0.001793,-0.000752,0.001274,-0.000992,-0.50867,0.000229,-0.45499,-262.405545,-0.336145,70.209961
6.2787,-0.000478,0.001051,0.000215,0.0,0.0,0.0,-0.001037,-0.508524,-0.000191,-0.45499,-262.405545,-0.336145,70.209961
