mach0312/omni-docking-bench/src/icros_test_setup/results/MPPI_sample/timeseries/trial_117.csv
t,x,y,yaw,vx,vy,wz,bl_x,bl_y,bl_yaw,front_steering_joint,front_wheel_joint,rear_steering_joint,rear_wheel_joint
0.0,-0.079726,-0.002378,0.066837,-0.012195,0.000222,0.05339,-0.042443,-0.511094,0.060068,-1.215132,-261.567319,1.210664,69.315735
0.0003,-0.079838,-0.002288,0.068031,-0.011677,0.000213,0.05112,-0.0442,-0.511033,0.061327,-1.215132,-261.583128,1.210664,69.300113
0.0006,-0.081863,-0.002476,0.069079,-0.011087,0.000202,0.048538,-0.0442,-0.511033,0.061327,-1.215132,-261.598095,1.210664,69.285324
0.0009,-0.08186,-0.002339,0.069592,-0.010421,0.00019,0.045624,-0.044186,-0.51102,0.06169,-1.215132,-261.612158,1.210664,69.271428
0.0011,-0.081759,-0.002474,0.069186,-0.009677,0.000176,0.042368,-0.044186,-0.51102,0.06169,-1.215132,-261.624109,1.210664,69.259618
0.0014,-0.083491,-0.002421,0.073302,-0.008897,0.000162,0.038952,-0.045106,-0.511255,0.062391,-1.215132,-261.634365,1.210664,69.249484
0.0016,-0.083607,-0.002507,0.071874,-0.008024,0.000146,0.035129,-0.045106,-0.511255,0.062391,-1.215132,-261.634365,1.210664,69.249484
0.0018,-0.08496,-0.002807,0.074366,-0.007091,0.000129,0.031044,-0.044427,-0.511378,0.065011,-1.215132,-261.634365,1.210664,69.249484
0.002,-0.085114,-0.00254,0.07466,-0.006074,0.000111,0.026591,-0.044427,-0.511378,0.065011,-1.215132,-261.634365,1.210664,69.249484
0.0174,-0.085004,-0.002662,0.07567,0.0,0.0,0.0,-0.047095,-0.511384,0.074327,-1.215132,-261.634365,1.210664,69.249484
0.0366,-0.085578,-0.00322,0.072855,0.0,0.0,0.0,-0.046703,-0.511217,0.07678,-1.215132,-261.641303,1.210664,69.242629
0.0567,-0.085727,-0.002929,0.076168,0.0,0.0,0.0,-0.047438,-0.511481,0.075324,-1.215132,-261.641303,1.210664,69.242629
0.0768,-0.085839,-0.002721,0.077282,0.0,0.0,0.0,-0.046919,-0.511451,0.076168,-1.215132,-261.641303,1.210664,69.242629
0.0968,-0.085867,-0.002441,0.075755,0.0,0.0,0.0,-0.046505,-0.511221,0.077183,-1.215132,-261.641303,1.210664,69.242629
0.1168,-0.085888,-0.002503,0.077059,0.003006,3e-06,0.019598,-0.046505,-0.511221,0.077183,-1.215132,-261.641303,1.210664,69.242629
0.1368,-0.085548,-0.002884,0.075547,0.003284,4e-05,0.019519,-0.046627,-0.510989,0.077059,-1.215132,-261.641303,1.210664,69.242629
0.157,-0.086118,-0.002746,0.074957,0.003527,7.6e-05,0.01866,-0.046801,-0.511168,0.076444,-1.215132,-261.641303,1.210664,69.242629
0.1764,-0.086112,-0.002929,0.075786,0.003734,0.000113,0.018033,-0.047926,-0.511314,0.074957,-1.140127,-261.641303,1.135659,69.242629
0.1968,-0.085759,-0.003165,0.07608,0.003914,0.000152,0.016881,-0.047534,-0.511452,0.075717,-1.140127,-261.641303,1.135659,69.242629
0.2165,-0.086191,-0.002153,0.076027,0.004067,0.00019,0.01601,-0.047534,-0.511452,0.075717,-1.140127,-261.641303,1.135659,69.242629
0.2369,-0.085985,-0.002229,0.075627,0.004198,0.000226,0.015355,-0.047455,-0.51068,0.076027,-1.06495,-261.641303,1.060483,69.242629
0.2569,-0.086083,-0.00266,0.074853,0.004309,0.000243,0.01426,-0.047454,-0.510717,0.075865,-1.06495,-261.641303,1.060483,69.242629
0.2764,-0.085762,-0.002815,0.075845,0.004404,0.000262,0.013411,-0.047944,-0.511232,0.074853,-0.990133,-261.641303,0.985666,69.242629
0.2967,-0.08576,-0.003023,0.076127,0.004485,0.000293,0.0123,-0.047193,-0.511338,0.075755,-0.990133,-261.641303,0.985666,69.242629
0.3167,-0.085538,-0.002715,0.075033,0.004555,0.000322,0.011416,-0.047193,-0.511338,0.075755,-0.990133,-261.641303,0.985666,69.242629
0.3369,-0.0862,-0.002481,0.076548,0.004615,0.00035,0.010716,-0.047307,-0.51128,0.075033,-0.915142,-261.641303,0.910674,69.242629
0.3567,-0.085897,-0.002856,0.075302,0.004667,0.000371,0.009877,-0.047263,-0.511162,0.075645,-0.915142,-261.641303,0.910674,69.242629
0.3767,-0.08585,-0.002734,0.075634,0.004711,0.000392,0.00919,-0.047529,-0.51141,0.075302,-0.840134,-261.641303,0.835666,69.242629
0.3967,-0.086198,-0.002798,0.076419,0.004751,0.000414,0.008457,-0.047333,-0.511288,0.075604,-0.840134,-261.641303,0.835666,69.242629
0.4169,-0.085709,-0.00298,0.075886,0.004786,0.000435,0.00785,-0.047333,-0.511288,0.075604,-0.840134,-261.641303,0.835666,69.242629
0.4367,-0.085914,-0.002615,0.077109,0.004815,0.000455,0.00735,-0.047044,-0.511512,0.075886,-0.765164,-261.641303,0.760696,69.242629
0.4569,-0.085966,-0.003074,0.076184,0.004841,0.000473,0.006833,-0.046876,-0.511346,0.07638,-0.765164,-261.641303,0.760696,69.242629
0.4768,-0.085875,-0.002956,0.075442,0.004863,0.00049,0.006401,-0.04715,-0.511595,0.076184,-0.690143,-261.641303,0.685675,69.242629
0.4969,-0.085897,-0.002869,0.075735,0.004883,0.000509,0.005975,-0.04741,-0.511513,0.075509,-0.690143,-261.641303,0.685675,69.242629
0.5167,-0.085602,-0.002917,0.076632,0.004901,0.000527,0.005617,-0.04741,-0.511513,0.075509,-0.690143,-261.641303,0.685675,69.242629
0.5365,-0.085807,-0.002894,0.076916,0.004915,0.000544,0.005318,-0.046557,-0.51142,0.076632,-0.615135,-261.641303,0.610667,69.242629
0.5566,-0.085821,-0.002232,0.076272,0.004928,0.000556,0.005022,-0.046582,-0.511406,0.076748,-0.615135,-261.641303,0.610667,69.242629
0.5765,-0.085789,-0.002618,0.076219,0.004939,0.000568,0.004775,-0.04696,-0.510749,0.076272,-0.540131,-261.641303,0.535663,69.242629
0.5966,-0.086046,-0.002914,0.074731,0.004948,0.000573,0.00457,-0.046955,-0.511103,0.076224,-0.540131,-261.641303,0.535663,69.242629
0.6168,-0.085875,-0.002702,0.076382,0.004957,0.000578,0.004399,-0.046955,-0.511103,0.076224,-0.540131,-261.641303,0.535663,69.242629
0.6365,-0.085924,-0.002943,0.076294,0.004964,0.000584,0.004256,-0.046959,-0.511215,0.076382,-0.465084,-261.641303,0.460616,69.242629
0.6568,-0.085604,-0.002532,0.074302,0.00497,0.000595,0.004135,-0.046997,-0.511315,0.076346,-0.465084,-261.641303,0.460616,69.242629
0.6768,-0.085489,-0.002915,0.075969,0.004976,0.000605,0.004034,-0.047745,-0.511125,0.074302,-0.390092,-261.641303,0.385624,69.242629
0.6965,-0.085923,-0.003127,0.076172,0.004981,0.000616,0.003949,-0.046868,-0.511416,0.075822,-0.390092,-261.641303,0.385624,69.242629
0.7165,-0.085965,-0.002872,0.074626,0.004985,0.000627,0.003878,-0.046868,-0.511416,0.075822,-0.390092,-261.641303,0.385624,69.242629
0.7366,-0.086016,-0.002644,0.076444,0.004989,0.000637,0.003818,-0.047941,-0.511453,0.074626,-0.315086,-261.641303,0.310618,69.242629
0.7566,-0.085604,-0.002615,0.076286,0.004992,0.000644,0.003767,-0.047584,-0.511331,0.075368,-0.315086,-261.641303,0.310618,69.242629
0.7772,-0.085679,-0.002671,0.075895,0.004995,0.000651,0.003725,-0.046735,-0.511132,0.076286,-0.240131,-261.641303,0.235663,69.242629
0.7969,-0.085816,-0.003184,0.074707,0.004997,0.000654,0.00369,-0.046982,-0.511196,0.075936,-0.240131,-261.641303,0.235663,69.242629
0.8167,-0.085648,-0.003069,0.078061,0.004999,0.000656,0.00366,-0.046982,-0.511196,0.075936,-0.240131,-261.641303,0.235663,69.242629
0.8368,-0.086084,-0.002902,0.075798,0.005001,0.000659,0.003635,-0.045878,-0.511516,0.078061,-0.165139,-261.641303,0.160671,69.242629
0.8567,-0.085947,-0.002651,0.076675,0.005003,0.000667,0.003613,-0.04652,-0.511484,0.077145,-0.165139,-261.641303,0.160671,69.242629
0.8769,-0.086034,-0.002748,0.074968,0.005004,0.000674,0.003594,-0.046881,-0.511153,0.076675,-0.090203,-261.641303,0.085735,69.242629
0.897,-0.086042,-0.002696,0.07608,0.005006,0.000678,0.003579,-0.047762,-0.511303,0.0751,-0.090203,-261.641303,0.085735,69.242629
0.9168,-0.085708,-0.002803,0.075517,0.005007,0.000681,0.003566,-0.047762,-0.511303,0.0751,-0.090203,-261.641303,0.085735,69.242629
0.9369,-0.086165,-0.002783,0.075923,0.005008,0.000685,0.003555,-0.047231,-0.51135,0.075517,-0.014752,-261.641303,0.010284,69.242629
0.9569,-0.085913,-0.003064,0.075923,0.005009,0.000688,0.003546,-0.047336,-0.511334,0.075687,-0.014752,-261.641303,0.010284,69.242629
0.9767,-0.085923,-0.002612,0.074898,0.005009,0.00069,0.003538,-0.047229,-0.511594,0.075923,0.060178,-261.641298,-0.064646,69.242633
0.9967,-0.085841,-0.003125,0.076327,0.00501,0.000691,0.003531,-0.047718,-0.511215,0.074979,0.060178,-261.641298,-0.064646,69.242633
1.0168,-0.085938,-0.003064,0.0754,0.00501,0.000691,0.003526,-0.047718,-0.511215,0.074979,0.060178,-261.641298,-0.064646,69.242633
1.0369,-0.085877,-0.002668,0.076385,0.005011,0.000692,0.003521,-0.047518,-0.511615,0.0754,0.13525,-261.641265,-0.139718,69.242663
1.0568,-0.086264,-0.002717,0.074999,0.005011,0.000697,0.003517,-0.047292,-0.51144,0.075797,0.13525,-261.641265,-0.139718,69.242663
1.0764,-0.085931,-0.002935,0.075533,0.005012,0.000701,0.003513,-0.048038,-0.511282,0.075003,0.20987,-261.641112,-0.214338,69.242802
1.0968,-0.085991,-0.002617,0.074183,0.005012,0.000705,0.00351,-0.047499,-0.511462,0.075485,0.20987,-261.641112,-0.214338,69.242802
1.1168,-0.086022,-0.00285,0.074905,0.005013,0.000709,0.003507,-0.047499,-0.511462,0.075485,0.20987,-261.641112,-0.214338,69.242802
1.1366,-0.085832,-0.002482,0.074372,0.005013,0.000712,0.003505,-0.047812,-0.511416,0.074926,0.284872,-261.640646,-0.280678,69.243223
1.1572,-0.08593,-0.003216,0.07577,0.005013,0.000711,0.003504,-0.047858,-0.511275,0.074702,0.284872,-261.640646,-0.280678,69.243223
1.1772,-0.085695,-0.003111,0.076344,0.005013,0.00071,0.003503,-0.047256,-0.511744,0.075807,0.359884,-261.639682,-0.277711,69.244095
1.1971,-0.085883,-0.002659,0.075574,0.005014,0.000717,0.003501,-0.046835,-0.511636,0.076298,0.359884,-261.639682,-0.277711,69.244095
1.2169,-0.085663,-0.002995,0.075547,0.005014,0.000722,0.003499,-0.046835,-0.511636,0.076298,0.359884,-261.639682,-0.277711,69.244095
1.2368,-0.085983,-0.002669,0.074787,0.005014,0.000726,0.003498,-0.047028,-0.511516,0.075636,0.434872,-261.63813,-0.277663,69.245498
1.2572,-0.08578,-0.002807,0.074457,0.005014,0.000726,0.003498,-0.047355,-0.511403,0.075303,0.434872,-261.63813,-0.277663,69.245498
1.2767,-0.085479,-0.002691,0.077787,0.005015,0.000725,0.003498,-0.047701,-0.511363,0.074556,0.50987,-261.636067,-0.274163,69.247359
1.2968,-0.085473,-0.002635,0.077116,0.005014,0.000718,0.003498,-0.046008,-0.511167,0.0775,0.50987,-261.636067,-0.274163,69.247359
1.317,-0.085589,-0.002767,0.075956,0.005014,0.000711,0.003499,-0.046008,-0.511167,0.0775,0.50987,-261.636067,-0.274163,69.247359
1.3368,-0.085071,-0.002908,0.077143,0.005013,0.000706,0.003499,-0.046682,-0.51125,0.076103,0.518513,-261.63376,-0.274306,69.24944
1.3573,-0.085469,-0.002699,0.075888,0.005013,0.000706,0.003517,-0.046287,-0.511302,0.076541,0.518513,-261.63376,-0.274306,69.24944
1.3767,-0.084886,-0.002424,0.074987,0.005013,0.000706,0.003532,-0.046645,-0.511197,0.075999,0.515923,-261.631456,-0.277978,69.251525
1.3969,-0.085092,-0.002448,0.078021,0.005013,0.000701,0.003551,-0.046668,-0.511007,0.075084,0.515923,-261.631456,-0.277978,69.251525
1.4168,-0.085078,-0.002004,0.076398,0.005012,0.000697,0.003566,-0.046668,-0.511007,0.075084,0.515923,-261.631456,-0.277978,69.251525
1.4367,-0.085024,-0.002829,0.075174,0.005012,0.000693,0.003579,-0.045946,-0.510471,0.076546,0.518896,-261.629147,-0.28168,69.253612
1.457,-0.085087,-0.00239,0.077409,0.005011,0.000686,0.003597,-0.046238,-0.510839,0.076005,0.518896,-261.629147,-0.28168,69.253612
1.4771,-0.085194,-0.00244,0.076048,0.005011,0.00068,0.003611,-0.045491,-0.510828,0.077523,0.521463,-261.626838,-0.289441,69.255701
1.4969,-0.085118,-0.002296,0.078047,0.00501,0.000677,0.003629,-0.046351,-0.510952,0.076189,0.521463,-261.626838,-0.289441,69.255701
1.5167,-0.084802,-0.002268,0.077731,0.00501,0.000675,0.003644,-0.046351,-0.510952,0.076189,0.521463,-261.626838,-0.289441,69.255701
1.537,-0.084956,-0.002676,0.076341,0.00501,0.000673,0.003656,-0.044992,-0.510684,0.077882,0.522448,-261.624526,-0.295578,69.257795
1.5566,-0.084826,-0.00247,0.076104,0.005009,0.000668,0.003673,-0.045398,-0.510882,0.077279,0.522448,-261.624526,-0.295578,69.257795
1.5767,-0.084556,-0.002531,0.076505,0.005009,0.000665,0.003688,-0.045892,-0.510961,0.076221,0.525559,-261.622211,-0.301938,69.259893
1.5969,-0.084584,-0.002347,0.075718,0.005009,0.000666,0.003705,-0.045598,-0.511031,0.076485,0.525559,-261.622211,-0.301938,69.259893
1.6167,-0.08476,-0.002435,0.076877,0.005009,0.000667,0.00372,-0.045598,-0.511031,0.076485,0.525559,-261.622211,-0.301938,69.259893
1.637,-0.08452,-0.002359,0.07798,0.005009,0.000668,0.003732,-0.045385,-0.510885,0.077031,0.527356,-261.619894,-0.306866,69.261994
1.657,-0.084625,-0.002575,0.078984,0.005008,0.000664,0.003748,-0.045118,-0.510849,0.077435,0.527356,-261.619894,-0.306866,69.261994
1.6767,-0.084081,-0.002361,0.076897,0.005008,0.00066,0.003762,-0.044228,-0.510951,0.079103,0.531858,-261.61757,-0.311205,69.264097
1.6966,-0.08445,-0.002415,0.077606,0.005008,0.000658,0.003778,-0.044834,-0.510861,0.0771,0.531858,-261.61757,-0.311205,69.264097
1.7166,-0.084158,-0.002436,0.076494,0.005007,0.000656,0.003791,-0.044834,-0.510861,0.0771,0.531858,-261.61757,-0.311205,69.264097
1.7372,-0.084137,-0.002346,0.078306,0.005007,0.000654,0.003801,-0.044977,-0.510901,0.076652,0.533514,-261.615245,-0.316021,69.266203
1.757,-0.084182,-0.002159,0.077031,0.005007,0.000652,0.003813,-0.044656,-0.510848,0.077339,0.533514,-261.615245,-0.316021,69.266203
1.7766,-0.084078,-0.002295,0.076474,0.005007,0.000651,0.003823,-0.044778,-0.510613,0.077152,0.536274,-261.612904,-0.321465,69.268324
1.7972,-0.083692,-0.002176,0.077121,0.005006,0.000649,0.003833,-0.045081,-0.510788,0.076531,0.536274,-261.612904,-0.321465,69.268324
1.8171,-0.083689,-0.002757,0.07855,0.005006,0.000647,0.003841,-0.045081,-0.510788,0.076531,0.536274,-261.612904,-0.321465,69.268324
1.837,-0.083727,-0.002184,0.078075,0.005006,0.000646,0.003848,-0.043464,-0.511141,0.078709,0.537776,-261.610585,-0.324518,69.270426
1.8566,-0.084125,-0.002287,0.078585,0.005006,0.000646,0.003853,-0.043638,-0.510928,0.078469,0.537776,-261.610585,-0.324518,69.270426
1.8769,-0.083845,-0.002103,0.077062,0.005006,0.000646,0.003858,-0.04393,-0.51068,0.078707,0.539277,-261.608252,-0.328089,69.27254
1.8972,-0.083471,-0.001926,0.077685,0.005005,0.00064,0.003864,-0.044513,-0.510596,0.077222,0.539277,-261.608252,-0.328089,69.27254
1.9169,-0.083579,-0.002289,0.078442,0.005005,0.000635,0.003869,-0.044513,-0.510596,0.077222,0.539277,-261.608252,-0.328089,69.27254
1.9376,-0.083639,-0.001679,0.078872,0.005005,0.00063,0.003872,-0.043408,-0.510678,0.078604,0.540303,-261.605917,-0.3292,69.274656
1.9573,-0.083379,-0.0021,0.077538,0.005004,0.000621,0.003877,-0.043403,-0.510437,0.078731,0.540303,-261.605917,-0.3292,69.274656
1.9768,-0.083164,-0.002275,0.078469,0.005003,0.000613,0.00388,-0.043716,-0.510535,0.077661,0.539304,-261.603585,-0.333726,69.276774
1.9966,-0.083522,-0.001931,0.077681,0.005003,0.000613,0.003882,-0.043226,-0.510689,0.078403,0.539304,-261.603585,-0.333726,69.276774
2.0168,-0.083409,-0.002143,0.077791,0.005003,0.000613,0.003884,-0.043226,-0.510689,0.078403,0.539304,-261.603585,-0.333726,69.276774
2.0365,-0.083505,-0.00195,0.078764,0.005003,0.000613,0.003886,-0.043569,-0.510558,0.077954,0.537656,-261.601256,-0.337645,69.278895
2.0571,-0.083177,-0.001738,0.078179,0.005003,0.000608,0.003888,-0.043467,-0.510477,0.078301,0.537656,-261.601256,-0.337645,69.278895
2.0771,-0.0829,-0.002345,0.079842,0.005002,0.000604,0.00389,-0.043188,-0.510148,0.078303,0.53811,-261.598917,-0.338297,69.281024
2.0972,-0.082632,-0.001784,0.079297,0.005002,0.000603,0.003892,-0.042305,-0.510666,0.079705,0.53811,-261.598917,-0.338297,69.281024
2.1172,-0.083108,-0.001821,0.078767,0.005002,0.000603,0.003893,-0.042305,-0.510666,0.079705,0.53811,-261.598917,-0.338297,69.281024
2.1373,-0.08273,-0.001647,0.078791,0.005002,0.000602,0.003894,-0.042773,-0.510198,0.078929,0.537227,-261.596596,-0.340487,69.283139
2.157,-0.083442,-0.002061,0.076449,0.005001,0.00059,0.003897,-0.042674,-0.510139,0.078892,0.537227,-261.596596,-0.340487,69.283139
2.1769,-0.082691,-0.001863,0.080137,0.005,0.00058,0.003899,-0.044334,-0.510541,0.076573,0.537381,-261.594264,-0.341145,69.285265
2.1967,-0.082658,-0.001944,0.078196,0.005,0.000573,0.003901,-0.042079,-0.510253,0.079823,0.537381,-261.594264,-0.341145,69.285265
2.2165,-0.082708,-0.001487,0.079425,0.004999,0.000567,0.003902,-0.042079,-0.510253,0.079823,0.537381,-261.594264,-0.341145,69.285265
2.2366,-0.082629,-0.001991,0.078569,0.004999,0.000563,0.003903,-0.042038,-0.509839,0.079588,0.534727,-261.591944,-0.345821,69.287387
2.2569,-0.082407,-0.001617,0.079374,0.004998,0.000555,0.003904,-0.042243,-0.51007,0.079192,0.534727,-261.591944,-0.345821,69.287387
2.2767,-0.082362,-0.00179,0.079442,0.004998,0.000548,0.003905,-0.041812,-0.509981,0.079498,0.532572,-261.58962,-0.349369,69.289518
2.2967,-0.082648,-0.001763,0.079539,0.004997,0.000545,0.003906,-0.041874,-0.510163,0.079453,0.532572,-261.58962,-0.349369,69.289518
2.3167,-0.082293,-0.001934,0.080366,0.004997,0.000541,0.003906,-0.041874,-0.510163,0.079453,0.532572,-261.58962,-0.349369,69.289518
2.3368,-0.082754,-0.001924,0.078827,0.004997,0.000539,0.003906,-0.041144,-0.510249,0.080529,0.530748,-261.587306,-0.352232,69.291644
2.3568,-0.082245,-0.001619,0.078504,0.004997,0.000539,0.003906,-0.041706,-0.510281,0.07986,0.530748,-261.587306,-0.352232,69.291644
2.3765,-0.082569,-0.002047,0.080881,0.004997,0.000539,0.003906,-0.042091,-0.510018,0.078628,0.529524,-261.58499,-0.354008,69.293775
2.3966,-0.082107,-0.001829,0.080653,0.004997,0.00054,0.003906,-0.041422,-0.510346,0.080685,0.529524,-261.58499,-0.354008,69.293775
2.4166,-0.081658,-0.002097,0.080205,0.004997,0.000541,0.003906,-0.041422,-0.510346,0.080685,0.529524,-261.58499,-0.354008,69.293775
2.4369,-0.081886,-0.002029,0.080452,0.004997,0.000541,0.003906,-0.040591,-0.510418,0.080368,0.529569,-261.582674,-0.3539,69.295906
2.4569,-0.082076,-0.001858,0.079777,0.004997,0.000543,0.003906,-0.040692,-0.510398,0.080421,0.529569,-261.582674,-0.3539,69.295906
2.477,-0.081636,-0.001672,0.080693,0.004997,0.000545,0.003906,-0.041276,-0.510206,0.079902,0.529868,-261.580358,-0.353538,69.298036
2.4969,-0.081599,-0.001505,0.079623,0.004997,0.000537,0.003908,-0.040587,-0.510029,0.080628,0.529868,-261.580358,-0.353538,69.298036
2.5166,-0.081734,-0.001856,0.080439,0.004996,0.00053,0.003909,-0.040587,-0.510029,0.080628,0.529868,-261.580358,-0.353538,69.298036
2.5364,-0.081675,-0.001087,0.082341,0.004995,0.000524,0.003909,-0.040547,-0.510167,0.080603,0.530354,-261.57804,-0.352909,69.300166
2.5569,-0.081607,-0.001325,0.08059,0.004994,0.000513,0.003911,-0.040189,-0.509833,0.081331,0.530354,-261.57804,-0.352909,69.300166
2.5766,-0.081715,-0.00151,0.080363,0.004993,0.000504,0.003912,-0.040393,-0.50964,0.080715,0.52771,-261.575706,-0.357109,69.302319
2.5971,-0.081407,-0.001519,0.08019,0.004993,0.000498,0.003912,-0.040743,-0.509849,0.08039,0.52771,-261.575706,-0.357109,69.302319
2.6167,-0.081772,-0.002098,0.080929,0.004992,0.000493,0.003912,-0.040743,-0.509849,0.08039,0.52771,-261.575706,-0.357109,69.302319
2.6372,-0.081358,-0.001497,0.081841,0.004992,0.000489,0.003912,-0.040339,-0.510391,0.081091,0.525127,-261.573413,-0.36092,69.30444
2.6568,-0.081607,-0.001649,0.08039,0.004992,0.000492,0.00391,-0.040037,-0.510139,0.081419,0.525127,-261.573413,-0.36092,69.30444
2.6766,-0.081438,-0.001539,0.081544,0.004993,0.000494,0.00391,-0.040496,-0.509974,0.080514,0.523023,-261.571116,-0.363606,69.306568
2.6967,-0.081386,-0.001292,0.080974,0.004992,0.000488,0.00391,-0.039942,-0.509854,0.081458,0.523023,-261.571116,-0.363606,69.306568
2.7172,-0.081535,-0.001736,0.08167,0.004992,0.000484,0.003911,-0.039942,-0.509854,0.081458,0.523023,-261.571116,-0.363606,69.306568
2.7374,-0.081364,-0.00133,0.080507,0.004991,0.00048,0.003911,-0.039723,-0.509999,0.081834,0.523503,-261.56881,-0.362538,69.308704
2.7571,-0.080994,-0.001431,0.081277,0.004991,0.000477,0.003911,-0.039955,-0.509863,0.081312,0.523503,-261.56881,-0.362538,69.308704
2.7771,-0.080945,-0.001725,0.082545,0.004991,0.000474,0.003911,-0.039431,-0.509719,0.081402,0.521561,-261.566508,-0.365261,69.310841
2.7969,-0.08132,-0.001648,0.080666,0.004991,0.000473,0.00391,-0.038935,-0.509963,0.082448,0.521561,-261.566508,-0.365261,69.310841
2.8167,-0.081283,-0.001259,0.081033,0.004991,0.000472,0.00391,-0.038935,-0.509963,0.082448,0.521561,-261.566508,-0.365261,69.310841
2.8365,-0.080788,-0.001547,0.081663,0.00499,0.000471,0.00391,-0.039795,-0.509549,0.081197,0.52078,-261.564207,-0.366224,69.312979
2.8565,-0.080927,-0.001766,0.080291,0.00499,0.000464,0.003911,-0.039522,-0.509667,0.081407,0.52078,-261.564207,-0.366224,69.312979
2.8767,-0.080722,-0.00125,0.079978,0.004989,0.000458,0.003911,-0.039865,-0.510095,0.080416,0.520279,-261.561906,-0.366683,69.315118
2.8966,-0.080891,-0.001362,0.081763,0.004989,0.000455,0.003911,-0.039958,-0.509662,0.080025,0.520279,-261.561906,-0.366683,69.315118
2.9166,-0.080839,-0.001529,0.082071,0.004989,0.000452,0.003911,-0.039958,-0.509662,0.080025,0.520279,-261.561906,-0.366683,69.315118
2.9366,-0.080474,-0.001187,0.082269,0.004988,0.00045,0.003911,-0.038823,-0.509776,0.082235,0.518553,-261.559609,-0.369174,69.317257
2.9567,-0.080747,-0.001498,0.081719,0.004988,0.000444,0.003911,-0.038694,-0.509645,0.082267,0.518553,-261.559609,-0.369174,69.317257
2.9765,-0.080886,-0.00138,0.081047,0.004987,0.000439,0.003911,-0.038959,-0.509769,0.081844,0.517301,-261.55731,-0.370689,69.319401
2.9967,-0.080385,-0.001426,0.081197,0.004987,0.000439,0.003911,-0.039535,-0.50971,0.081122,0.517301,-261.55731,-0.370689,69.319401
3.0167,-0.080262,-0.00113,0.081953,0.004987,0.000439,0.00391,-0.039535,-0.50971,0.081122,0.517301,-261.55731,-0.370689,69.319401
3.0366,-0.08061,-0.00107,0.083302,0.004987,0.000438,0.00391,-0.038307,-0.509383,0.082116,0.515879,-261.555017,-0.372601,69.321542
3.057,-0.080566,-0.001342,0.082563,0.004986,0.000426,0.003911,-0.038229,-0.509345,0.082624,0.515879,-261.555017,-0.372601,69.321542
3.0769,-0.080312,-0.00068,0.083288,0.004985,0.000415,0.003912,-0.03835,-0.509578,0.082687,0.515574,-261.552727,-0.372676,69.323681
3.0968,-0.079979,-0.001334,0.082956,0.004982,0.000395,0.003915,-0.037918,-0.508971,0.08324,0.515574,-261.552727,-0.372676,69.323681
3.1166,-0.080123,-0.001246,0.082359,0.00498,0.000379,0.003916,-0.037918,-0.508971,0.08324,0.515574,-261.552727,-0.372676,69.323681
3.1366,-0.079964,-0.001407,0.083745,0.004979,0.000365,0.003916,-0.037961,-0.509483,0.082523,0.512531,-261.550441,-0.377114,69.325825
3.1564,-0.079874,-0.000667,0.083508,0.004979,0.000369,0.003914,-0.037669,-0.509535,0.083041,0.512531,-261.550441,-0.377114,69.325825
3.177,-0.079913,-0.000822,0.082555,0.00498,0.000372,0.003912,-0.037177,-0.508865,0.083633,0.505707,-261.548169,-0.386572,69.327971
3.197,-0.079828,-0.001155,0.083874,0.004979,0.000362,0.003913,-0.037789,-0.509064,0.082657,0.505707,-261.548169,-0.386572,69.327971
3.2168,-0.079845,-0.001081,0.082871,0.004978,0.000354,0.003913,-0.037789,-0.509064,0.082657,0.505707,-261.548169,-0.386572,69.327971
3.2367,-0.079375,-0.001378,0.083348,0.004977,0.000347,0.003913,-0.037423,-0.509298,0.083034,0.506264,-261.545891,-0.384871,69.33012
3.2565,-0.079559,-0.001162,0.083292,0.004978,0.00035,0.003911,-0.037193,-0.50942,0.083181,0.506264,-261.545891,-0.384871,69.33012
3.2765,-0.07983,-0.001298,0.083747,0.004978,0.000352,0.00391,-0.036973,-0.50937,0.083416,0.502732,-261.543618,-0.389421,69.332273
3.2969,-0.079793,-0.001069,0.083692,0.004979,0.000356,0.003909,-0.037145,-0.509497,0.083724,0.502732,-261.543618,-0.389421,69.332273
3.3167,-0.079465,-0.001137,0.083066,0.004979,0.000359,0.003908,-0.037145,-0.509497,0.083724,0.502732,-261.543618,-0.389421,69.332273
3.3367,-0.079212,-0.001174,0.084431,0.004979,0.000361,0.003908,-0.036944,-0.509347,0.083229,0.5032,-261.541344,-0.388184,69.334425
3.3568,-0.079474,-0.001172,0.083736,0.004979,0.000358,0.003908,-0.036615,-0.509347,0.083742,0.5032,-261.541344,-0.388184,69.334425
3.3768,-0.078983,-0.001044,0.085568,0.004979,0.000356,0.003908,-0.036662,-0.50936,0.08386,0.504205,-261.539073,-0.386373,69.336572
3.3965,-0.079086,-0.001059,0.085176,0.004977,0.000347,0.003909,-0.035522,-0.509196,0.085394,0.504205,-261.539073,-0.386373,69.336572
3.4167,-0.079299,-0.000786,0.084502,0.004976,0.000339,0.00391,-0.035522,-0.509196,0.085394,0.504205,-261.539073,-0.386373,69.336572
3.4365,-0.079235,-0.001197,0.083533,0.004976,0.000333,0.00391,-0.036048,-0.508934,0.084665,0.503529,-261.5368,-0.387361,69.338722
3.4566,-0.078955,-0.000967,0.084325,0.004975,0.000327,0.00391,-0.036282,-0.509127,0.084225,0.503529,-261.5368,-0.387361,69.338722
3.4769,-0.078652,-0.001256,0.084136,0.004975,0.000323,0.00391,-0.035843,-0.509131,0.08445,0.500392,-261.534529,-0.391792,69.340878
3.4966,-0.078896,-0.000741,0.084929,0.004975,0.000327,0.003909,-0.03579,-0.509422,0.084171,0.500392,-261.534529,-0.391792,69.340878
3.5169,-0.079244,-0.000933,0.083701,0.004976,0.000331,0.003908,-0.03579,-0.509422,0.084171,0.500392,-261.534529,-0.391792,69.340878
3.5369,-0.078897,-0.001375,0.084791,0.004976,0.000334,0.003907,-0.036401,-0.509117,0.083864,0.499012,-261.532266,-0.393504,69.343029
3.5571,-0.078854,-0.00125,0.08493,0.004976,0.000333,0.003907,-0.036093,-0.509287,0.084262,0.499012,-261.532266,-0.393504,69.343029
3.5766,-0.07864,-0.000957,0.084918,0.004976,0.000332,0.003908,-0.035434,-0.509388,0.085055,0.500271,-261.529997,-0.391214,69.345183
3.597,-0.07883,-0.000788,0.085377,0.004975,0.000325,0.003908,-0.03538,-0.509142,0.084936,0.500271,-261.529997,-0.391214,69.345183
3.6168,-0.079008,-0.001136,0.085477,0.004974,0.00032,0.003909,-0.03538,-0.509142,0.084936,0.500271,-261.529997,-0.391214,69.345183
3.6367,-0.078658,-0.00061,0.084405,0.004974,0.000315,0.003909,-0.035261,-0.509242,0.085641,0.499966,-261.52773,-0.391632,69.347336
3.6566,-0.078375,-0.000836,0.085069,0.004973,0.000309,0.00391,-0.035401,-0.509056,0.085156,0.499966,-261.52773,-0.391632,69.347336
3.6766,-0.078627,-0.000648,0.086172,0.004972,0.000303,0.00391,-0.034886,-0.508968,0.085193,0.497726,-261.525466,-0.394798,69.349491
3.6968,-0.078562,-0.001185,0.085412,0.00497,0.000288,0.003911,-0.034739,-0.508773,0.086091,0.497726,-261.525466,-0.394798,69.349491
3.7167,-0.078296,-0.000586,0.086289,0.004969,0.000276,0.003912,-0.034739,-0.508773,0.086091,0.497726,-261.525466,-0.394798,69.349491
3.7365,-0.078241,-0.00066,0.08665,0.004968,0.000266,0.003913,-0.034138,-0.508658,0.086452,0.496061,-261.523193,-0.397022,69.351658
3.7566,-0.07849,-0.000619,0.08606,0.004966,0.000253,0.003913,-0.0341,-0.508692,0.086555,0.496061,-261.523193,-0.397022,69.351658
3.7765,-0.078099,-0.001591,0.085664,0.004965,0.000243,0.003913,-0.034498,-0.50871,0.086183,0.490899,-261.520951,-0.404041,69.353809
3.7968,-0.078032,-0.000635,0.085588,0.004967,0.000264,0.003909,-0.034459,-0.509633,0.085715,0.490899,-261.520951,-0.404041,69.353809
3.8167,-0.078277,-0.00077,0.086204,0.00497,0.000281,0.003906,-0.034459,-0.509633,0.085715,0.490899,-261.520951,-0.404041,69.353809
3.8371,-0.077954,-0.00086,0.086914,0.004972,0.000295,0.003904,-0.034162,-0.508848,0.086367,0.487603,-261.518697,-0.408251,69.355978
3.8575,-0.077934,-0.000912,0.086965,0.00497,0.000283,0.003906,-0.033939,-0.508881,0.086614,0.487603,-261.518697,-0.408251,69.355978
3.8765,-0.077556,-0.000855,0.08378,0.004968,0.000273,0.003908,-0.033482,-0.508961,0.087088,0.494287,-261.516439,-0.397771,69.358134
3.8967,-0.077693,-0.000571,0.086338,0.004969,0.000273,0.003907,-0.034768,-0.509058,0.08403,0.494287,-261.516439,-0.397771,69.358134
3.9166,-0.077983,-0.000466,0.085569,0.004969,0.000274,0.003907,-0.034768,-0.509058,0.08403,0.494287,-261.516439,-0.397771,69.358134
3.9369,-0.07779,-0.000617,0.085198,0.004969,0.000274,0.003907,-0.034192,-0.508571,0.085731,0.491403,-261.514199,-0.402292,69.360281
3.9566,-0.077254,-0.000267,0.085513,0.004967,0.00026,0.003909,-0.03425,-0.508648,0.085532,0.491403,-261.514199,-0.402292,69.360281
3.9764,-0.077539,-0.00065,0.086344,0.004965,0.000248,0.00391,-0.033539,-0.508381,0.085637,0.491548,-261.511947,-0.40189,69.362438
3.9966,-0.077886,-0.0006,0.085353,0.004964,0.000238,0.003911,-0.033549,-0.508716,0.086287,0.491548,-261.511947,-0.40189,69.362438
4.017,-0.077666,-0.000713,0.086759,0.004963,0.00023,0.003911,-0.033549,-0.508716,0.086287,0.491548,-261.511947,-0.40189,69.362438
4.0369,-0.077338,-0.000575,0.087026,0.004962,0.000223,0.003911,-0.033268,-0.508766,0.086923,0.488085,-261.509696,-0.406927,69.364603
4.0572,-0.077304,-0.000645,0.086494,0.004961,0.000216,0.003911,-0.033139,-0.508713,0.086984,0.488085,-261.509696,-0.406927,69.364603
4.0767,-0.076918,-0.000489,0.087205,0.00496,0.00021,0.003911,-0.03309,-0.508718,0.086618,0.484527,-261.507454,-0.411474,69.366768
4.0971,-0.076961,-0.000837,0.086538,0.004959,0.000199,0.003912,-0.032542,-0.508565,0.087161,0.484527,-261.507454,-0.411474,69.366768
4.117,-0.076967,-0.000329,0.086555,0.004958,0.00019,0.003912,-0.032542,-0.508565,0.087161,0.484527,-261.507454,-0.411474,69.366768
4.1366,-0.07704,-0.000871,0.085855,0.004956,0.000182,0.003912,-0.032673,-0.508393,0.086718,0.482546,-261.505215,-0.413854,69.368934
4.157,-0.077483,-0.000934,0.088092,0.004956,0.000179,0.003911,-0.032909,-0.508636,0.086384,0.482546,-261.505215,-0.413854,69.368934
4.1772,-0.076628,-0.000334,0.08863,0.004956,0.000177,0.00391,-0.032458,-0.508937,0.088216,0.478484,-261.502982,-0.418965,69.371104
4.197,-0.077111,-0.000397,0.087913,0.004954,0.000162,0.003912,-0.031562,-0.508383,0.0886,0.478484,-261.502982,-0.418965,69.371104
4.2169,-0.076595,-0.000938,0.08702,0.004952,0.000149,0.003912,-0.031562,-0.508383,0.0886,0.478484,-261.502982,-0.418965,69.371104
4.2369,-0.076524,-0.000402,0.087074,0.00495,0.000138,0.003912,-0.032066,-0.508983,0.087183,0.477582,-261.500754,-0.419696,69.37327
4.2568,-0.076912,-0.000209,0.087884,0.004951,0.000145,0.00391,-0.032086,-0.508771,0.087157,0.477582,-261.500754,-0.419696,69.37327
4.2769,-0.076688,-0.000478,0.089318,0.004952,0.00015,0.003908,-0.031992,-0.508222,0.088008,0.472144,-261.498529,-0.426811,69.375447
4.297,-0.076426,-0.000109,0.086472,0.00495,0.000139,0.003909,-0.031256,-0.508426,0.089213,0.472144,-261.498529,-0.426811,69.375447
4.3168,-0.076542,-0.000797,0.087898,0.004949,0.00013,0.00391,-0.031256,-0.508426,0.089213,0.472144,-261.498529,-0.426811,69.375447
4.3369,-0.076331,-0.000251,0.089694,0.004948,0.000122,0.00391,-0.031567,-0.508804,0.088061,0.473422,-261.496308,-0.42432,69.377616
4.3572,-0.076121,-0.000791,0.086475,0.004948,0.000121,0.00391,-0.031167,-0.508555,0.088748,0.473422,-261.496308,-0.42432,69.377616
4.3774,-0.076304,-0.000923,0.089274,0.004948,0.000119,0.003909,-0.031917,-0.508868,0.086599,0.469547,-261.49409,-0.429426,69.379792
4.397,-0.076088,-0.000514,0.087889,0.004949,0.000128,0.003907,-0.030925,-0.508889,0.089036,0.469547,-261.49409,-0.429426,69.379792
4.4169,-0.076151,-0.000342,0.087993,0.00495,0.000136,0.003906,-0.030925,-0.508889,0.089036,0.469547,-261.49409,-0.429426,69.379792
4.4367,-0.076239,-0.000502,0.087725,0.004951,0.000142,0.003905,-0.031127,-0.508346,0.088157,0.468921,-261.491872,-0.429874,69.381969
4.4574,-0.075837,-0.00101,0.088156,0.00495,0.000133,0.003906,-0.031277,-0.508422,0.088001,0.468921,-261.491872,-0.429874,69.381969
4.477,-0.075851,-0.00017,0.088269,0.004949,0.000126,0.003907,-0.030778,-0.509011,0.088281,0.471838,-261.489649,-0.425381,69.384142
4.4967,-0.076098,-0.00042,0.089622,0.004947,0.000114,0.003909,-0.030873,-0.508262,0.088277,0.471838,-261.489649,-0.425381,69.384142
4.5171,-0.076029,-0.000107,0.088528,0.004945,0.000103,0.00391,-0.030873,-0.508262,0.088277,0.471838,-261.489649,-0.425381,69.384142
4.5371,-0.075986,-0.000429,0.089145,0.004944,9.5e-05,0.00391,-0.030733,-0.508086,0.088692,0.469783,-261.487427,-0.428459,69.386321
4.5568,-0.075613,-0.000194,0.088978,0.004942,8.5e-05,0.003911,-0.030647,-0.508214,0.088897,0.469783,-261.487427,-0.428459,69.386321
4.5766,-0.076163,-0.000786,0.088501,0.004941,7.6e-05,0.003911,-0.030137,-0.50816,0.089103,0.465426,-261.485219,-0.434407,69.388496
4.5968,-0.07569,-0.000733,0.090407,0.004943,8.8e-05,0.003908,-0.030994,-0.508732,0.088561,0.465426,-261.485219,-0.434407,69.388496
4.6167,-0.075892,-0.000231,0.089206,0.004944,9.7e-05,0.003907,-0.030994,-0.508732,0.088561,0.465426,-261.485219,-0.434407,69.388496
4.6369,-0.07575,-0.00048,0.088668,0.004946,0.000105,0.003905,-0.030252,-0.508182,0.08937,0.462767,-261.483011,-0.437774,69.390677
4.6574,-0.075647,-0.000239,0.090222,0.004944,9.5e-05,0.003907,-0.030365,-0.508299,0.089104,0.462767,-261.483011,-0.437774,69.390677
4.6767,-0.07542,-0.000314,0.089029,0.004942,8.6e-05,0.003908,-0.029539,-0.508147,0.090347,0.46644,-261.480798,-0.432004,69.392854
4.6971,-0.075544,-0.000748,0.09086,0.004941,7.8e-05,0.003909,-0.03002,-0.50828,0.089151,0.46644,-261.480798,-0.432004,69.392854
4.7167,-0.075404,-0.000317,0.087945,0.00494,7.1e-05,0.003909,-0.03002,-0.50828,0.089151,0.46644,-261.480798,-0.432004,69.392854
4.7369,-0.075382,-0.00048,0.088965,0.004939,6.5e-05,0.003909,-0.030404,-0.508325,0.088108,0.463972,-261.478584,-0.435602,69.395037
4.7569,-0.075053,-0.000153,0.091073,0.004939,6.4e-05,0.003909,-0.030242,-0.508379,0.088481,0.463972,-261.478584,-0.435602,69.395037
4.7768,-0.074993,-0.000577,0.089215,0.004939,6.4e-05,0.003908,-0.028514,-0.508023,0.091197,0.460891,-261.476381,-0.439641,69.397218
4.797,-0.075038,-0.0005,0.0895,0.004939,6.5e-05,0.003908,-0.029455,-0.508502,0.089395,0.460891,-261.476381,-0.439641,69.397218
4.8171,-0.074983,-0.000255,0.088903,0.004939,6.6e-05,0.003907,-0.029455,-0.508502,0.089395,0.460891,-261.476381,-0.439641,69.397218
4.8373,-0.075457,0.000134,0.089121,0.004939,6.7e-05,0.003907,-0.029496,-0.50822,0.089067,0.460668,-261.474177,-0.439615,69.399399
4.8571,-0.075062,4.8e-05,0.089919,0.004937,5.3e-05,0.003909,-0.029703,-0.508064,0.089108,0.460668,-261.474177,-0.439615,69.399399
4.8768,-0.074947,-0.00046,0.088709,0.004935,4.1e-05,0.00391,-0.029109,-0.507875,0.090043,0.460868,-261.471957,-0.439032,69.401596
4.897,-0.075185,-0.000251,0.089329,0.004936,4.4e-05,0.003909,-0.02971,-0.508412,0.088811,0.460868,-261.471957,-0.439032,69.401596
4.9169,-0.075151,-0.000563,0.090221,0.004936,4.7e-05,0.003908,-0.02971,-0.508412,0.088811,0.460868,-261.471957,-0.439032,69.401596
4.9368,-0.074643,-9.1e-05,0.088668,0.004936,4.9e-05,0.003907,-0.028997,-0.508469,0.090383,0.457442,-261.469773,-0.443828,69.403767
4.957,-0.07481,-0.000735,0.09008,0.004936,4.4e-05,0.003907,-0.029171,-0.508311,0.089701,0.457442,-261.469773,-0.443828,69.403767
4.9766,-0.074561,-0.000602,0.089067,0.004935,4.1e-05,0.003908,-0.028775,-0.508652,0.090205,0.458225,-261.467571,-0.44226,69.405951
4.9967,-0.074352,-0.000297,0.090705,0.004936,4.8e-05,0.003906,-0.029151,-0.508586,0.089176,0.458225,-261.467571,-0.44226,69.405951
5.0167,-0.074604,-0.000176,0.09102,0.004937,5.4e-05,0.003905,-0.029151,-0.508586,0.089176,0.458225,-261.467571,-0.44226,69.405951
5.0368,-0.074417,-0.000426,0.0909,0.004938,5.9e-05,0.003905,-0.028042,-0.508045,0.091183,0.457095,-261.465371,-0.443754,69.408137
5.0573,-0.074497,-0.00011,0.091364,0.004935,4.2e-05,0.003907,-0.028051,-0.508154,0.091087,0.457095,-261.465371,-0.443754,69.408137
5.0768,-0.074147,-0.000522,0.091236,0.004932,2.8e-05,0.003909,-0.027809,-0.507967,0.091489,0.4595,-261.46316,-0.440223,69.410328
5.0971,-0.074445,-0.000122,0.091285,0.004932,2.3e-05,0.003909,-0.027684,-0.508365,0.091262,0.4595,-261.46316,-0.440223,69.410328
5.1171,-0.074414,-0.000468,0.090697,0.004931,1.9e-05,0.003909,-0.027684,-0.508365,0.091262,0.4595,-261.46316,-0.440223,69.410328
5.1367,-0.073774,-0.000457,0.089346,0.00493,1.5e-05,0.003909,-0.028018,-0.508352,0.09086,0.455403,-261.460961,-0.44615,69.412517
5.1569,-0.074188,-0.00038,0.09101,0.00493,1.5e-05,0.003908,-0.028099,-0.50838,0.090241,0.455403,-261.460961,-0.44615,69.412517
5.1767,-0.073864,-0.000597,0.09113,0.00493,1.5e-05,0.003908,-0.027682,-0.508254,0.091134,0.45345,-261.458779,-0.448413,69.414693
5.1968,-0.074254,-0.00049,0.09161,0.00493,1.5e-05,0.003907,-0.027465,-0.508459,0.091136,0.45345,-261.458779,-0.448413,69.414693
5.2167,-0.073818,-0.000367,0.090978,0.00493,1.5e-05,0.003907,-0.027465,-0.508459,0.091136,0.45345,-261.458779,-0.448413,69.414693
5.2365,-0.073913,-0.000377,0.09081,0.00493,1.5e-05,0.003907,-0.027278,-0.508239,0.091141,0.453297,-261.456583,-0.448329,69.416884
5.2567,-0.073426,-0.000178,0.091208,0.004929,7e-06,0.003908,-0.027412,-0.508252,0.091024,0.453297,-261.456583,-0.448329,69.416884
5.2773,-0.073401,-2.1e-05,0.092617,0.004928,1e-06,0.003908,-0.026818,-0.508043,0.091333,0.453173,-261.454392,-0.448248,69.41907
5.2968,-0.073706,-0.000532,0.090743,0.004922,-2.6e-05,0.003911,-0.02629,-0.507858,0.09248,0.453173,-261.454392,-0.448248,69.41907
5.317,-0.073836,-4.1e-05,0.091742,0.004918,-4.8e-05,0.003913,-0.02629,-0.507858,0.09248,0.453173,-261.454392,-0.448248,69.41907
5.3367,-0.073271,-0.000424,0.089697,0.004915,-6.6e-05,0.003914,-0.026908,-0.507877,0.091905,0.451157,-261.452203,-0.450992,69.421259
5.3569,-0.073474,-0.000228,0.093342,0.004915,-6.8e-05,0.003913,-0.027158,-0.508075,0.091032,0.451157,-261.452203,-0.450992,69.421259
5.3768,-0.073051,-0.000303,0.0918,0.004915,-6.9e-05,0.003911,-0.025783,-0.507995,0.093466,0.441838,-261.450036,-0.463484,69.423448
5.3967,-0.073399,-0.000537,0.091273,0.004914,-7.2e-05,0.003911,-0.026244,-0.50814,0.091957,0.441838,-261.450036,-0.463484,69.423448
5.4166,-0.07394,-0.00013,0.093092,0.004914,-7.5e-05,0.00391,-0.026244,-0.50814,0.091957,0.441838,-261.450036,-0.463484,69.423448
5.4371,-0.07347,-0.000185,0.093015,0.004913,-7.8e-05,0.003909,-0.026326,-0.507906,0.093256,0.441006,-261.44786,-0.463772,69.425649
5.4567,-0.073309,-5.3e-05,0.093938,0.004911,-8.9e-05,0.00391,-0.026211,-0.507934,0.093177,0.441006,-261.44786,-0.463772,69.425649
5.4765,-0.073315,-0.000238,0.092601,0.004909,-9.8e-05,0.00391,-0.025315,-0.507792,0.094063,0.439498,-261.445691,-0.465023,69.427845
5.4975,-0.073304,5.6e-05,0.091518,0.004908,-0.000103,0.00391,-0.026072,-0.508029,0.09274,0.439498,-261.445691,-0.465023,69.427845
5.517,-0.07312,-6.6e-05,0.091151,0.004908,-0.000106,0.003909,-0.026072,-0.508029,0.09274,0.439498,-261.445691,-0.465023,69.427845
5.5367,-0.073024,-0.000371,0.092782,0.004907,-0.00011,0.003909,-0.026492,-0.507934,0.091315,0.436437,-261.443525,-0.468886,69.430045
5.5568,-0.073099,-0.000115,0.091186,0.004907,-0.000111,0.003908,-0.026177,-0.508031,0.091929,0.436437,-261.443525,-0.468886,69.430045
5.5768,-0.072739,-0.000124,0.093112,0.004907,-0.000112,0.003908,-0.026503,-0.507986,0.09131,0.434604,-261.441361,-0.470704,69.432247
5.5972,-0.072495,3.6e-05,0.093601,0.004905,-0.000121,0.003909,-0.025419,-0.50792,0.092956,0.434604,-261.441361,-0.470704,69.432247
5.6167,-0.072364,3.7e-05,0.094119,0.004903,-0.000129,0.003909,-0.025419,-0.50792,0.092956,0.434604,-261.441361,-0.470704,69.432247
5.6371,-0.072944,-7e-05,0.091898,0.004902,-0.000136,0.003909,-0.024229,-0.507691,0.094283,0.434133,-261.439198,-0.470998,69.43445
5.6574,-0.072945,-0.000375,0.093308,0.004899,-0.00015,0.00391,-0.024984,-0.507782,0.093331,0.434133,-261.439198,-0.470998,69.43445
5.6768,-0.072522,-0.000159,0.091759,0.004896,-0.000161,0.003911,-0.025271,-0.508146,0.093432,0.430582,-261.437041,-0.475446,69.436654
5.6968,-0.072636,-4.9e-05,0.093418,0.004898,-0.000156,0.003909,-0.025737,-0.508025,0.091913,0.430582,-261.437041,-0.475446,69.436654
5.7168,-0.072408,-0.000536,0.093878,0.004899,-0.000151,0.003907,-0.025737,-0.508025,0.091913,0.430582,-261.437041,-0.475446,69.436654
5.737,-0.072336,7.7e-05,0.092543,0.004899,-0.000148,0.003906,-0.024397,-0.508278,0.094041,0.426953,-261.434891,-0.480032,69.438861
5.757,-0.07232,-4.4e-05,0.095864,0.004899,-0.00015,0.003906,-0.024704,-0.508057,0.093448,0.426953,-261.434891,-0.480032,69.438861
5.7772,-0.072495,-0.000181,0.093636,0.004899,-0.000151,0.003906,-0.023349,-0.507692,0.095989,0.428497,-261.432737,-0.477247,69.441067
5.797,-0.072158,-7.5e-05,0.093383,0.004897,-0.000159,0.003907,-0.024674,-0.507923,0.09385,0.428497,-261.432737,-0.477247,69.441067
5.8171,-0.071842,-0.00056,0.093504,0.004896,-0.000165,0.003907,-0.024674,-0.507923,0.09385,0.428497,-261.432737,-0.477247,69.441067
5.8367,-0.072086,-0.000223,0.093845,0.004895,-0.00017,0.003908,-0.024019,-0.508319,0.093668,0.427972,-261.430583,-0.477837,69.443273
5.8569,-0.072049,9.6e-05,0.095335,0.004895,-0.000166,0.003906,-0.024108,-0.508179,0.093759,0.427972,-261.430583,-0.477837,69.443273
5.8764,-0.071994,-0.000442,0.094296,0.004896,-0.000162,0.003905,-0.023346,-0.507579,0.09546,0.425262,-261.428435,-0.481308,69.445481
5.8966,-0.072145,0.000149,0.092834,0.004896,-0.000164,0.003905,-0.02391,-0.508122,0.094407,0.425262,-261.428435,-0.481308,69.445481
5.9165,-0.07169,9.3e-05,0.094475,0.004895,-0.000165,0.003905,-0.02391,-0.508122,0.094407,0.425262,-261.428435,-0.481308,69.445481
5.9367,-0.0717,0.000102,0.094186,0.004895,-0.000166,0.003905,-0.023374,-0.50762,0.094639,0.426182,-261.426284,-0.479796,69.447689
5.9571,-0.07183,-0.000171,0.094617,0.004889,-0.00019,0.003909,-0.023498,-0.507626,0.094473,0.426182,-261.426284,-0.479796,69.447689
5.9767,-0.071396,-0.000164,0.094002,0.004885,-0.000211,0.00391,-0.023492,-0.507881,0.094741,0.425671,-261.42413,-0.480397,69.449901
5.9971,-0.071611,-0.000198,0.094535,0.004884,-0.000214,0.00391,-0.023516,-0.507909,0.094071,0.425671,-261.42413,-0.480397,69.449901
6.0172,-0.071603,-0.000144,0.096553,0.004884,-0.000218,0.003909,-0.023516,-0.507909,0.094071,0.425671,-261.42413,-0.480397,69.449901
6.0369,-0.071528,9e-06,0.095475,0.004883,-0.000221,0.003908,-0.022233,-0.507758,0.096716,0.419374,-261.42199,-0.488925,69.452115
6.0571,-0.071347,8.6e-05,0.095445,0.004879,-0.000239,0.00391,-0.02249,-0.507719,0.09622,0.419374,-261.42199,-0.488925,69.452115
6.0764,-0.071277,-0.000193,0.094638,0.004875,-0.000255,0.003911,-0.022589,-0.507585,0.095569,0.417579,-261.419859,-0.490471,69.454323
6.097,-0.07151,1.5e-05,0.095571,0.004875,-0.000256,0.003909,-0.023033,-0.507883,0.094725,0.417579,-261.419859,-0.490471,69.454323
6.1168,-0.071111,-0.000244,0.095428,0.004875,-0.000257,0.003908,-0.023033,-0.507883,0.094725,0.417579,-261.419859,-0.490471,69.454323
6.1373,-0.071414,-0.000304,0.094443,0.004875,-0.000257,0.003907,-0.022313,-0.507915,0.095591,0.412529,-261.417735,-0.496858,69.456536
6.1571,-0.071342,7.5e-05,0.095584,0.004875,-0.000257,0.003906,-0.022699,-0.507961,0.095143,0.412529,-261.417735,-0.496858,69.456536
6.1769,-0.071213,-0.000171,0.095536,0.004875,-0.000256,0.003906,-0.022512,-0.507591,0.095709,0.411761,-261.415601,-0.496946,69.458762
6.197,-0.070838,3.1e-05,0.095211,0.004873,-0.000264,0.003906,-0.022552,-0.507825,0.095556,0.411761,-261.415601,-0.496946,69.458762
6.2172,-0.071186,-0.000236,0.095141,0.004872,-0.000269,0.003906,-0.022552,-0.507825,0.095556,0.411761,-261.415601,-0.496946,69.458762
6.2371,-0.071088,-0.000118,0.09505,0.004871,-0.000274,0.003906,-0.022534,-0.507921,0.095303,0.41175,-261.413472,-0.4966,69.46098
6.2566,-0.070686,0.000274,0.095044,0.004871,-0.000276,0.003906,-0.022573,-0.507877,0.095218,0.41175,-261.413472,-0.4966,69.46098
6.2765,-0.070751,-0.00046,0.094845,0.00487,-0.000277,0.003906,-0.022132,-0.507419,0.095168,0.409044,-261.411357,-0.499882,69.463191
6.2968,-0.070495,5.3e-05,0.095693,0.004872,-0.000268,0.003904,-0.022415,-0.508099,0.094881,0.409044,-261.411357,-0.499882,69.463191
6.3167,-0.071023,0.000203,0.096236,0.004874,-0.000261,0.003903,-0.022415,-0.508099,0.094881,0.409044,-261.411357,-0.499882,69.463191
6.3369,-0.070872,-3.9e-05,0.09649,0.004875,-0.000255,0.003902,-0.021814,-0.507429,0.0964,0.408583,-261.409226,-0.500208,69.465421
6.3569,-0.070451,-0.000433,0.096,0.004868,-0.000282,0.003906,-0.021759,-0.507527,0.096457,0.408583,-261.409226,-0.500208,69.465421
6.3771,-0.070598,4.5e-05,0.094352,0.004863,-0.000305,0.003909,-0.021412,-0.508078,0.096124,0.411624,-261.407107,-0.495983,69.467628
6.3966,-0.070332,-0.000371,0.094975,0.004862,-0.000308,0.003908,-0.022438,-0.507722,0.09452,0.411624,-261.407107,-0.495983,69.467628
6.4166,-0.070496,-0.000222,0.094959,0.004862,-0.000311,0.003907,-0.022438,-0.507722,0.09452,0.411624,-261.407107,-0.495983,69.467628
6.4365,-0.070004,0.000192,0.097534,0.004862,-0.000313,0.003907,-0.021936,-0.507917,0.095123,0.404594,-261.404996,-0.505567,69.469846
6.4569,-0.070541,3.4e-05,0.096775,0.004858,-0.000325,0.003908,-0.021263,-0.5077,0.096122,0.404594,-261.404996,-0.505567,69.469846
6.4769,-0.070373,0.000211,0.096881,0.004856,-0.000335,0.003908,-0.021108,-0.507575,0.0969,0.403069,-261.402868,-0.506839,69.472085
6.4969,-0.070141,-0.000115,0.0958,0.004849,-0.00036,0.00391,-0.021039,-0.507411,0.096888,0.403069,-261.402868,-0.506839,69.472085
6.5167,-0.069896,-0.000294,0.095317,0.004844,-0.000381,0.003911,-0.021039,-0.507411,0.096888,0.403069,-261.402868,-0.506839,69.472085
6.5368,-0.070049,0.000104,0.096772,0.00484,-0.000398,0.003912,-0.021157,-0.507974,0.095479,0.399702,-261.400774,-0.510939,69.474296
6.5568,-0.069908,-0.000188,0.096312,0.004841,-0.000393,0.003909,-0.020976,-0.507784,0.096025,0.399702,-261.400774,-0.510939,69.474296
6.5768,-0.070112,-0.00058,0.097228,0.004842,-0.000389,0.003907,-0.020711,-0.507822,0.096436,0.390352,-261.398685,-0.522384,69.476526
6.5971,-0.070352,-1.2e-05,0.097094,0.004846,-0.000372,0.003903,-0.020606,-0.508142,0.097166,0.390352,-261.398685,-0.522384,69.476526
6.6166,-0.069664,-4.2e-05,0.096414,0.004849,-0.000358,0.003901,-0.020606,-0.508142,0.097166,0.390352,-261.398685,-0.522384,69.476526
6.6369,-0.070269,3.4e-05,0.095844,0.004852,-0.000347,0.0039,-0.020366,-0.50767,0.096577,0.391119,-261.39659,-0.520485,69.478759
6.6569,-0.069679,-0.000194,0.096076,0.004849,-0.000359,0.003902,-0.020795,-0.507651,0.096294,0.391119,-261.39659,-0.520485,69.478759
6.6767,-0.069748,-0.000329,0.097588,0.004846,-0.00037,0.003903,-0.020601,-0.507838,0.0962,0.397106,-261.394489,-0.512236,69.480981
6.6968,-0.06952,-5.6e-05,0.097563,0.004846,-0.000373,0.003903,-0.020097,-0.507897,0.097474,0.397106,-261.394489,-0.512236,69.480981
6.7169,-0.06955,-0.000287,0.097514,0.004845,-0.000375,0.003903,-0.020097,-0.507897,0.097474,0.397106,-261.394489,-0.512236,69.480981
6.7371,-0.069543,-0.000102,0.096866,0.004844,-0.000377,0.003903,-0.019694,-0.50786,0.097677,0.393845,-261.392385,-0.516751,69.483215
6.7569,-0.069471,-1.8e-05,0.095417,0.004842,-0.000385,0.003904,-0.019891,-0.507797,0.097355,0.393845,-261.392385,-0.516751,69.483215
6.7769,-0.069508,-4.6e-05,0.097912,0.00484,-0.000391,0.003904,-0.020728,-0.507695,0.09554,0.392798,-261.390293,-0.517905,69.48544
6.7969,-0.069245,-0.000244,0.096682,0.004836,-0.000408,0.003906,-0.019736,-0.507611,0.097716,0.392798,-261.390293,-0.517905,69.48544
6.8169,-0.069294,-0.0004,0.098826,0.004832,-0.000422,0.003906,-0.019736,-0.507611,0.097716,0.392798,-261.390293,-0.517905,69.48544
6.8371,-0.069224,-0.000253,0.099235,0.004829,-0.000433,0.003907,-0.018772,-0.507908,0.098989,0.390602,-261.3882,-0.520646,69.487671
6.8574,-0.069122,5.3e-05,0.098423,0.004827,-0.00044,0.003906,-0.018718,-0.50784,0.099109,0.390602,-261.3882,-0.520646,69.487671
6.8773,-0.068754,-0.000295,0.097513,0.004825,-0.000446,0.003905,-0.018853,-0.507478,0.098547,0.38427,-261.38611,-0.528411,69.489915
6.897,-0.068863,-1.7e-05,0.097983,0.004825,-0.000447,0.003904,-0.019076,-0.507842,0.097598,0.38427,-261.38611,-0.528411,69.489915
6.9171,-0.069224,-0.000159,0.098753,0.004825,-0.000447,0.003903,-0.019076,-0.507842,0.097598,0.38427,-261.38611,-0.528411,69.489915
6.937,-0.068866,-0.000258,0.098744,0.004825,-0.000447,0.003903,-0.01874,-0.507673,0.098916,0.382101,-261.38404,-0.530671,69.492141
6.9568,-0.068676,-0.000348,0.098009,0.004821,-0.00046,0.003904,-0.018655,-0.507714,0.098865,0.382101,-261.38404,-0.530671,69.492141
6.9768,-0.068558,-0.000225,0.099043,0.004818,-0.00047,0.003904,-0.018617,-0.507899,0.098133,0.381643,-261.381963,-0.530609,69.494376
6.9967,-0.068644,-0.00032,0.098397,0.004815,-0.000481,0.003904,-0.018165,-0.507742,0.098967,0.381643,-261.381963,-0.530609,69.494376
7.017,-0.06857,-0.000652,0.099263,0.004812,-0.00049,0.003904,-0.018165,-0.507742,0.098967,0.381643,-261.381963,-0.530609,69.494376
7.0369,-0.068826,-0.000243,0.097735,0.00481,-0.000498,0.003904,-0.017826,-0.508141,0.099427,0.378261,-261.37989,-0.534747,69.496615
7.0571,-0.069045,-0.000202,0.096584,0.004812,-0.000488,0.003902,-0.0183,-0.508007,0.098764,0.378261,-261.37989,-0.534747,69.496615
7.0766,-0.068236,2.9e-05,0.096863,0.004815,-0.00048,0.0039,-0.019709,-0.507826,0.096709,0.373761,-261.377825,-0.539905,69.498856
7.0966,-0.068573,-0.000314,0.098083,0.004813,-0.000488,0.003901,-0.018977,-0.507602,0.096856,0.373761,-261.377825,-0.539905,69.498856
7.1166,-0.068344,-0.0001,0.099811,0.004811,-0.000494,0.003902,-0.018977,-0.507602,0.096856,0.373761,-261.377825,-0.539905,69.498856
7.1366,-0.068211,-0.000305,0.097769,0.00481,-0.0005,0.003902,-0.017322,-0.507562,0.099974,0.37623,-261.375755,-0.536301,69.501096
7.1569,-0.068436,-9.2e-05,0.09831,0.004806,-0.000513,0.003903,-0.017747,-0.507686,0.099099,0.37623,-261.375755,-0.536301,69.501096
7.1766,-0.068191,-0.000424,0.097592,0.004802,-0.000525,0.003903,-0.018225,-0.50763,0.098435,0.373207,-261.37369,-0.53999,69.503338
7.1968,-0.068334,-0.00024,0.098226,0.004806,-0.00051,0.003901,-0.018466,-0.507965,0.097674,0.373207,-261.37369,-0.53999,69.503338
7.2171,-0.068017,-0.000439,0.100239,0.004809,-0.000498,0.003899,-0.018466,-0.507965,0.097674,0.373207,-261.37369,-0.53999,69.503338
7.2367,-0.068265,-0.000432,0.098862,0.004812,-0.000489,0.003898,-0.016778,-0.507881,0.100403,0.369414,-261.371631,-0.544618,69.505583
7.2565,-0.068186,-0.000119,0.096919,0.004809,-0.000497,0.003899,-0.017223,-0.507905,0.099794,0.369414,-261.371631,-0.544618,69.505583
7.2769,-0.067745,-6e-05,0.099806,0.004806,-0.000505,0.003899,-0.018681,-0.507726,0.097043,0.374596,-261.369561,-0.537631,69.507826
7.2969,-0.067423,-0.000419,0.097389,0.004797,-0.000534,0.003903,-0.017067,-0.507539,0.099582,0.374596,-261.369561,-0.537631,69.507826
7.3168,-0.067667,-0.000541,0.099045,0.00479,-0.000558,0.003905,-0.017067,-0.507539,0.099582,0.374596,-261.369561,-0.537631,69.507826
7.337,-0.067808,-0.00047,0.099732,0.004784,-0.000578,0.003906,-0.017035,-0.508043,0.099208,0.372308,-261.367494,-0.540761,69.510072
7.3566,-0.067807,-0.000281,0.099897,0.004787,-0.000567,0.003902,-0.017009,-0.507998,0.099446,0.372308,-261.367494,-0.540761,69.510072
7.3767,-0.067613,-0.000144,0.100185,0.00479,-0.000558,0.0039,-0.016793,-0.507741,0.10002,0.361245,-261.365467,-0.554532,69.512303
7.397,-0.067566,-0.000352,0.100322,0.004783,-0.00058,0.003902,-0.016613,-0.507601,0.100177,0.361245,-261.365467,-0.554532,69.512303
7.4168,-0.067566,-0.000495,0.100853,0.004777,-0.000598,0.003903,-0.016613,-0.507601,0.100177,0.361245,-261.365467,-0.554532,69.512303
7.4365,-0.067618,-0.000298,0.098595,0.004772,-0.000613,0.003903,-0.016016,-0.507906,0.101017,0.363832,-261.363417,-0.550514,69.51455
7.4574,-0.067694,-0.000487,0.099343,0.004774,-0.00061,0.003901,-0.016563,-0.507872,0.100049,0.363832,-261.363417,-0.550514,69.51455
7.477,-0.067223,-1.7e-05,0.098089,0.004774,-0.000606,0.003899,-0.016957,-0.507977,0.09947,0.355239,-261.361387,-0.560798,69.516798
7.497,-0.067401,-0.000538,0.101362,0.004773,-0.000611,0.003899,-0.01724,-0.507604,0.098224,0.355239,-261.361387,-0.560798,69.516798
7.5169,-0.067496,-0.000256,0.100603,0.004773,-0.000615,0.003899,-0.01724,-0.507604,0.098224,0.355239,-261.361387,-0.560798,69.516798
7.537,-0.067318,-0.00052,0.101059,0.004772,-0.000618,0.003899,-0.016074,-0.507683,0.100767,0.355979,-261.35935,-0.559192,69.51905
7.5573,-0.067227,-0.000229,0.100716,0.004769,-0.000627,0.003899,-0.015966,-0.507779,0.100904,0.355979,-261.35935,-0.559192,69.51905
7.5767,-0.067229,-0.000588,0.100791,0.004766,-0.000635,0.003899,-0.015795,-0.507649,0.100841,0.353928,-261.357315,-0.561203,69.521305
7.597,-0.067133,-0.000121,0.09993,0.004767,-0.000629,0.003897,-0.015894,-0.507968,0.100802,0.353928,-261.357315,-0.561203,69.521305
7.6171,-0.067344,-0.000255,0.099877,0.004768,-0.000625,0.003896,-0.015894,-0.507968,0.100802,0.353928,-261.357315,-0.561203,69.521305
7.637,-0.066814,-0.000479,0.101162,0.004768,-0.000621,0.003895,-0.01629,-0.50772,0.10004,0.351311,-261.355277,-0.564228,69.523569
7.6564,-0.067019,-0.000305,0.100461,0.004765,-0.00063,0.003896,-0.015857,-0.507784,0.100527,0.351311,-261.355277,-0.564228,69.523569
7.6769,-0.066405,-0.000495,0.100356,0.004763,-0.000638,0.003897,-0.015718,-0.507738,0.100585,0.35316,-261.353248,-0.561602,69.525819
7.6967,-0.066869,-0.000267,0.101378,0.004761,-0.000642,0.003896,-0.015335,-0.507913,0.100381,0.35316,-261.353248,-0.561602,69.525819
7.7169,-0.066951,-0.000249,0.099889,0.004759,-0.000645,0.003896,-0.015335,-0.507913,0.100381,0.35316,-261.353248,-0.561602,69.525819
7.7369,-0.066836,-0.000386,0.101645,0.004758,-0.000648,0.003895,-0.015892,-0.507713,0.100051,0.350594,-261.351225,-0.564809,69.528068
7.7571,-0.066733,-0.000496,0.101998,0.004754,-0.00066,0.003897,-0.015541,-0.50773,0.100718,0.350594,-261.351225,-0.564809,69.528068
7.7769,-0.066386,-0.000393,0.100346,0.004751,-0.00067,0.003897,-0.014652,-0.507851,0.102122,0.348977,-261.3492,-0.566613,69.530323
7.7971,-0.066443,-0.000339,0.101099,0.004749,-0.000676,0.003897,-0.015227,-0.50783,0.100519,0.348977,-261.3492,-0.566613,69.530323
7.8169,-0.066803,-0.000294,0.101201,0.004747,-0.00068,0.003896,-0.015227,-0.50783,0.100519,0.348977,-261.3492,-0.566613,69.530323
7.8367,-0.066461,-0.000443,0.102304,0.004746,-0.000684,0.003896,-0.015078,-0.507692,0.101364,0.345471,-261.347181,-0.570785,69.532581
7.8571,-0.066378,-0.000382,0.103041,0.004739,-0.000702,0.003897,-0.014768,-0.507728,0.101767,0.345471,-261.347181,-0.570785,69.532581
7.8767,-0.066377,-0.000218,0.100903,0.004734,-0.000716,0.003897,-0.013767,-0.507683,0.103165,0.343105,-261.345166,-0.573216,69.53484
7.8971,-0.066185,-0.000109,0.101041,0.004729,-0.000733,0.003898,-0.014884,-0.507629,0.101115,0.343105,-261.345166,-0.573216,69.53484
7.9167,-0.066307,-0.001045,0.102545,0.004724,-0.000746,0.003898,-0.014884,-0.507629,0.101115,0.343105,-261.345166,-0.573216,69.53484
7.9368,-0.066015,-0.000498,0.101245,0.004721,-0.000757,0.003898,-0.013901,-0.508376,0.102708,0.338035,-261.34316,-0.579213,69.5371
7.9567,-0.066225,-0.000424,0.100845,0.004725,-0.000739,0.003893,-0.014111,-0.508176,0.102127,0.338035,-261.34316,-0.579213,69.5371
7.9768,-0.066097,-0.000547,0.100589,0.004729,-0.000724,0.00389,-0.014729,-0.507842,0.100969,0.331247,-261.341167,-0.586664,69.539364
7.9967,-0.065853,-8.7e-05,0.102774,0.004731,-0.000716,0.00389,-0.014861,-0.507958,0.100631,0.331247,-261.341167,-0.586664,69.539364
8.017,-0.066219,-0.000215,0.101663,0.004733,-0.00071,0.003889,-0.014861,-0.507958,0.100631,0.331247,-261.341167,-0.586664,69.539364
8.0366,-0.065658,-0.000583,0.101011,0.004735,-0.000705,0.003889,-0.014261,-0.507592,0.101825,0.336149,-261.339165,-0.580288,69.541623
8.0569,-0.065902,-0.000235,0.104114,0.004728,-0.000725,0.003892,-0.014225,-0.507753,0.10151,0.336149,-261.339165,-0.580288,69.541623
8.0765,-0.065617,-0.000339,0.102457,0.004722,-0.000742,0.003893,-0.012747,-0.50748,0.104238,0.339067,-261.337157,-0.576784,69.543882
8.097,-0.0655,-0.000699,0.103911,0.004708,-0.000778,0.003896,-0.013382,-0.507648,0.102627,0.339067,-261.337157,-0.576784,69.543882
8.1169,-0.065391,-0.000544,0.102032,0.004696,-0.000808,0.003897,-0.013382,-0.507648,0.102627,0.339067,-261.337157,-0.576784,69.543882
8.1368,-0.065441,-0.000706,0.102852,0.004687,-0.000832,0.003898,-0.013246,-0.507903,0.102195,0.3335,-261.335161,-0.583843,69.546143
8.1569,-0.065524,-0.000115,0.10135,0.004686,-0.000832,0.003895,-0.013155,-0.507948,0.102481,0.3335,-261.335161,-0.583843,69.546143
8.1768,-0.065434,-0.000574,0.102511,0.004685,-0.000833,0.003892,-0.013774,-0.507509,0.101473,0.319115,-261.333202,-0.60081,69.548398
8.1969,-0.065615,-0.000568,0.102229,0.004683,-0.000838,0.003891,-0.013285,-0.507862,0.102423,0.319115,-261.333202,-0.60081,69.548398
8.2172,-0.065581,-0.000521,0.104624,0.004681,-0.000842,0.00389,-0.013285,-0.507862,0.102423,0.319115,-261.333202,-0.60081,69.548398
8.2371,-0.065064,-0.000748,0.10341,0.004679,-0.000845,0.003889,-0.012121,-0.507747,0.104787,0.318473,-261.331229,-0.600672,69.55067
8.2568,-0.065354,-0.000218,0.102239,0.004668,-0.000869,0.00389,-0.012218,-0.50786,0.104249,0.318473,-261.331229,-0.600672,69.55067
8.2763,-0.065149,-0.000805,0.104283,0.004659,-0.000889,0.00389,-0.013152,-0.507566,0.102363,0.315977,-261.32926,-0.602805,69.552941
8.2967,-0.065276,-0.000362,0.102059,0.004655,-0.000895,0.003888,-0.012151,-0.507993,0.104117,0.315977,-261.32926,-0.602805,69.552941
8.3167,-0.065162,-0.000718,0.104278,0.004652,-0.0009,0.003886,-0.012151,-0.507993,0.104117,0.315977,-261.32926,-0.602805,69.552941
8.337,-0.06477,-0.000571,0.103508,0.004649,-0.000905,0.003885,-0.011879,-0.507964,0.10444,0.308835,-261.327305,-0.611216,69.555216
8.357,-0.064743,-0.000794,0.10396,0.004642,-0.000919,0.003885,-0.011937,-0.507916,0.104076,0.308835,-261.327305,-0.611216,69.555216
8.3769,-0.064829,-0.000861,0.10299,0.004637,-0.000931,0.003884,-0.011669,-0.508054,0.104084,0.305868,-261.325354,-0.614035,69.557492
8.397,-0.065038,-0.000575,0.103547,0.004643,-0.000912,0.00388,-0.012329,-0.50815,0.103088,0.305868,-261.325354,-0.614035,69.557492
8.4167,-0.064755,-0.000614,0.104451,0.004648,-0.000897,0.003878,-0.012329,-0.50815,0.103088,0.305868,-261.325354,-0.614035,69.557492
8.4365,-0.064646,-0.000857,0.10325,0.004652,-0.000884,0.003877,-0.011385,-0.507853,0.104613,0.301442,-261.323417,-0.618959,69.559762
8.4568,-0.064564,-0.000932,0.1044,0.004643,-0.000904,0.003879,-0.011645,-0.507972,0.104079,0.301442,-261.323417,-0.618959,69.559762
8.4768,-0.064452,-0.001078,0.102364,0.004636,-0.00092,0.00388,-0.011266,-0.508168,0.104523,0.308661,-261.321466,-0.610091,69.562031
8.4969,-0.06454,-0.001102,0.102468,0.004649,-0.000884,0.003875,-0.012236,-0.508388,0.102558,0.308661,-261.321466,-0.610091,69.562031
8.5167,-0.064519,-0.000877,0.10406,0.004658,-0.000854,0.003873,-0.012236,-0.508388,0.102558,0.308661,-261.321466,-0.610091,69.562031
8.5367,-0.064019,-0.000778,0.105095,0.004667,-0.000831,0.003871,-0.011348,-0.508136,0.104222,0.303123,-261.319528,-0.617084,69.564299
8.5571,-0.064131,-0.000707,0.104121,0.00465,-0.000866,0.003876,-0.010987,-0.508068,0.104597,0.303123,-261.319528,-0.617084,69.564299
8.5767,-0.063952,-0.000766,0.106211,0.004636,-0.000895,0.003879,-0.010975,-0.507956,0.104244,0.317589,-261.317575,-0.600356,69.566548
8.5972,-0.064477,-0.000637,0.103794,0.004602,-0.000962,0.003883,-0.009973,-0.507898,0.106048,0.317589,-261.317575,-0.600356,69.566548
8.6166,-0.064054,-0.000601,0.105708,0.004574,-0.001016,0.003884,-0.009973,-0.507898,0.106048,0.317589,-261.317575,-0.600356,69.566548
8.6366,-0.064207,-0.000637,0.104319,0.004552,-0.001059,0.003884,-0.010047,-0.507771,0.105869,0.30781,-261.31564,-0.613359,69.568802
8.6574,-0.06465,-0.000942,0.105247,0.004539,-0.00109,0.003882,-0.010455,-0.507811,0.105255,0.30781,-261.31564,-0.613359,69.568802
8.6769,-0.064274,-0.001256,0.104156,0.004529,-0.001115,0.003881,-0.010929,-0.508138,0.105368,0.280725,-261.313796,-0.645944,69.571021
8.6968,-0.063777,-0.001013,0.105251,0.004554,-0.001055,0.003871,-0.011216,-0.508463,0.104266,0.280725,-261.313796,-0.645944,69.571021
8.7169,-0.06444,-0.001364,0.104994,0.004574,-0.001007,0.003864,-0.011216,-0.508463,0.104266,0.280725,-261.313796,-0.645944,69.571021
8.7369,-0.064087,-0.000677,0.105724,0.00459,-0.000968,0.003861,-0.010799,-0.508582,0.105156,0.270338,-261.311925,-0.655858,69.573296
8.7566,-0.063786,-0.000812,0.105372,0.004589,-0.000968,0.003862,-0.010563,-0.508281,0.105404,0.270338,-261.311925,-0.655858,69.573296
8.7765,-0.063846,-0.001504,0.106577,0.004588,-0.000968,0.003863,-0.010001,-0.507998,0.105492,0.294159,-261.310047,-0.627056,69.575516
8.7968,-0.063988,-0.000974,0.106036,0.004584,-0.000961,0.003861,-0.009623,-0.508558,0.106489,0.294159,-261.310047,-0.627056,69.575516
8.8168,-0.064057,-0.001439,0.104617,0.00458,-0.000956,0.00386,-0.009623,-0.508558,0.106489,0.294159,-261.310047,-0.627056,69.575516
8.8369,-0.063347,-0.000955,0.103382,0.004577,-0.000951,0.00386,-0.010604,-0.508671,0.104779,0.294375,-261.308132,-0.627501,69.57778
8.8569,-0.063285,-0.001044,0.104943,0.004587,-0.000931,0.003859,-0.010627,-0.508496,0.104234,0.294375,-261.308132,-0.627501,69.57778
8.8767,-0.063507,-0.001463,0.105624,0.004595,-0.000914,0.003859,-0.009714,-0.508253,0.105066,0.298052,-261.306217,-0.625966,69.580039
8.8969,-0.063081,-0.000972,0.106427,0.004592,-0.000911,0.00386,-0.009729,-0.508589,0.105582,0.298052,-261.306217,-0.625966,69.580039
8.9167,-0.063209,-0.001197,0.106825,0.00459,-0.000908,0.00386,-0.009729,-0.508589,0.105582,0.298052,-261.306217,-0.625966,69.580039
8.9368,-0.063473,-0.001255,0.105248,0.004588,-0.000906,0.003861,-0.008637,-0.508307,0.106986,0.304274,-261.304293,-0.618675,69.582292
8.9569,-0.063298,-0.001241,0.10466,0.004565,-0.000946,0.003864,-0.009129,-0.508361,0.106294,0.304274,-261.304293,-0.618675,69.582292
8.9769,-0.063278,-0.001051,0.106658,0.004547,-0.000978,0.003866,-0.009871,-0.508464,0.104783,0.306408,-261.302365,-0.618342,69.584548
8.9968,-0.06328,-0.000916,0.105166,0.004522,-0.001027,0.003869,-0.009052,-0.50818,0.106507,0.306408,-261.302365,-0.618342,69.584548
9.0169,-0.063404,-0.001151,0.105511,0.004502,-0.001067,0.003869,-0.009052,-0.50818,0.106507,0.306408,-261.302365,-0.618342,69.584548
9.0371,-0.06311,-0.001068,0.105917,0.004486,-0.001099,0.003869,-0.009501,-0.508335,0.105672,0.295202,-261.300478,-0.633445,69.586788
9.0571,-0.06291,-0.00116,0.106179,0.004485,-0.001103,0.003866,-0.009354,-0.508286,0.10579,0.295202,-261.300478,-0.633445,69.586788
9.0764,-0.063381,-0.001137,0.105769,0.004485,-0.001107,0.003864,-0.008716,-0.508307,0.106301,0.274662,-261.298643,-0.657167,69.589019
9.0966,-0.063026,-0.001269,0.10554,0.004486,-0.001107,0.003862,-0.009458,-0.50829,0.105823,0.274662,-261.298643,-0.657167,69.589019
9.1166,-0.063157,-0.001204,0.106534,0.004487,-0.001108,0.00386,-0.009458,-0.50829,0.105823,0.274662,-261.298643,-0.657167,69.589019
9.1371,-0.062935,-0.001212,0.106356,0.004488,-0.001108,0.003859,-0.008736,-0.508339,0.106695,0.272346,-261.296777,-0.65812,69.591291
9.1566,-0.063186,-0.001188,0.106874,0.004475,-0.001124,0.003858,-0.008738,-0.508338,0.106575,0.272346,-261.296777,-0.65812,69.591291
9.1767,-0.062582,-0.001528,0.108397,0.004464,-0.001136,0.003857,-0.008639,-0.508298,0.106997,0.271313,-261.294917,-0.657481,69.593554
9.1968,-0.06286,-0.000999,0.105546,0.004424,-0.001155,0.003853,-0.007512,-0.508514,0.108277,0.271313,-261.294917,-0.657481,69.593554
9.2166,-0.06272,-0.00147,0.105719,0.004393,-0.00117,0.00385,-0.007512,-0.508514,0.108277,0.271313,-261.294917,-0.657481,69.593554
9.237,-0.062578,-0.001273,0.106425,0.004367,-0.001183,0.003847,-0.008713,-0.50865,0.10588,0.266733,-261.293068,-0.663847,69.595819
9.2569,-0.062804,-0.001448,0.106431,0.004384,-0.001157,0.003845,-0.008566,-0.508547,0.10612,0.266733,-261.293068,-0.663847,69.595819
9.2769,-0.0625,-0.001598,0.106678,0.004397,-0.001136,0.003844,-0.008485,-0.508585,0.106553,0.261067,-261.291258,-0.680086,69.598068
9.2969,-0.062437,-0.000988,0.107576,0.004405,-0.00111,0.003843,-0.008214,-0.508691,0.106674,0.261067,-261.291258,-0.680086,69.598068
9.3166,-0.062562,-0.001278,0.105808,0.004411,-0.00109,0.003843,-0.008214,-0.508691,0.106674,0.261067,-261.291258,-0.680086,69.598068
9.3367,-0.062114,-0.001494,0.107271,0.004416,-0.001074,0.003844,-0.008514,-0.508453,0.105968,0.268956,-261.289447,-0.670055,69.600295
9.3572,-0.062725,-0.001891,0.107994,0.004406,-0.00109,0.003847,-0.008084,-0.508501,0.106517,0.268956,-261.289447,-0.670055,69.600295
9.3767,-0.062337,-0.001542,0.108263,0.004398,-0.001103,0.003849,-0.007612,-0.508938,0.108116,0.280848,-261.287605,-0.65925,69.602535
9.3966,-0.061853,-0.001321,0.106332,0.004364,-0.001126,0.003848,-0.007255,-0.508588,0.108257,0.280848,-261.287605,-0.65925,69.602535
9.4166,-0.062049,-0.001441,0.108143,0.004336,-0.001145,0.003847,-0.007255,-0.508588,0.108257,0.280848,-261.287605,-0.65925,69.602535
9.4368,-0.062176,-0.001518,0.10776,0.004314,-0.00116,0.003846,-0.006818,-0.508488,0.108303,0.276584,-261.285791,-0.665639,69.604753
9.4569,-0.062027,-0.001739,0.106806,0.00428,-0.00119,0.003844,-0.007001,-0.50852,0.108102,0.276584,-261.285791,-0.665639,69.604753
9.4767,-0.062066,-0.002032,0.107796,0.004252,-0.001213,0.003842,-0.007519,-0.508855,0.106929,0.268838,-261.284011,-0.682869,69.606965
9.4968,-0.061962,-0.001582,0.108724,0.004271,-0.001143,0.003836,-0.007218,-0.509054,0.107724,0.268838,-261.284011,-0.682869,69.606965
9.5168,-0.061907,-0.001904,0.107957,0.004286,-0.001088,0.003833,-0.007218,-0.509054,0.107724,0.268838,-261.284011,-0.682869,69.606965
9.5369,-0.061755,-0.001642,0.10848,0.004297,-0.001044,0.003833,-0.006774,-0.508966,0.108117,0.260567,-261.282252,-0.696992,69.609182
9.5569,-0.061817,-0.001743,0.106793,0.004265,-0.001059,0.003834,-0.006655,-0.508836,0.108287,0.260567,-261.282252,-0.696992,69.609182
9.5771,-0.061784,-0.001305,0.107761,0.004239,-0.00107,0.003834,-0.007321,-0.508856,0.106911,0.293077,-261.280518,-0.667333,69.611295
9.597,-0.061271,-0.001564,0.109124,0.004208,-0.001137,0.00384,-0.006961,-0.508395,0.107688,0.293077,-261.280518,-0.667333,69.611295
9.617,-0.061738,-0.001455,0.10933,0.004183,-0.001191,0.003843,-0.006961,-0.508395,0.107688,0.293077,-261.280518,-0.667333,69.611295
9.6373,-0.061596,-0.001693,0.108471,0.004164,-0.001234,0.003844,-0.005909,-0.508435,0.109491,0.291509,-261.278751,-0.677595,69.613468
9.657,-0.061652,-0.001519,0.109787,0.004101,-0.001273,0.003836,-0.00608,-0.508543,0.109097,0.291509,-261.278751,-0.677595,69.613468
9.6771,-0.061804,-0.001634,0.109896,0.004052,-0.001304,0.00383,-0.005641,-0.508473,0.109905,0.261277,-261.277078,-0.71032,69.615599
9.6969,-0.061429,-0.001815,0.107689,0.003993,-0.001335,0.003822,-0.005841,-0.50855,0.109903,0.261277,-261.277078,-0.71032,69.615599
9.7168,-0.061549,-0.00169,0.109286,0.003947,-0.00136,0.003816,-0.005841,-0.50855,0.109903,0.261277,-261.277078,-0.71032,69.615599
9.7375,-0.061599,-0.001784,0.108785,0.00391,-0.00138,0.003811,-0.005751,-0.508683,0.109444,0.249995,-261.275424,-0.732367,69.617754
9.757,-0.061353,-0.001404,0.109847,0.003901,-0.001363,0.003806,-0.005921,-0.508722,0.109201,0.249995,-261.275424,-0.732367,69.617754
9.7772,-0.061293,-0.001774,0.108191,0.003894,-0.00135,0.003803,-0.005317,-0.50836,0.109967,0.237683,-261.273836,-0.758801,69.619881
9.7968,-0.061424,-0.00169,0.109023,0.003906,-0.001328,0.003803,-0.006135,-0.508754,0.108357,0.237683,-261.273836,-0.758801,69.619881
9.8169,-0.061352,-0.002118,0.107866,0.003916,-0.001311,0.003804,-0.006135,-0.508754,0.108357,0.237683,-261.273836,-0.758801,69.619881
9.8369,-0.061105,-0.001573,0.109309,0.003923,-0.001299,0.003805,-0.006279,-0.509193,0.108025,0.244842,-261.272232,-0.7562,69.62202
9.8566,-0.061063,-0.002043,0.110245,0.003926,-0.001263,0.003804,-0.005931,-0.508928,0.108564,0.244842,-261.272232,-0.7562,69.62202
9.8768,-0.061207,-0.001921,0.10922,0.003928,-0.001235,0.003804,-0.004824,-0.508975,0.110366,0.255578,-261.270614,-0.745604,69.624151
9.8965,-0.060666,-0.002088,0.109102,0.003894,-0.001228,0.003802,-0.005541,-0.508891,0.109325,0.255578,-261.270614,-0.745604,69.624151
9.9171,-0.06118,-0.001732,0.108856,0.003867,-0.001224,0.003801,-0.005541,-0.508891,0.109325,0.255578,-261.270614,-0.745604,69.624151
9.9372,-0.060469,-0.001767,0.110388,0.003845,-0.00122,0.003801,-0.005605,-0.508747,0.109014,0.270382,-261.268985,-0.735969,69.626269
9.9571,-0.060984,-0.00251,0.108923,0.00376,-0.001264,0.003796,-0.00503,-0.508715,0.109611,0.270382,-261.268985,-0.735969,69.626269
9.9769,-0.060748,-0.001811,0.111004,0.003694,-0.001299,0.003793,-0.005419,-0.509512,0.109042,0.278859,-261.267395,-0.744328,69.628347
9.997,-0.060926,-0.002387,0.110468,0.00355,-0.001335,0.00378,-0.004346,-0.508746,0.110842,0.278859,-261.267395,-0.744328,69.628347
10.0168,-0.060929,-0.002138,0.110286,0.003439,-0.001364,0.00377,-0.004346,-0.508746,0.110842,0.278859,-261.267395,-0.744328,69.628347
10.0369,-0.060353,-0.001931,0.111042,0.003354,-0.001387,0.003764,-0.00464,-0.509076,0.110443,0.26887,-261.265878,-0.774573,69.630394
10.0567,-0.060667,-0.001776,0.109341,0.003297,-0.00136,0.003755,-0.00428,-0.508958,0.110716,0.26887,-261.265878,-0.774573,69.630394
10.0764,-0.06034,-0.00217,0.110707,0.003253,-0.00134,0.003751,-0.00491,-0.50876,0.109453,0.265304,-261.264568,-0.832498,69.632272
10.097,-0.060347,-0.001924,0.10958,0.003192,-0.001311,0.003745,-0.004066,-0.509025,0.110607,0.265304,-261.264568,-0.832498,69.632272
10.1166,-0.060677,-0.00195,0.111807,0.003144,-0.001291,0.003742,-0.004066,-0.509025,0.110607,0.265304,-261.264568,-0.832498,69.632272
10.1367,-0.060665,-0.002228,0.110522,0.003108,-0.001277,0.003743,-0.003634,-0.508806,0.111963,0.28443,-261.263221,-0.840107,69.634209
10.1567,-0.060056,-0.002515,0.110663,0.003052,-0.001289,0.003744,-0.003939,-0.508939,0.111387,0.28443,-261.263221,-0.840107,69.634209
10.1766,-0.060646,-0.002479,0.111137,0.003009,-0.001299,0.003746,-0.003632,-0.509424,0.11078,0.314045,-261.261939,-0.85349,69.636064
10.1969,-0.060167,-0.002582,0.111458,0.003025,-0.001208,0.003745,-0.004037,-0.509343,0.11111,0.314045,-261.261939,-0.85349,69.636064
10.2166,-0.060364,-0.002219,0.1113,0.003037,-0.00114,0.003748,-0.004037,-0.509343,0.11111,0.314045,-261.261939,-0.85349,69.636064
10.2365,-0.060349,-0.002605,0.109511,0.003046,-0.001088,0.003752,-0.003588,-0.509103,0.111455,0.317439,-261.260678,-0.872868,69.637928
10.2572,-0.06071,-0.002251,0.110714,0.003043,-0.001062,0.003757,-0.003993,-0.509291,0.110675,0.317439,-261.260678,-0.872868,69.637928
10.2764,-0.060206,-0.002527,0.111213,0.003041,-0.001042,0.003763,-0.004268,-0.50915,0.110825,0.376225,-261.259463,-0.837337,69.639616
10.2966,-0.060338,-0.00296,0.110467,0.002986,-0.00101,0.00376,-0.003657,-0.509358,0.111185,0.376225,-261.259463,-0.837337,69.639616
10.3168,-0.060263,-0.002746,0.111091,0.002945,-0.000987,0.00376,-0.003657,-0.509358,0.111185,0.376225,-261.259463,-0.837337,69.639616
10.3366,-0.060431,-0.002444,0.110197,0.002913,-0.000971,0.003762,-0.003592,-0.509631,0.111248,0.391869,-261.258155,-0.832246,69.641412
10.3566,-0.060138,-0.002506,0.110868,0.00294,-0.000917,0.003768,-0.003881,-0.509521,0.110841,0.391869,-261.258155,-0.832246,69.641412
10.3766,-0.060177,-0.002199,0.111959,0.002961,-0.000876,0.003774,-0.003618,-0.509395,0.110985,0.427502,-261.256897,-0.842849,69.643133
10.3971,-0.060478,-0.002771,0.110878,0.002814,-0.000971,0.003775,-0.003226,-0.509038,0.111887,0.427502,-261.256897,-0.842849,69.643133
10.4169,-0.060461,-0.002532,0.113348,0.002703,-0.001045,0.003775,-0.003226,-0.509038,0.111887,0.427502,-261.256897,-0.842849,69.643133
10.4369,-0.060184,-0.002498,0.112849,0.00262,-0.001103,0.003774,-0.002653,-0.509282,0.113503,0.449785,-261.255603,-0.821173,69.644843
10.4569,-0.060073,-0.002908,0.111922,0.00245,-0.001081,0.003753,-0.00268,-0.509273,0.113249,0.449785,-261.255603,-0.821173,69.644843
10.4771,-0.060305,-0.002721,0.114117,0.002322,-0.001068,0.003741,-0.003036,-0.509738,0.112024,0.430166,-261.254611,-0.896112,69.646323
10.4969,-0.06018,-0.00268,0.112619,0.00214,-0.001002,0.003719,-0.002304,-0.509437,0.113924,0.430166,-261.254611,-0.896112,69.646323
10.517,-0.060487,-0.002449,0.110922,0.002005,-0.000957,0.003707,-0.002304,-0.509437,0.113924,0.430166,-261.254611,-0.896112,69.646323
10.5366,-0.060248,-0.002678,0.110301,0.001903,-0.000927,0.003703,-0.003943,-0.509344,0.111061,0.482735,-261.253681,-0.965205,69.647769
10.5571,-0.060117,-0.002755,0.111624,0.002164,-0.000917,0.003742,-0.004001,-0.509445,0.110762,0.482735,-261.253681,-0.965205,69.647769
10.5769,-0.060092,-0.002395,0.11171,0.002369,-0.000909,0.003772,-0.004001,-0.509445,0.110762,0.55776,-261.253009,-1.032568,69.648842
10.5966,-0.060343,-0.002785,0.112553,0.002388,-0.000959,0.00378,-0.003238,-0.509236,0.111713,0.55776,-261.253009,-1.032568,69.648842
10.6168,-0.060416,-0.002849,0.111535,0.002404,-0.000997,0.003784,-0.003238,-0.509236,0.111713,0.55776,-261.253009,-1.032568,69.648842
10.6371,-0.060133,-0.002505,0.112293,0.002417,-0.001027,0.003786,-0.003566,-0.509704,0.111668,0.532141,-261.252085,-0.956588,69.650184
10.6569,-0.059958,-0.002847,0.112638,0.002463,-0.000982,0.003783,-0.003316,-0.509537,0.111942,0.532141,-261.252085,-0.956588,69.650184
10.6768,-0.060066,-0.002668,0.112413,0.002499,-0.000948,0.003782,-0.002556,-0.509638,0.112754,0.488992,-261.251027,-0.944296,69.651776
10.6968,-0.059943,-0.003054,0.112442,0.002417,-0.000937,0.00377,-0.002826,-0.509467,0.112449,0.488992,-261.251027,-0.944296,69.651776
10.7169,-0.059967,-0.002627,0.113557,0.002355,-0.00093,0.003762,-0.002826,-0.509467,0.112449,0.488992,-261.251027,-0.944296,69.651776
10.7369,-0.059831,-0.002588,0.111593,0.002309,-0.000925,0.003757,-0.002071,-0.50937,0.113713,0.498857,-261.249906,-0.916357,69.653394
10.757,-0.059999,-0.002735,0.112449,0.002175,-0.000938,0.003746,-0.002449,-0.509391,0.112873,0.498857,-261.249906,-0.916357,69.653394
10.7767,-0.059851,-0.002691,0.113157,0.002075,-0.00095,0.003739,-0.002697,-0.509535,0.112564,0.535471,-261.248873,-0.948684,69.654919
10.7969,-0.059594,-0.002997,0.11204,0.001964,-0.000943,0.00373,-0.002299,-0.50944,0.11311,0.535471,-261.248873,-0.948684,69.654919
10.8169,-0.059959,-0.002736,0.112504,0.001881,-0.00094,0.003725,-0.002299,-0.50944,0.11311,0.535471,-261.248873,-0.948684,69.654919
10.8365,-0.060006,-0.003015,0.112574,0.001818,-0.00094,0.003722,-0.002617,-0.50954,0.112651,0.571221,-261.247945,-1.000403,69.656364
10.8566,-0.060003,-0.002568,0.112106,0.001875,-0.000885,0.003727,-0.002647,-0.509644,0.112637,0.571221,-261.247945,-1.000403,69.656364
10.8773,-0.060135,-0.00301,0.112444,0.001918,-0.000845,0.003732,-0.002894,-0.509387,0.112212,0.632911,-261.247133,-1.055782,69.657694
10.8973,-0.060131,-0.002486,0.112088,0.002017,-0.000785,0.003742,-0.002906,-0.509759,0.112431,0.632911,-261.247133,-1.055782,69.657694
10.917,-0.059675,-0.002867,0.112112,0.002093,-0.000739,0.00375,-0.002906,-0.509759,0.112431,0.632911,-261.247133,-1.055782,69.657694
10.9373,-0.059836,-0.002833,0.113132,0.002151,-0.000703,0.003758,-0.002536,-0.509691,0.112264,0.642204,-261.246202,-1.020251,69.659119
10.957,-0.060201,-0.002881,0.114368,0.002072,-0.000699,0.003752,-0.002415,-0.509646,0.112635,0.642204,-261.246202,-1.020251,69.659119
10.9773,-0.060027,-0.002815,0.112593,0.002013,-0.000696,0.003749,-0.001935,-0.509563,0.114478,0.637069,-261.245217,-0.948536,69.660478
10.9967,-0.060222,-0.002847,0.113851,0.002022,-0.000719,0.003756,-0.002651,-0.509585,0.112768,0.637069,-261.245217,-0.948536,69.660478
11.017,-0.059825,-0.002977,0.113786,0.00203,-0.000736,0.003761,-0.002651,-0.509585,0.112768,0.637069,-261.245217,-0.948536,69.660478
11.0371,-0.059928,-0.002816,0.114739,0.002036,-0.000749,0.003764,-0.001835,-0.509698,0.113938,0.669562,-261.24422,-0.977638,69.661875
11.0575,-0.060182,-0.002803,0.113988,0.001778,-0.00072,0.00374,-0.001706,-0.509605,0.11428,0.669562,-261.24422,-0.977638,69.661875
11.0767,-0.060365,-0.003438,0.113359,0.001586,-0.000702,0.003726,-0.002107,-0.50951,0.114108,0.650557,-261.243203,-0.981866,69.663332
11.097,-0.060284,-0.003028,0.114313,0.001718,-0.000565,0.003737,-0.00262,-0.510105,0.113433,0.650557,-261.243203,-0.981866,69.663332
11.117,-0.059741,-0.002977,0.113736,0.001818,-0.000461,0.003748,-0.00262,-0.510105,0.113433,0.650557,-261.243203,-0.981866,69.663332
11.1368,-0.05999,-0.003259,0.113848,0.001895,-0.000382,0.003759,-0.001814,-0.509697,0.113834,0.725556,-261.242623,-1.056865,69.664208
11.157,-0.059735,-0.002888,0.11212,0.001748,-0.000389,0.003752,-0.001907,-0.509805,0.113851,0.725556,-261.242623,-1.056865,69.664208
11.1766,-0.05968,-0.002889,0.114692,0.001638,-0.000396,0.003749,-0.002625,-0.509691,0.112216,0.790407,-261.241773,-0.981738,69.665244
11.1966,-0.059616,-0.002888,0.114124,0.001388,-0.000467,0.003744,-0.001433,-0.509552,0.114471,0.790407,-261.241773,-0.981738,69.665244
11.2168,-0.059841,-0.00306,0.114131,0.001202,-0.000524,0.003741,-0.001433,-0.509552,0.114471,0.790407,-261.241773,-0.981738,69.665244
11.2368,-0.060078,-0.002896,0.114415,0.001063,-0.000572,0.003738,-0.001697,-0.50975,0.114273,0.857681,-261.240866,-1.023178,69.666383
11.2572,-0.06002,-0.003114,0.114066,0.001071,-0.000583,0.003741,-0.001753,-0.509675,0.114347,0.857681,-261.240866,-1.023178,69.666383
11.277,-0.060123,-0.003044,0.113991,0.001078,-0.000593,0.003742,-0.001956,-0.509804,0.114108,0.932678,-261.240566,-1.098175,69.666836
11.297,-0.060104,-0.002955,0.113326,0.001189,-0.000593,0.003748,-0.002098,-0.509741,0.114004,0.932678,-261.240566,-1.098175,69.666836
11.317,-0.060265,-0.002873,0.113651,0.001272,-0.000592,0.003752,-0.002098,-0.509741,0.114004,0.932678,-261.240566,-1.098175,69.666836
11.337,-0.06016,-0.003109,0.113774,0.001336,-0.000592,0.003754,-0.00239,-0.509597,0.113767,1.003454,-261.239965,-1.173172,69.667757
11.3572,-0.059895,-0.002943,0.114874,0.001442,-0.000615,0.003761,-0.002333,-0.509686,0.113783,1.003454,-261.239965,-1.173172,69.667757
11.3769,-0.060272,-0.003188,0.113948,0.001523,-0.000632,0.003765,-0.001401,-0.509593,0.114976,0.928399,-261.23924,-1.137126,69.668823
11.3968,-0.060179,-0.002978,0.115902,0.001563,-0.000586,0.003758,-0.002201,-0.509855,0.114048,0.928399,-261.23924,-1.137126,69.668823
11.4173,-0.060212,-0.003044,0.113924,0.001593,-0.00055,0.003753,-0.002201,-0.509855,0.114048,0.928399,-261.23924,-1.137126,69.668823
11.4371,-0.060247,-0.003013,0.114392,0.001616,-0.000523,0.003749,-0.002182,-0.509753,0.114056,0.85342,-261.238491,-1.091652,69.66992
11.4566,-0.060398,-0.003082,0.115319,0.001603,-0.000542,0.003747,-0.002116,-0.509725,0.114207,0.85342,-261.238491,-1.091652,69.66992
11.4775,-0.060261,-0.00315,0.115728,0.001593,-0.000556,0.003744,-0.001665,-0.509705,0.115435,0.829968,-261.237568,-1.049461,69.67117
11.4967,-0.06008,-0.003418,0.114774,0.001367,-0.000528,0.003722,-0.001398,-0.509736,0.115705,0.829968,-261.237568,-1.049461,69.67117
11.517,-0.060208,-0.002646,0.114386,0.001198,-0.000511,0.003709,-0.001398,-0.509736,0.115705,0.829968,-261.237568,-1.049461,69.67117
11.5369,-0.060315,-0.002861,0.114221,0.001072,-0.000501,0.003701,-0.00193,-0.509329,0.114542,0.826756,-261.236629,-1.060002,69.672471
11.5568,-0.060151,-0.003191,0.114764,0.001144,-0.000625,0.003722,-0.002027,-0.509416,0.11443,0.826756,-261.236629,-1.060002,69.672471
11.5766,-0.060324,-0.003344,0.115312,0.001199,-0.00072,0.003735,-0.001733,-0.509841,0.114808,0.901747,-261.236307,-1.134993,69.672934
11.5973,-0.060249,-0.003116,0.115776,0.001171,-0.000597,0.003711,-0.001653,-0.509946,0.115268,0.901747,-261.236307,-1.134993,69.672934
11.6175,-0.060233,-0.003125,0.115673,0.00115,-0.000506,0.003697,-0.001653,-0.509946,0.115268,0.901747,-261.236307,-1.134993,69.672934
11.6365,-0.060197,-0.003396,0.115411,0.001135,-0.000439,0.00369,-0.00132,-0.50974,0.115822,0.915879,-261.235557,-1.190708,69.674165
11.657,-0.060171,-0.00318,0.113488,0.001028,-0.000407,0.003684,-0.001376,-0.509852,0.115669,0.915879,-261.235557,-1.190708,69.674165
11.677,-0.059912,-0.003179,0.114783,0.000948,-0.000384,0.003682,-0.002384,-0.509908,0.113588,0.991232,-261.234826,-1.171963,69.675163
11.6966,-0.060144,-0.003435,0.114739,0.000954,-0.000388,0.003689,-0.00158,-0.509831,0.114679,0.991232,-261.234826,-1.171963,69.675163
11.7167,-0.06006,-0.00322,0.117434,0.000959,-0.000391,0.003695,-0.00158,-0.509831,0.114679,0.991232,-261.234826,-1.171963,69.675163
11.7364,-0.060674,-0.003356,0.116276,0.000962,-0.000393,0.0037,-0.000273,-0.509717,0.117555,1.065875,-261.234166,-1.225166,69.676047
11.7565,-0.06001,-0.003182,0.115875,0.000675,-0.000354,0.003679,-0.00077,-0.509797,0.117049,1.065875,-261.234166,-1.225166,69.676047
11.7767,-0.060375,-0.003473,0.11548,0.000461,-0.000331,0.003669,-0.001014,-0.50977,0.115991,1.094679,-261.233337,-1.222745,69.677161
11.7966,-0.060706,-0.003541,0.116733,0.000589,-0.000275,0.003686,-0.001554,-0.510049,0.115534,1.094679,-261.233337,-1.222745,69.677161
11.8167,-0.060443,-0.002892,0.114794,0.000686,-0.000231,0.003699,-0.001554,-0.510049,0.115534,1.094679,-261.233337,-1.222745,69.677161
11.8368,-0.060403,-0.003519,0.117231,0.000759,-0.000198,0.003711,-0.002019,-0.509538,0.114831,1.169714,-261.233142,-1.29778,69.67742
11.8569,-0.059985,-0.003445,0.117081,0.000781,-0.000284,0.003725,-0.001507,-0.509732,0.115803,1.169714,-261.233142,-1.29778,69.67742
11.8764,-0.060038,-0.003415,0.116387,0.000798,-0.000348,0.003732,-0.000386,-0.509956,0.117194,1.219268,-261.232303,-1.272217,69.678401
11.8969,-0.060308,-0.003122,0.116434,0.000584,-0.00026,0.003707,-0.000774,-0.509964,0.116466,1.219268,-261.232303,-1.272217,69.678401
11.9167,-0.060225,-0.003188,0.116198,0.000424,-0.000198,0.003694,-0.000774,-0.509964,0.116466,1.219268,-261.232303,-1.272217,69.678401
11.9366,-0.060335,-0.003461,0.114509,0.000305,-0.000154,0.003689,-0.001064,-0.509759,0.11635,1.179143,-261.231488,-1.275997,69.679473
11.9565,-0.060384,-0.003484,0.115652,0.000453,-0.000191,0.003713,-0.001469,-0.509909,0.115614,1.179143,-261.231488,-1.275997,69.679473
11.9765,-0.060724,-0.003589,0.116415,0.000565,-0.000217,0.003728,-0.001528,-0.510078,0.115679,1.254235,-261.231289,-1.351089,69.6797
11.9966,-0.0605,-0.003177,0.117147,0.000667,-0.000157,0.003727,-0.00149,-0.510131,0.11635,1.254235,-261.231289,-1.351089,69.6797
12.0166,-0.060298,-0.003161,0.116036,0.000745,-0.00011,0.003727,-0.00149,-0.510131,0.11635,1.254235,-261.231289,-1.351089,69.6797
12.0369,-0.06049,-0.003549,0.1163,0.000804,-7.4e-05,0.003727,-0.001229,-0.509737,0.116186,1.303204,-261.230467,-1.34816,69.680684
12.0572,-0.060401,-0.003448,0.115337,0.00076,-0.000121,0.003728,-0.001259,-0.509888,0.11625,1.303204,-261.230467,-1.34816,69.680684
12.0767,-0.060484,-0.00335,0.115139,0.000728,-0.000156,0.003728,-0.001691,-0.51006,0.115426,1.228198,-261.229764,-1.273154,69.681429
12.0969,-0.060577,-0.003075,0.116741,0.000896,-0.000183,0.003744,-0.001876,-0.50998,0.115166,1.228198,-261.229764,-1.273154,69.681429
12.117,-0.060516,-0.003623,0.117793,0.001024,-0.000201,0.003753,-0.001876,-0.50998,0.115166,1.228198,-261.229764,-1.273154,69.681429
12.1371,-0.060104,-0.003769,0.116266,0.001121,-0.000213,0.003758,-0.000549,-0.510092,0.117948,1.23996,-261.228873,-1.279861,69.682438
12.1565,-0.060591,-0.003512,0.115955,0.000807,-5.4e-05,0.003711,-0.000706,-0.510188,0.117279,1.23996,-261.228873,-1.279861,69.682438
12.1767,-0.060836,-0.003402,0.11697,0.000574,6e-05,0.003686,-0.001571,-0.510088,0.116017,1.165267,-261.228401,-1.205168,69.682986
12.1969,-0.060337,-0.003654,0.116197,0.000615,-8e-06,0.003702,-0.001339,-0.509932,0.11689,1.165267,-261.228401,-1.205168,69.682986
12.2173,-0.06061,-0.003386,0.116783,0.000646,-5.8e-05,0.003713,-0.001339,-0.509932,0.11689,1.165267,-261.228401,-1.205168,69.682986
12.2368,-0.060459,-0.003165,0.11735,0.00067,-9.6e-05,0.003719,-0.001171,-0.50991,0.116864,1.240349,-261.227884,-1.280249,69.683478
12.2572,-0.060598,-0.00363,0.117034,0.00056,-0.00015,0.003716,-0.000989,-0.509802,0.11708,1.240349,-261.227884,-1.280249,69.683478
12.2767,-0.060442,-0.003553,0.116711,0.000478,-0.000193,0.003713,-0.001026,-0.510142,0.117149,1.271805,-261.226993,-1.29485,69.684442
12.2969,-0.0606,-0.003415,0.117553,0.000456,-0.000121,0.003702,-0.001052,-0.510088,0.11675,1.271805,-261.226993,-1.29485,69.684442
12.317,-0.060773,-0.003484,0.116421,0.000439,-6.7e-05,0.003696,-0.001052,-0.510088,0.11675,1.271805,-261.226993,-1.29485,69.684442
12.337,-0.060879,-0.003618,0.119244,0.000427,-2.8e-05,0.003694,-0.001515,-0.510036,0.116547,1.344432,-261.226298,-1.369683,69.685261
12.3567,-0.060865,-0.00339,0.117636,0.000388,-2e-05,0.003698,-0.000981,-0.510021,0.117661,1.344432,-261.226298,-1.369683,69.685261
12.3769,-0.060616,-0.003757,0.118277,0.00036,-1.4e-05,0.003703,-0.000996,-0.509865,0.11775,1.381486,-261.225414,-1.386021,69.686166
12.3969,-0.060681,-0.003351,0.118258,0.000151,9e-05,0.003681,-0.000487,-0.510163,0.118235,1.381486,-261.225414,-1.386021,69.686166
12.4169,-0.060728,-0.003378,0.118469,-7e-06,0.000166,0.003671,-0.000487,-0.510163,0.118235,1.381486,-261.225414,-1.386021,69.686166
12.4365,-0.060999,-0.003721,0.116047,-0.000125,0.00022,0.00367,-0.000435,-0.509802,0.11862,1.412074,-261.224527,-1.414046,69.687064
12.4569,-0.060497,-0.003201,0.117075,-7e-06,0.000148,0.0037,-0.001049,-0.51,0.117591,1.412074,-261.224527,-1.414046,69.687064
12.4765,-0.060871,-0.003498,0.116827,8.2e-05,9.5e-05,0.00372,-0.000924,-0.509708,0.117101,1.487163,-261.2243,-1.489135,69.68725
12.4967,-0.061357,-0.003307,0.11756,0.000262,3.4e-05,0.003742,-0.001391,-0.51,0.116847,1.487163,-261.2243,-1.489135,69.68725
12.5167,-0.060622,-0.003354,0.119603,0.000398,-1.1e-05,0.003755,-0.001391,-0.51,0.116847,1.487163,-261.2243,-1.489135,69.68725
12.5366,-0.0607,-0.003429,0.116897,0.000502,-4.4e-05,0.003762,0.000233,-0.509707,0.119747,1.536175,-261.223423,-1.533153,69.688057
12.5565,-0.060985,-0.003321,0.116485,0.000183,-6.5e-05,0.003737,-0.000365,-0.509806,0.118589,1.536175,-261.223423,-1.533153,69.688057
12.5765,-0.060914,-0.003236,0.116512,-5.7e-05,-8.7e-05,0.003722,-0.001709,-0.509865,0.116528,1.461747,-261.223093,-1.458725,69.688399
12.5966,-0.061129,-0.003126,0.11747,0.000213,-0.000193,0.003749,-0.001634,-0.509786,0.116515,1.461747,-261.223093,-1.458725,69.688399
12.6165,-0.060718,-0.003676,0.117265,0.000419,-0.000272,0.003763,-0.001634,-0.509786,0.116515,1.461747,-261.223093,-1.458725,69.688399
12.6367,-0.060925,-0.003938,0.11757,0.000576,-0.00033,0.003769,-0.001048,-0.510175,0.11735,1.537076,-261.222609,-1.534054,69.688922
12.6569,-0.060976,-0.003408,0.114999,0.000539,-0.000153,0.003733,-0.00107,-0.510276,0.117452,1.537076,-261.222609,-1.534054,69.688922
12.6768,-0.060948,-0.003672,0.1168,0.000512,-2.1e-05,0.003712,-0.002454,-0.510042,0.115026,1.462154,-261.222431,-1.459132,69.689155
12.697,-0.060752,-0.003556,0.117248,0.000661,2e-06,0.003719,-0.001604,-0.510183,0.116634,1.462154,-261.222431,-1.459132,69.689155
12.7166,-0.060901,-0.003654,0.118121,0.000774,2e-05,0.003722,-0.001604,-0.510183,0.116634,1.462154,-261.222431,-1.459132,69.689155
12.7369,-0.061275,-0.00362,0.118717,0.00086,3.6e-05,0.003724,-0.000787,-0.5101,0.118226,1.387465,-261.221815,-1.384442,69.689781
12.7569,-0.06131,-0.003853,0.118103,0.000651,6.8e-05,0.003703,-0.000821,-0.510071,0.118438,1.387465,-261.221815,-1.384442,69.689781
12.7767,-0.060915,-0.003533,0.118351,0.000495,8.9e-05,0.003691,-0.00121,-0.510299,0.118148,1.312495,-261.221453,-1.309472,69.690133
12.7968,-0.06114,-0.003839,0.119226,0.000344,7.9e-05,0.00368,-0.00074,-0.509994,0.118336,1.312495,-261.221453,-1.309472,69.690133
12.8169,-0.061209,-0.003228,0.117952,0.000231,6.9e-05,0.003673,-0.00074,-0.509994,0.118336,1.312495,-261.221453,-1.309472,69.690133
12.8366,-0.060895,-0.00329,0.117082,0.000146,6e-05,0.003669,-0.001174,-0.509678,0.118097,1.362492,-261.22055,-1.345874,69.690971
12.8572,-0.061035,-0.003358,0.117564,0.000243,-8.2e-05,0.003691,-0.001233,-0.509728,0.117687,1.362492,-261.22055,-1.345874,69.690971
12.8767,-0.061217,-0.00351,0.119057,0.000316,-0.000189,0.003702,-0.00121,-0.509836,0.11762,1.437704,-261.220109,-1.421085,69.691389
12.8966,-0.061269,-0.003475,0.119358,0.000184,-0.000169,0.00368,-0.000686,-0.509895,0.118945,1.437704,-261.220109,-1.421085,69.691389
12.9167,-0.06137,-0.003614,0.118933,8.4e-05,-0.000157,0.003667,-0.000686,-0.509895,0.118945,1.437704,-261.220109,-1.421085,69.691389
12.937,-0.061289,-0.003509,0.119278,1e-05,-0.00015,0.003658,-0.000843,-0.510017,0.119085,1.419282,-261.219285,-1.442337,69.69236
12.9573,-0.061105,-0.003485,0.118187,-1.9e-05,-0.000123,0.003652,-0.000743,-0.509965,0.119181,1.419282,-261.219285,-1.442337,69.69236
12.9768,-0.06121,-0.003974,0.119252,-4.1e-05,-0.000104,0.003649,-0.000968,-0.50993,0.118251,1.493885,-261.218825,-1.516939,69.692886
12.9967,-0.061157,-0.003122,0.117974,-0.000108,6.7e-05,0.003628,-0.000575,-0.510314,0.119164,1.493885,-261.218825,-1.516939,69.692886
13.0168,-0.06149,-0.003513,0.118702,-0.000159,0.000195,0.003619,-0.000575,-0.510314,0.119164,1.493885,-261.218825,-1.516939,69.692886
13.0367,-0.061207,-0.003465,0.119832,-0.000197,0.00029,0.003618,-0.001095,-0.509927,0.118823,1.568894,-261.21815,-1.588503,69.693627
13.0571,-0.061106,-0.003222,0.117493,-0.000182,0.000171,0.003645,-0.000746,-0.509879,0.119248,1.568894,-261.21815,-1.588503,69.693627
13.0765,-0.061412,-0.003527,0.118906,-0.00017,8.2e-05,0.003661,-0.001328,-0.509699,0.117586,1.643934,-261.217344,-1.663542,69.694247
13.0972,-0.06145,-0.003393,0.118294,-8.3e-05,1e-05,0.003679,-0.000951,-0.509905,0.118792,1.643934,-261.217344,-1.663542,69.694247
13.1174,-0.061429,-0.003284,0.120042,-1.7e-05,-4.3e-05,0.00369,-0.000951,-0.509905,0.118792,1.643934,-261.217344,-1.663542,69.694247
13.1369,-0.061332,-0.003403,0.11818,3.3e-05,-8.3e-05,0.003696,-0.000362,-0.509612,0.120196,1.643927,-261.216411,-1.649474,69.695115
13.1572,-0.061983,-0.003341,0.119343,-3.4e-05,-0.000172,0.003702,-0.000707,-0.509708,0.119385,1.643927,-261.216411,-1.649474,69.695115
13.1768,-0.061731,-0.00356,0.119066,-8.4e-05,-0.00024,0.003705,-0.001262,-0.509715,0.119433,1.568403,-261.215748,-1.573949,69.695829
13.1968,-0.061524,-0.003663,0.118709,5.8e-05,-0.000239,0.003714,-0.001161,-0.509928,0.119104,1.568403,-261.215748,-1.573949,69.695829
13.2166,-0.061501,-0.003229,0.119036,0.000165,-0.000238,0.00372,-0.001161,-0.509928,0.119104,1.568403,-261.215748,-1.573949,69.695829
13.2367,-0.061753,-0.003503,0.118851,0.000246,-0.000236,0.003723,-0.000938,-0.50963,0.119184,1.612393,-261.21497,-1.604419,69.696791
13.2569,-0.061582,-0.003323,0.119096,0.000268,-0.000296,0.003731,-0.001082,-0.509747,0.119062,1.612393,-261.21497,-1.604419,69.696791
13.2767,-0.061692,-0.003831,0.12075,0.000286,-0.000342,0.003734,-0.000985,-0.509714,0.119155,1.536985,-261.214563,-1.529011,69.69729
13.297,-0.061729,-0.003244,0.120366,1.9e-05,-0.000181,0.00369,-0.000325,-0.510081,0.120608,1.536985,-261.214563,-1.529011,69.69729
13.317,-0.061879,-0.003518,0.121434,-0.000181,-6.5e-05,0.003667,-0.000325,-0.510081,0.120608,1.536985,-261.214563,-1.529011,69.69729
13.3374,-0.061783,-0.00346,0.118402,-0.000331,2e-05,0.003658,-9.1e-05,-0.509772,0.121553,1.462394,-261.213968,-1.462211,69.698092
13.3572,-0.062033,-0.00369,0.119925,-0.000319,-5.5e-05,0.003681,-0.000666,-0.509819,0.120314,1.462394,-261.213968,-1.462211,69.698092
13.3768,-0.061793,-0.003571,0.119281,-0.00031,-0.000111,0.003698,-0.001018,-0.510027,0.119939,1.537409,-261.213858,-1.537226,69.6982
13.397,-0.061826,-0.003545,0.119862,-0.000136,-0.000132,0.003715,-0.001097,-0.509954,0.119337,1.537409,-261.213858,-1.537226,69.6982
13.4169,-0.062031,-0.003544,0.121294,-4e-06,-0.000146,0.003725,-0.001097,-0.509954,0.119337,1.537409,-261.213858,-1.537226,69.6982
13.437,-0.062084,-0.003431,0.119792,9.6e-05,-0.000155,0.003731,-0.000324,-0.509799,0.121355,1.612649,-261.213517,-1.612466,69.698575
13.4568,-0.062228,-0.003603,0.119425,-3e-06,-0.000193,0.003723,-0.000655,-0.50979,0.120725,1.612649,-261.213517,-1.612466,69.698575
13.4768,-0.062106,-0.003752,0.121267,-7.7e-05,-0.000223,0.003716,-0.001463,-0.509974,0.11952,1.53789,-261.212837,-1.537706,69.699355
13.497,-0.062254,-0.003925,0.118406,-0.000186,-0.000147,0.003696,-0.000492,-0.510004,0.121136,1.53789,-261.212837,-1.537706,69.699355
13.5171,-0.061827,-0.00365,0.121554,-0.000268,-9.1e-05,0.003685,-0.000492,-0.510004,0.121136,1.53789,-261.212837,-1.537706,69.699355
13.5369,-0.0621,-0.003637,0.119774,-0.00033,-5e-05,0.00368,1.1e-05,-0.509896,0.121687,1.608646,-261.212133,-1.601875,69.700212
13.5569,-0.062223,-0.003638,0.120354,-0.000393,-4.8e-05,0.003682,-0.000463,-0.509932,0.120928,1.608646,-261.212133,-1.601875,69.700212
13.5767,-0.062037,-0.003426,0.120242,-0.00044,-4.7e-05,0.003684,-0.000995,-0.509951,0.120435,1.68327,-261.211535,-1.6765,69.700836
13.5969,-0.062157,-0.003783,0.119183,-0.000326,-0.000145,0.003706,-0.000874,-0.509762,0.120264,1.68327,-261.211535,-1.6765,69.700836
13.6171,-0.062285,-0.003604,0.120362,-0.00024,-0.000217,0.003719,-0.000874,-0.509762,0.120264,1.68327,-261.211535,-1.6765,69.700836
13.6366,-0.062179,-0.003931,0.120184,-0.000174,-0.000272,0.003725,-0.001048,-0.509914,0.120362,1.608265,-261.211535,-1.601494,69.700836
13.6566,-0.06238,-0.003716,0.121329,-4.6e-05,-0.000213,0.003716,-0.001042,-0.51005,0.12029,1.608265,-261.211535,-1.601494,69.700836
13.6766,-0.06214,-0.003747,0.120838,5.1e-05,-0.000168,0.003708,-0.000658,-0.509975,0.121441,1.657549,-261.210779,-1.639106,69.701797
13.6972,-0.062301,-0.003612,0.120767,-2e-05,-0.000112,0.003691,-0.000663,-0.510023,0.120899,1.657549,-261.210779,-1.639106,69.701797
13.7172,-0.062233,-0.003762,0.12036,-7.2e-05,-7.1e-05,0.003681,-0.000663,-0.510023,0.120899,1.657549,-261.210779,-1.639106,69.701797
13.7369,-0.06244,-0.003744,0.120272,-0.000112,-4.1e-05,0.003674,-0.000997,-0.510078,0.120472,1.58254,-261.210173,-1.564098,69.7025
13.7569,-0.062504,-0.003406,0.119971,2.3e-05,-3.4e-05,0.003682,-0.001099,-0.510071,0.120404,1.58254,-261.210173,-1.564098,69.7025
13.7768,-0.062141,-0.003682,0.122354,0.000124,-2.8e-05,0.003686,-0.001469,-0.509742,0.12008,1.621447,-261.209353,-1.619634,69.70335
13.7968,-0.062405,-0.004026,0.121498,-0.000239,-1.4e-05,0.003654,-3.9e-05,-0.509858,0.122153,1.621447,-261.209353,-1.619634,69.70335
13.8171,-0.06241,-0.003657,0.119775,-0.000513,-9e-06,0.003635,-3.9e-05,-0.509858,0.122153,1.621447,-261.209353,-1.619634,69.70335
13.837,-0.062542,-0.003826,0.1215,-0.000721,-1e-05,0.003626,-0.001469,-0.510004,0.119884,1.546454,-261.208723,-1.544642,69.703995
13.8573,-0.062558,-0.00358,0.121338,-0.000429,-3.5e-05,0.003658,-0.001156,-0.51003,0.120581,1.546454,-261.208723,-1.544642,69.703995
13.8768,-0.062826,-0.003842,0.123001,-0.000207,-5.1e-05,0.003678,-0.000827,-0.50983,0.121338,1.470941,-261.208723,-1.469128,69.703995
13.8967,-0.062567,-0.003656,0.120612,-0.00037,-1.4e-05,0.00366,-0.000304,-0.509975,0.122853,1.470941,-261.208723,-1.469128,69.703995
13.9168,-0.062268,-0.003571,0.121244,-0.000493,1.1e-05,0.00365,-0.000304,-0.509975,0.122853,1.470941,-261.208723,-1.469128,69.703995
13.9369,-0.062196,-0.004094,0.121142,-0.000585,2.9e-05,0.003645,-0.000584,-0.509828,0.121291,1.545467,-261.208456,-1.543654,69.704275
13.9569,-0.062497,-0.003849,0.120629,-0.000536,4.4e-05,0.003653,-0.000576,-0.51004,0.121236,1.545467,-261.208456,-1.543654,69.704275
13.9767,-0.062401,-0.003652,0.119934,-0.000499,5.5e-05,0.003659,-0.001125,-0.510143,0.120629,1.470512,-261.208456,-1.468699,69.704275
13.9969,-0.062222,-0.003791,0.120124,-0.000198,-7e-06,0.003683,-0.001358,-0.510002,0.119996,1.470512,-261.208456,-1.468699,69.704275
14.017,-0.062115,-0.003663,0.121266,3.2e-05,-5.1e-05,0.003695,-0.001358,-0.510002,0.119996,1.470512,-261.208456,-1.468699,69.704275
14.037,-0.062515,-0.003834,0.120893,0.000208,-8.3e-05,0.0037,-0.000421,-0.509918,0.121266,1.395462,-261.208456,-1.39365,69.704275
14.0568,-0.062386,-0.003703,0.12019,9.6e-05,-5.4e-05,0.003672,-0.000671,-0.51,0.121108,1.395462,-261.208456,-1.39365,69.704275
14.0768,-0.062489,-0.003718,0.121489,1.4e-05,-3.3e-05,0.003652,-0.001231,-0.510025,0.120283,1.470975,-261.207765,-1.469163,69.705018
14.0973,-0.062005,-0.004061,0.120666,-2.5e-05,-3.8e-05,0.003643,-0.000734,-0.509965,0.121378,1.470975,-261.207765,-1.469163,69.705018
14.1171,-0.062177,-0.003868,0.121911,-5.3e-05,-4.3e-05,0.003636,-0.000734,-0.509965,0.121378,1.470975,-261.207765,-1.469163,69.705018
14.1369,-0.062154,-0.003756,0.121353,-7.3e-05,-4.6e-05,0.00363,-0.000154,-0.510084,0.122026,1.545464,-261.207106,-1.543652,69.705697
14.1568,-0.062779,-0.0039,0.121693,-0.000281,2.9e-05,0.003604,-0.00026,-0.510052,0.121766,1.545464,-261.207106,-1.543652,69.705697
14.1769,-0.062629,-0.003473,0.121466,-0.000438,8.3e-05,0.00359,-0.000871,-0.51013,0.121798,1.604583,-261.20633,-1.603204,69.706506
14.1971,-0.062918,-0.003805,0.121449,-0.00034,-4.5e-05,0.003619,-0.000837,-0.509753,0.121502,1.604583,-261.20633,-1.603204,69.706506
14.2169,-0.06246,-0.003589,0.121162,-0.000266,-0.000142,0.003636,-0.000837,-0.509753,0.121502,1.604583,-261.20633,-1.603204,69.706506
14.2377,-0.062942,-0.003954,0.121408,-0.00021,-0.000214,0.003645,-0.000818,-0.50985,0.121162,1.529617,-261.20633,-1.528238,69.706506
14.2568,-0.062351,-0.00421,0.121543,-0.000103,-0.000184,0.00364,-0.000966,-0.509994,0.121263,1.529617,-261.20633,-1.528238,69.706506
14.277,-0.062574,-0.004018,0.120926,-2.3e-05,-0.000161,0.003636,-0.000517,-0.510451,0.121606,1.604898,-261.205888,-1.603518,69.707041
14.2969,-0.063152,-0.003672,0.120156,6.6e-05,-2.3e-05,0.003619,-0.001003,-0.510309,0.120992,1.604898,-261.205888,-1.603518,69.707041
14.3168,-0.062793,-0.003687,0.122615,0.000133,8.2e-05,0.003609,-0.001003,-0.510309,0.120992,1.604898,-261.205888,-1.603518,69.707041
14.337,-0.063125,-0.003967,0.121239,0.000184,0.000162,0.003603,-0.000416,-0.509865,0.122765,1.581963,-261.205076,-1.58045,69.70798
14.3571,-0.063019,-0.003669,0.123641,0.000148,0.000121,0.003608,-0.000839,-0.510013,0.122154,1.581963,-261.205076,-1.58045,69.70798
14.3767,-0.063109,-0.003661,0.121616,0.000122,9e-05,0.00361,-0.000119,-0.509772,0.123727,1.50678,-261.204365,-1.505267,69.708594
14.3966,-0.063101,-0.004007,0.122169,0.0002,-4e-06,0.003628,-0.001134,-0.509882,0.121815,1.50678,-261.204365,-1.505267,69.708594
14.4166,-0.062899,-0.004101,0.122041,0.00026,-7.4e-05,0.003639,-0.001134,-0.509882,0.121815,1.50678,-261.204365,-1.505267,69.708594
14.4366,-0.06302,-0.003517,0.121192,0.000305,-0.000127,0.003643,-0.000808,-0.510303,0.122192,1.517603,-261.203449,-1.51308,69.709439
14.4571,-0.063104,-0.003743,0.123252,0.000317,-7.8e-05,0.003639,-0.001032,-0.510089,0.121804,1.517603,-261.203449,-1.51308,69.709439
14.4769,-0.062982,-0.003853,0.121513,0.000326,-4.1e-05,0.003638,-0.000396,-0.509877,0.123347,1.442615,-261.202761,-1.441627,69.710207
14.4966,-0.063203,-0.003748,0.120208,0.000357,-2.4e-05,0.003646,-0.001101,-0.510076,0.121663,1.442615,-261.202761,-1.441627,69.710207
14.517,-0.062926,-0.003958,0.120308,0.00038,-1.1e-05,0.003653,-0.001101,-0.510076,0.121663,1.442615,-261.202761,-1.441627,69.710207
14.5369,-0.063154,-0.004135,0.123963,0.000398,-0.0,0.003658,-0.001703,-0.510272,0.120458,1.422403,-261.201892,-1.427765,69.711109
14.5572,-0.063254,-0.003625,0.119869,0.000402,8.1e-05,0.003662,-0.00105,-0.510251,0.121895,1.422403,-261.201892,-1.427765,69.711109
14.577,-0.063195,-0.003812,0.120637,0.000405,0.000142,0.003668,-0.002255,-0.509964,0.119983,1.394632,-261.201008,-1.394709,69.711994
14.5969,-0.062983,-0.003666,0.121168,0.000646,7.7e-05,0.003705,-0.001853,-0.510094,0.12059,1.394632,-261.201008,-1.394709,69.711994
14.6167,-0.063527,-0.004041,0.123383,0.00083,2.9e-05,0.00373,-0.001853,-0.510094,0.12059,1.394632,-261.201008,-1.394709,69.711994
14.6367,-0.063249,-0.00366,0.122895,0.00097,-4e-06,0.003745,-0.000746,-0.510156,0.123535,1.402565,-261.20005,-1.380291,69.712841
14.6567,-0.063356,-0.003766,0.123075,0.000698,2.4e-05,0.003723,-0.000738,-0.510015,0.123291,1.402565,-261.20005,-1.380291,69.712841
14.6765,-0.062997,-0.003747,0.123282,0.000495,4.1e-05,0.00371,-0.000742,-0.509908,0.123101,1.327911,-261.199848,-1.305637,69.713043
14.6965,-0.063427,-0.003821,0.122641,0.000163,3.3e-05,0.003686,-0.000321,-0.509879,0.123268,1.327911,-261.199848,-1.305637,69.713043
14.7165,-0.063599,-0.003787,0.122075,-8.7e-05,2.2e-05,0.003673,-0.000321,-0.509879,0.123268,1.327911,-261.199848,-1.305637,69.713043
14.7367,-0.06361,-0.00406,0.123684,-0.000275,9e-06,0.003667,-0.001476,-0.509987,0.122222,1.359365,-261.198944,-1.351815,69.713916
14.7568,-0.063343,-0.003767,0.121296,-9e-05,3e-06,0.003694,-0.001137,-0.510063,0.122867,1.359365,-261.198944,-1.351815,69.713916
14.7767,-0.063622,-0.003714,0.122137,5e-05,0.0,0.003714,-0.001634,-0.51002,0.121298,1.434855,-261.198922,-1.427305,69.713938
14.7965,-0.063412,-0.003239,0.12302,0.000263,-7.5e-05,0.003738,-0.0015,-0.509924,0.122063,1.434855,-261.198922,-1.427305,69.713938
14.8166,-0.063388,-0.003982,0.122584,0.000425,-0.00013,0.003752,-0.0015,-0.509924,0.122063,1.434855,-261.198922,-1.427305,69.713938
14.837,-0.063638,-0.003851,0.123148,0.000549,-0.000171,0.003759,-0.001023,-0.510155,0.122683,1.509291,-261.198341,-1.501741,69.714519
14.8568,-0.063385,-0.003852,0.122058,0.000489,-0.000105,0.003739,-0.001009,-0.510087,0.122884,1.509291,-261.198341,-1.501741,69.714519
14.8764,-0.063561,-0.003744,0.12259,0.000445,-5.6e-05,0.003727,-0.001286,-0.510059,0.122105,1.434348,-261.198002,-1.426799,69.714909
14.897,-0.063815,-0.003651,0.121542,0.000472,-9.5e-05,0.003728,-0.001204,-0.509929,0.122548,1.434348,-261.198002,-1.426799,69.714909
14.9165,-0.063078,-0.003882,0.125337,0.000492,-0.000125,0.003727,-0.001204,-0.509929,0.122548,1.434348,-261.198002,-1.426799,69.714909
14.9369,-0.063507,-0.003668,0.124736,0.000509,-0.000147,0.003725,0.000694,-0.509881,0.12548,1.372791,-261.197176,-1.382037,69.715776
