mach0312/omni-docking-bench/src/icros_test_setup/results/MPPI_sample/timeseries/trial_107.csv
t,x,y,yaw,vx,vy,wz,bl_x,bl_y,bl_yaw,front_steering_joint,front_wheel_joint,rear_steering_joint,rear_wheel_joint
0.0,0.025998,0.018779,-0.084992,-0.007974,0.000349,-0.000102,-0.016968,-0.4895,-0.086632,-0.036009,-262.97054,-0.051563,69.608295
0.0004,0.025886,0.019284,-0.084602,-0.007571,0.000332,-9.7e-05,-0.016968,-0.4895,-0.086632,-0.036009,-262.974239,-0.051563,69.604595
0.0007,0.025267,0.019036,-0.086881,-0.007121,0.000312,-9.1e-05,-0.016419,-0.489169,-0.084924,-0.036009,-262.977798,-0.051563,69.601032
0.001,0.025449,0.019138,-0.084521,-0.006622,0.00029,-8.4e-05,-0.016419,-0.489169,-0.084924,-0.036009,-262.980991,-0.051563,69.597838
0.0013,0.025445,0.01889,-0.086364,-0.006077,0.000266,-7.8e-05,-0.016419,-0.489169,-0.084924,-0.036009,-262.98384,-0.051563,69.594986
0.0016,0.025214,0.019513,-0.086377,-0.005484,0.00024,-7e-05,-0.017327,-0.489256,-0.085766,-0.036009,-262.986036,-0.051563,69.592789
0.0018,0.024858,0.018813,-0.086386,-0.004844,0.000212,-6.2e-05,-0.01746,-0.489176,-0.086171,-0.036009,-262.986036,-0.051563,69.592789
0.0021,0.024959,0.018889,-0.08591,-0.004157,0.000182,-5.3e-05,-0.01746,-0.489176,-0.086171,-0.036009,-262.986036,-0.051563,69.592789
0.0024,0.024936,0.019052,-0.085169,-0.003422,0.00015,-4.4e-05,-0.017778,-0.489149,-0.085984,-0.036009,-262.986036,-0.051563,69.592789
0.0161,0.024504,0.019045,-0.086527,0.0,0.0,0.0,-0.018578,-0.489082,-0.085171,-0.036009,-262.987711,-0.051563,69.591113
0.0364,0.024743,0.019155,-0.086672,0.0,0.0,0.0,-0.019505,-0.489049,-0.086432,-0.036009,-262.987711,-0.051563,69.591113
0.0565,0.024629,0.01925,-0.084724,0.0,0.0,0.0,-0.019505,-0.489049,-0.086432,-0.036009,-262.987711,-0.051563,69.591113
0.0763,0.024565,0.018586,-0.08568,0.0,0.0,0.0,-0.018529,-0.48892,-0.084724,-0.036009,-262.987711,-0.051563,69.591113
0.0963,0.024576,0.019483,-0.086871,0.0,0.0,0.0,-0.018755,-0.489177,-0.085118,-0.036009,-262.987711,-0.051563,69.591113
0.1165,0.024271,0.019495,-0.086652,0.002439,-0.000114,0.008592,-0.019673,-0.488594,-0.086871,-0.036009,-262.987711,-0.051563,69.591113
0.1363,0.024793,0.018973,-0.08623,0.002682,-0.000146,0.009222,-0.019848,-0.488592,-0.086673,-0.036009,-262.987711,-0.051563,69.591113
0.1563,0.024854,0.019029,-0.086828,0.002892,-0.000178,0.009726,-0.019848,-0.488592,-0.086673,-0.036009,-262.987711,-0.051563,69.591113
0.1765,0.024704,0.01888,-0.086678,0.003074,-0.000213,0.010128,-0.019372,-0.48905,-0.086828,0.038779,-262.987711,-0.126351,69.591113
0.1972,0.024641,0.019504,-0.085164,0.003232,-0.000247,0.010449,-0.019404,-0.489117,-0.086763,0.038779,-262.987711,-0.126351,69.591113
0.2168,0.024313,0.019466,-0.086418,0.003369,-0.000281,0.010703,-0.018741,-0.488648,-0.085164,0.114448,-262.987711,-0.20202,69.591113
0.2368,0.024439,0.018979,-0.085803,0.003484,-0.000317,0.010904,-0.019631,-0.488632,-0.086323,0.114448,-262.987711,-0.20202,69.591113
0.2566,0.024306,0.019221,-0.085817,0.003584,-0.000351,0.011062,-0.019631,-0.488632,-0.086323,0.114448,-262.987711,-0.20202,69.591113
0.2767,0.024628,0.019068,-0.086023,0.00367,-0.000383,0.011185,-0.019407,-0.488902,-0.085817,0.189305,-262.987711,-0.276877,69.591113
0.2967,0.024996,0.018856,-0.086073,0.003744,-0.000413,0.011282,-0.019319,-0.488961,-0.085901,0.189305,-262.987711,-0.276877,69.591113
0.3167,0.024665,0.019164,-0.085113,0.003808,-0.00044,0.011359,-0.018847,-0.489256,-0.086073,0.26378,-262.987711,-0.351352,69.591113
0.3367,0.024294,0.019201,-0.086002,0.003851,-0.000478,0.011417,-0.018703,-0.489012,-0.085193,0.26378,-262.987711,-0.351352,69.591113
0.3566,0.024513,0.018988,-0.085904,0.003889,-0.00051,0.011463,-0.018703,-0.489012,-0.085193,0.26378,-262.987711,-0.351352,69.591113
0.3766,0.024656,0.01918,-0.084716,0.003922,-0.000539,0.0115,-0.019244,-0.489132,-0.085904,0.338967,-262.987711,-0.426539,69.591113
0.3967,0.024378,0.018891,-0.085413,0.003956,-0.00056,0.01153,-0.018939,-0.489074,-0.085419,0.338967,-262.987711,-0.426539,69.591113
0.4164,0.024416,0.019205,-0.0864,0.003985,-0.000578,0.011554,-0.01913,-0.489249,-0.085413,0.413778,-262.987711,-0.501349,69.591113
0.4366,0.024703,0.019405,-0.085529,0.00402,-0.000586,0.011575,-0.019553,-0.488924,-0.086314,0.413778,-262.987711,-0.501349,69.591113
0.4564,0.024208,0.019112,-0.085377,0.004049,-0.000594,0.011591,-0.019553,-0.488924,-0.086314,0.413778,-262.987711,-0.501349,69.591113
0.4768,0.024325,0.018984,-0.085362,0.004074,-0.000601,0.011604,-0.019281,-0.489031,-0.085377,0.488878,-262.987711,-0.57645,69.591113
0.4964,0.02431,0.019266,-0.08696,0.004092,-0.000612,0.011613,-0.01923,-0.489084,-0.085371,0.488878,-262.987711,-0.57645,69.591113
0.5163,0.024346,0.019284,-0.085972,0.004107,-0.000622,0.011621,-0.019984,-0.488806,-0.08696,0.563974,-262.98771,-0.651546,69.591114
0.5366,0.024636,0.019866,-0.086711,0.004121,-0.000629,0.011627,-0.019495,-0.48883,-0.086062,0.563974,-262.98771,-0.651546,69.591114
0.5564,0.024721,0.019441,-0.084798,0.004134,-0.000636,0.011632,-0.019495,-0.48883,-0.086062,0.563974,-262.98771,-0.651546,69.591114
0.5763,0.024707,0.019311,-0.08452,0.004145,-0.000642,0.011636,-0.018473,-0.488726,-0.084797,0.638772,-262.987705,-0.726344,69.59112
0.5963,0.024268,0.018969,-0.085806,0.004131,-0.00067,0.011635,-0.018421,-0.488785,-0.084682,0.638772,-262.987705,-0.726344,69.59112
0.6164,0.024394,0.019122,-0.085854,0.00412,-0.000694,0.011635,-0.019437,-0.489155,-0.085801,0.713949,-262.987658,-0.801521,69.591174
0.6363,0.024665,0.019309,-0.08732,0.004135,-0.000692,0.01164,-0.019346,-0.489014,-0.085849,0.713949,-262.987658,-0.801521,69.591174
0.6565,0.024687,0.018896,-0.086105,0.004147,-0.00069,0.011643,-0.019346,-0.489014,-0.085849,0.713949,-262.987658,-0.801521,69.591174
0.6767,0.025028,0.019425,-0.086845,0.004157,-0.000689,0.011646,-0.019156,-0.489218,-0.086074,0.788772,-262.987437,-0.876344,69.59143
0.6969,0.024461,0.019173,-0.086997,0.004162,-0.000691,0.011648,-0.019175,-0.488984,-0.086391,0.788772,-262.987437,-0.876344,69.59143
0.7162,0.024273,0.018926,-0.084454,0.004167,-0.000694,0.011649,-0.019811,-0.488907,-0.086911,0.864053,-262.98666,-0.951625,69.592327
0.7362,0.024731,0.01932,-0.086921,0.004167,-0.0007,0.011649,-0.018832,-0.489228,-0.08465,0.864053,-262.98666,-0.951625,69.592327
0.7561,0.024206,0.019401,-0.085886,0.004167,-0.000705,0.01165,-0.018832,-0.489228,-0.08465,0.864053,-262.98666,-0.951625,69.592327
0.7763,0.024334,0.019266,-0.082839,0.004167,-0.000709,0.01165,-0.019434,-0.488745,-0.085614,0.939136,-262.984889,-1.026708,69.594374
0.7964,0.024736,0.019116,-0.08695,0.004159,-0.00072,0.011701,-0.018784,-0.488846,-0.084454,0.939136,-262.984889,-1.026708,69.594374
0.8162,0.02457,0.019148,-0.084687,0.004153,-0.00073,0.011743,-0.019434,-0.488988,-0.086612,0.99411,-262.982109,-1.081447,69.5976
0.8364,0.02434,0.019478,-0.083395,0.004149,-0.000738,0.011827,-0.018636,-0.489022,-0.084834,0.99411,-262.982109,-1.081447,69.5976
0.8567,0.024344,0.019287,-0.083784,0.004145,-0.000744,0.011896,-0.018636,-0.489022,-0.084834,0.99411,-262.982109,-1.081447,69.5976
0.8766,0.02435,0.019025,-0.084529,0.004142,-0.000749,0.011952,-0.018166,-0.488969,-0.083294,0.998113,-262.97905,-1.086852,69.601162
0.8966,0.024601,0.019124,-0.084655,0.004132,-0.00076,0.012048,-0.018368,-0.48905,-0.083741,0.998113,-262.97905,-1.086852,69.601162
0.9166,0.024513,0.019295,-0.083271,0.004124,-0.00077,0.012127,-0.018393,-0.489084,-0.084275,1.006957,-262.975953,-1.095541,69.60478
0.9365,0.024482,0.018929,-0.084784,0.004106,-0.000788,0.012235,-0.017941,-0.488952,-0.083337,1.006957,-262.975953,-1.095541,69.60478
0.9567,0.024511,0.019118,-0.083335,0.004091,-0.000803,0.012325,-0.017941,-0.488952,-0.083337,1.006957,-262.975953,-1.095541,69.60478
0.9764,0.024339,0.019064,-0.083133,0.004079,-0.000815,0.012399,-0.017772,-0.489158,-0.082829,1.014779,-262.972824,-1.103606,69.608446
0.9964,0.024143,0.018823,-0.083425,0.00407,-0.000825,0.012504,-0.017851,-0.48917,-0.082897,1.014779,-262.972824,-1.103606,69.608446
1.0164,0.024195,0.019227,-0.082606,0.004062,-0.000832,0.012591,-0.018229,-0.489439,-0.083035,1.027717,-262.969659,-1.118201,69.612186
1.0364,0.024361,0.019196,-0.081084,0.004054,-0.00084,0.012703,-0.017901,-0.489058,-0.082617,1.027717,-262.969659,-1.118201,69.612186
1.0562,0.02403,0.018924,-0.080281,0.004047,-0.000846,0.012796,-0.017901,-0.489058,-0.082617,1.027717,-262.969659,-1.118201,69.612186
1.0762,0.023939,0.019253,-0.080683,0.004042,-0.000851,0.012873,-0.016705,-0.489481,-0.079764,1.036054,-262.966514,-1.126017,69.615912
1.0963,0.023965,0.019399,-0.081907,0.004016,-0.000873,0.01297,-0.016876,-0.489324,-0.080082,1.036054,-262.966514,-1.126017,69.615912
1.1164,0.024013,0.018761,-0.081813,0.003995,-0.000892,0.013051,-0.017636,-0.488929,-0.081501,1.047891,-262.963295,-1.136467,69.619731
1.1363,0.024108,0.018856,-0.080148,0.003998,-0.000888,0.01316,-0.017656,-0.489481,-0.081764,1.047891,-262.963295,-1.136467,69.619731
1.1563,0.02392,0.018607,-0.081448,0.004001,-0.000884,0.013249,-0.017656,-0.489481,-0.081764,1.047891,-262.963295,-1.136467,69.619731
1.1764,0.023632,0.019077,-0.080416,0.004003,-0.000881,0.013323,-0.017408,-0.489753,-0.080901,1.057007,-262.960047,-1.147324,69.623616
1.1966,0.023754,0.019081,-0.080692,0.003999,-0.000885,0.013419,-0.01736,-0.489564,-0.080641,1.057007,-262.960047,-1.147324,69.623616
1.2165,0.023704,0.01911,-0.079819,0.003994,-0.000887,0.013498,-0.01723,-0.489297,-0.08027,1.066608,-262.956726,-1.153028,69.627571
1.2363,0.023699,0.018655,-0.079389,0.003976,-0.000903,0.013589,-0.016975,-0.48927,-0.079834,1.066608,-262.956726,-1.153028,69.627571
1.2562,0.023395,0.019075,-0.081042,0.003961,-0.000916,0.013666,-0.016975,-0.48927,-0.079834,1.066608,-262.956726,-1.153028,69.627571
1.2765,0.023961,0.018791,-0.078783,0.003948,-0.000926,0.01373,-0.017729,-0.489301,-0.080482,1.073349,-262.95338,-1.158422,69.631555
1.2963,0.023088,0.018792,-0.080209,0.003942,-0.000931,0.013802,-0.017053,-0.489445,-0.079697,1.073349,-262.95338,-1.158422,69.631555
1.317,0.023294,0.018723,-0.077224,0.003937,-0.000935,0.013863,-0.017654,-0.489607,-0.079778,1.084011,-262.950034,-1.169816,69.635565
1.3368,0.0234,0.018792,-0.07848,0.003916,-0.000952,0.013918,-0.016206,-0.489745,-0.077457,1.084011,-262.950034,-1.169816,69.635565
1.3565,0.022626,0.018797,-0.07948,0.003898,-0.000967,0.013965,-0.016206,-0.489745,-0.077457,1.084011,-262.950034,-1.169816,69.635565
1.3765,0.022964,0.018905,-0.077202,0.003884,-0.000979,0.014004,-0.017706,-0.489645,-0.0789,1.089205,-262.946643,-1.17426,69.639632
1.3967,0.022852,0.018434,-0.077604,0.003892,-0.00097,0.014047,-0.017148,-0.489623,-0.078148,1.089205,-262.946643,-1.17426,69.639632
1.4162,0.022879,0.018473,-0.076408,0.003899,-0.000963,0.014082,-0.017148,-0.489623,-0.078148,1.097016,-262.943198,-1.183878,69.643796
1.4363,0.022805,0.018461,-0.076995,0.003886,-0.000974,0.014112,-0.016075,-0.490042,-0.076435,1.097016,-262.943198,-1.183878,69.643796
1.4566,0.022783,0.01884,-0.077445,0.003874,-0.000983,0.014138,-0.016075,-0.490042,-0.076435,1.097016,-262.943198,-1.183878,69.643796
1.4769,0.022534,0.018712,-0.076377,0.003865,-0.000991,0.01416,-0.016518,-0.489684,-0.076865,1.098748,-262.939802,-1.18365,69.647887
1.4963,0.022644,0.018745,-0.077036,0.003861,-0.000994,0.014184,-0.016442,-0.489738,-0.076595,1.098748,-262.939802,-1.18365,69.647887
1.5163,0.02238,0.018807,-0.076062,0.003857,-0.000997,0.014205,-0.016486,-0.489783,-0.076588,1.103369,-262.936389,-1.189457,69.652019
1.5368,0.022631,0.018518,-0.076528,0.003852,-0.001001,0.014226,-0.016378,-0.489727,-0.076087,1.103369,-262.936389,-1.189457,69.652019
1.5565,0.022473,0.018663,-0.076186,0.003848,-0.001004,0.014244,-0.016378,-0.489727,-0.076087,1.103369,-262.936389,-1.189457,69.652019
1.5765,0.022453,0.018638,-0.076636,0.003844,-0.001007,0.014259,-0.016186,-0.489912,-0.075592,1.105302,-262.932952,-1.191345,69.656184
1.5968,0.022681,0.018647,-0.075093,0.003843,-0.001008,0.014276,-0.016334,-0.489899,-0.075949,1.105302,-262.932952,-1.191345,69.656184
1.6164,0.022084,0.01838,-0.07417,0.003842,-0.001008,0.014291,-0.015461,-0.489957,-0.074639,1.107871,-262.929481,-1.194068,69.660397
1.6366,0.022231,0.018809,-0.07362,0.003829,-0.001019,0.014304,-0.015686,-0.490202,-0.074184,1.107871,-262.929481,-1.194068,69.660397
1.6566,0.022294,0.018578,-0.073184,0.003818,-0.001027,0.014316,-0.015686,-0.490202,-0.074184,1.107871,-262.929481,-1.194068,69.660397
1.6763,0.022068,0.018204,-0.072701,0.00381,-0.001035,0.014326,-0.014841,-0.490111,-0.072591,1.109041,-262.926061,-1.19497,69.664549
1.6966,0.021815,0.018538,-0.073108,0.003781,-0.001059,0.014334,-0.014878,-0.490254,-0.072567,1.109041,-262.926061,-1.19497,69.664549
1.7168,0.021893,0.01865,-0.073063,0.003757,-0.001079,0.014342,-0.015319,-0.490141,-0.072651,1.112124,-262.922621,-1.199494,69.668747
1.7366,0.021945,0.018176,-0.073147,0.003745,-0.001089,0.014352,-0.015328,-0.490005,-0.073003,1.112124,-262.922621,-1.199494,69.668747
1.7566,0.022003,0.018866,-0.075447,0.003735,-0.001097,0.014362,-0.015328,-0.490005,-0.073003,1.112124,-262.922621,-1.199494,69.668747
1.7769,0.021551,0.018448,-0.071265,0.003726,-0.001105,0.01437,-0.016285,-0.48974,-0.074847,1.115874,-262.91919,-1.206004,69.672973
1.7966,0.021508,0.018572,-0.071408,0.003727,-0.001104,0.014381,-0.015633,-0.489962,-0.073286,1.115874,-262.91919,-1.206004,69.672973
1.8164,0.021496,0.017987,-0.071596,0.003727,-0.001104,0.014389,-0.014764,-0.490172,-0.070953,1.118652,-262.915787,-1.210174,69.677186
1.8372,0.021095,0.018132,-0.071344,0.003722,-0.001108,0.014398,-0.014962,-0.490663,-0.071519,1.118652,-262.915787,-1.210174,69.677186
1.8568,0.021722,0.018778,-0.071811,0.003718,-0.001111,0.014405,-0.014962,-0.490663,-0.071519,1.118652,-262.915787,-1.210174,69.677186
1.8767,0.021173,0.018237,-0.070218,0.003715,-0.001114,0.01441,-0.014718,-0.489965,-0.07121,1.119215,-262.912373,-1.210517,69.681412
1.8969,0.021058,0.018287,-0.071836,0.003694,-0.001131,0.014414,-0.014656,-0.490194,-0.070734,1.119215,-262.912373,-1.210517,69.681412
1.9163,0.020858,0.018599,-0.070444,0.003677,-0.001145,0.014417,-0.015432,-0.490442,-0.071378,1.120653,-262.908958,-1.212309,69.685647
1.9367,0.021083,0.018555,-0.069042,0.003673,-0.001148,0.014423,-0.015067,-0.490165,-0.070502,1.120653,-262.908958,-1.212309,69.685647
1.9566,0.021241,0.018325,-0.069817,0.00367,-0.001151,0.014428,-0.015067,-0.490165,-0.070502,1.120653,-262.908958,-1.212309,69.685647
1.9765,0.020917,0.01817,-0.069485,0.003668,-0.001153,0.014432,-0.014186,-0.490492,-0.069213,1.123256,-262.905559,-1.216795,69.689891
1.9967,0.021048,0.018138,-0.0684,0.00365,-0.001167,0.014434,-0.014293,-0.490542,-0.069254,1.123256,-262.905559,-1.216795,69.689891
2.0165,0.020533,0.017892,-0.06789,0.003636,-0.001179,0.014437,-0.013695,-0.490714,-0.06794,1.124346,-262.902168,-1.218228,69.694131
2.0366,0.020934,0.018322,-0.069112,0.003622,-0.001189,0.014439,-0.014025,-0.490915,-0.067871,1.124346,-262.902168,-1.218228,69.694131
2.0572,0.021042,0.018204,-0.067113,0.003611,-0.001198,0.014442,-0.014025,-0.490915,-0.067871,1.124346,-262.902168,-1.218228,69.694131
2.0763,0.020556,0.018194,-0.066585,0.003602,-0.001206,0.014445,-0.013011,-0.490708,-0.066507,1.126549,-262.898785,-1.221945,69.698384
2.0972,0.020679,0.017782,-0.067827,0.003562,-0.001236,0.014442,-0.013142,-0.490702,-0.06647,1.126549,-262.898785,-1.221945,69.698384
2.1163,0.020412,0.01836,-0.066168,0.00353,-0.001262,0.014441,-0.013773,-0.491092,-0.067363,1.129067,-262.895416,-1.225979,69.702644
2.1367,0.020609,0.018269,-0.067133,0.003506,-0.00128,0.014443,-0.013345,-0.490578,-0.066253,1.129067,-262.895416,-1.225979,69.702644
2.1564,0.020031,0.018137,-0.067451,0.003487,-0.001295,0.014444,-0.013345,-0.490578,-0.066253,1.129067,-262.895416,-1.225979,69.702644
2.1766,0.020359,0.018101,-0.066023,0.00347,-0.001308,0.014446,-0.014199,-0.490765,-0.066848,1.133905,-262.892084,-1.234042,69.706911
2.197,0.019928,0.018266,-0.065325,0.003475,-0.001305,0.014452,-0.01381,-0.490782,-0.066441,1.133905,-262.892084,-1.234042,69.706911
2.2164,0.020091,0.018479,-0.066119,0.003478,-0.001302,0.014457,-0.013255,-0.490695,-0.06486,1.138166,-262.888776,-1.240777,69.71119
2.2366,0.020195,0.017958,-0.065665,0.003467,-0.001311,0.014458,-0.013567,-0.490436,-0.065978,1.138166,-262.888776,-1.240777,69.71119
2.2566,0.020087,0.017921,-0.067324,0.003458,-0.001319,0.014459,-0.013567,-0.490436,-0.065978,1.138166,-262.888776,-1.240777,69.71119
2.2764,0.019922,0.018213,-0.065482,0.00345,-0.001325,0.014461,-0.01408,-0.490987,-0.066719,1.137897,-262.885459,-1.240081,69.715476
2.2971,0.01956,0.018,-0.063229,0.003459,-0.001318,0.014466,-0.013805,-0.490874,-0.066142,1.137897,-262.885459,-1.240081,69.715476
2.3164,0.019781,0.018115,-0.063502,0.003466,-0.001312,0.014469,-0.012558,-0.49103,-0.062767,1.140027,-262.882156,-1.243378,69.719765
2.3363,0.019415,0.018108,-0.06447,0.003432,-0.001338,0.014465,-0.012575,-0.490875,-0.063412,1.140027,-262.882156,-1.243378,69.719765
2.3564,0.019624,0.018092,-0.064079,0.003404,-0.001359,0.014463,-0.012575,-0.490875,-0.063412,1.140027,-262.882156,-1.243378,69.719765
2.3762,0.019155,0.017655,-0.062771,0.003381,-0.001376,0.014462,-0.012893,-0.490925,-0.063474,1.139111,-262.878822,-1.241686,69.724081
2.3965,0.018915,0.017948,-0.063747,0.003375,-0.001381,0.014464,-0.012853,-0.491108,-0.063106,1.139111,-262.878822,-1.241686,69.724081
2.4167,0.019483,0.017426,-0.062775,0.003369,-0.001385,0.014466,-0.013471,-0.491066,-0.063292,1.145111,-262.875573,-1.250993,69.728349
2.4367,0.019002,0.017725,-0.064556,0.003365,-0.001388,0.014468,-0.012591,-0.491528,-0.062798,1.145111,-262.875573,-1.250993,69.728349
2.4565,0.019132,0.01802,-0.063455,0.003361,-0.001391,0.01447,-0.012591,-0.491528,-0.062798,1.145111,-262.875573,-1.250993,69.728349
2.4768,0.018853,0.017784,-0.062729,0.003358,-0.001393,0.014472,-0.013071,-0.49102,-0.062848,1.146081,-262.872292,-1.252329,69.732666
2.4967,0.018975,0.017529,-0.062656,0.003362,-0.00139,0.014474,-0.013074,-0.491107,-0.062729,1.146081,-262.872292,-1.252329,69.732666
2.5161,0.018692,0.017533,-0.061772,0.003365,-0.001388,0.014476,-0.012855,-0.491521,-0.062197,1.147141,-262.869028,-1.253708,69.73697
2.5365,0.018678,0.017221,-0.0618,0.003366,-0.001387,0.014478,-0.012792,-0.491499,-0.061785,1.147141,-262.869028,-1.253708,69.73697
2.5567,0.018458,0.017564,-0.062127,0.003367,-0.001386,0.014479,-0.012792,-0.491499,-0.061785,1.147141,-262.869028,-1.253708,69.73697
2.5763,0.01894,0.017568,-0.060728,0.003367,-0.001386,0.01448,-0.01307,-0.491519,-0.061523,1.146724,-262.865762,-1.252974,69.74127
2.5964,0.018719,0.017741,-0.061212,0.003362,-0.001389,0.01448,-0.012621,-0.491515,-0.061128,1.146724,-262.865762,-1.252974,69.74127
2.6167,0.018476,0.018129,-0.059361,0.003358,-0.001393,0.01448,-0.012376,-0.491354,-0.060752,1.146682,-262.862488,-1.252781,69.74558
2.6364,0.018351,0.01754,-0.060904,0.003316,-0.001422,0.014474,-0.011827,-0.491008,-0.059459,1.146682,-262.862488,-1.252781,69.74558
2.6565,0.018282,0.017308,-0.060417,0.003282,-0.001447,0.01447,-0.011827,-0.491008,-0.059459,1.146682,-262.862488,-1.252781,69.74558
2.6762,0.018048,0.017348,-0.060568,0.003254,-0.001467,0.014467,-0.012375,-0.491828,-0.059811,1.147399,-262.859223,-1.253827,69.749883
2.6966,0.018462,0.017445,-0.058808,0.00327,-0.001455,0.014473,-0.012541,-0.491791,-0.060048,1.147399,-262.859223,-1.253827,69.749883
2.7163,0.017907,0.017597,-0.058068,0.003284,-0.001445,0.014478,-0.011411,-0.491726,-0.058346,1.154985,-262.85601,-1.264886,69.754192
2.7362,0.017849,0.017656,-0.059634,0.003259,-0.001463,0.014475,-0.011661,-0.491563,-0.05807,1.154985,-262.85601,-1.264886,69.754192
2.7566,0.018013,0.017305,-0.058121,0.003238,-0.001477,0.014473,-0.011661,-0.491563,-0.05807,1.154985,-262.85601,-1.264886,69.754192
2.7763,0.017701,0.017285,-0.059837,0.003221,-0.001489,0.014472,-0.011479,-0.491902,-0.057515,1.153034,-262.852767,-1.261812,69.758519
2.7963,0.017582,0.017332,-0.058329,0.003225,-0.001486,0.014476,-0.012006,-0.491869,-0.0584,1.153034,-262.852767,-1.261812,69.758519
2.8162,0.017149,0.017282,-0.057812,0.003229,-0.001484,0.014478,-0.012049,-0.491854,-0.057869,1.157761,-262.849559,-1.268493,69.762844
2.8363,0.017192,0.017363,-0.058329,0.00324,-0.001475,0.014481,-0.012291,-0.491867,-0.057794,1.157761,-262.849559,-1.268493,69.762844
2.8563,0.017444,0.017309,-0.056902,0.00325,-0.001468,0.014484,-0.012291,-0.491867,-0.057794,1.157761,-262.849559,-1.268493,69.762844
2.8762,0.016925,0.017436,-0.056684,0.003258,-0.001463,0.014486,-0.011429,-0.491935,-0.056297,1.157347,-262.846352,-1.267771,69.767162
2.8963,0.017331,0.017297,-0.056503,0.003241,-0.001475,0.014483,-0.011634,-0.491865,-0.056386,1.157347,-262.846352,-1.267771,69.767162
2.9161,0.017301,0.017506,-0.054893,0.003227,-0.001485,0.014481,-0.011369,-0.491942,-0.056041,1.155301,-262.843118,-1.264718,69.771494
2.9365,0.017182,0.017339,-0.056338,0.003179,-0.001517,0.014474,-0.010733,-0.491747,-0.054968,1.155301,-262.843118,-1.264718,69.771494
2.9563,0.017068,0.017097,-0.056452,0.003139,-0.001544,0.01447,-0.010733,-0.491747,-0.054968,1.155301,-262.843118,-1.264718,69.771494
2.9767,0.017358,0.017153,-0.05323,0.003106,-0.001566,0.014467,-0.011576,-0.49216,-0.055848,1.157604,-262.839911,-1.268009,69.775813
2.9968,0.017075,0.016751,-0.055098,0.003091,-0.001576,0.014468,-0.010829,-0.492153,-0.054713,1.157604,-262.839911,-1.268009,69.775813
3.0166,0.016367,0.017077,-0.054019,0.003078,-0.001585,0.014469,-0.010915,-0.49253,-0.054638,1.166975,-262.836761,-1.280576,69.780138
3.0365,0.016853,0.016888,-0.055291,0.003079,-0.001584,0.014472,-0.011138,-0.492217,-0.054054,1.166975,-262.836761,-1.280576,69.780138
3.0566,0.016692,0.016863,-0.05477,0.00308,-0.001583,0.014474,-0.011138,-0.492217,-0.054054,1.166975,-262.836761,-1.280576,69.780138
3.0764,0.016037,0.016917,-0.053098,0.003081,-0.001583,0.014476,-0.011102,-0.492446,-0.054164,1.169432,-262.833611,-1.283637,69.784484
3.0965,0.016429,0.017429,-0.054207,0.003082,-0.001581,0.014478,-0.011058,-0.492421,-0.053663,1.169432,-262.833611,-1.283637,69.784484
3.1162,0.016068,0.016996,-0.051382,0.003083,-0.001581,0.01448,-0.011107,-0.491878,-0.053745,1.169443,-262.830451,-1.283449,69.788839
3.137,0.016278,0.016858,-0.053343,0.003047,-0.001604,0.014475,-0.010205,-0.492295,-0.051562,1.169443,-262.830451,-1.283449,69.788839
3.1572,0.016269,0.016937,-0.052143,0.003017,-0.001623,0.014472,-0.010205,-0.492295,-0.051562,1.169443,-262.830451,-1.283449,69.788839
3.1766,0.016099,0.017102,-0.051882,0.002993,-0.001639,0.01447,-0.010185,-0.492443,-0.051532,1.169334,-262.827301,-1.28321,69.793179
3.1965,0.016009,0.016719,-0.050543,0.002975,-0.00165,0.01447,-0.010236,-0.49236,-0.051602,1.169334,-262.827301,-1.28321,69.793179
3.2163,0.016079,0.016725,-0.051326,0.00296,-0.00166,0.01447,-0.009664,-0.492687,-0.050083,1.176788,-262.824172,-1.292546,69.797553
3.2366,0.015517,0.01675,-0.051441,0.002945,-0.001669,0.01447,-0.01005,-0.492612,-0.051212,1.176788,-262.824172,-1.292546,69.797553
3.2565,0.015681,0.016741,-0.052119,0.002933,-0.001676,0.014471,-0.01005,-0.492612,-0.051212,1.176788,-262.824172,-1.292546,69.797553
3.2765,0.015798,0.01705,-0.050403,0.002922,-0.001683,0.014472,-0.010768,-0.492642,-0.051517,1.179655,-262.821078,-1.295949,69.801898
3.2968,0.015536,0.016725,-0.051313,0.002925,-0.00168,0.014474,-0.010397,-0.492511,-0.05099,1.179655,-262.821078,-1.295949,69.801898
3.3169,0.015255,0.016643,-0.049657,0.002927,-0.001679,0.014476,-0.010532,-0.492662,-0.050853,1.183074,-262.81799,-1.299856,69.80626
3.3368,0.015437,0.016664,-0.048325,0.002921,-0.001683,0.014477,-0.010096,-0.492725,-0.049739,1.183074,-262.81799,-1.299856,69.80626
3.3566,0.015235,0.016823,-0.050383,0.002915,-0.001686,0.014477,-0.010096,-0.492725,-0.049739,1.183074,-262.81799,-1.299856,69.80626
3.3766,0.015261,0.016286,-0.04825,0.00291,-0.001689,0.014478,-0.010331,-0.492607,-0.049776,1.182808,-262.814893,-1.299403,69.810631
3.3969,0.014857,0.01647,-0.048748,0.002901,-0.001695,0.014478,-0.009911,-0.492825,-0.049083,1.182808,-262.814893,-1.299403,69.810631
3.4164,0.015044,0.016627,-0.047032,0.002892,-0.0017,0.014478,-0.009904,-0.492983,-0.048287,1.184397,-262.81181,-1.30117,69.814993
3.4368,0.014861,0.016366,-0.046861,0.002846,-0.001727,0.014472,-0.009017,-0.492827,-0.047122,1.184397,-262.81181,-1.30117,69.814993
3.4569,0.014706,0.016383,-0.047334,0.002808,-0.00175,0.014468,-0.009017,-0.492827,-0.047122,1.184397,-262.81181,-1.30117,69.814993
3.4768,0.014588,0.01664,-0.047571,0.002777,-0.001768,0.014465,-0.009308,-0.493122,-0.046727,1.186021,-262.808725,-1.303012,69.81937
3.4967,0.01463,0.01613,-0.046957,0.002772,-0.00177,0.014468,-0.009439,-0.492993,-0.047,1.186021,-262.808725,-1.303012,69.81937
3.5164,0.014489,0.016545,-0.047317,0.002768,-0.001772,0.01447,-0.009224,-0.493368,-0.046498,1.19638,-262.805697,-1.314649,69.82374
3.5365,0.014429,0.016645,-0.04617,0.00277,-0.001771,0.014473,-0.009595,-0.492928,-0.047224,1.19638,-262.805697,-1.314649,69.82374
3.5567,0.014469,0.016349,-0.046223,0.002772,-0.00177,0.014475,-0.009595,-0.492928,-0.047224,1.19638,-262.805697,-1.314649,69.82374
3.5768,0.014112,0.015931,-0.045089,0.002773,-0.001769,0.014476,-0.008984,-0.493186,-0.045618,1.197389,-262.802668,-1.31559,69.828118
3.5964,0.014301,0.016488,-0.045655,0.002752,-0.001781,0.014475,-0.008927,-0.493342,-0.045334,1.197389,-262.802668,-1.31559,69.828118
3.6168,0.013898,0.016259,-0.04451,0.002735,-0.00179,0.014474,-0.00889,-0.493041,-0.045195,1.197187,-262.799629,-1.315189,69.832504
3.6367,0.014066,0.016463,-0.045442,0.002712,-0.001804,0.014472,-0.008799,-0.493221,-0.044548,1.197187,-262.799629,-1.315189,69.832504
3.6565,0.014129,0.01655,-0.045724,0.002692,-0.001814,0.014471,-0.008799,-0.493221,-0.044548,1.197187,-262.799629,-1.315189,69.832504
3.6765,0.01389,0.016116,-0.045182,0.002676,-0.001823,0.01447,-0.009071,-0.492997,-0.045117,1.200727,-262.796606,-1.318994,69.836893
3.6963,0.013602,0.016083,-0.045416,0.002675,-0.001823,0.014472,-0.009088,-0.493154,-0.045074,1.200727,-262.796606,-1.318994,69.836893
3.7163,0.013441,0.015944,-0.045396,0.002674,-0.001824,0.014474,-0.00947,-0.493453,-0.044956,1.206292,-262.793593,-1.324824,69.841304
3.7364,0.013636,0.015954,-0.042318,0.002706,-0.001803,0.014481,-0.009679,-0.493527,-0.045336,1.206292,-262.793593,-1.324824,69.841304
3.7563,0.013625,0.01604,-0.045069,0.002733,-0.001787,0.014486,-0.009679,-0.493527,-0.045336,1.206292,-262.793593,-1.324824,69.841304
3.7762,0.013346,0.015806,-0.042553,0.002755,-0.001773,0.014489,-0.009244,-0.493523,-0.044467,1.206691,-262.790602,-1.325121,69.845683
3.7963,0.01316,0.016132,-0.042957,0.002739,-0.001783,0.014486,-0.008868,-0.493617,-0.043618,1.206691,-262.790602,-1.325121,69.845683
3.8165,0.012817,0.015611,-0.042064,0.002725,-0.001792,0.014484,-0.008656,-0.493458,-0.042495,1.199493,-262.787551,-1.317019,69.850092
3.8365,0.012766,0.015711,-0.042391,0.002708,-0.001801,0.014481,-0.008628,-0.493905,-0.042076,1.199493,-262.787551,-1.317019,69.850092
3.8563,0.013154,0.015698,-0.042779,0.002693,-0.00181,0.01448,-0.008628,-0.493905,-0.042076,1.199493,-262.787551,-1.317019,69.850092
3.8761,0.012679,0.015844,-0.041712,0.002682,-0.001816,0.014479,-0.008547,-0.493915,-0.042178,1.202162,-262.784541,-1.320013,69.854463
3.8963,0.013036,0.015874,-0.04289,0.002667,-0.001824,0.014478,-0.008551,-0.49384,-0.041916,1.202162,-262.784541,-1.320013,69.854463
3.9163,0.012615,0.015679,-0.039634,0.002655,-0.001831,0.014477,-0.008748,-0.493718,-0.04243,1.206226,-262.781525,-1.324326,69.858871
3.9366,0.012266,0.015719,-0.040019,0.002602,-0.00186,0.01447,-0.007679,-0.493908,-0.039829,1.206226,-262.781525,-1.324326,69.858871
3.9565,0.012488,0.015934,-0.04138,0.002559,-0.001883,0.014466,-0.007679,-0.493908,-0.039829,1.206226,-262.781525,-1.324326,69.858871
3.9765,0.012155,0.015536,-0.039533,0.002523,-0.001902,0.014464,-0.008502,-0.493711,-0.040777,1.208836,-262.778537,-1.327027,69.863254
3.9967,0.012122,0.01594,-0.040023,0.002522,-0.001901,0.014467,-0.008285,-0.493865,-0.040198,1.208836,-262.778537,-1.327027,69.863254
4.0162,0.011922,0.015809,-0.039051,0.002521,-0.001901,0.01447,-0.008207,-0.493714,-0.039566,1.221761,-262.775606,-1.339979,69.867635
4.0364,0.012223,0.015631,-0.040427,0.002504,-0.00191,0.01447,-0.008004,-0.493798,-0.039073,1.221761,-262.775606,-1.339979,69.867635
4.0564,0.012066,0.01561,-0.039195,0.00249,-0.001917,0.01447,-0.008004,-0.493798,-0.039073,1.221761,-262.775606,-1.339979,69.867635
4.0768,0.011894,0.015469,-0.038242,0.002478,-0.001923,0.01447,-0.007816,-0.494082,-0.038589,1.222206,-262.772654,-1.340232,69.872047
4.0963,0.011922,0.015292,-0.037858,0.002461,-0.001932,0.01447,-0.007718,-0.494123,-0.038378,1.222206,-262.772654,-1.340232,69.872047
4.1166,0.011716,0.015295,-0.038173,0.002446,-0.001939,0.01447,-0.007304,-0.494407,-0.037398,1.226626,-262.769718,-1.344426,69.876462
4.1365,0.01141,0.015708,-0.037743,0.002438,-0.001943,0.014472,-0.007702,-0.494344,-0.038076,1.226626,-262.769718,-1.344426,69.876462
4.1567,0.011381,0.015032,-0.037729,0.002431,-0.001946,0.014473,-0.007702,-0.494344,-0.038076,1.226626,-262.769718,-1.344426,69.876462
4.1766,0.010964,0.01551,-0.037155,0.002425,-0.001948,0.014474,-0.007757,-0.494691,-0.03712,1.230013,-262.766791,-1.347569,69.880881
4.1967,0.011447,0.014946,-0.038299,0.002429,-0.001945,0.014477,-0.007835,-0.494479,-0.037065,1.230013,-262.766791,-1.347569,69.880881
4.2165,0.010925,0.015273,-0.036518,0.002432,-0.001943,0.014479,-0.008006,-0.494745,-0.037838,1.232469,-262.763869,-1.34969,69.885303
4.2363,0.011269,0.01533,-0.037457,0.002427,-0.001945,0.014479,-0.007719,-0.494422,-0.036611,1.232469,-262.763869,-1.34969,69.885303
4.2561,0.011096,0.015279,-0.037487,0.002422,-0.001947,0.01448,-0.007719,-0.494422,-0.036611,1.232469,-262.763869,-1.34969,69.885303
4.2761,0.010854,0.015019,-0.035154,0.002419,-0.001949,0.01448,-0.007919,-0.494448,-0.036882,1.23196,-262.760943,-1.349054,69.889726
4.2962,0.010894,0.015017,-0.036079,0.00241,-0.001953,0.01448,-0.00756,-0.494547,-0.036105,1.23196,-262.760943,-1.349054,69.889726
4.3161,0.010651,0.015014,-0.035524,0.002403,-0.001956,0.01448,-0.007428,-0.494716,-0.035617,1.233396,-262.75802,-1.350316,69.894149
4.3361,0.010809,0.015074,-0.034648,0.002394,-0.001961,0.014479,-0.007456,-0.494672,-0.035509,1.233396,-262.75802,-1.350316,69.894149
4.3562,0.010427,0.014969,-0.034455,0.002386,-0.001964,0.01448,-0.007456,-0.494672,-0.035509,1.233396,-262.75802,-1.350316,69.894149
4.3762,0.010187,0.014812,-0.033106,0.00238,-0.001967,0.01448,-0.007044,-0.494814,-0.033848,1.235096,-262.755102,-1.351861,69.898575
4.3968,0.010559,0.015064,-0.033439,0.002347,-0.001983,0.014476,-0.00689,-0.494863,-0.033476,1.235096,-262.755102,-1.351861,69.898575
4.4165,0.009784,0.014966,-0.033606,0.00232,-0.001996,0.014474,-0.006418,-0.494716,-0.032976,1.237603,-262.752193,-1.354092,69.903002
4.4364,0.010101,0.015004,-0.033764,0.002315,-0.001998,0.014475,-0.007263,-0.494747,-0.033525,1.237603,-262.752193,-1.354092,69.903002
4.4567,0.010199,0.014832,-0.033636,0.00231,-0.001999,0.014476,-0.007263,-0.494747,-0.033525,1.237603,-262.752193,-1.354092,69.903002
4.4766,0.009994,0.014569,-0.033598,0.002307,-0.002,0.014478,-0.006858,-0.494966,-0.033031,1.244007,-262.749306,-1.359907,69.907429
4.4965,0.009631,0.014968,-0.033242,0.002294,-0.002006,0.014477,-0.006961,-0.495048,-0.033192,1.244007,-262.749306,-1.359907,69.907429
4.5163,0.009541,0.014515,-0.032188,0.002283,-0.002011,0.014477,-0.007248,-0.494817,-0.03278,1.245613,-262.746418,-1.361178,69.911862
4.5362,0.009759,0.014481,-0.033123,0.002273,-0.002015,0.014478,-0.006903,-0.495188,-0.032218,1.245613,-262.746418,-1.361178,69.911862
4.5564,0.009626,0.014846,-0.032646,0.002265,-0.002018,0.014479,-0.006903,-0.495188,-0.032218,1.245613,-262.746418,-1.361178,69.911862
4.5761,0.00958,0.014527,-0.031008,0.002258,-0.002021,0.014479,-0.006928,-0.494969,-0.03204,1.248262,-262.743537,-1.363455,69.916298
4.5962,0.009309,0.014915,-0.029186,0.002234,-0.002032,0.014477,-0.006634,-0.495084,-0.031551,1.248262,-262.743537,-1.363455,69.916298
4.6165,0.009109,0.014467,-0.031645,0.002215,-0.00204,0.014476,-0.005503,-0.494934,-0.028725,1.251203,-262.740663,-1.365887,69.920736
4.6366,0.009136,0.013913,-0.031628,0.002216,-0.002039,0.014479,-0.006889,-0.495251,-0.031363,1.251203,-262.740663,-1.365887,69.920736
4.6566,0.008936,0.014465,-0.031384,0.002217,-0.002037,0.014481,-0.006889,-0.495251,-0.031363,1.251203,-262.740663,-1.365887,69.920736
4.6762,0.008905,0.014053,-0.02929,0.002218,-0.002036,0.014482,-0.006977,-0.495372,-0.03078,1.255963,-262.737804,-1.370006,69.925175
4.6963,0.008693,0.014552,-0.032478,0.002206,-0.002041,0.014482,-0.006579,-0.495528,-0.0301,1.255963,-262.737804,-1.370006,69.925175
4.7168,0.008584,0.014339,-0.031365,0.002197,-0.002045,0.014482,-0.007799,-0.495246,-0.032016,1.255855,-262.73494,-1.369692,69.929617
4.7366,0.008783,0.014414,-0.029133,0.002234,-0.002025,0.014489,-0.007442,-0.495398,-0.031402,1.255855,-262.73494,-1.369692,69.929617
4.7565,0.008538,0.014515,-0.027981,0.002266,-0.002008,0.014494,-0.007442,-0.495398,-0.031402,1.255855,-262.73494,-1.369692,69.929617
4.7765,0.008306,0.014382,-0.029168,0.002291,-0.001995,0.014497,-0.005641,-0.495373,-0.027375,1.258334,-262.732082,-1.371756,69.93406
4.7967,0.008528,0.01438,-0.027061,0.002228,-0.002026,0.014486,-0.006009,-0.495395,-0.028037,1.258334,-262.732082,-1.371756,69.93406
4.8164,0.008208,0.014157,-0.028113,0.002177,-0.00205,0.014479,-0.0052,-0.495499,-0.026601,1.248404,-262.729181,-1.362668,69.938507
4.8362,0.008125,0.014291,-0.026879,0.002142,-0.002066,0.014476,-0.006054,-0.495633,-0.027979,1.248404,-262.729181,-1.362668,69.938507
4.8566,0.008201,0.014118,-0.027856,0.002113,-0.002079,0.014474,-0.006054,-0.495633,-0.027979,1.248404,-262.729181,-1.362668,69.938507
4.8762,0.007712,0.013628,-0.026041,0.002089,-0.00209,0.014473,-0.005916,-0.495771,-0.027256,1.260684,-262.726356,-1.373573,69.942907
4.8964,0.007643,0.014077,-0.027285,0.002056,-0.002103,0.014472,-0.005764,-0.495956,-0.026692,1.260684,-262.726356,-1.373573,69.942907
4.9162,0.007342,0.014353,-0.025634,0.00203,-0.002114,0.014471,-0.006206,-0.495801,-0.026825,1.270729,-262.723534,-1.381975,69.947352
4.9362,0.007602,0.013903,-0.027543,0.001998,-0.002127,0.014469,-0.005768,-0.495511,-0.025714,1.270729,-262.723534,-1.381975,69.947352
4.9565,0.007382,0.013987,-0.026062,0.001971,-0.002138,0.014469,-0.005768,-0.495511,-0.025714,1.270729,-262.723534,-1.381975,69.947352
4.9764,0.007187,0.013962,-0.025768,0.001949,-0.002147,0.014469,-0.005825,-0.49593,-0.025458,1.277652,-262.720732,-1.387538,69.951795
4.9964,0.007342,0.013993,-0.02619,0.001945,-0.002147,0.014472,-0.005868,-0.495916,-0.025515,1.277652,-262.720732,-1.387538,69.951795
5.0163,0.00672,0.013573,-0.025401,0.001942,-0.002147,0.014475,-0.005953,-0.495902,-0.02573,1.287276,-262.717951,-1.395145,69.956246
5.0365,0.006944,0.013775,-0.025706,0.001967,-0.002134,0.014481,-0.006205,-0.496234,-0.025407,1.287276,-262.717951,-1.395145,69.956246
5.0565,0.006897,0.013448,-0.024741,0.001987,-0.002124,0.014486,-0.006205,-0.496234,-0.025407,1.287276,-262.717951,-1.395145,69.956246
5.0764,0.00682,0.01349,-0.024595,0.002003,-0.002115,0.014489,-0.00564,-0.496488,-0.024134,1.288427,-262.715145,-1.395867,69.960739
5.0963,0.006906,0.013499,-0.025126,0.001987,-0.002122,0.014488,-0.005666,-0.496443,-0.024259,1.288427,-262.715145,-1.395867,69.960739
5.1163,0.006074,0.013414,-0.023906,0.001974,-0.002127,0.014486,-0.005846,-0.496408,-0.02467,1.281652,-262.712357,-1.390081,69.965162
5.1365,0.006559,0.01364,-0.023089,0.001989,-0.002119,0.01449,-0.006089,-0.496441,-0.023951,1.281652,-262.712357,-1.390081,69.965162
5.1564,0.006736,0.013592,-0.02137,0.002001,-0.002113,0.014492,-0.006089,-0.496441,-0.023951,1.281652,-262.712357,-1.390081,69.965162
5.1762,0.005842,0.013467,-0.023053,0.002012,-0.002108,0.014493,-0.004081,-0.496382,-0.020764,1.285152,-262.709555,-1.392875,69.969622
5.1962,0.006087,0.013399,-0.022399,0.001935,-0.002141,0.014481,-0.004823,-0.496399,-0.021631,1.285152,-262.709555,-1.392875,69.969622
5.2163,0.005643,0.013073,-0.022628,0.001871,-0.002167,0.014473,-0.005273,-0.496541,-0.021938,1.280896,-262.706742,-1.389268,69.974076
5.2367,0.005694,0.013462,-0.022411,0.001895,-0.002155,0.01448,-0.005837,-0.496777,-0.022542,1.280896,-262.706742,-1.389268,69.974076
5.2566,0.005921,0.013485,-0.023118,0.001915,-0.002145,0.014485,-0.005837,-0.496777,-0.022542,1.280896,-262.706742,-1.389268,69.974076
5.2765,0.005899,0.012758,-0.021999,0.00193,-0.002137,0.014489,-0.005792,-0.496471,-0.022516,1.297397,-262.70399,-1.402405,69.97851
5.2964,0.005709,0.013333,-0.021319,0.001927,-0.002139,0.014488,-0.005591,-0.496745,-0.022236,1.297397,-262.70399,-1.402405,69.97851
5.3165,0.005263,0.013245,-0.022124,0.001923,-0.00214,0.014488,-0.005103,-0.49662,-0.020858,1.29073,-262.701187,-1.396849,69.982986
5.3367,0.005201,0.013406,-0.02116,0.001941,-0.002132,0.014491,-0.005944,-0.496633,-0.022003,1.29073,-262.701187,-1.396849,69.982986
5.3567,0.005291,0.013329,-0.021005,0.001955,-0.002126,0.014492,-0.005944,-0.496633,-0.022003,1.29073,-262.701187,-1.396849,69.982986
5.3763,0.005,0.013032,-0.021242,0.001966,-0.002121,0.014493,-0.005342,-0.49665,-0.020399,1.291582,-262.698392,-1.397521,69.987454
5.3966,0.004666,0.012978,-0.019778,0.001951,-0.002128,0.014489,-0.005538,-0.496745,-0.020681,1.291582,-262.698392,-1.397521,69.987454
5.4164,0.004651,0.012866,-0.01912,0.001938,-0.002134,0.014486,-0.005359,-0.496991,-0.019319,1.286548,-262.695589,-1.393463,69.991911
5.4368,0.00475,0.012922,-0.019781,0.001904,-0.002149,0.014477,-0.005117,-0.49704,-0.019115,1.286548,-262.695589,-1.393463,69.991911
5.4566,0.004805,0.01303,-0.021291,0.001875,-0.002161,0.01447,-0.005117,-0.49704,-0.019115,1.286548,-262.695589,-1.393463,69.991911
5.4763,0.004703,0.01239,-0.01931,0.001852,-0.002171,0.014465,-0.005974,-0.496945,-0.020689,1.289736,-262.692812,-1.396119,69.996344
5.4962,0.004148,0.012815,-0.017268,0.001872,-0.002161,0.014471,-0.005627,-0.497187,-0.020058,1.289736,-262.692812,-1.396119,69.996344
5.5164,0.004146,0.012772,-0.018177,0.001889,-0.002152,0.014475,-0.004601,-0.497179,-0.016808,1.299719,-262.690052,-1.40408,70.000796
5.5363,0.004153,0.013329,-0.01668,0.001861,-0.002165,0.014461,-0.005073,-0.49715,-0.018027,1.299719,-262.690052,-1.40408,70.000796
5.5562,0.004126,0.012627,-0.018106,0.001838,-0.002175,0.014451,-0.005073,-0.49715,-0.018027,1.299719,-262.690052,-1.40408,70.000796
5.5764,0.003914,0.012284,-0.016288,0.001819,-0.002183,0.014443,-0.00503,-0.497381,-0.0175,1.295576,-262.687274,-1.400657,70.005256
5.5964,0.004067,0.01253,-0.017721,0.001787,-0.002196,0.014423,-0.004762,-0.4975,-0.016937,1.295576,-262.687274,-1.400657,70.005256
5.6163,0.003782,0.012447,-0.015786,0.00176,-0.002206,0.014408,-0.004914,-0.49746,-0.017262,1.303382,-262.684524,-1.406995,70.00971
5.6364,0.003662,0.012509,-0.016399,0.001703,-0.002229,0.014373,-0.004323,-0.49749,-0.015894,1.303382,-262.684524,-1.406995,70.00971
5.6563,0.0038,0.012594,-0.01643,0.001656,-0.002247,0.014346,-0.004323,-0.49749,-0.015894,1.303382,-262.684524,-1.406995,70.00971
5.6767,0.003251,0.012568,-0.01671,0.001617,-0.002262,0.014325,-0.004506,-0.49743,-0.015827,1.309953,-262.681798,-1.412225,70.014163
5.6968,0.00323,0.012548,-0.01552,0.001619,-0.002261,0.014318,-0.004807,-0.497413,-0.016115,1.309953,-262.681798,-1.412225,70.014163
5.7161,0.003056,0.012324,-0.016032,0.001621,-0.00226,0.014312,-0.004634,-0.497463,-0.015065,1.326547,-262.679139,-1.425007,70.01859
5.7362,0.003008,0.012325,-0.014221,0.001646,-0.002249,0.014306,-0.005075,-0.497601,-0.015926,1.326547,-262.679139,-1.425007,70.01859
5.7563,0.00301,0.012336,-0.015016,0.001667,-0.002241,0.014301,-0.005075,-0.497601,-0.015926,1.326547,-262.679139,-1.425007,70.01859
5.7764,0.002751,0.012184,-0.014118,0.001683,-0.002235,0.014297,-0.004581,-0.497702,-0.014417,1.325655,-262.676453,-1.424456,70.023059
5.7963,0.003024,0.011398,-0.014231,0.001653,-0.00225,0.014236,-0.004517,-0.49774,-0.014221,1.325655,-262.676453,-1.424456,70.023059
5.8163,0.002472,0.011965,-0.013402,0.001628,-0.002262,0.014189,-0.004181,-0.498622,-0.013781,1.317286,-262.673786,-1.4185,70.027469
5.8363,0.002674,0.012434,-0.01091,0.001597,-0.002275,0.014112,-0.004344,-0.498047,-0.013413,1.317286,-262.673786,-1.4185,70.027469
5.8562,0.002328,0.011931,-0.014627,0.001572,-0.002286,0.014052,-0.004344,-0.498047,-0.013413,1.317286,-262.673786,-1.4185,70.027469
5.8765,0.002202,0.011699,-0.013477,0.001552,-0.002296,0.014005,-0.005065,-0.498109,-0.014034,1.321891,-262.671145,-1.422919,70.031885
5.8968,0.00217,0.012359,-0.012759,0.001582,-0.002284,0.013991,-0.004895,-0.49818,-0.013736,1.321891,-262.671145,-1.422919,70.031885
5.9162,0.002067,0.01203,-0.012389,0.001608,-0.002275,0.013979,-0.004288,-0.497674,-0.012309,1.327775,-262.668573,-1.428752,70.036257
5.9364,0.001384,0.011741,-0.013076,0.001566,-0.002293,0.013876,-0.004252,-0.497909,-0.012357,1.327775,-262.668573,-1.428752,70.036257
5.9564,0.001898,0.011828,-0.01125,0.001532,-0.002309,0.013797,-0.004252,-0.497909,-0.012357,1.327775,-262.668573,-1.428752,70.036257
5.9767,0.001551,0.011826,-0.009766,0.001505,-0.002322,0.013736,-0.003773,-0.498235,-0.010666,1.319506,-262.665991,-1.423192,70.040623
5.9964,0.001637,0.011323,-0.01289,0.001423,-0.002346,0.013454,-0.003625,-0.498211,-0.010231,1.319506,-262.665991,-1.423192,70.040623
6.016,0.001419,0.011756,-0.009686,0.001357,-0.002367,0.013247,-0.00489,-0.498709,-0.012453,1.327689,-262.663495,-1.431214,70.04494
6.0365,0.000999,0.011792,-0.011013,0.001303,-0.002385,0.013047,-0.00364,-0.498267,-0.009911,1.327689,-262.663495,-1.431214,70.04494
6.0564,0.001464,0.011855,-0.010635,0.00126,-0.002401,0.012901,-0.00364,-0.498267,-0.009911,1.327689,-262.663495,-1.431214,70.04494
6.0771,0.000691,0.011324,-0.010705,0.001226,-0.002416,0.012794,-0.003905,-0.498216,-0.010082,1.337972,-262.661151,-1.441751,70.049144
6.0967,0.001186,0.011815,-0.010056,0.001255,-0.00241,0.01277,-0.004247,-0.498402,-0.01027,1.337972,-262.661151,-1.441751,70.049144
6.1166,0.000472,0.011233,-0.009765,0.001279,-0.002405,0.012751,-0.003905,-0.498237,-0.009649,1.347549,-262.658943,-1.451564,70.053253
6.1368,0.000971,0.011211,-0.008825,0.001318,-0.002392,0.012668,-0.004452,-0.498701,-0.009734,1.347549,-262.658943,-1.451564,70.053253
6.1563,0.000802,0.011724,-0.010743,0.00135,-0.002382,0.012605,-0.004452,-0.498701,-0.009734,1.347549,-262.658943,-1.451564,70.053253
6.1766,0.000502,0.011235,-0.008079,0.001377,-0.002376,0.012558,-0.004624,-0.498348,-0.01021,1.337515,-262.656735,-1.445985,70.057353
6.1976,0.000487,0.011036,-0.010911,0.00137,-0.002381,0.012449,-0.004208,-0.498523,-0.00928,1.337515,-262.656735,-1.445985,70.057353
6.2168,0.00044,0.01099,-0.008265,0.001366,-0.002386,0.012368,-0.005034,-0.499011,-0.010508,1.31634,-262.654567,-1.434572,70.061372
6.2368,0.000389,0.011038,-0.008773,0.001338,-0.002394,0.012162,-0.00389,-0.498998,-0.008454,1.31634,-262.654567,-1.434572,70.061372
6.2566,0.000502,0.01103,-0.010113,0.001316,-0.002402,0.012011,-0.00389,-0.498998,-0.008454,1.31634,-262.654567,-1.434572,70.061372
6.2764,-2.8e-05,0.011088,-0.007508,0.001299,-0.00241,0.011901,-0.004599,-0.499044,-0.009594,1.312378,-262.652429,-1.434227,70.065384
6.2963,5.5e-05,0.01159,-0.00852,0.001324,-0.002405,0.011867,-0.004294,-0.498997,-0.008694,1.312378,-262.652429,-1.434227,70.065384
6.3165,0.000324,0.011099,-0.007565,0.001346,-0.002401,0.011841,-0.00425,-0.498469,-0.008141,1.309482,-262.650418,-1.437354,70.069289
6.3365,-0.000244,0.011071,-0.007986,0.001287,-0.002419,0.011595,-0.003596,-0.498852,-0.007597,1.309482,-262.650418,-1.437354,70.069289
6.3564,-0.000641,0.011237,-0.007436,0.001241,-0.002436,0.011418,-0.003596,-0.498852,-0.007597,1.309482,-262.650418,-1.437354,70.069289
6.3764,-0.000359,0.011107,-0.006356,0.001203,-0.002451,0.011291,-0.004378,-0.49885,-0.006941,1.299153,-262.648417,-1.432009,70.073172
6.3968,-0.000427,0.010944,-0.005576,0.001205,-0.002443,0.010978,-0.004055,-0.498875,-0.006646,1.299153,-262.648417,-1.432009,70.073172
6.4164,-0.00071,0.010854,-0.006607,0.001206,-0.00244,0.010756,-0.003233,-0.499127,-0.005214,1.306504,-262.646572,-1.442796,70.076947
6.4366,-0.000561,0.010598,-0.005301,0.00121,-0.002438,0.010556,-0.00401,-0.499138,-0.006479,1.306504,-262.646572,-1.442796,70.076947
6.4566,-0.000849,0.01122,-0.005908,0.001213,-0.002439,0.010413,-0.00401,-0.499138,-0.006479,1.306504,-262.646572,-1.442796,70.076947
6.4766,-0.001092,0.010836,-0.006446,0.001216,-0.002442,0.010313,-0.003812,-0.498873,-0.005462,1.286547,-262.644866,-1.43769,70.080551
6.4965,-0.000662,0.010602,-0.005209,0.001214,-0.002441,0.010061,-0.004038,-0.498999,-0.005812,1.286547,-262.644866,-1.43769,70.080551
6.5164,-0.001216,0.010464,-0.006408,0.001212,-0.002444,0.009882,-0.00328,-0.499468,-0.004883,1.265225,-262.643263,-1.432516,70.08405
6.5363,-0.000923,0.010527,-0.004739,0.00126,-0.002433,0.009879,-0.004376,-0.499524,-0.006258,1.265225,-262.643263,-1.432516,70.08405
6.5563,-0.001286,0.010312,-0.006289,0.001298,-0.002425,0.009876,-0.004376,-0.499524,-0.006258,1.265225,-262.643263,-1.432516,70.08405
6.5764,-0.001313,0.010207,-0.003482,0.00133,-0.002419,0.009873,-0.004443,-0.49978,-0.005878,1.245258,-262.641758,-1.428769,70.08745
6.5962,-0.001197,0.01032,-0.003958,0.001311,-0.002411,0.00946,-0.003888,-0.499796,-0.004858,1.245258,-262.641758,-1.428769,70.08745
6.6163,-0.001452,0.010305,-0.005054,0.001296,-0.00241,0.009169,-0.003174,-0.499752,-0.003649,1.217872,-262.640242,-1.414672,70.09082
6.6366,-0.001599,0.01045,-0.005304,0.001287,-0.002413,0.00898,-0.003949,-0.499698,-0.004909,1.217872,-262.640242,-1.414672,70.09082
6.6565,-0.001408,0.010624,-0.003273,0.001281,-0.002419,0.008847,-0.003949,-0.499698,-0.004909,1.217872,-262.640242,-1.414672,70.09082
6.6766,-0.00152,0.010321,-0.003786,0.001277,-0.002425,0.008754,-0.003024,-0.499473,-0.002895,1.184973,-262.638887,-1.410417,70.094013
6.6965,-0.001774,0.009691,-0.004482,0.001193,-0.002421,0.008063,-0.003192,-0.499567,-0.003216,1.184973,-262.638887,-1.410417,70.094013
6.7161,-0.001921,0.009843,-0.004972,0.001126,-0.002428,0.007585,-0.00402,-0.500381,-0.004207,1.158794,-262.637621,-1.407938,70.09714
6.7365,-0.001798,0.01017,-0.002199,0.001211,-0.002416,0.007855,-0.004421,-0.500172,-0.0049,1.158794,-262.637621,-1.407938,70.09714
6.7565,-0.002026,0.009892,-0.000524,0.00128,-0.002407,0.008049,-0.004421,-0.500172,-0.0049,1.158794,-262.637621,-1.407938,70.09714
6.7764,-0.002335,0.010292,-0.003137,0.001336,-0.002398,0.008187,-0.00225,-0.500204,-0.000227,1.098761,-262.636691,-1.412679,70.099825
6.7963,-0.001876,0.009752,-0.004576,0.001217,-0.002361,0.006796,-0.00293,-0.500012,-0.001376,1.098761,-262.636691,-1.412679,70.099825
6.8164,-0.002642,0.009723,-0.001394,0.001123,-0.002348,0.005821,-0.004168,-0.500319,-0.004317,1.096556,-262.635523,-1.392198,70.102829
6.8364,-0.002258,0.009618,-0.002504,0.001103,-0.002339,0.005273,-0.003414,-0.500283,-0.001609,1.096556,-262.635523,-1.392198,70.102829
6.8562,-0.001887,0.009736,-0.000871,0.001087,-0.00234,0.004894,-0.003414,-0.500283,-0.001609,1.096556,-262.635523,-1.392198,70.102829
6.8761,-0.00208,0.009732,-0.001879,0.001074,-0.002346,0.004633,-0.002319,-0.500292,-0.000798,1.021109,-262.63533,-1.382844,70.103531
6.8964,-0.001835,0.01026,-0.002833,0.00098,-0.002371,0.004247,-0.00261,-0.500285,-0.001229,1.021109,-262.63533,-1.382844,70.103531
6.9163,-0.002047,0.010087,-0.002483,0.000903,-0.002396,0.003978,-0.003279,-0.499738,-0.002832,0.946554,-262.635329,-1.366101,70.103536
6.9363,-0.002066,0.009583,-0.00268,0.000911,-0.002436,0.004412,-0.00331,-0.499896,-0.002515,0.946554,-262.635329,-1.366101,70.103536
6.9563,-0.002138,0.00987,-0.001779,0.000916,-0.002465,0.004722,-0.00331,-0.499896,-0.002515,0.946554,-262.635329,-1.366101,70.103536
6.9763,-0.002166,0.009979,-0.002377,0.000919,-0.002488,0.004943,-0.003046,-0.500129,-0.001779,0.871558,-262.635329,-1.385722,70.103536
6.9964,-0.001512,0.010057,-0.002592,0.000916,-0.002494,0.004884,-0.003182,-0.500084,-0.002023,0.871558,-262.635329,-1.385722,70.103536
7.0163,-0.001571,0.009683,-0.001478,0.000912,-0.0025,0.00484,-0.00283,-0.499952,-0.002569,0.796417,-262.63527,-1.40537,70.103845
7.0366,-0.002081,0.009968,-0.001526,0.000828,-0.002516,0.004586,-0.002369,-0.500285,-0.001572,0.796417,-262.63527,-1.40537,70.103845
7.0563,-0.002033,0.009765,-0.004307,0.00076,-0.002531,0.004405,-0.002369,-0.500285,-0.001572,0.796417,-262.63527,-1.40537,70.103845
7.0764,-0.00205,0.009602,-0.001334,0.000704,-0.002545,0.004275,-0.004224,-0.500247,-0.004272,0.721419,-262.635202,-1.405103,70.104212
7.0966,-0.001988,0.00958,0.000226,0.000794,-0.002548,0.004828,-0.003601,-0.500312,-0.003044,0.721419,-262.635202,-1.405103,70.104212
7.1163,-0.00228,0.009686,-0.002789,0.000866,-0.002548,0.005223,-0.001873,-0.50042,0.000227,0.64608,-262.635202,-1.435117,70.104214
7.1366,-0.001988,0.009556,-0.000823,0.000915,-0.00254,0.005301,-0.003542,-0.500322,-0.002525,0.64608,-262.635202,-1.435117,70.104214
7.1561,-0.002158,0.009513,-0.003971,0.000954,-0.002533,0.005353,-0.003542,-0.500322,-0.002525,0.64608,-262.635202,-1.435117,70.104214
7.1764,-0.002299,0.009376,-0.002276,0.000986,-0.002528,0.005386,-0.004148,-0.500589,-0.003754,0.637917,-262.634773,-1.420969,70.106522
7.1966,-0.002211,0.009797,-0.001599,0.001057,-0.002517,0.005641,-0.003863,-0.500615,-0.003126,0.637917,-262.634773,-1.420969,70.106522
7.2162,-0.002361,0.009526,-0.002376,0.001114,-0.002506,0.005819,-0.002996,-0.500282,-0.001429,0.657838,-262.634279,-1.402879,70.108864
7.2364,-0.002011,0.009442,-0.001342,0.001117,-0.002495,0.005603,-0.003524,-0.500461,-0.002292,0.657838,-262.634279,-1.402879,70.108864
7.2563,-0.002597,0.009374,-0.000213,0.001121,-0.002488,0.00545,-0.003524,-0.500461,-0.002292,0.657838,-262.634279,-1.402879,70.108864
7.2764,-0.002784,0.009522,-0.002037,0.001123,-0.002483,0.00534,-0.002665,-0.500716,-6e-06,0.733122,-262.633756,-1.389032,70.11097
7.2964,-0.002236,0.009297,-0.001344,0.001085,-0.002452,0.004526,-0.003131,-0.500629,-0.000807,0.733122,-262.633756,-1.389032,70.11097
7.3161,-0.002328,0.009324,-0.001902,0.001055,-0.002435,0.00395,-0.002894,-0.500763,-0.001212,0.658385,-262.633336,-1.377671,70.112771
7.3368,-0.0024,0.009522,-0.000506,0.00105,-0.00245,0.004065,-0.00326,-0.500686,-0.001833,0.658385,-262.633336,-1.377671,70.112771
7.3566,-0.00233,0.009393,-0.000708,0.001045,-0.002462,0.004147,-0.00326,-0.500686,-0.001833,0.658385,-262.633336,-1.377671,70.112771
7.3766,-0.002532,0.009065,-0.001758,0.001041,-0.00247,0.004206,-0.002691,-0.500607,-0.000707,0.583389,-262.633335,-1.356492,70.112772
7.397,-0.002392,0.009153,-0.000745,0.001007,-0.002468,0.0039,-0.002992,-0.500741,-0.001137,0.583389,-262.633335,-1.356492,70.112772
7.4165,-0.002614,0.009586,-0.002655,0.00098,-0.002469,0.003684,-0.002772,-0.500848,-0.000742,0.508343,-262.633328,-1.367023,70.11281
7.4364,-0.002347,0.009041,-0.00343,0.001046,-0.002476,0.004157,-0.003865,-0.500449,-0.002491,0.508343,-262.633328,-1.367023,70.11281
7.4563,-0.002557,0.009291,-0.001212,0.001099,-0.00248,0.004495,-0.003865,-0.500449,-0.002491,0.508343,-262.633328,-1.367023,70.11281
7.4763,-0.002555,0.009603,-0.000853,0.001141,-0.00248,0.004735,-0.003175,-0.500709,-0.001212,0.433268,-262.633328,-1.366081,70.11281
7.4965,-0.002068,0.009427,0.000124,0.001095,-0.002468,0.004227,-0.003099,-0.50058,-0.001064,0.433268,-262.633328,-1.366081,70.11281
7.5162,-0.002451,0.009274,-0.001473,0.001059,-0.002463,0.00387,-0.001973,-0.500643,0.000258,0.358261,-262.632898,-1.36151,70.114755
7.5364,-0.002482,0.009176,0.000167,0.001035,-0.002466,0.003749,-0.003095,-0.500722,-0.001318,0.358261,-262.632898,-1.36151,70.114755
7.5564,-0.002888,0.009505,-0.001432,0.001015,-0.00247,0.003665,-0.003095,-0.500722,-0.001318,0.358261,-262.632898,-1.36151,70.114755
7.5763,-0.002547,0.009068,-0.00216,0.000999,-0.002473,0.003607,-0.003617,-0.500498,-0.001426,0.283282,-262.632884,-1.354841,70.114822
7.5962,-0.002595,0.00927,-0.000613,0.001042,-0.002469,0.003772,-0.00363,-0.500674,-0.001724,0.283282,-262.632884,-1.354841,70.114822
7.6162,-0.002583,0.009276,-0.000487,0.001076,-0.002465,0.00389,-0.002907,-0.500731,-0.000612,0.2084,-262.632881,-1.36037,70.114834
7.6363,-0.002475,0.009065,-0.00195,0.001019,-0.002454,0.003331,-0.002838,-0.500724,-0.000498,0.2084,-262.632881,-1.36037,70.114834
7.6563,-0.002589,0.008998,0.000496,0.000972,-0.002451,0.002933,-0.002838,-0.500724,-0.000498,0.2084,-262.632881,-1.36037,70.114834
7.6762,-0.002372,0.008851,-0.000413,0.000935,-0.002453,0.002651,-0.002325,-0.501026,0.00054,0.133416,-262.632772,-1.351979,70.115337
7.6963,-0.002486,0.008873,0.000536,0.000865,-0.002446,0.002103,-0.00243,-0.50108,0.000151,0.133416,-262.632772,-1.351979,70.115337
7.7165,-0.002806,0.009552,-0.000673,0.000807,-0.002447,0.001709,-0.002212,-0.501127,0.000536,0.058308,-262.632772,-1.345044,70.115337
7.7365,-0.002356,0.008892,-0.000918,0.000821,-0.00246,0.001834,-0.003081,-0.500497,-0.000586,0.058308,-262.632772,-1.345044,70.115337
7.7562,-0.002292,0.009401,-6.3e-05,0.000831,-0.00247,0.001921,-0.003081,-0.500497,-0.000586,0.058308,-262.632772,-1.345044,70.115337
7.7763,-0.002699,0.008938,-0.002579,0.00084,-0.002478,0.001983,-0.002324,-0.500599,-6.3e-05,-0.01713,-262.632771,-1.343511,70.115337
7.7964,-0.002302,0.009053,-0.000973,0.000849,-0.002497,0.002306,-0.003022,-0.50079,-0.001102,-0.01713,-262.632771,-1.343511,70.115337
7.8161,-0.002543,0.009352,-0.003075,0.000856,-0.00251,0.002533,-0.002798,-0.500947,-0.000973,-0.091755,-262.632771,-1.346939,70.115337
7.8362,-0.00217,0.009046,-0.000564,0.000973,-0.002513,0.003438,-0.004006,-0.50067,-0.002906,-0.091755,-262.632771,-1.346939,70.115337
7.8562,-0.0024,0.00902,-0.001149,0.001065,-0.002512,0.00409,-0.004006,-0.50067,-0.002906,-0.091755,-262.632771,-1.346939,70.115337
7.8762,-0.002184,0.009115,-5.7e-05,0.001138,-0.002507,0.004558,-0.002986,-0.50098,-0.001149,-0.1669,-262.632771,-1.362775,70.115337
7.8965,-0.002396,0.008974,-0.001455,0.001053,-0.002492,0.003883,-0.002667,-0.500941,-0.000699,-0.1669,-262.632771,-1.362775,70.115337
7.9162,-0.00253,0.008897,-0.000601,0.000986,-0.002486,0.00341,-0.003135,-0.501031,-0.001446,-0.092067,-262.63274,-1.358999,70.115482
7.9366,-0.002412,0.009066,-0.000313,0.000957,-0.002476,0.003071,-0.002863,-0.501097,-0.000676,-0.092067,-262.63274,-1.358999,70.115482
7.9563,-0.002664,0.009241,-0.001423,0.000934,-0.002472,0.002834,-0.002863,-0.501097,-0.000676,-0.092067,-262.63274,-1.358999,70.115482
7.9766,-0.002134,0.008765,-0.000765,0.000915,-0.00247,0.002668,-0.00338,-0.500783,-0.001387,-0.166928,-262.632638,-1.358328,70.115928
7.9964,-0.002519,0.008925,-0.002373,0.000916,-0.002479,0.00279,-0.003032,-0.500969,-0.001131,-0.166928,-262.632638,-1.358328,70.115928
8.0163,-0.002117,0.009016,-0.001027,0.000916,-0.002486,0.002878,-0.003729,-0.501074,-0.002372,-0.241921,-262.632637,-1.351283,70.115934
8.0362,-0.002865,0.009067,-6.8e-05,0.000883,-0.002501,0.002943,-0.002732,-0.500991,-0.001139,-0.241921,-262.632637,-1.351283,70.115934
8.0563,-0.002497,0.009126,-0.001016,0.000857,-0.002512,0.00299,-0.002732,-0.500991,-0.001139,-0.241921,-262.632637,-1.351283,70.115934
8.0766,-0.002489,0.009179,-0.001679,0.000835,-0.00252,0.003025,-0.003013,-0.500878,-0.00101,-0.317095,-262.632614,-1.358186,70.116017
8.0965,-0.002508,0.008735,-0.001813,0.00086,-0.002518,0.003127,-0.003148,-0.500855,-0.001282,-0.317095,-262.632614,-1.358186,70.116017
8.1162,-0.002122,0.009173,-0.001333,0.00088,-0.002516,0.003198,-0.00343,-0.501273,-0.001801,-0.391941,-262.632564,-1.381919,70.116226
8.1364,-0.002756,0.008737,-0.000846,0.000864,-0.002527,0.003288,-0.002849,-0.50086,-0.001368,-0.391941,-262.632564,-1.381919,70.116226
8.1563,-0.002723,0.008928,0.000353,0.000851,-0.002534,0.003353,-0.002849,-0.50086,-0.001368,-0.391941,-262.632564,-1.381919,70.116226
8.1766,-0.002748,0.008909,-0.001101,0.00084,-0.002539,0.003399,-0.00252,-0.501134,0.000435,-0.467325,-262.632313,-1.376441,70.11732
8.1966,-0.002718,0.009037,-0.000245,0.000834,-0.002507,0.00281,-0.002839,-0.501124,-0.000181,-0.467325,-262.632313,-1.376441,70.11732
8.2163,-0.002636,0.00868,0.000649,0.000829,-0.002486,0.002391,-0.002817,-0.501042,-0.000139,-0.50387,-262.631939,-1.390711,70.11915
8.2364,-0.002388,0.008877,-0.001913,0.000772,-0.002464,0.001686,-0.002348,-0.501299,0.000585,-0.50387,-262.631939,-1.390711,70.11915
8.2563,-0.002583,0.008913,0.000582,0.000726,-0.002453,0.001181,-0.002348,-0.501299,0.000585,-0.50387,-262.631939,-1.390711,70.11915
8.2763,-0.002444,0.009089,-0.000304,0.00069,-0.00245,0.000818,-0.002283,-0.501095,0.000591,-0.578855,-262.631894,-1.363752,70.119286
8.2964,-0.002727,0.00858,-0.000548,0.000662,-0.002464,0.000744,-0.002412,-0.501021,0.000227,-0.578855,-262.631894,-1.363752,70.119286
8.3166,-0.002558,0.008717,-0.000903,0.000639,-0.002476,0.00069,-0.003007,-0.50142,-0.000548,-0.653959,-262.631894,-1.341107,70.119287
8.3365,-0.002241,0.008751,0.000812,0.0007,-0.00249,0.001253,-0.003017,-0.501295,-0.000871,-0.653959,-262.631894,-1.341107,70.119287
8.3563,-0.002388,0.009046,0.000466,0.000747,-0.002498,0.001655,-0.003017,-0.501295,-0.000871,-0.653959,-262.631894,-1.341107,70.119287
8.3765,-0.002583,0.008268,-0.000251,0.000784,-0.002501,0.001942,-0.00215,-0.500954,0.000466,-0.728843,-262.631892,-1.353748,70.119289
8.3966,-0.002793,0.008722,-0.000353,0.000736,-0.002495,0.001573,-0.002375,-0.501266,0.000178,-0.728843,-262.631892,-1.353748,70.119289
8.4162,-0.002624,0.008491,-0.000381,0.000698,-0.002494,0.00131,-0.002966,-0.501295,-0.000338,-0.803841,-262.631757,-1.361367,70.119622
8.4363,-0.002647,0.009001,5.4e-05,0.000728,-0.002491,0.001432,-0.002831,-0.501491,-0.000377,-0.803841,-262.631757,-1.361367,70.119622
8.4562,-0.002486,0.008642,-0.000572,0.000751,-0.002487,0.001518,-0.002831,-0.501491,-0.000377,-0.803841,-262.631757,-1.361367,70.119622
8.4765,-0.00268,0.009088,-0.000674,0.00077,-0.002484,0.00158,-0.002774,-0.501368,-0.000566,-0.878888,-262.631684,-1.362028,70.119757
8.4962,-0.00235,0.008982,-0.000676,0.000783,-0.002491,0.00175,-0.002884,-0.501168,-0.000613,-0.878888,-262.631684,-1.362028,70.119757
8.5164,-0.002392,0.008319,-0.00122,0.000794,-0.002496,0.00187,-0.002682,-0.501052,-0.000653,-0.954872,-262.631382,-1.351048,70.120383
8.537,-0.002612,0.008756,-0.001069,0.000829,-0.0025,0.002251,-0.002986,-0.50163,-0.001171,-0.954872,-262.631382,-1.351048,70.120383
8.5562,-0.002193,0.008589,0.001027,0.000857,-0.0025,0.002522,-0.002986,-0.50163,-0.001171,-0.954872,-262.631382,-1.351048,70.120383
8.5762,-0.002832,0.008866,0.000561,0.000879,-0.002498,0.002715,-0.001639,-0.501503,0.001097,-1.029027,-262.630825,-1.355991,70.121706
8.5963,-0.002593,0.008847,0.000703,0.000771,-0.00247,0.00177,-0.002008,-0.501362,0.000885,-1.029027,-262.630825,-1.355991,70.121706
8.6162,-0.002667,0.008302,-0.001924,0.000685,-0.002457,0.00109,-0.002227,-0.501179,0.000729,-0.954157,-262.630671,-1.36238,70.122243
8.6363,-0.002238,0.008296,-0.000472,0.000811,-0.002457,0.001931,-0.00352,-0.501651,-0.001683,-0.954157,-262.630671,-1.36238,70.122243
8.6564,-0.002262,0.008469,-0.000771,0.000909,-0.002453,0.002536,-0.00352,-0.501651,-0.001683,-0.954157,-262.630671,-1.36238,70.122243
8.6763,-0.002663,0.008709,-0.000783,0.000987,-0.002447,0.00297,-0.002642,-0.501567,-0.000753,-1.02909,-262.630394,-1.354713,70.122704
8.6967,-0.002358,0.008139,-0.000401,0.000959,-0.002449,0.002812,-0.002813,-0.501458,-0.000763,-1.02909,-262.630394,-1.354713,70.122704
8.7161,-0.002727,0.00861,-0.000147,0.000936,-0.002451,0.002701,-0.002562,-0.501863,-0.000399,-0.954067,-262.63038,-1.343069,70.122757
8.7365,-0.002727,0.008639,-0.000467,0.000912,-0.002439,0.002304,-0.00278,-0.501432,-0.00017,-0.954067,-262.63038,-1.343069,70.122757
8.7565,-0.002882,0.008349,-0.00091,0.000893,-0.002433,0.002021,-0.00278,-0.501432,-0.00017,-0.954067,-262.63038,-1.343069,70.122757
8.7762,-0.002393,0.008288,-0.001324,0.000878,-0.002432,0.001821,-0.003333,-0.50169,-0.000869,-0.879062,-262.630196,-1.346307,70.123387
8.7965,-0.002464,0.008374,0.00059,0.000927,-0.002433,0.002156,-0.003223,-0.501704,-0.00105,-0.879062,-262.630196,-1.346307,70.123387
8.8165,-0.00258,0.008402,-0.000407,0.000967,-0.002431,0.002394,-0.002139,-0.501691,0.000639,-0.95404,-262.629666,-1.328064,70.124607
8.8362,-0.002482,0.008439,-0.001051,0.000935,-0.00243,0.002165,-0.00273,-0.501609,-0.000314,-0.95404,-262.629666,-1.328064,70.124607
8.8561,-0.002533,0.008364,-0.000211,0.00091,-0.002431,0.002003,-0.00273,-0.501609,-0.000314,-0.95404,-262.629666,-1.328064,70.124607
8.8762,-0.002903,0.008532,-0.000456,0.00089,-0.002433,0.001888,-0.002616,-0.501702,-0.000149,-0.878911,-262.629318,-1.32742,70.125628
8.8969,-0.0022,0.007975,0.000231,0.000887,-0.00243,0.001783,-0.002825,-0.501614,-0.000267,-0.878911,-262.629318,-1.32742,70.125628
8.9162,-0.002728,0.008292,0.001419,0.000884,-0.002428,0.001709,-0.002057,-0.502094,0.000285,-0.953794,-262.628761,-1.327453,70.126948
8.9366,-0.002354,0.008072,0.001236,0.000784,-0.002405,0.000852,-0.002008,-0.501745,0.001321,-0.953794,-262.628761,-1.327453,70.126948
8.9561,-0.002214,0.008574,0.000406,0.000704,-0.002394,0.000234,-0.002008,-0.501745,0.001321,-0.953794,-262.628761,-1.327453,70.126948
8.9763,-0.002561,0.007993,0.001473,0.000642,-0.00239,-0.000213,-0.001971,-0.501523,0.000475,-1.002471,-262.628124,-1.321402,70.128336
8.9969,-0.002257,0.008128,-0.000528,0.000576,-0.002406,-0.000352,-0.001899,-0.501738,0.000904,-1.002471,-262.628124,-1.321402,70.128336
9.0164,-0.002459,0.008101,0.000806,0.000523,-0.002421,-0.000451,-0.00252,-0.501885,-0.000528,-1.077949,-262.627929,-1.294149,70.128512
9.0365,-0.002797,0.0081,0.00032,0.000507,-0.002432,-0.00041,-0.002088,-0.501898,0.000691,-1.077949,-262.627929,-1.294149,70.128512
9.0565,-0.002662,0.00789,-0.001868,0.000493,-0.002441,-0.000381,-0.002088,-0.501898,0.000691,-1.077949,-262.627929,-1.294149,70.128512
9.077,-0.002495,0.008183,-0.001621,0.000481,-0.002448,-0.000361,-0.003607,-0.502131,-0.001871,-1.152571,-262.627684,-1.331618,70.128709
9.0968,-0.002608,0.007965,-0.000998,0.000662,-0.002447,0.000913,-0.003491,-0.502007,-0.001771,-1.152571,-262.627684,-1.331618,70.128709
9.1169,-0.002946,0.007879,-0.00073,0.000803,-0.002441,0.001838,-0.003109,-0.502065,-0.001002,-1.227451,-262.627259,-1.35803,70.129067
9.1367,-0.002511,0.008113,0.000267,0.000889,-0.002416,0.002016,-0.003301,-0.502118,-0.000752,-1.227451,-262.627259,-1.35803,70.129067
9.1564,-0.002443,0.007781,0.001096,0.000958,-0.002395,0.002142,-0.003301,-0.502118,-0.000752,-1.227451,-262.627259,-1.35803,70.129067
9.1765,-0.002539,0.008176,-0.000526,0.001014,-0.002378,0.002231,-0.001868,-0.502272,0.001134,-1.152126,-262.626944,-1.349227,70.129812
9.197,-0.002359,0.008036,-0.001086,0.000923,-0.002372,0.001631,-0.002248,-0.502096,0.000464,-1.152126,-262.626944,-1.349227,70.129812
9.2164,-0.002693,0.007748,-0.000272,0.00085,-0.002372,0.001202,-0.00291,-0.501973,-0.001079,-1.077451,-262.626882,-1.306152,70.12998
9.2366,-0.00279,0.007661,0.000942,0.000874,-0.002373,0.00134,-0.002838,-0.502227,-0.000345,-1.077451,-262.626882,-1.306152,70.12998
9.2565,-0.002416,0.007724,0.00144,0.000893,-0.002372,0.001439,-0.002838,-0.502227,-0.000345,-1.077451,-262.626882,-1.306152,70.12998
9.2768,-0.002663,0.007685,-0.000179,0.000908,-0.002372,0.001509,-0.001646,-0.502375,0.00149,-1.092046,-262.626142,-1.303634,70.131269
9.2971,-0.002546,0.008266,0.000259,0.000824,-0.002362,0.000943,-0.002095,-0.502362,0.000813,-1.092046,-262.626142,-1.303634,70.131269
9.3164,-0.00259,0.007636,-0.000356,0.000758,-0.002358,0.000536,-0.002388,-0.501803,0.000302,-1.016673,-262.62553,-1.301684,70.132493
9.3364,-0.00273,0.007771,0.001922,0.00079,-0.002367,0.000839,-0.002734,-0.502315,-0.000293,-1.016673,-262.62553,-1.301684,70.132493
9.3565,-0.002649,0.007503,0.000899,0.000816,-0.002372,0.001054,-0.002734,-0.502315,-0.000293,-1.016673,-262.62553,-1.301684,70.132493
9.3766,-0.002632,0.007595,-7.9e-05,0.000835,-0.002374,0.001208,-0.002171,-0.502549,0.000913,-1.09129,-262.625066,-1.295804,70.133091
9.397,-0.002582,0.007283,-0.001118,0.000806,-0.002362,0.000878,-0.002368,-0.502498,0.000519,-1.09129,-262.625066,-1.295804,70.133091
9.4163,-0.002199,0.007667,0.000145,0.000782,-0.002356,0.000641,-0.003126,-0.502793,-0.00108,-1.098784,-262.624333,-1.3085,70.134375
9.4364,-0.002583,0.007492,-0.000923,0.00074,-0.002375,0.000727,-0.002214,-0.502379,3.6e-05,-1.098784,-262.624333,-1.3085,70.134375
9.4569,-0.00258,0.007306,-0.000106,0.000706,-0.00239,0.000788,-0.002214,-0.502379,3.6e-05,-1.098784,-262.624333,-1.3085,70.134375
9.4761,-0.002805,0.007605,-0.000324,0.000678,-0.002401,0.000833,-0.002604,-0.50278,-8.2e-05,-1.173788,-262.6236,-1.293492,70.135366
9.4968,-0.002248,0.007294,0.000754,0.000736,-0.002385,0.00099,-0.002748,-0.502635,-0.000177,-1.173788,-262.6236,-1.293492,70.135366
9.516,-0.00224,0.007519,0.000745,0.000782,-0.002372,0.001102,-0.001844,-0.502776,0.000779,-1.226701,-262.62286,-1.341814,70.136466
9.5367,-0.002848,0.007094,0.000681,0.000691,-0.002371,0.00068,-0.001858,-0.502511,0.000749,-1.226701,-262.62286,-1.341814,70.136466
9.5567,-0.002482,0.006923,1.7e-05,0.000618,-0.002374,0.000377,-0.001858,-0.502511,0.000749,-1.226701,-262.62286,-1.341814,70.136466
9.5761,-0.002141,0.007135,0.001255,0.00056,-0.002378,0.000161,-0.002445,-0.503165,5.7e-05,-1.151703,-262.622203,-1.319344,70.13757
9.5967,-0.002586,0.007192,0.000214,0.000555,-0.002368,0.000119,-0.002059,-0.503053,0.000548,-1.151703,-262.622203,-1.319344,70.13757
9.6168,-0.002345,0.007365,0.000583,0.000549,-0.00236,8.8e-05,-0.002464,-0.502852,0.000218,-1.226706,-262.621647,-1.348301,70.138171
9.6365,-0.002579,0.00703,0.000201,0.000539,-0.002364,5.9e-05,-0.002084,-0.502656,0.000551,-1.226706,-262.621647,-1.348301,70.138171
9.6564,-0.002383,0.007179,0.000751,0.00053,-0.002367,3.8e-05,-0.002084,-0.502656,0.000551,-1.226706,-262.621647,-1.348301,70.138171
9.6764,-0.002462,0.00682,-0.00042,0.000523,-0.00237,2.2e-05,-0.00198,-0.502902,0.000755,-1.301708,-262.620867,-1.346956,70.138986
9.6967,-0.001983,0.007011,0.000744,0.000554,-0.002363,0.000164,-0.002262,-0.503025,0.000275,-1.301708,-262.620867,-1.346956,70.138986
9.7162,-0.002631,0.00675,9.2e-05,0.000577,-0.002356,0.000265,-0.001587,-0.503061,0.000745,-1.352291,-262.619941,-1.354714,70.139922
9.7369,-0.002513,0.006761,0.001022,0.000637,-0.002335,0.000409,-0.002491,-0.503237,0.000152,-1.352291,-262.619941,-1.354714,70.139922
9.7568,-0.002386,0.006856,0.000615,0.000684,-0.002317,0.00051,-0.002491,-0.503237,0.000152,-1.352291,-262.619941,-1.354714,70.139922
9.7765,-0.00252,0.006581,0.000898,0.000721,-0.002302,0.000582,-0.002049,-0.50324,0.000625,-1.313692,-262.619049,-1.345542,70.140937
9.7967,-0.002521,0.006501,0.000539,0.000685,-0.002288,0.00032,-0.002052,-0.503327,0.000742,-1.313692,-262.619049,-1.345542,70.140937
9.8165,-0.002383,0.006704,0.000885,0.000657,-0.002279,0.000132,-0.002228,-0.50356,0.000554,-1.238146,-262.618357,-1.306037,70.141855
9.8363,-0.002352,0.006585,0.001036,0.00062,-0.002273,-5.9e-05,-0.001959,-0.503324,0.000854,-1.238146,-262.618357,-1.306037,70.141855
9.8567,-0.002326,0.006731,-0.000347,0.000591,-0.00227,-0.000196,-0.001959,-0.503324,0.000854,-1.238146,-262.618357,-1.306037,70.141855
9.8764,-0.002118,0.006645,0.001953,0.000567,-0.002268,-0.000294,-0.002476,-0.503362,-0.000342,-1.28058,-262.617463,-1.299409,70.142809
9.8964,-0.001932,0.006923,0.001616,0.000542,-0.002275,-0.000237,-0.001916,-0.503369,0.000604,-1.28058,-262.617463,-1.299409,70.142809
9.9162,-0.002502,0.006707,0.001653,0.000522,-0.00228,-0.000196,-0.001091,-0.503143,0.001607,-1.343027,-262.616518,-1.30555,70.143623
9.9368,-0.002209,0.0065,0.002498,0.000457,-0.002265,-0.000659,-0.001614,-0.503284,0.001649,-1.343027,-262.616518,-1.30555,70.143623
9.9564,-0.002182,0.00637,0.000623,0.000406,-0.002257,-0.000992,-0.001614,-0.503284,0.001649,-1.343027,-262.616518,-1.30555,70.143623
9.9762,-0.0022,0.006157,0.000842,0.000366,-0.002254,-0.001231,-0.001843,-0.503723,0.000615,-1.356574,-262.615551,-1.333693,70.144499
9.9967,-0.002137,0.006256,-0.0015,0.000375,-0.002255,-0.00095,-0.00181,-0.503785,0.00071,-1.356574,-262.615551,-1.333693,70.144499
10.0165,-0.002398,0.006606,-5e-05,0.000381,-0.002254,-0.00075,-0.002891,-0.503805,-0.001534,-1.431593,-262.614504,-1.331817,70.145033
10.0366,-0.001905,0.006243,-0.000158,0.000482,-0.002258,-0.000122,-0.002466,-0.503435,-0.000188,-1.431593,-262.614504,-1.331817,70.145033
10.0566,-0.002174,0.006522,-0.000221,0.000562,-0.002258,0.000323,-0.002466,-0.503435,-0.000188,-1.431593,-262.614504,-1.331817,70.145033
10.0765,-0.002224,0.005896,0.000409,0.000624,-0.002254,0.000639,-0.002271,-0.503571,-0.000252,-1.431157,-262.613419,-1.361645,70.14576
10.0966,-0.002122,0.006791,0.001257,0.000636,-0.002242,0.000751,-0.002162,-0.503806,2.1e-05,-1.431157,-262.613419,-1.361645,70.14576
10.1165,-0.001947,0.005929,-0.000447,0.000645,-0.002232,0.000831,-0.001471,-0.50325,0.001268,-1.35581,-262.612965,-1.339144,70.146388
10.1366,-0.002225,0.006066,0.001046,0.000653,-0.002223,0.001073,-0.002119,-0.504008,-0.000313,-1.35581,-262.612965,-1.339144,70.146388
10.1565,-0.002239,0.006236,7.9e-05,0.000657,-0.002213,0.001247,-0.002119,-0.504008,-0.000313,-1.35581,-262.612965,-1.339144,70.146388
10.1764,-0.002052,0.006085,0.001809,0.000661,-0.002202,0.001371,-0.002181,-0.503832,0.000103,-1.280776,-262.612437,-1.339369,70.147196
10.1969,-0.002087,0.006032,0.000671,0.000594,-0.002182,0.00086,-0.001742,-0.503874,0.000815,-1.280776,-262.612437,-1.339369,70.147196
10.2164,-0.001972,0.005792,-0.001011,0.000542,-0.002169,0.000492,-0.001732,-0.504015,0.000699,-1.205917,-262.61204,-1.356777,70.14801
10.2364,-0.002515,0.00587,0.001045,0.000631,-0.002158,0.00113,-0.002418,-0.504193,-0.000856,-1.205917,-262.61204,-1.356777,70.14801
10.2566,-0.002371,0.006117,0.000397,0.000699,-0.002145,0.001585,-0.002418,-0.504193,-0.000856,-1.205917,-262.61204,-1.356777,70.14801
10.2764,-0.001919,0.005909,0.00192,0.00075,-0.002132,0.00191,-0.002148,-0.503964,0.000416,-1.280676,-262.611338,-1.35488,70.148922
10.2964,-0.002101,0.005597,0.000898,0.000647,-0.002107,0.001136,-0.001633,-0.504027,0.001056,-1.280676,-262.611338,-1.35488,70.148922
10.3163,-0.002431,0.005827,0.001598,0.000567,-0.002093,0.000578,-0.001641,-0.50441,0.000904,-1.205193,-262.611286,-1.347135,70.149064
10.3367,-0.002083,0.006066,0.001185,0.000505,-0.002065,-3.2e-05,-0.001618,-0.504193,0.001539,-1.205193,-262.611286,-1.347135,70.149064
10.3565,-0.00202,0.006267,0.001392,0.000458,-0.002048,-0.000474,-0.001618,-0.504193,0.001539,-1.205193,-262.611286,-1.347135,70.149064
10.3764,-0.002207,0.005986,-8.9e-05,0.000421,-0.002039,-0.000793,-0.001287,-0.503817,0.001415,-1.255883,-262.610585,-1.343135,70.150027
10.3963,-0.002243,0.005708,0.000873,0.000394,-0.002068,-0.000683,-0.001679,-0.503907,0.000803,-1.255883,-262.610585,-1.343135,70.150027
10.416,-0.002139,0.005881,0.000115,0.000373,-0.002091,-0.000606,-0.001787,-0.504336,0.000856,-1.330817,-262.609886,-1.306423,70.150467
10.4361,-0.002517,0.0059,0.000358,0.000428,-0.002098,-0.000214,-0.002053,-0.504141,0.000181,-1.330817,-262.609886,-1.306423,70.150467
10.4562,-0.002529,0.005962,0.00056,0.00047,-0.002101,6.3e-05,-0.002053,-0.504141,0.000181,-1.330817,-262.609886,-1.306423,70.150467
10.4763,-0.001948,0.005453,-0.000132,0.000502,-0.002102,0.000258,-0.00223,-0.504111,0.000538,-1.405772,-262.609045,-1.357294,70.151062
10.4971,-0.001786,0.005417,0.001225,0.000547,-0.002086,0.000357,-0.00214,-0.504298,0.000261,-1.405772,-262.609045,-1.357294,70.151062
10.5166,-0.001936,0.005312,-0.000189,0.000583,-0.002073,0.000426,-0.001147,-0.504642,0.001232,-1.330681,-262.608336,-1.352201,70.151879
10.5366,-0.002013,0.005489,-0.000645,0.000589,-0.002056,0.000654,-0.001952,-0.504687,-6.1e-05,-1.330681,-262.608336,-1.352201,70.151879
10.5567,-0.002304,0.005806,0.000748,0.000593,-0.00204,0.000818,-0.001952,-0.504687,-6.1e-05,-1.330681,-262.608336,-1.352201,70.151879
10.5763,-0.001988,0.005552,0.000265,0.000595,-0.002025,0.000934,-0.0019,-0.504273,0.000764,-1.259843,-262.607641,-1.32606,70.152757
10.5969,-0.002059,0.005644,0.000532,0.000572,-0.002017,0.000677,-0.001878,-0.504353,0.000562,-1.259843,-262.607641,-1.32606,70.152757
10.6166,-0.002076,0.005335,-0.000675,0.000554,-0.002013,0.000493,-0.001771,-0.504414,0.000559,-1.184853,-262.607074,-1.345255,70.153718
10.6367,-0.002334,0.005013,0.00046,0.000641,-0.001997,0.000979,-0.002361,-0.504646,-0.000562,-1.184853,-262.607074,-1.345255,70.153718
10.6563,-0.00199,0.005271,0.001098,0.000708,-0.001982,0.001326,-0.002361,-0.504646,-0.000562,-1.184853,-262.607074,-1.345255,70.153718
10.6767,-0.001978,0.005393,0.000595,0.000759,-0.001967,0.001572,-0.001408,-0.504806,0.001117,-1.257548,-262.606414,-1.335621,70.154591
10.6966,-0.002075,0.005447,0.001249,0.00064,-0.001945,0.000968,-0.001515,-0.504734,0.000905,-1.257548,-262.606414,-1.335621,70.154591
10.7164,-0.002046,0.005232,0.000257,0.000548,-0.001931,0.000535,-0.001434,-0.504564,0.001257,-1.182547,-262.606331,-1.317061,70.154789
10.7364,-0.002185,0.005328,-0.000505,0.000545,-0.001924,0.000513,-0.001871,-0.50475,0.000349,-1.182547,-262.606331,-1.317061,70.154789
10.7562,-0.002102,0.005495,-9.6e-05,0.000542,-0.001918,0.000496,-0.001871,-0.50475,0.000349,-1.182547,-262.606331,-1.317061,70.154789
10.7762,-0.002164,0.005019,0.000608,0.00054,-0.001914,0.000483,-0.002129,-0.504581,-7.5e-05,-1.241704,-262.605693,-1.332702,70.155664
10.7965,-0.002384,0.004936,-5.9e-05,0.000565,-0.001907,0.000552,-0.002014,-0.504753,0.000207,-1.241704,-262.605693,-1.332702,70.155664
10.8162,-0.002473,0.005232,0.0008,0.000585,-0.001901,0.000599,-0.002397,-0.505125,-4.3e-05,-1.248802,-262.605011,-1.331087,70.156573
10.8364,-0.001966,0.004656,0.000557,0.000617,-0.001873,0.000364,-0.002095,-0.504803,0.000725,-1.248802,-262.605011,-1.331087,70.156573
10.8565,-0.001867,0.004966,0.001272,0.000643,-0.001853,0.000194,-0.002095,-0.504803,0.000725,-1.248802,-262.605011,-1.331087,70.156573
10.8764,-0.002065,0.004885,0.000497,0.000663,-0.001839,7e-05,-0.001195,-0.505111,0.001296,-1.206918,-262.604374,-1.318453,70.157481
10.8973,-0.00206,0.004984,0.000881,0.000558,-0.001826,-0.000143,-0.001443,-0.505121,0.000973,-1.206918,-262.604374,-1.318453,70.157481
10.9165,-0.002045,0.005085,0.001252,0.000477,-0.001817,-0.000294,-0.001593,-0.505068,0.000883,-1.21714,-262.603694,-1.243452,70.158189
10.9363,-0.001788,0.004703,0.001319,0.000404,-0.001817,-0.000523,-0.001422,-0.50493,0.001221,-1.21714,-262.603694,-1.243452,70.158189
10.9564,-0.002167,0.005125,0.000417,0.000347,-0.001819,-0.000686,-0.001422,-0.50493,0.001221,-1.21714,-262.603694,-1.243452,70.158189
10.9765,-0.002012,0.005117,0.000258,0.000303,-0.001821,-0.000803,-0.001938,-0.504934,0.000408,-1.292271,-262.603061,-1.287514,70.158715
10.9965,-0.001459,0.004732,-0.000307,0.000364,-0.001828,-0.000437,-0.001912,-0.50492,0.000345,-1.292271,-262.603061,-1.287514,70.158715
11.0164,-0.002032,0.004708,0.000892,0.000411,-0.001832,-0.000178,-0.001607,-0.505306,-0.000324,-1.367271,-262.602442,-1.347073,70.159078
11.0366,-0.001883,0.004556,0.00075,0.000391,-0.001806,-0.000221,-0.001579,-0.505295,0.000788,-1.367271,-262.602442,-1.347073,70.159078
11.0565,-0.001847,0.00487,0.000725,0.000375,-0.001785,-0.000252,-0.001579,-0.505295,0.000788,-1.367271,-262.602442,-1.347073,70.159078
11.0768,-0.001794,0.004478,-4.3e-05,0.000361,-0.001768,-0.000275,-0.00146,-0.505207,0.000718,-1.362292,-262.601652,-1.336918,70.159784
11.097,-0.001955,0.004865,0.000158,0.000356,-0.00176,-9.3e-05,-0.001602,-0.505343,0.000409,-1.362292,-262.601652,-1.336918,70.159784
11.1164,-0.001931,0.004667,0.002074,0.000351,-0.001751,3.6e-05,-0.001863,-0.505191,0.00015,-1.38003,-262.600864,-1.345085,70.160451
11.1365,-0.001985,0.004772,-0.000372,0.000208,-0.001722,-0.000574,-0.000956,-0.505323,0.001912,-1.38003,-262.600864,-1.345085,70.160451
11.1568,-0.001839,0.004946,-0.000632,9.7e-05,-0.001702,-0.001011,-0.000956,-0.505323,0.001912,-1.38003,-262.600864,-1.345085,70.160451
11.1767,-0.001891,0.004302,3.1e-05,1.1e-05,-0.001689,-0.001325,-0.002147,-0.505126,-0.000631,-1.370386,-262.600171,-1.375242,70.161161
11.1966,-0.001853,0.00428,0.001787,0.000177,-0.001691,-0.000406,-0.002033,-0.505369,-0.000359,-1.370386,-262.600171,-1.375242,70.161161
11.2166,-0.001924,0.004406,1.9e-05,0.000302,-0.001688,0.000247,-0.00094,-0.505736,0.001774,-1.445203,-262.599857,-1.45006,70.161271
11.2369,-0.001763,0.004474,0.001071,0.000363,-0.001658,0.000419,-0.001826,-0.505608,0.000177,-1.445203,-262.599857,-1.45006,70.161271
11.2568,-0.001918,0.004502,0.001138,0.00041,-0.001633,0.000539,-0.001826,-0.505608,0.000177,-1.445203,-262.599857,-1.45006,70.161271
11.2763,-0.001535,0.004132,-0.000315,0.000445,-0.001612,0.000622,-0.001326,-0.505562,0.001148,-1.376785,-262.599291,-1.408038,70.161945
11.297,-0.002296,0.004079,0.001151,0.000398,-0.001591,0.000478,-0.001476,-0.505694,0.000552,-1.376785,-262.599291,-1.408038,70.161945
11.3164,-0.001578,0.003919,0.001628,0.000361,-0.001575,0.000376,-0.0017,-0.505955,0.001164,-1.301697,-262.59895,-1.350877,70.162476
11.3364,-0.001984,0.004032,0.0015,0.000192,-0.001509,-0.00018,-0.000832,-0.506071,0.001588,-1.301697,-262.59895,-1.350877,70.162476
11.3565,-0.00199,0.004063,0.000783,6.2e-05,-0.001459,-0.000579,-0.000832,-0.506071,0.001588,-1.301697,-262.59895,-1.350877,70.162476
11.3764,-0.001622,0.004202,0.000513,-4e-05,-0.001422,-0.000865,-0.001576,-0.506003,0.000799,-1.308443,-262.598396,-1.373174,70.163207
11.3964,-0.002072,0.003962,0.000353,3e-05,-0.001413,-0.000639,-0.001486,-0.505926,0.000683,-1.308443,-262.598396,-1.373174,70.163207
11.4161,-0.001907,0.004392,-0.000178,8.2e-05,-0.001405,-0.000481,-0.001891,-0.506043,0.00035,-1.383555,-262.598314,-1.448287,70.163245
11.4362,-0.001758,0.004412,0.001664,0.00022,-0.001423,6.6e-05,-0.001988,-0.505646,-0.000132,-1.383555,-262.598314,-1.448287,70.163245
11.4562,-0.001731,0.004395,-0.000521,0.000326,-0.001437,0.000453,-0.001988,-0.505646,-0.000132,-1.383555,-262.598314,-1.448287,70.163245
11.4762,-0.002112,0.00387,0.000321,0.000409,-0.001446,0.000726,-0.001993,-0.505646,-0.000535,-1.458481,-262.597833,-1.497533,70.16356
11.4963,-0.001631,0.004419,0.000339,0.00048,-0.001433,0.000951,-0.001974,-0.505852,-0.000182,-1.458481,-262.597833,-1.497533,70.16356
11.5162,-0.001717,0.003872,0.000621,0.000535,-0.001422,0.001111,-0.001456,-0.505591,0.000344,-1.383368,-262.597741,-1.42242,70.163725
11.5363,-0.001693,0.004211,0.000991,0.000458,-0.001392,0.000806,-0.001405,-0.506086,0.000599,-1.383368,-262.597741,-1.42242,70.163725
11.5563,-0.001811,0.003919,0.001788,0.000399,-0.001368,0.00059,-0.001405,-0.506086,0.000599,-1.383368,-262.597741,-1.42242,70.163725
11.5764,-0.002111,0.004236,0.003247,0.000353,-0.00135,0.000435,-0.000899,-0.506082,0.001789,-1.308258,-262.597727,-1.347309,70.163757
11.5963,-0.002136,0.003863,0.001512,0.000153,-0.001328,-0.00045,-0.000717,-0.505951,0.002389,-1.308258,-262.597727,-1.347309,70.163757
11.6162,-0.002107,0.003984,0.00127,-1e-06,-0.001316,-0.00109,-0.001354,-0.506177,0.001525,-1.256253,-262.597291,-1.355804,70.16439
11.6364,-0.001812,0.004351,0.000655,5.4e-05,-0.001308,-0.001097,-0.001449,-0.506032,0.001293,-1.256253,-262.597291,-1.355804,70.16439
11.6566,-0.001922,0.004252,0.000828,9.5e-05,-0.001304,-0.001105,-0.001449,-0.506032,0.001293,-1.256253,-262.597291,-1.355804,70.16439
11.6763,-0.001834,0.004068,-0.000124,0.000126,-0.001302,-0.001114,-0.001498,-0.505753,0.000824,-1.331257,-262.597217,-1.430808,70.164414
11.697,-0.002223,0.004341,0.000417,0.000188,-0.001338,-0.000697,-0.00166,-0.505826,0.00044,-1.331257,-262.597217,-1.430808,70.164414
11.7162,-0.001855,0.004237,0.00124,0.000235,-0.001365,-0.000403,-0.002006,-0.505683,0.000397,-1.406169,-262.596762,-1.370734,70.16456
11.7362,-0.001746,0.004204,0.001148,0.00019,-0.001387,-0.000565,-0.001292,-0.505757,0.001164,-1.406169,-262.596762,-1.370734,70.16456
11.7562,-0.00182,0.004176,0.00127,0.000155,-0.001405,-0.000681,-0.001292,-0.505757,0.001164,-1.406169,-262.596762,-1.370734,70.16456
11.7762,-0.001891,0.00402,0.000171,0.000129,-0.001421,-0.000764,-0.001162,-0.50588,0.001253,-1.425879,-262.596114,-1.363658,70.165014
11.7965,-0.001734,0.003934,0.001727,0.000142,-0.001422,-0.000643,-0.001424,-0.505928,0.000808,-1.425879,-262.596114,-1.363658,70.165014
11.8164,-0.001824,0.003816,0.001372,0.000152,-0.001422,-0.000558,-0.00085,-0.506103,0.001707,-1.500955,-262.595484,-1.436947,70.165335
11.8365,-0.001574,0.003718,0.001782,9.2e-05,-0.001387,-0.000775,-0.0011,-0.506178,0.001401,-1.500955,-262.595484,-1.436947,70.165335
11.8562,-0.001873,0.003776,0.001549,4.6e-05,-0.00136,-0.00093,-0.0011,-0.506178,0.001401,-1.500955,-262.595484,-1.436947,70.165335
11.8763,-0.001706,0.003884,0.00053,9e-06,-0.001339,-0.001041,-0.001077,-0.506282,0.001526,-1.484737,-262.594778,-1.431047,70.165771
11.8962,-0.001572,0.004087,-0.0012,1.1e-05,-0.001322,-0.000984,-0.001224,-0.50622,0.001113,-1.484737,-262.594778,-1.431047,70.165771
11.9161,-0.001868,0.003845,0.001003,1.1e-05,-0.001309,-0.000945,-0.002183,-0.505942,-0.001223,-1.559847,-262.59423,-1.506157,70.165966
11.9363,-0.001893,0.003932,0.000612,5.6e-05,-0.001307,-0.000762,-0.001432,-0.506137,0.000799,-1.559847,-262.59423,-1.506157,70.165966
11.9567,-0.001576,0.003717,0.000289,9e-05,-0.001306,-0.000634,-0.001432,-0.506137,0.000799,-1.559847,-262.59423,-1.506157,70.165966
11.9767,-0.001665,0.003792,0.000611,0.000116,-0.001303,-0.000543,-0.001428,-0.506336,0.000251,-1.564888,-262.593505,-1.555574,70.166247
11.9966,-0.001585,0.003914,0.0003,0.000133,-0.001295,-0.000262,-0.001398,-0.50629,0.000392,-1.564888,-262.593505,-1.555574,70.166247
12.0163,-0.001765,0.003499,0.002205,0.000146,-0.001286,-6.3e-05,-0.001429,-0.506119,0.000286,-1.499935,-262.592988,-1.480593,70.166556
12.0365,-0.001529,0.00377,0.00086,-9e-06,-0.001229,-0.000678,-0.000708,-0.506469,0.00204,-1.499935,-262.592988,-1.480593,70.166556
12.0565,-0.001847,0.003849,0.000503,-0.000128,-0.001187,-0.00112,-0.000708,-0.506469,0.00204,-1.499935,-262.592988,-1.480593,70.166556
12.0765,-0.001475,0.003505,0.000356,-0.000219,-0.001155,-0.001437,-0.001584,-0.506203,0.000501,-1.461025,-262.592474,-1.454317,70.16704
12.0963,-0.001779,0.003432,1e-05,-0.000107,-0.001161,-0.00091,-0.001466,-0.506327,0.000442,-1.461025,-262.592474,-1.454317,70.16704
12.1165,-0.001718,0.00317,-0.000295,-2.2e-05,-0.001163,-0.000538,-0.001774,-0.506568,1e-05,-1.535898,-262.592474,-1.379444,70.16704
12.1365,-0.001618,0.003423,3.3e-05,0.000161,-0.001098,0.000129,-0.00186,-0.506806,-0.000267,-1.535898,-262.592474,-1.379444,70.16704
12.1564,-0.001566,0.003795,0.000989,0.000298,-0.001044,0.0006,-0.00186,-0.506806,-0.000267,-1.535898,-262.592474,-1.379444,70.16704
12.1761,-0.001665,0.003498,-0.000142,0.000403,-0.001,0.000931,-0.001061,-0.506226,0.000978,-1.585732,-262.592208,-1.454565,70.167189
12.1965,-0.001535,0.003991,0.000335,0.000335,-0.001031,0.000721,-0.00134,-0.506343,0.000515,-1.585732,-262.592208,-1.454565,70.167189
12.2161,-0.001708,0.00361,-0.000154,0.000285,-0.001056,0.000571,-0.001364,-0.506009,0.000335,-1.510746,-262.592208,-1.379579,70.167189
12.2365,-0.001692,0.003563,0.000556,0.000345,-0.001072,0.000807,-0.001749,-0.506356,-0.00011,-1.510746,-262.592208,-1.379579,70.167189
12.2562,-0.001867,0.003174,-0.000105,0.000392,-0.001083,0.000974,-0.001749,-0.506356,-0.00011,-1.510746,-262.592208,-1.379579,70.167189
12.2761,-0.001849,0.003951,0.002239,0.000429,-0.001091,0.001093,-0.001919,-0.506834,-0.000101,-1.435852,-262.592152,-1.370587,70.167293
12.2963,-0.00152,0.003428,0.000752,0.000387,-0.001064,0.000672,-0.001422,-0.506513,0.00086,-1.435852,-262.592152,-1.370587,70.167293
12.3163,-0.001481,0.003443,0.000617,0.000356,-0.001046,0.00037,-0.001137,-0.506572,0.000752,-1.360841,-262.592152,-1.331594,70.167294
12.3362,-0.001281,0.003871,0.001456,0.000269,-0.001045,0.000268,-0.001164,-0.506558,0.000626,-1.360841,-262.592152,-1.331594,70.167294
12.3562,-0.0018,0.003538,0.000347,0.000202,-0.001043,0.000196,-0.001164,-0.506558,0.000626,-1.360841,-262.592152,-1.331594,70.167294
12.3763,-0.0016,0.003556,0.000304,0.000151,-0.001042,0.000146,-0.001617,-0.506484,0.000355,-1.285333,-262.591968,-1.297981,70.167566
12.3966,-0.001674,0.003288,0.000613,0.0002,-0.001043,0.000265,-0.001545,-0.50647,0.000334,-1.285333,-262.591968,-1.297981,70.167566
12.4162,-0.002012,0.003801,0.000654,0.000238,-0.001045,0.000349,-0.001358,-0.50673,0.000616,-1.359937,-262.591753,-1.372584,70.16782
12.4363,-0.001454,0.003585,0.000129,0.000282,-0.001059,0.000236,-0.00165,-0.506248,0.00065,-1.359937,-262.591753,-1.372584,70.16782
12.4563,-0.001305,0.003704,0.001728,0.000316,-0.001073,0.000154,-0.00165,-0.506248,0.00065,-1.359937,-262.591753,-1.372584,70.16782
12.4762,-0.001521,0.003589,-3.5e-05,0.000344,-0.001086,9.5e-05,-0.000415,-0.506336,0.001742,-1.292138,-262.591432,-1.383836,70.168295
12.4967,-0.001657,0.003611,-0.000787,0.000184,-0.001102,-0.000137,-0.000873,-0.506371,0.001017,-1.292138,-262.591432,-1.383836,70.168295
12.5165,-0.001859,0.003452,0.002114,6.1e-05,-0.001114,-0.000299,-0.00205,-0.506418,-0.000784,-1.248331,-262.591079,-1.308852,70.168684
12.5362,-0.001772,0.003222,0.001738,-2.5e-05,-0.001077,-0.000774,-0.000892,-0.506537,0.001861,-1.248331,-262.591079,-1.308852,70.168684
12.5566,-0.001526,0.003442,0.000866,-9.1e-05,-0.001052,-0.001115,-0.000892,-0.506537,0.001861,-1.248331,-262.591079,-1.308852,70.168684
12.5765,-0.001709,0.003608,0.000194,-0.000142,-0.001035,-0.001361,-0.001083,-0.506565,0.000864,-1.323431,-262.590998,-1.383951,70.168742
12.5964,-0.001583,0.003745,3.9e-05,-8.4e-05,-0.00105,-0.000938,-0.001297,-0.506496,0.000591,-1.323431,-262.590998,-1.383951,70.168742
12.6163,-0.00146,0.003658,-0.001289,-4.2e-05,-0.001061,-0.000639,-0.001562,-0.506255,3.9e-05,-1.398358,-262.590998,-1.309024,70.168742
12.6365,-0.001751,0.002887,-0.000116,0.000171,-0.001084,0.000499,-0.00207,-0.506334,-0.001176,-1.398358,-262.590998,-1.309024,70.168742
12.6568,-0.001693,0.003507,0.001101,0.000333,-0.0011,0.001318,-0.00207,-0.506334,-0.001176,-1.398358,-262.590998,-1.309024,70.168742
12.6766,-0.001406,0.003341,-0.001366,0.000457,-0.001111,0.001905,-0.001131,-0.506497,0.001099,-1.473473,-262.590943,-1.384139,70.168768
12.6962,-0.001644,0.003263,-0.000841,0.000433,-0.001085,0.001648,-0.001525,-0.506563,9.7e-05,-1.473473,-262.590943,-1.384139,70.168768
12.7166,-0.001652,0.003626,-0.000871,0.000415,-0.001065,0.001467,-0.002073,-0.506737,-0.000841,-1.398576,-262.590943,-1.372682,70.168768
12.7363,-0.001783,0.003693,0.001233,0.000529,-0.001064,0.001859,-0.002094,-0.506407,-0.000868,-1.398576,-262.590943,-1.372682,70.168768
12.7565,-0.001717,0.003482,0.000844,0.000616,-0.001062,0.002137,-0.002094,-0.506407,-0.000868,-1.398576,-262.590943,-1.372682,70.168768
12.7766,-0.001315,0.003488,0.000964,0.000685,-0.001059,0.002335,-0.001287,-0.506517,0.000844,-1.323601,-262.590943,-1.362185,70.168768
12.7967,-0.001673,0.003722,-0.000308,0.000505,-0.001038,0.001546,-0.001098,-0.506515,0.000893,-1.323601,-262.590943,-1.362185,70.168768
12.8167,-0.001901,0.00323,-0.00017,0.000368,-0.001025,0.000981,-0.00183,-0.506278,-0.000308,-1.24861,-262.590943,-1.301906,70.168768
12.8365,-0.001172,0.003274,0.000499,0.000485,-0.000978,0.001159,-0.001971,-0.506717,-0.000185,-1.24861,-262.590943,-1.301906,70.168768
12.8567,-0.001431,0.003874,-2.2e-05,0.000574,-0.000942,0.001282,-0.001971,-0.506717,-0.000185,-1.24861,-262.590943,-1.301906,70.168768
12.8763,-0.001917,0.00358,-8.1e-05,0.000641,-0.000914,0.001368,-0.001441,-0.506129,-1.9e-05,-1.173468,-262.590925,-1.347982,70.168821
12.8962,-0.001878,0.00373,0.000355,0.000595,-0.000968,0.001332,-0.001652,-0.506248,-4.4e-05,-1.173468,-262.590925,-1.347982,70.168821
12.9165,-0.00131,0.003467,-0.001246,0.000562,-0.001012,0.001307,-0.001697,-0.50627,0.000355,-1.098578,-262.590925,-1.273093,70.168821
12.9366,-0.001594,0.003361,0.000294,0.000615,-0.001024,0.001864,-0.001924,-0.506509,-0.001103,-1.098578,-262.590925,-1.273093,70.168821
12.9565,-0.001671,0.003316,-0.000523,0.000655,-0.001031,0.002263,-0.001924,-0.506509,-0.001103,-1.098578,-262.590925,-1.273093,70.168821
12.9766,-0.00155,0.003349,0.000269,0.000685,-0.001034,0.002548,-0.001938,-0.506684,-0.000523,-1.023615,-262.590925,-1.269949,70.168821
12.9966,-0.001571,0.00333,0.00135,0.000667,-0.000998,0.002274,-0.001723,-0.506671,-0.0002,-1.023615,-262.590925,-1.269949,70.168821
13.0163,-0.00164,0.003557,0.00065,0.000653,-0.000971,0.002079,-0.000882,-0.506669,0.00135,-0.948504,-262.590925,-1.312278,70.168821
13.0363,-0.001259,0.003427,0.000195,0.000524,-0.000972,0.001451,-0.00127,-0.506464,0.000713,-0.948504,-262.590925,-1.312278,70.168821
13.0566,-0.001873,0.003236,0.000396,0.000425,-0.000978,0.001002,-0.00127,-0.506464,0.000713,-0.948504,-262.590925,-1.312278,70.168821
13.0767,-0.001397,0.003702,-0.000107,0.00035,-0.000985,0.00068,-0.001671,-0.506764,0.000396,-0.8736,-262.590925,-1.287268,70.168821
13.097,-0.00162,0.003225,0.000574,0.000372,-0.000979,0.000729,-0.001583,-0.506576,0.000194,-0.8736,-262.590925,-1.287268,70.168821
13.1164,-0.001618,0.003002,0.001159,0.000388,-0.000975,0.000763,-0.001319,-0.506797,0.00059,-0.948596,-262.59074,-1.326133,70.169221
13.1361,-0.001457,0.003411,0.002107,0.000282,-0.000905,0.00033,-0.001051,-0.506982,0.001111,-0.948596,-262.59074,-1.326133,70.169221
13.1561,-0.001884,0.003736,0.001075,0.0002,-0.000853,1.9e-05,-0.001051,-0.506982,0.001111,-0.948596,-262.59074,-1.326133,70.169221
13.1762,-0.001683,0.003378,0.001469,0.000137,-0.000814,-0.000204,-0.00132,-0.506303,0.001106,-0.919934,-262.590489,-1.307913,70.169805
13.1962,-0.001533,0.003094,0.000304,9.6e-05,-0.000854,-0.00045,-0.001161,-0.506437,0.001257,-0.919934,-262.590489,-1.307913,70.169805
13.2165,-0.001586,0.003526,0.001831,6.6e-05,-0.000889,-0.000626,-0.001378,-0.506906,0.000304,-0.994719,-262.590484,-1.374946,70.169809
13.2363,-0.00147,0.003062,-3.6e-05,-6.7e-05,-0.00091,-0.000947,-0.000719,-0.506513,0.001691,-0.994719,-262.590484,-1.374946,70.169809
13.2566,-0.001298,0.003387,-0.000219,-0.000169,-0.000929,-0.001175,-0.000719,-0.506513,0.001691,-0.994719,-262.590484,-1.374946,70.169809
13.2769,-0.001623,0.003305,0.000119,-0.000248,-0.000947,-0.001339,-0.001409,-0.506613,-0.000219,-1.069724,-262.59048,-1.44207,70.169811
13.2968,-0.001655,0.003346,-0.000318,-0.000115,-0.000962,-0.00055,-0.001472,-0.506647,-8.1e-05,-1.069724,-262.59048,-1.44207,70.169811
13.3165,-0.001764,0.00338,0.000813,-1.7e-05,-0.000971,9e-06,-0.001817,-0.506654,-0.000318,-1.144721,-262.59048,-1.367072,70.169811
13.3366,-0.001834,0.003165,-9e-05,3.6e-05,-0.000962,-2.1e-05,-0.001391,-0.506623,0.000711,-1.144721,-262.59048,-1.367072,70.169811
13.3565,-0.002043,0.003134,-0.000419,7.6e-05,-0.000956,-4.5e-05,-0.001391,-0.506623,0.000711,-1.144721,-262.59048,-1.367072,70.169811
13.3763,-0.001386,0.003289,0.000422,0.000107,-0.000952,-6.4e-05,-0.002257,-0.506867,-0.000419,-1.219726,-262.590473,-1.442077,70.169818
13.3968,-0.001805,0.003582,0.000848,0.000244,-0.000922,0.000353,-0.001814,-0.506804,-7.6e-05,-1.219726,-262.590473,-1.442077,70.169818
13.4162,-0.001404,0.00324,0.000396,0.000348,-0.000897,0.000647,-0.00137,-0.506429,0.000847,-1.294724,-262.590321,-1.454335,70.169958
13.4365,-0.001402,0.003515,-0.00019,0.000275,-0.000903,0.000568,-0.001216,-0.506732,0.000435,-1.294724,-262.590321,-1.454335,70.169958
13.4565,-0.001763,0.00316,0.000179,0.00022,-0.000906,0.000513,-0.001216,-0.506732,0.000435,-1.294724,-262.590321,-1.454335,70.169958
13.4762,-0.001735,0.003477,0.000904,0.000178,-0.000909,0.000475,-0.00167,-0.506844,0.000182,-1.219645,-262.590291,-1.379257,70.170022
13.4963,-0.001504,0.003263,-0.000644,0.000218,-0.000897,0.000429,-0.001509,-0.506714,0.000476,-1.219645,-262.590291,-1.379257,70.170022
13.5163,-0.002052,0.003429,0.000792,0.000249,-0.00089,0.000395,-0.001827,-0.506763,-0.000631,-1.291008,-262.590061,-1.423598,70.170455
13.5368,-0.001191,0.003132,-3.7e-05,0.000305,-0.000888,0.00027,-0.001664,-0.506589,0.000665,-1.291008,-262.590061,-1.423598,70.170455
13.5568,-0.001013,0.003155,0.000208,0.000349,-0.000889,0.000178,-0.001664,-0.506589,0.000665,-1.291008,-262.590061,-1.423598,70.170455
13.5762,-0.001337,0.003437,-0.001615,0.000384,-0.000892,0.000112,-0.000898,-0.506876,0.000222,-1.21601,-262.589834,-1.353926,70.170834
13.5965,-0.001072,0.003259,0.000663,0.000358,-0.000916,0.000706,-0.001407,-0.506753,-0.000518,-1.21601,-262.589834,-1.353926,70.170834
13.6164,-0.001999,0.003005,0.001221,0.000337,-0.00093,0.001131,-0.000728,-0.506758,0.000666,-1.141011,-262.58962,-1.278928,70.171078
13.6365,-0.00165,0.002894,1.3e-05,0.000309,-0.000857,0.000567,-0.001322,-0.506976,0.001175,-1.141011,-262.58962,-1.278928,70.171078
13.6563,-0.001644,0.003084,0.001862,0.000288,-0.000803,0.00016,-0.001322,-0.506976,0.001175,-1.141011,-262.58962,-1.278928,70.171078
13.6763,-0.001366,0.003127,0.000846,0.000272,-0.000764,-0.000134,-0.000694,-0.506915,0.001862,-1.065716,-262.589619,-1.354223,70.171084
13.6965,-0.001596,0.003204,0.000323,0.000117,-0.000759,-0.000481,-0.000791,-0.506898,0.00145,-1.065716,-262.589619,-1.354223,70.171084
13.7163,-0.001771,0.003441,-0.001324,-2e-06,-0.000757,-0.000729,-0.001428,-0.506804,0.000322,-1.140423,-262.589491,-1.279516,70.171189
13.7363,-0.00122,0.002963,-0.000541,0.000276,-0.000782,0.000448,-0.002364,-0.506579,-0.001191,-1.140423,-262.589491,-1.279516,70.171189
13.7564,-0.001499,0.003301,0.000607,0.00049,-0.000802,0.001294,-0.002364,-0.506579,-0.001191,-1.140423,-262.589491,-1.279516,70.171189
13.7761,-0.001547,0.002941,-0.000395,0.000654,-0.000819,0.001899,-0.001189,-0.506699,0.000606,-1.215703,-262.589486,-1.354797,70.17119
13.7969,-0.00141,0.003285,0.000237,0.000568,-0.000811,0.00159,-0.001416,-0.506845,0.0002,-1.215703,-262.589486,-1.354797,70.17119
13.816,-0.001568,0.002927,-1.1e-05,0.000503,-0.000805,0.001372,-0.00129,-0.506715,0.000237,-1.140984,-262.589486,-1.280077,70.17119
13.8364,-0.001597,0.003416,0.001953,0.000497,-0.000769,0.001328,-0.001547,-0.50704,1.3e-05,-1.140984,-262.589486,-1.280077,70.17119
13.8564,-0.001737,0.003604,0.000748,0.000492,-0.000741,0.001297,-0.001547,-0.50704,1.3e-05,-1.140984,-262.589486,-1.280077,70.17119
13.8764,-0.001394,0.003221,0.001183,0.000488,-0.000718,0.001274,-0.001356,-0.506396,0.000748,-1.06598,-262.589486,-1.273617,70.17119
13.8963,-0.00169,0.002979,0.002062,0.000358,-0.000762,0.000763,-0.001123,-0.506553,0.000927,-1.06598,-262.589486,-1.273617,70.17119
13.916,-0.001994,0.00297,0.001624,0.00026,-0.0008,0.000398,-0.000638,-0.507019,0.002062,-0.990887,-262.589486,-1.255732,70.17119
13.9364,-0.001801,0.003209,-0.001652,0.000202,-0.000741,-0.00017,-0.00112,-0.507028,0.001662,-0.990887,-262.589486,-1.255732,70.17119
13.9565,-0.001471,0.003286,0.000932,0.000158,-0.000699,-0.000581,-0.00112,-0.507028,0.001662,-0.990887,-262.589486,-1.255732,70.17119
13.9766,-0.001396,0.003243,0.001709,0.000123,-0.00067,-0.000878,-0.000987,-0.506736,0.000944,-1.06589,-262.589323,-1.326302,70.171477
13.9965,-0.001314,0.003262,-0.000766,2e-06,-0.000716,-0.000929,-0.000801,-0.506747,0.001251,-1.06589,-262.589323,-1.326302,70.171477
14.0163,-0.001635,0.00321,0.000154,-9.2e-05,-0.000753,-0.000963,-0.001705,-0.506738,-0.000766,-1.140816,-262.589322,-1.251375,70.171477
14.0365,-0.001288,0.003208,0.00046,3.2e-05,-0.000776,-0.00037,-0.001569,-0.506785,7.6e-05,-1.140816,-262.589322,-1.251375,70.171477
14.0566,-0.001402,0.002907,0.002431,0.000125,-0.000792,5e-05,-0.001569,-0.506785,7.6e-05,-1.140816,-262.589322,-1.251375,70.171477
14.0768,-0.001658,0.003153,0.000254,0.0,0.0,0.0,-0.000163,-0.507092,0.002431,-1.215932,-262.589322,-1.17626,70.171477
14.0966,-0.001872,0.00294,-0.000897,0.0,0.0,0.0,-0.000709,-0.506994,0.00156,-1.215932,-262.589322,-1.17626,70.171477
14.1165,-0.001598,0.003369,0.001451,0.0,0.0,0.0,-0.002329,-0.50706,-0.000897,-1.215932,-262.589322,-1.17626,70.171477
14.1366,-0.001545,0.003276,-0.000393,0.0,0.0,0.0,-0.000984,-0.506667,0.001251,-1.215932,-262.589322,-1.17626,70.171477
14.1565,-0.001552,0.003267,0.001151,0.0,0.0,0.0,-0.000984,-0.506667,0.001251,-1.215932,-262.589322,-1.17626,70.171477
14.1764,-0.00138,0.003423,0.000262,0.0,0.0,0.0,-0.000965,-0.506732,0.001151,-1.215932,-262.589322,-1.17626,70.171477
14.1969,-0.001653,0.002874,-3.1e-05,0.0,0.0,0.0,-0.00108,-0.506669,0.000788,-1.215932,-262.589322,-1.17626,70.171477
14.2165,-0.001668,0.003125,-0.000295,0.0,0.0,0.0,-0.001669,-0.507126,-3.1e-05,-1.215932,-262.589322,-1.17626,70.171477
14.2365,-0.001561,0.003133,0.000442,0.0,0.0,0.0,-0.001805,-0.506897,-0.000271,-1.215932,-262.589322,-1.17626,70.171477
14.2565,-0.00148,0.002849,0.001125,0.0,0.0,0.0,-0.001805,-0.506897,-0.000271,-1.215932,-262.589322,-1.17626,70.171477
14.2764,-0.001591,0.002989,-0.000172,0.0,0.0,0.0,-0.000907,-0.507151,0.001125,-1.215932,-262.589322,-1.17626,70.171477
14.2962,-0.001054,0.003011,-0.000597,0.0,0.0,0.0,-0.001224,-0.507094,0.000592,-1.215932,-262.589322,-1.17626,70.171477
14.3162,-0.001877,0.00305,0.001795,0.0,0.0,0.0,-0.001359,-0.506989,-0.000597,-1.215932,-262.589322,-1.17626,70.171477
14.3363,-0.0013,0.00336,0.000397,0.0,0.0,0.0,-0.000994,-0.506952,0.001596,-1.215932,-262.589322,-1.17626,70.171477
14.3563,-0.001619,0.003159,-0.000206,0.0,0.0,0.0,-0.000994,-0.506952,0.001596,-1.215932,-262.589322,-1.17626,70.171477
14.3762,-0.001782,0.003352,0.000717,0.0,0.0,0.0,-0.001725,-0.506841,-0.000206,-1.215932,-262.589322,-1.17626,70.171477
14.3968,-0.001393,0.003058,0.00114,0.0,0.0,0.0,-0.001599,-0.506762,0.000171,-1.215932,-262.589322,-1.17626,70.171477
14.4163,-0.001922,0.003205,0.001265,0.0,0.0,0.0,-0.000812,-0.506941,0.00114,-1.215932,-262.589322,-1.17626,70.171477
14.4363,-0.001208,0.0033,0.000477,0.0,0.0,0.0,-0.001235,-0.506808,0.001253,-1.215932,-262.589322,-1.17626,70.171477
14.4563,-0.001396,0.002987,0.000414,0.0,0.0,0.0,-0.001235,-0.506808,0.001253,-1.215932,-262.589322,-1.17626,70.171477
14.4762,-0.001694,0.003509,0.000924,0.0,0.0,0.0,-0.001185,-0.507012,0.000414,-1.215932,-262.589322,-1.17626,70.171477
14.4964,-0.001637,0.003157,-0.000549,0.0,0.0,0.0,-0.0012,-0.506797,0.000625,-1.215932,-262.589322,-1.17626,70.171477
14.5165,-0.001659,0.002654,7.6e-05,0.0,0.0,0.0,-0.001917,-0.506843,-0.000549,-1.215932,-262.589322,-1.17626,70.171477
14.5368,-0.00147,0.003037,-0.000621,0.0,0.0,0.0,-0.001648,-0.507299,1.7e-05,-1.215932,-262.589322,-1.17626,70.171477
14.5565,-0.001512,0.003313,0.00036,0.0,0.0,0.0,-0.001648,-0.507299,1.7e-05,-1.215932,-262.589322,-1.17626,70.171477
14.5764,-0.001523,0.003313,-0.000227,0.0,0.0,0.0,-0.001329,-0.506687,0.00036,-1.215932,-262.589322,-1.17626,70.171477
14.5961,-0.001927,0.003205,-0.000343,0.0,0.0,0.0,-0.001456,-0.506687,0.00012,-1.215932,-262.589322,-1.17626,70.171477
14.6163,-0.001644,0.003007,0.000258,0.0,0.0,0.0,-0.002102,-0.506795,-0.000343,-1.215932,-262.589322,-1.17626,70.171477
14.6363,-0.001393,0.003273,0.001144,0.0,0.0,0.0,-0.001566,-0.506975,0.000203,-1.215932,-262.589322,-1.17626,70.171477
14.6563,-0.00164,0.002994,-0.000467,0.0,0.0,0.0,-0.001566,-0.506975,0.000203,-1.215932,-262.589322,-1.17626,70.171477
14.6764,-0.001391,0.003138,0.001766,0.0,0.0,0.0,-0.001878,-0.507006,-0.000467,-1.215932,-262.589322,-1.17626,70.171477
14.6965,-0.001277,0.003464,0.000537,0.0,0.0,0.0,-0.001305,-0.506946,0.000456,-1.215932,-262.589322,-1.17626,70.171477
14.7165,-0.001716,0.003042,0.00037,0.0,0.0,0.0,-0.001004,-0.506536,0.000537,-1.215932,-262.589322,-1.17626,70.171477
14.7363,-0.001578,0.003148,0.000424,0.0,0.0,0.0,-0.00148,-0.50692,0.000385,-1.215932,-262.589322,-1.17626,70.171477
14.7565,-0.001645,0.003107,0.001448,0.0,0.0,0.0,-0.00148,-0.50692,0.000385,-1.215932,-262.589322,-1.17626,70.171477
14.7769,-0.001626,0.00304,-0.001493,0.0,0.0,0.0,-0.000907,-0.506893,0.001448,-1.215932,-262.589322,-1.17626,70.171477
14.7964,-0.001798,0.003027,0.001166,0.0,0.0,0.0,-0.001501,-0.506919,0.000268,-1.215932,-262.589322,-1.17626,70.171477
14.8165,-0.001992,0.003139,0.000484,0.0,0.0,0.0,-0.001204,-0.506972,0.001166,-1.215932,-262.589322,-1.17626,70.171477
14.8367,-0.001846,0.003225,-0.000615,0.0,0.0,0.0,-0.001697,-0.506871,0.000545,-1.215932,-262.589322,-1.17626,70.171477
14.8568,-0.001499,0.00327,0.001086,0.0,0.0,0.0,-0.001697,-0.506871,0.000545,-1.215932,-262.589322,-1.17626,70.171477
14.8766,-0.001874,0.00325,0.000793,0.0,0.0,0.0,-0.000945,-0.50673,0.001086,-1.215932,-262.589322,-1.17626,70.171477
14.8967,-0.00164,0.002974,0.001299,0.0,0.0,0.0,-0.001159,-0.506738,0.000967,-1.215932,-262.589322,-1.17626,70.171477
14.9165,-0.002122,0.0032,0.000605,0.0,0.0,0.0,-0.000977,-0.507025,0.001299,-1.215932,-262.589322,-1.17626,70.171477
