mach0312/omni-docking-bench/src/icros_test_setup/results/MPPI_sample/timeseries/trial_019.csv
t,x,y,yaw,vx,vy,wz,bl_x,bl_y,bl_yaw,front_steering_joint,front_wheel_joint,rear_steering_joint,rear_wheel_joint
0.0,-0.00048,0.028111,-0.001691,0.000123,0.003924,9.2e-05,-0.000373,-0.483402,2.8e-05,1.539881,-265.394693,1.538981,62.710609
0.0004,0.000221,0.02849,-0.000649,8.4e-05,0.002687,6.3e-05,-0.000157,-0.482815,0.000758,1.539881,-265.391384,1.538981,62.713824
0.0007,-0.000293,0.028397,-0.001026,4.3e-05,0.001377,3.2e-05,-0.000326,-0.48275,0.00041,1.539881,-265.388867,1.538981,62.71627
0.001,-0.000131,0.028508,-0.001085,0.0,0.0,0.0,-0.000326,-0.48275,0.00041,1.539881,-265.387777,1.538981,62.71733
0.0014,-0.000262,0.028677,-0.001563,0.0,0.0,0.0,-0.000403,-0.48263,-0.000279,1.539881,-265.387777,1.538981,62.71733
0.0018,-0.000339,0.028374,0.000351,0.0,0.0,0.0,-0.000403,-0.48263,-0.000279,1.539881,-265.387777,1.538981,62.71733
0.002,-2.7e-05,0.028365,-0.000883,0.0,0.0,0.0,-0.000266,-0.482611,-0.00016,1.539881,-265.387777,1.538981,62.71733
0.0023,-0.000201,0.028461,-0.000815,0.0,0.0,0.0,-0.000266,-0.482611,-0.00016,1.539881,-265.387777,1.538981,62.71733
0.0153,-0.00016,0.028638,5.2e-05,0.0,0.0,0.0,-0.000445,-0.481634,-0.000759,1.539881,-265.387777,1.538981,62.71733
0.0356,-0.000744,0.028522,0.000146,0.0,0.0,0.0,-0.000134,-0.481362,5.2e-05,1.539881,-265.387777,1.538981,62.71733
0.0555,0.000175,0.028412,-0.00094,0.0,0.0,0.0,-0.000355,-0.48141,9.1e-05,1.539881,-265.387777,1.538981,62.71733
0.0753,-0.00032,0.028515,-0.000741,0.0,0.0,0.0,-0.000305,-0.481588,-0.00094,1.539881,-265.387777,1.538981,62.71733
0.0956,-0.000359,0.028553,-0.000715,0.0,0.0,0.0,-0.000664,-0.481494,-0.000758,1.539881,-265.387777,1.538981,62.71733
0.1154,-0.00032,0.028492,-0.001256,-0.000618,-0.002918,0.002233,-0.000664,-0.481494,-0.000758,1.539881,-265.387777,1.538981,62.71733
0.1353,-0.000219,0.028373,0.00169,-0.00064,-0.003184,0.002463,-0.00096,-0.481508,-0.001256,1.539881,-265.387777,1.538981,62.71733
0.1553,-2e-05,0.028543,0.000402,-0.00066,-0.003408,0.002255,-0.000306,-0.481556,-5.3e-05,1.539881,-265.387777,1.538981,62.71733
0.1754,6e-05,0.02853,4.8e-05,-0.000675,-0.003598,0.002107,0.000183,-0.481471,0.000413,1.465043,-265.387876,1.464143,62.717069
0.1956,-0.00028,0.028379,0.000884,-0.000699,-0.003758,0.001931,9.3e-05,-0.481471,8.2e-05,1.465043,-265.387876,1.464143,62.717069
0.2156,-0.000215,0.028608,-0.000203,-0.000718,-0.003893,0.001804,9.3e-05,-0.481471,8.2e-05,1.465043,-265.387876,1.464143,62.717069
0.2359,-0.000215,0.028475,-0.001051,-0.000732,-0.004008,0.001711,-0.000332,-0.481481,-0.000152,1.390048,-265.388445,1.433482,62.715903
0.256,-0.000254,0.028369,-0.002068,-0.000728,-0.004107,0.001959,-0.000506,-0.481509,-0.000516,1.390048,-265.388445,1.433482,62.715903
0.2751,-0.000344,0.027921,0.000686,-0.000721,-0.004191,0.002135,-0.001331,-0.48175,-0.002017,1.32846,-265.389592,1.426868,62.713985
0.2958,-0.000426,0.028096,-0.001345,-0.000722,-0.004261,0.001758,-0.000115,-0.482056,0.000446,1.32846,-265.389592,1.426868,62.713985
0.3153,-0.000522,0.028195,-0.000867,-0.000723,-0.00432,0.001485,-0.000115,-0.482056,0.000446,1.32846,-265.389592,1.426868,62.713985
0.3361,-0.000115,0.02797,0.000811,-0.000723,-0.004369,0.001287,-0.000994,-0.48198,-0.000777,1.326058,-265.390778,1.440343,62.711775
0.3555,-0.000432,0.028011,-0.000648,-0.000714,-0.004413,0.001441,-0.000473,-0.48202,-0.000123,1.326058,-265.390778,1.440343,62.711775
0.3756,-0.000676,0.027598,-0.000425,-0.000705,-0.00445,0.001551,-0.000785,-0.482123,-0.000608,1.371612,-265.392191,1.431397,62.709763
0.396,-0.000557,0.027813,0.001038,-0.000684,-0.004483,0.001795,-0.000884,-0.482384,-0.00044,1.371612,-265.392191,1.431397,62.709763
0.4157,-0.000445,0.028068,-0.000867,-0.000665,-0.00451,0.001971,-0.000884,-0.482384,-0.00044,1.371612,-265.392191,1.431397,62.709763
0.4361,-0.000416,0.02763,0.000346,-0.000648,-0.004534,0.002098,-0.000917,-0.482118,-0.000803,1.372123,-265.393619,1.440856,62.707588
0.4553,-0.000657,0.027538,0.000313,-0.00064,-0.004554,0.00213,-0.000643,-0.482242,-0.000326,1.372123,-265.393619,1.440856,62.707588
0.4753,-0.00083,0.027194,0.001201,-0.000634,-0.004571,0.002155,-0.000518,-0.482606,0.000379,1.374229,-265.394939,1.459868,62.705259
0.4957,-0.000638,0.02745,-7e-05,-0.000638,-0.004584,0.001453,-0.000245,-0.482795,0.001132,1.374229,-265.394939,1.459868,62.705259
0.5158,-0.00074,0.027243,5.2e-05,-0.000643,-0.004593,0.000943,-0.000245,-0.482795,0.001132,1.374229,-265.394939,1.459868,62.705259
0.5354,-0.000519,0.027291,-0.000409,-0.000648,-0.004599,0.000571,-0.00074,-0.482948,0.000142,1.378538,-265.396263,1.463575,62.702895
0.5552,-0.00054,0.026986,0.000409,-0.00064,-0.004607,0.000898,-0.000738,-0.482872,-7.2e-05,1.378538,-265.396263,1.463575,62.702895
0.5757,-0.000694,0.026997,0.001067,-0.000631,-0.004614,0.001131,-0.000351,-0.483156,0.000426,1.419518,-265.397923,1.440574,62.700968
0.5953,-0.000846,0.026745,0.001442,-0.00064,-0.004618,0.000759,-0.000168,-0.483023,0.001011,1.419518,-265.397923,1.440574,62.700968
0.6153,-0.001172,0.026988,-0.001184,-0.000648,-0.00462,0.000489,-0.000168,-0.483023,0.001011,1.419518,-265.397923,1.440574,62.700968
0.6354,-0.000517,0.027084,-0.00077,-0.000656,-0.004622,0.000291,-0.001803,-0.483204,-0.001137,1.411227,-265.399507,1.452332,62.698838
0.6558,-0.000862,0.026537,0.000584,-0.000631,-0.004627,0.001162,-0.001444,-0.483109,-0.000983,1.411227,-265.399507,1.452332,62.698838
0.6756,-0.000877,0.026363,-0.000702,-0.000604,-0.004632,0.001792,-0.000585,-0.483609,0.000593,1.424349,-265.401291,1.435056,62.696915
0.6956,-0.001023,0.026375,0.001303,-0.000584,-0.004636,0.002043,-0.001178,-0.483642,-0.000586,1.424349,-265.401291,1.435056,62.696915
0.7157,-0.001119,0.026112,0.000575,-0.000565,-0.00464,0.002226,-0.001178,-0.483642,-0.000586,1.424349,-265.401291,1.435056,62.696915
0.7357,-0.001211,0.026029,-0.000335,-0.000549,-0.004644,0.002358,-0.000851,-0.484077,0.000648,1.401552,-265.402693,1.465629,62.694665
0.7555,-0.000965,0.026199,2.3e-05,-0.000534,-0.004646,0.002009,-0.001069,-0.484056,0.000258,1.401552,-265.402693,1.465629,62.694665
0.7753,-0.001242,0.026146,0.000533,-0.000523,-0.004647,0.001758,-0.000971,-0.483948,9.8e-05,1.40114,-265.403989,1.480841,62.692231
0.7961,-0.001128,0.025999,-0.000257,-0.000517,-0.004647,0.001458,-0.000971,-0.483871,0.000495,1.40114,-265.403989,1.480841,62.692231
0.8157,-0.001274,0.026126,0.001711,-0.000513,-0.004646,0.001241,-0.000971,-0.483871,0.000495,1.40114,-265.403989,1.480841,62.692231
0.8357,-0.000735,0.025699,0.000111,-0.00051,-0.004645,0.001083,-0.000422,-0.484066,0.001784,1.425564,-265.405419,1.479682,62.689955
0.8556,-0.001283,0.025773,0.000757,-0.000524,-0.004643,0.000682,-0.000528,-0.484183,0.001115,1.425564,-265.405419,1.479682,62.689955
0.8756,-0.001234,0.025101,-0.00124,-0.000536,-0.004641,0.00039,-0.000913,-0.484374,0.000792,1.443368,-265.407017,1.474919,62.687834
0.8952,-0.001378,0.025372,0.001778,-0.000513,-0.004642,0.001265,-0.001775,-0.484856,-0.001042,1.443368,-265.407017,1.474919,62.687834
0.9153,-0.000991,0.025638,-0.000382,-0.000488,-0.004643,0.001898,-0.001775,-0.484856,-0.001042,1.443368,-265.407017,1.474919,62.687834
0.9352,-0.00113,0.025222,0.000541,-0.000464,-0.004644,0.002356,-0.001209,-0.484556,-0.000366,1.4496,-265.408785,1.461322,62.685877
0.9554,-0.001092,0.025114,9.1e-05,-0.000463,-0.004646,0.00214,-0.001067,-0.484669,6e-06,1.4496,-265.408785,1.461322,62.685877
0.9755,-0.001294,0.024858,0.000698,-0.000462,-0.004647,0.001987,-0.00106,-0.48503,0.000164,1.427037,-265.410047,1.494659,62.6835
0.9959,-0.00133,0.025208,0.00036,-0.000464,-0.004646,0.001549,-0.00095,-0.485139,0.000654,1.427037,-265.410047,1.494659,62.6835
1.0158,-0.001222,0.024956,0.002111,-0.000467,-0.004645,0.001232,-0.00095,-0.485139,0.000654,1.427037,-265.410047,1.494659,62.6835
1.0358,-0.001438,0.025112,0.001625,-0.000469,-0.004644,0.001002,-0.000165,-0.485238,0.002194,1.437048,-265.411431,1.492129,62.681152
1.0555,-0.001381,0.024604,0.0007,-0.000498,-0.004644,0.0003,-0.000347,-0.485118,0.001972,1.437048,-265.411431,1.492129,62.681152
1.0754,-0.001415,0.024572,-6.7e-05,-0.000524,-0.004641,-0.000218,-0.001039,-0.485543,0.000732,1.454897,-265.413046,1.481714,62.679053
1.0958,-0.001638,0.024301,4.1e-05,-0.00051,-0.00464,0.000299,-0.001414,-0.485445,4e-06,1.454897,-265.413046,1.481714,62.679053
1.1157,-0.00152,0.024458,0.000355,-0.000494,-0.004639,0.000663,-0.001414,-0.485445,4e-06,1.454897,-265.413046,1.481714,62.679053
1.1353,-0.001374,0.024573,0.001285,-0.000479,-0.004639,0.000922,-0.00136,-0.485733,0.000346,1.461445,-265.414944,1.455051,62.677259
1.1553,-0.001601,0.024332,0.001501,-0.000473,-0.004638,0.000736,-0.0011,-0.48563,0.00073,1.461445,-265.414944,1.455051,62.677259
1.1755,-0.001365,0.024334,0.000624,-0.00047,-0.004636,0.0006,-0.00085,-0.485814,0.00153,1.45391,-265.416569,1.479046,62.675191
1.1956,-0.001517,0.023875,-0.00041,-0.00047,-0.004634,0.000513,-0.001031,-0.485685,0.000703,1.45391,-265.416569,1.479046,62.675191
1.2156,-0.001401,0.024141,0.002095,-0.00047,-0.004633,0.000449,-0.001031,-0.485685,0.000703,1.45391,-265.416569,1.479046,62.675191
1.2358,-0.00132,0.023824,0.001584,-0.00047,-0.004631,0.000401,-0.000352,-0.486052,0.00212,1.461274,-265.418283,1.477209,62.673186
1.2558,-0.001717,0.024134,0.000615,-0.000496,-0.004631,-0.000133,-0.000419,-0.486124,0.001906,1.461274,-265.418283,1.477209,62.673186
1.2753,-0.001662,0.023912,0.001552,-0.000519,-0.004629,-0.000525,-0.001418,-0.486014,0.000629,1.46341,-265.420036,1.475331,62.671215
1.2954,-0.001417,0.023371,0.001512,-0.000517,-0.004626,-0.000646,-0.00092,-0.486089,0.00147,1.46341,-265.420036,1.475331,62.671215
1.3152,-0.00148,0.023688,0.002287,-0.000517,-0.004624,-0.000737,-0.00092,-0.486089,0.00147,1.46341,-265.420036,1.475331,62.671215
1.3352,-0.001653,0.023443,0.000522,-0.000516,-0.004621,-0.000806,-0.000335,-0.486502,0.002265,1.466414,-265.422008,1.45102,62.669496
1.3553,-0.001604,0.023397,0.000726,-0.000522,-0.00462,-0.00089,-0.000766,-0.486547,0.001552,1.466414,-265.422008,1.45102,62.669496
1.3753,-0.001624,0.023271,0.000405,-0.000527,-0.004618,-0.000955,-0.00125,-0.48675,0.000701,1.470205,-265.424063,1.446449,62.667832
1.3954,-0.001453,0.02296,0.001249,-0.000509,-0.00462,-0.00047,-0.001404,-0.486738,0.00043,1.470205,-265.424063,1.446449,62.667832
1.4152,-0.001585,0.023274,0.001144,-0.000492,-0.004621,-0.000127,-0.001404,-0.486738,0.00043,1.470205,-265.424063,1.446449,62.667832
1.4357,-0.001368,0.022879,-0.001395,-0.000475,-0.004622,0.000116,-0.001023,-0.486919,0.001104,1.469893,-265.426153,1.441008,62.666205
1.4556,-0.001754,0.022766,0.000859,-0.000459,-0.004625,0.000473,-0.001455,-0.487023,8.4e-05,1.469893,-265.426153,1.441008,62.666205
1.4751,-0.001558,0.022641,0.002404,-0.000443,-0.004627,0.000729,-0.001331,-0.487379,0.000863,1.466747,-265.427959,1.469868,62.664343
1.4954,-0.001739,0.02283,0.001055,-0.000473,-0.00463,-2.3e-05,-0.000422,-0.487367,0.002266,1.466747,-265.427959,1.469868,62.664343
1.5152,-0.001621,0.022828,-4.9e-05,-0.000499,-0.00463,-0.000578,-0.000422,-0.487367,0.002266,1.466747,-265.427959,1.469868,62.664343
1.5351,-0.00186,0.022232,0.000802,-0.000522,-0.004628,-0.000987,-0.001664,-0.487365,-1.8e-05,1.465147,-265.429637,1.483603,62.662311
1.5552,-0.001523,0.022603,-0.000671,-0.000497,-0.004628,-0.000427,-0.001579,-0.487552,0.000321,1.465147,-265.429637,1.483603,62.662311
1.5753,-0.001308,0.022336,0.000746,-0.000473,-0.004627,-3.2e-05,-0.001881,-0.48754,-0.000701,1.471268,-265.431678,1.441754,62.660735
1.5954,-0.001565,0.021945,0.001476,-0.000472,-0.004627,9.9e-05,-0.001014,-0.48766,0.000614,1.471268,-265.431678,1.441754,62.660735
1.6154,-0.001725,0.02255,0.001568,-0.000471,-0.004626,0.00019,-0.001014,-0.48766,0.000614,1.471268,-265.431678,1.441754,62.660735
1.6356,-0.00206,0.022041,0.000375,-0.000469,-0.004626,0.000254,-0.000945,-0.487641,0.001567,1.469403,-265.433528,1.468538,62.6589
1.6556,-0.00139,0.021907,0.00138,-0.000452,-0.004625,7.2e-05,-0.001328,-0.487794,0.001075,1.469403,-265.433528,1.468538,62.6589
1.6754,-0.001438,0.021857,0.000408,-0.000438,-0.004624,-6e-05,-0.000701,-0.48824,0.001388,1.466205,-265.435328,1.472938,62.656978
1.6956,-0.001818,0.021543,0.000628,-0.000434,-0.004624,0.000133,-0.001185,-0.488159,0.000493,1.466205,-265.435328,1.472938,62.656978
1.7155,-0.001692,0.021823,0.002239,-0.00043,-0.004625,0.00027,-0.001185,-0.488159,0.000493,1.466205,-265.435328,1.472938,62.656978
1.7356,-0.00153,0.021728,0.000652,-0.000426,-0.004625,0.000368,-0.000568,-0.488369,0.002237,1.477089,-265.437192,1.475606,62.655142
1.7552,-0.001676,0.021793,0.001105,-0.000436,-0.004624,-6.1e-05,-0.000827,-0.488352,0.001591,1.477089,-265.437192,1.475606,62.655142
1.7751,-0.001609,0.021296,0.000303,-0.000446,-0.004623,-0.000372,-0.001126,-0.488354,0.001117,1.474308,-265.438958,1.483205,62.653197
1.7953,-0.001931,0.021055,0.000848,-0.000431,-0.004623,-2.9e-05,-0.001426,-0.488681,0.000376,1.474308,-265.438958,1.483205,62.653197
1.8154,-0.001731,0.02178,0.001434,-0.000416,-0.004623,0.000215,-0.001426,-0.488681,0.000376,1.474308,-265.438958,1.483205,62.653197
1.8354,-0.001969,0.020994,-0.000518,-0.000402,-0.004624,0.000389,-0.001018,-0.488412,0.001418,1.479085,-265.4409,1.469656,62.651436
1.8556,-0.001835,0.021241,0.000841,-0.000384,-0.004623,0.000383,-0.001517,-0.488677,0.000626,1.479085,-265.4409,1.469656,62.651436
1.8754,-0.001826,0.020797,-0.000243,-0.000369,-0.004622,0.00038,-0.001419,-0.488905,0.000853,1.479354,-265.442652,1.488239,62.649496
1.8953,-0.001862,0.021086,0.001314,-0.000341,-0.004622,0.000779,-0.001902,-0.489183,-0.000142,1.479354,-265.442652,1.488239,62.649496
1.9156,-0.001639,0.020695,0.001932,-0.000315,-0.004623,0.001066,-0.001902,-0.489183,-0.000142,1.479354,-265.442652,1.488239,62.649496
1.9354,-0.001461,0.020692,0.002318,-0.000292,-0.004623,0.001274,-0.000668,-0.489497,0.001948,1.486893,-265.444411,1.494884,62.647551
1.9553,-0.002204,0.020457,0.001062,-0.000338,-0.004626,0.00044,-0.00051,-0.489441,0.002102,1.486893,-265.444411,1.494884,62.647551
1.9757,-0.002097,0.020764,0.001532,-0.000378,-0.004626,-0.000176,-0.001672,-0.489688,0.001102,1.495035,-265.44594,1.516806,62.645407
1.9955,-0.0016,0.020369,0.000707,-0.000371,-0.004622,-0.000409,-0.001348,-0.489283,0.001496,1.495035,-265.44594,1.516806,62.645407
2.0157,-0.001679,0.020564,0.000599,-0.000365,-0.004619,-0.000581,-0.001348,-0.489283,0.001496,1.495035,-265.44594,1.516806,62.645407
2.0353,-0.00175,0.020296,0.001178,-0.000361,-0.004615,-0.00071,-0.001389,-0.489626,0.000591,1.491199,-265.447813,1.487437,62.643618
2.0554,-0.001574,0.020462,0.001782,-0.000362,-0.004613,-0.000499,-0.001292,-0.48968,0.000832,1.491199,-265.447813,1.487437,62.643618
2.0755,-0.001923,0.019797,0.002219,-0.000361,-0.004612,-0.000351,-0.000677,-0.489684,0.001759,1.499375,-265.449838,1.484636,62.641939
2.0953,-0.001418,0.020257,0.00147,-0.000383,-0.004612,-0.000803,-0.000782,-0.490164,0.002178,1.499375,-265.449838,1.484636,62.641939
2.1153,-0.001702,0.020018,0.000918,-0.000403,-0.00461,-0.001133,-0.000782,-0.490164,0.002178,1.499375,-265.449838,1.484636,62.641939
2.1354,-0.001959,0.019857,0.001314,-0.00042,-0.004608,-0.001375,-0.001248,-0.490174,0.000904,1.496182,-265.451771,1.488933,62.640178
2.1554,-0.001861,0.019571,0.001731,-0.000412,-0.004606,-0.001093,-0.001266,-0.490184,0.001069,1.496182,-265.451771,1.488933,62.640178
2.1753,-0.001335,0.019445,0.001674,-0.000403,-0.004605,-0.000895,-0.000991,-0.490573,0.001688,1.493896,-265.45393,1.459852,62.638679
2.1955,-0.001696,0.019684,0.001417,-0.000431,-0.004603,-0.001015,-0.000526,-0.490563,0.001673,1.493896,-265.45393,1.459852,62.638679
2.2155,-0.001879,0.019531,0.000755,-0.000454,-0.004602,-0.001102,-0.000526,-0.490563,0.001673,1.493896,-265.45393,1.459852,62.638679
2.2354,-0.001394,0.01938,0.001123,-0.000474,-0.004602,-0.001167,-0.00151,-0.490661,0.000718,1.492635,-265.455992,1.471692,62.637052
2.2554,-0.001757,0.019164,-0.000172,-0.000456,-0.004602,-0.000863,-0.001229,-0.490666,0.00088,1.492635,-265.455992,1.471692,62.637052
2.2753,-0.002438,0.019184,0.002523,-0.000441,-0.004602,-0.000647,-0.00186,-0.490981,-0.000209,1.481868,-265.458103,1.449543,62.635502
2.2957,-0.001754,0.019132,0.002028,-0.000426,-0.004603,-0.001069,-0.001216,-0.490837,0.002275,1.481868,-265.458103,1.449543,62.635502
2.3161,-0.001646,0.019221,0.000268,-0.000415,-0.004603,-0.001375,-0.001216,-0.490837,0.002275,1.481868,-265.458103,1.449543,62.635502
2.3355,-0.002112,0.018833,0.000554,-0.000406,-0.004602,-0.001598,-0.001528,-0.490972,0.000241,1.482869,-265.460104,1.466458,62.633815
2.3555,-0.00169,0.018605,0.000319,-0.000383,-0.004603,-0.000901,-0.001653,-0.491073,0.000366,1.482869,-265.460104,1.466458,62.633815
2.3756,-0.001702,0.018607,0.000865,-0.00036,-0.004603,-0.000407,-0.00154,-0.49154,0.000269,1.49815,-265.462333,1.459308,62.632361
2.3954,-0.002024,0.018532,0.002244,-0.000353,-0.004602,-0.000282,-0.001285,-0.491412,0.000813,1.49815,-265.462333,1.459308,62.632361
2.4156,-0.001612,0.018566,-0.000208,-0.000346,-0.004602,-0.000194,-0.001285,-0.491412,0.000813,1.49815,-265.462333,1.459308,62.632361
2.4356,-0.001702,0.018586,0.00015,-0.00034,-0.004601,-0.000132,-0.001733,-0.491623,-0.000225,1.496703,-265.464251,1.48829,62.630638
2.4553,-0.001774,0.018349,0.001728,-0.000317,-0.004603,0.000372,-0.001691,-0.491559,-7.2e-05,1.496703,-265.464251,1.48829,62.630638
2.4756,-0.0014,0.017776,0.001603,-0.000295,-0.004604,0.000734,-0.000903,-0.491797,0.001724,1.498344,-265.466127,1.49577,62.628826
2.4957,-0.001718,0.018275,0.000397,-0.000328,-0.004605,0.000201,-0.00061,-0.492194,0.001613,1.498344,-265.466127,1.49577,62.628826
2.5159,-0.001891,0.018125,-0.000269,-0.000357,-0.004605,-0.000187,-0.00061,-0.492194,0.001613,1.498344,-265.466127,1.49577,62.628826
2.5357,-0.001647,0.018038,0.000309,-0.000382,-0.004603,-0.00047,-0.002041,-0.492067,-0.000239,1.499839,-265.467786,1.512393,62.626811
2.5557,-0.002012,0.017924,0.000625,-0.000345,-0.004603,0.000102,-0.001815,-0.492046,-9e-06,1.499839,-265.467786,1.512393,62.626811
2.5756,-0.001844,0.017922,0.000729,-0.00031,-0.004604,0.00051,-0.001705,-0.49222,0.00061,1.492832,-265.469718,1.482507,62.625105
2.5959,-0.001806,0.017488,0.002355,-0.000292,-0.004603,0.000426,-0.001493,-0.492098,0.000718,1.492832,-265.469718,1.482507,62.625105
2.6162,-0.00204,0.017614,0.000742,-0.000277,-0.004602,0.000364,-0.001493,-0.492098,0.000718,1.492832,-265.469718,1.482507,62.625105
2.6358,-0.001911,0.017333,0.000987,-0.000265,-0.004601,0.00032,-0.001674,-0.492577,0.000764,1.498761,-265.471418,1.507868,62.623158
2.6559,-0.001784,0.017688,0.001537,-0.000247,-0.004599,0.000217,-0.001567,-0.492635,0.000857,1.498761,-265.471418,1.507868,62.623158
2.6757,-0.001798,0.017299,0.000354,-0.000233,-0.004598,0.000142,-0.001008,-0.492458,0.001548,1.510701,-265.473183,1.515584,62.621238
2.6955,-0.001751,0.017164,-0.000861,-0.000223,-0.004597,0.000291,-0.001567,-0.492688,0.000454,1.510701,-265.473183,1.515584,62.621238
2.7158,-0.002014,0.017447,0.000549,-0.000213,-0.004597,0.000398,-0.001567,-0.492688,0.000454,1.510701,-265.473183,1.515584,62.621238
2.7356,-0.002215,0.016897,-0.001264,-0.000205,-0.004596,0.000475,-0.001743,-0.492745,0.000555,1.519153,-265.474982,1.521059,62.61937
2.7555,-0.002333,0.016839,0.001156,-0.000163,-0.004595,0.000862,-0.002198,-0.492912,-0.000183,1.519153,-265.474982,1.521059,62.61937
2.7755,-0.002183,0.016799,0.001983,-0.000126,-0.004593,0.001142,-0.00175,-0.493307,0.001171,1.523276,-265.476704,1.528912,62.617416
2.7958,-0.001771,0.016558,-0.000189,-0.000148,-0.004596,0.000394,-0.001223,-0.493216,0.001913,1.523276,-265.476704,1.528912,62.617416
2.8153,-0.001628,0.016807,0.000523,-0.000168,-0.004595,-0.000156,-0.001223,-0.493216,0.001913,1.523276,-265.476704,1.528912,62.617416
2.8357,-0.00209,0.016942,0.000305,-0.000186,-0.004593,-0.000559,-0.001366,-0.493384,0.00057,1.538387,-265.47825,1.546926,62.615318
2.8554,-0.002239,0.016454,-0.000592,-0.000182,-0.004591,-0.000205,-0.001596,-0.493275,0.000469,1.538387,-265.47825,1.546926,62.615318
2.8752,-0.001826,0.016654,0.000248,-0.000177,-0.00459,4.5e-05,-0.002546,-0.493691,-0.000609,1.533211,-265.480212,1.527177,62.613627
2.8954,-0.002004,0.015904,0.000593,-0.000162,-0.004589,0.000375,-0.001774,-0.493384,0.000172,1.533211,-265.480212,1.527177,62.613627
2.9154,-0.002145,0.016268,0.000921,-0.000147,-0.004588,0.000611,-0.001774,-0.493384,0.000172,1.533211,-265.480212,1.527177,62.613627
2.9353,-0.002196,0.016318,-0.00066,-0.000134,-0.004588,0.000779,-0.001682,-0.493924,0.000922,1.531986,-265.482037,1.532443,62.61178
2.9556,-0.001942,0.016283,0.00025,-0.000101,-0.004586,0.000841,-0.002032,-0.493847,0.000273,1.531986,-265.482037,1.532443,62.61178
2.9752,-0.001607,0.015779,0.000532,-7.4e-05,-0.004584,0.000886,-0.001819,-0.493863,0.000275,1.538309,-265.483678,1.544413,62.60976
2.9958,-0.001796,0.0157,5.5e-05,-8.9e-05,-0.004583,0.000805,-0.001379,-0.494196,0.00051,1.538309,-265.483678,1.544413,62.60976
3.0153,-0.002135,0.016069,0.001458,-0.000101,-0.004583,0.000746,-0.001379,-0.494196,0.00051,1.538309,-265.483678,1.544413,62.60976
3.0359,-0.001992,0.015422,0.002179,-0.000111,-0.004583,0.000704,-0.001395,-0.494122,0.001495,1.552493,-265.485286,1.556359,62.607721
3.0556,-0.002444,0.015657,0.001314,-0.000132,-0.004584,0.000117,-0.001187,-0.494328,0.001776,1.552493,-265.485286,1.556359,62.607721
3.0752,-0.002093,0.015196,0.00227,-0.00015,-0.004582,-0.000312,-0.001778,-0.494488,0.001336,1.543971,-265.486945,1.54857,62.605719
3.0957,-0.002153,0.015569,0.003017,-0.000177,-0.004581,-0.000774,-0.001011,-0.494782,0.002187,1.543971,-265.486945,1.54857,62.605719
3.1155,-0.001862,0.015353,-0.000156,-0.0002,-0.004579,-0.001113,-0.001011,-0.494782,0.002187,1.543971,-265.486945,1.54857,62.605719
3.1356,-0.002163,0.015195,0.001031,-0.00022,-0.004577,-0.001364,-0.001948,-0.494839,-0.000169,1.539338,-265.48885,1.536607,62.603966
3.1556,-0.002349,0.015327,0.00136,-0.00019,-0.004574,-0.000708,-0.001822,-0.494847,0.00032,1.539338,-265.48885,1.536607,62.603966
3.1755,-0.002227,0.014721,0.002274,-0.000161,-0.004572,-0.000244,-0.001663,-0.494817,0.001317,1.530174,-265.490998,1.51213,62.602479
3.196,-0.001848,0.015233,0.000255,-0.000176,-0.004572,-0.000727,-0.001127,-0.495239,0.002175,1.530174,-265.490998,1.51213,62.602479
3.2156,-0.001807,0.015146,0.00115,-0.000189,-0.004571,-0.001081,-0.001127,-0.495239,0.002175,1.530174,-265.490998,1.51213,62.602479
3.2355,-0.002198,0.014275,0.000524,-0.0002,-0.004569,-0.001341,-0.001227,-0.495043,0.00114,1.536618,-265.492866,1.534315,62.600728
3.2554,-0.002143,0.014836,0.000863,-0.000185,-0.004566,-0.000987,-0.001514,-0.495342,0.000888,1.536618,-265.492866,1.534315,62.600728
3.2753,-0.002068,0.01422,0.000222,-0.000171,-0.004563,-0.000738,-0.001709,-0.495309,0.00082,1.533635,-265.495017,1.517425,62.59923
3.2956,-0.002278,0.014417,0.000902,-0.000129,-0.00456,-0.000251,-0.001934,-0.495746,0.000272,1.533635,-265.495017,1.517425,62.59923
3.3158,-0.002084,0.014795,0.001932,-9.2e-05,-0.004558,9.6e-05,-0.001934,-0.495746,0.000272,1.533635,-265.495017,1.517425,62.59923
3.3355,-0.002358,0.014639,-0.001339,-5.8e-05,-0.004556,0.000344,-0.001106,-0.495395,0.001901,1.536687,-265.497018,1.529219,62.597588
3.3554,-0.002131,0.014367,-0.000918,-3.4e-05,-0.004555,0.000363,-0.001894,-0.495403,0.00058,1.536687,-265.497018,1.529219,62.597588
3.3753,-0.002192,0.01421,0.000444,-1.4e-05,-0.004553,0.000378,-0.002601,-0.495774,-0.000907,1.557373,-265.498719,1.558555,62.595724
3.3955,-0.002182,0.014153,0.000586,1.5e-05,-0.004551,0.000521,-0.002024,-0.495796,0.000321,1.557373,-265.498719,1.558555,62.595724
3.416,-0.001592,0.013988,0.001547,4e-05,-0.00455,0.000624,-0.002024,-0.495796,0.000321,1.557373,-265.498719,1.558555,62.595724
3.4358,-0.002293,0.014089,0.002406,6.1e-05,-0.004548,0.0007,-0.000803,-0.496202,0.001563,1.567631,-265.500442,1.567937,62.593816
3.4556,-0.002259,0.013686,-0.000694,1e-06,-0.004552,7e-05,-0.00091,-0.496105,0.001907,1.567631,-265.500442,1.567937,62.593816
3.4753,-0.002481,0.013758,0.000741,-5e-05,-0.004553,-0.000393,-0.002611,-0.496458,-0.000672,1.585703,-265.502078,1.583143,62.591841
3.4954,-0.002187,0.013683,-0.00046,-2e-06,-0.004546,-0.000182,-0.002147,-0.496267,0.00062,1.585703,-265.502078,1.583143,62.591841
3.5159,-0.002214,0.013745,0.002121,3.8e-05,-0.004541,-3.3e-05,-0.002147,-0.496267,0.00062,1.585703,-265.502078,1.583143,62.591841
3.5354,-0.00228,0.013407,0.000684,7.2e-05,-0.004537,7.2e-05,-0.001134,-0.496441,0.002105,1.56043,-265.503956,1.559277,62.590151
3.5556,-0.002287,0.013186,-0.001346,5.4e-05,-0.004536,-0.000259,-0.001457,-0.496524,0.001527,1.56043,-265.503956,1.559277,62.590151
3.5752,-0.002131,0.013257,0.000871,3.8e-05,-0.004535,-0.0005,-0.002971,-0.496955,-0.001343,1.586823,-265.505713,1.586516,62.58836
3.5955,-0.001847,0.012856,0.000281,5e-05,-0.004532,-0.000287,-0.001801,-0.496769,0.000674,1.586823,-265.505713,1.586516,62.58836
3.6156,-0.001919,0.012752,0.000121,6.1e-05,-0.00453,-0.000136,-0.001801,-0.496769,0.000674,1.586823,-265.505713,1.586516,62.58836
3.6352,-0.002155,0.013168,0.000117,7.2e-05,-0.004528,-2.9e-05,-0.001855,-0.497437,0.0001,1.578557,-265.507645,1.579678,62.586671
3.6554,-0.002102,0.013191,0.001329,9.5e-05,-0.004526,0.000342,-0.001953,-0.497213,0.000105,1.578557,-265.507645,1.579678,62.586671
3.6752,-0.001998,0.012977,0.001746,0.000116,-0.004524,0.000609,-0.001422,-0.496952,0.001328,1.586565,-265.50946,1.586688,62.58487
3.6953,-0.001942,0.012986,0.000344,7e-05,-0.004527,6.8e-05,-0.001135,-0.497023,0.001708,1.586565,-265.50946,1.586688,62.58487
3.7153,-0.002544,0.012819,-1.3e-05,3.1e-05,-0.004529,-0.000326,-0.001135,-0.497023,0.001708,1.586565,-265.50946,1.586688,62.58487
3.7355,-0.002057,0.012449,0.000945,-2e-06,-0.004529,-0.000615,-0.002546,-0.497369,1.2e-05,1.598694,-265.511117,1.594459,62.582918
3.7556,-0.00218,0.012165,0.000744,5.2e-05,-0.004523,-0.000229,-0.002151,-0.497465,0.000394,1.598694,-265.511117,1.594459,62.582918
3.7751,-0.002112,0.012228,-0.000251,9.8e-05,-0.004517,4.5e-05,-0.0018,-0.497976,0.000725,1.570426,-265.513036,1.570359,62.581292
3.7954,-0.002315,0.012317,0.000212,0.000143,-0.004512,0.000537,-0.002201,-0.497797,-0.000164,1.570426,-265.513036,1.570359,62.581292
3.8152,-0.002057,0.012223,0.001725,0.000183,-0.004508,0.00089,-0.002201,-0.497797,-0.000164,1.570426,-265.513036,1.570359,62.581292
3.8355,-0.001739,0.012385,0.001548,0.000218,-0.004505,0.001146,-0.001173,-0.497963,0.001727,1.592643,-265.514804,1.592381,62.579502
3.8553,-0.001936,0.01198,-0.000455,0.000158,-0.00451,0.00049,-0.001082,-0.497842,0.001654,1.592643,-265.514804,1.592381,62.579502
3.8757,-0.002274,0.012025,0.001074,0.000107,-0.004513,1e-05,-0.002162,-0.498159,-0.000419,1.628107,-265.51629,1.612719,62.577471
3.8956,-0.002102,0.011891,0.001155,0.000123,-0.004509,-4.9e-05,-0.001764,-0.497998,0.000947,1.628107,-265.51629,1.612719,62.577471
3.9154,-0.002393,0.0117,0.001362,0.000136,-0.004505,-9.4e-05,-0.001764,-0.497998,0.000947,1.628107,-265.51629,1.612719,62.577471
3.9358,-0.002027,0.011514,0.000549,0.000146,-0.004502,-0.000129,-0.001693,-0.498484,0.001363,1.594459,-265.518049,1.594397,62.575708
3.9553,-0.001853,0.011742,-0.000526,0.000159,-0.004498,-0.0002,-0.001715,-0.498506,0.001034,1.594459,-265.518049,1.594397,62.575708
3.9751,-0.002402,0.010997,0.000147,0.000168,-0.004494,-0.000252,-0.002116,-0.498401,-0.00053,1.602764,-265.51988,1.603906,62.57394
3.9954,-0.002112,0.011454,0.00016,0.000232,-0.004483,0.00018,-0.002309,-0.498957,8.8e-05,1.602764,-265.51988,1.603906,62.57394
4.0153,-0.001974,0.011418,0.00165,0.000287,-0.004475,0.00049,-0.002309,-0.498957,8.8e-05,1.602764,-265.51988,1.603906,62.57394
4.0354,-0.002044,0.01154,-0.000417,0.000334,-0.004468,0.000714,-0.001126,-0.498769,0.001639,1.606972,-265.521737,1.609534,62.572206
4.0553,-0.001731,0.01151,0.001747,0.000306,-0.00447,0.000527,-0.001586,-0.498665,0.000799,1.606972,-265.521737,1.609534,62.572206
4.0753,-0.001593,0.011004,0.000883,0.000282,-0.004472,0.000393,-0.00083,-0.498625,0.001768,1.653513,-265.523281,1.638849,62.57033
4.0954,-0.001965,0.010847,0.000493,0.000223,-0.004476,0.000227,-0.001116,-0.498971,0.000959,1.653513,-265.523281,1.638849,62.57033
4.1157,-0.001952,0.011157,0.001474,0.000174,-0.004478,0.000105,-0.001116,-0.498971,0.000959,1.653513,-265.523281,1.638849,62.57033
4.1352,-0.001966,0.010396,0.000944,0.000133,-0.004481,1.5e-05,-0.001188,-0.499029,0.00149,1.637407,-265.524966,1.630645,62.568455
4.1556,-0.002214,0.010722,0.000675,0.000122,-0.00448,-0.000199,-0.001308,-0.499285,0.001269,1.637407,-265.524966,1.630645,62.568455
4.1752,-0.002077,0.010394,0.00061,0.000113,-0.004479,-0.000355,-0.001865,-0.499416,0.000676,1.600608,-265.526695,1.600483,62.566719
4.1956,-0.001953,0.010098,0.000919,0.000153,-0.004472,-0.000168,-0.001774,-0.499596,0.000616,1.600608,-265.526695,1.600483,62.566719
4.2157,-0.002281,0.010682,0.001149,0.000186,-0.004467,-3.5e-05,-0.001774,-0.499596,0.000616,1.600608,-265.526695,1.600483,62.566719
4.2353,-0.002084,0.009746,0.000609,0.000214,-0.004463,6.1e-05,-0.00169,-0.499505,0.001134,1.59478,-265.528569,1.597223,62.565018
4.2554,-0.00212,0.010243,-0.000468,0.000238,-0.004458,-2.1e-05,-0.001723,-0.499828,0.000921,1.59478,-265.528569,1.597223,62.565018
4.2752,-0.001791,0.00965,0.000124,0.000256,-0.004453,-8e-05,-0.002352,-0.499897,-0.000466,1.619134,-265.530315,1.618333,62.563242
4.296,-0.001892,0.009935,0.000751,0.000283,-0.004447,0.00031,-0.001781,-0.500318,7.4e-05,1.619134,-265.530315,1.618333,62.563242
4.3163,-0.002241,0.010101,0.001155,0.000307,-0.004442,0.000592,-0.001781,-0.500318,7.4e-05,1.619134,-265.530315,1.618333,62.563242
4.3355,-0.002072,0.009896,0.001692,0.000328,-0.004438,0.000795,-0.001641,-0.500084,0.001151,1.627691,-265.532121,1.62895,62.561476
4.3552,-0.002061,0.009593,0.001941,0.000311,-0.004438,0.00032,-0.001458,-0.500114,0.001379,1.627691,-265.532121,1.62895,62.561476
4.3751,-0.002011,0.00944,0.000241,0.000296,-0.004438,-2.6e-05,-0.001061,-0.500544,0.001966,1.653664,-265.533682,1.637374,62.559533
4.3955,-0.002282,0.009701,0.000226,0.000327,-0.00443,0.000188,-0.001818,-0.500565,0.000387,1.653664,-265.533682,1.637374,62.559533
4.4157,-0.001718,0.009395,0.001031,0.000353,-0.004424,0.00034,-0.001818,-0.500565,0.000387,1.653664,-265.533682,1.637374,62.559533
4.4352,-0.00231,0.009268,8.5e-05,0.000375,-0.004419,0.000449,-0.00118,-0.500789,0.00103,1.637053,-265.535456,1.637523,62.557771
4.4554,-0.001833,0.00949,-1.4e-05,0.000378,-0.004415,0.000398,-0.00162,-0.500787,0.000646,1.637053,-265.535456,1.637523,62.557771
4.4754,-0.002288,0.009177,0.001163,0.000381,-0.004411,0.000361,-0.001828,-0.500649,0.0,1.661136,-265.537103,1.650622,62.555908
4.4954,-0.002292,0.009163,0.001951,0.000393,-0.004406,0.000132,-0.001706,-0.500815,0.001061,1.661136,-265.537103,1.650622,62.555908
4.5155,-0.001761,0.009099,0.004567,0.000402,-0.004401,-3.3e-05,-0.001706,-0.500815,0.001061,1.661136,-265.537103,1.650622,62.555908
4.5352,-0.002242,0.008867,0.000127,0.000409,-0.004397,-0.000153,0.000585,-0.501079,0.004582,1.661356,-265.538785,1.652766,62.55405
4.5554,-0.001813,0.00903,0.000474,0.000278,-0.004404,-0.000832,-0.000545,-0.501123,0.002758,1.661356,-265.538785,1.652766,62.55405
4.5751,-0.00184,0.008774,0.001393,0.000171,-0.004408,-0.001338,-0.001558,-0.501109,0.000469,1.661651,-265.540583,1.665565,62.552327
4.5955,-0.001747,0.008711,-0.000103,0.000162,-0.004403,-0.001191,-0.001167,-0.501222,0.001312,1.661651,-265.540583,1.665565,62.552327
4.6153,-0.001398,0.00878,0.00117,0.000155,-0.0044,-0.001091,-0.001167,-0.501222,0.001312,1.661651,-265.540583,1.665565,62.552327
4.6356,-0.001883,0.008523,-0.000374,0.00015,-0.004397,-0.001024,-0.000795,-0.501388,0.001119,1.603571,-265.542494,1.618474,62.551012
4.6558,-0.002098,0.008338,0.001494,0.000164,-0.004393,-0.000588,-0.001315,-0.501444,0.000504,1.603571,-265.542494,1.618474,62.551012
4.6754,-0.001871,0.008299,0.000966,0.000178,-0.00439,-0.00028,-0.001331,-0.501801,0.001461,1.600698,-265.544505,1.610608,62.549502
4.6954,-0.001785,0.008336,0.000873,0.000207,-0.004383,-0.000317,-0.001374,-0.501717,0.001008,1.600698,-265.544505,1.610608,62.549502
4.7156,-0.002097,0.008219,0.000267,0.000229,-0.004376,-0.000344,-0.001374,-0.501717,0.001008,1.600698,-265.544505,1.610608,62.549502
4.7353,-0.001944,0.007966,0.002754,0.000247,-0.004371,-0.000363,-0.001953,-0.501964,0.000255,1.609845,-265.546326,1.613005,62.547817
4.7554,-0.001674,0.007835,0.001594,0.00027,-0.004362,-0.000503,-0.001375,-0.502013,0.001273,1.609845,-265.546326,1.613005,62.547817
4.7751,-0.001811,0.007596,-0.000571,0.000288,-0.004355,-0.000603,-0.000853,-0.502302,0.001583,1.624594,-265.54815,1.630335,62.546169
4.7954,-0.00148,0.00813,0.000839,0.000383,-0.004332,0.000149,-0.001988,-0.502402,-0.000377,1.624594,-265.54815,1.630335,62.546169
4.8153,-0.0017,0.007804,-0.000508,0.000464,-0.004314,0.000692,-0.001988,-0.502402,-0.000377,1.624594,-265.54815,1.630335,62.546169
4.8358,-0.001698,0.007646,0.000905,0.000532,-0.004299,0.001087,-0.001948,-0.502378,-0.000533,1.631626,-265.550037,1.642821,62.544575
4.8556,-0.002032,0.007625,9e-05,0.000548,-0.004295,0.001156,-0.001658,-0.502389,4.6e-05,1.631626,-265.550037,1.642821,62.544575
4.8754,-0.001526,0.007641,0.002297,0.000561,-0.004291,0.001208,-0.001972,-0.502495,0.00012,1.706623,-265.551324,1.677627,62.542826
4.8953,-0.001587,0.007112,0.00197,0.000409,-0.004301,0.000382,-0.000492,-0.502375,0.002113,1.706623,-265.551324,1.677627,62.542826
4.9157,-0.00191,0.007199,0.00243,0.000285,-0.004307,-0.000232,-0.000492,-0.502375,0.002113,1.706623,-265.551324,1.677627,62.542826
4.9355,-0.001603,0.007204,0.000575,0.000184,-0.004311,-0.000688,-0.000647,-0.502977,0.00248,1.727476,-265.552752,1.681966,62.540818
4.9557,-0.001803,0.007396,0.000302,0.000174,-0.004301,-0.000894,-0.000916,-0.502923,0.001704,1.727476,-265.552752,1.681966,62.540818
4.9756,-0.001758,0.007234,0.000473,0.000166,-0.004293,-0.00105,-0.001642,-0.502707,0.000286,1.65251,-265.554173,1.618066,62.539649
4.9959,-0.001461,0.007478,3.6e-05,0.000237,-0.004282,-0.000593,-0.001527,-0.502766,0.000456,1.65251,-265.554173,1.618066,62.539649
5.016,-0.001428,0.006951,0.002078,0.000296,-0.004272,-0.000271,-0.001527,-0.502766,0.000456,1.65251,-265.554173,1.618066,62.539649
5.0357,-0.001729,0.006806,0.0001,0.000345,-0.004265,-4.2e-05,-0.000362,-0.503221,0.002036,1.604391,-265.556072,1.616174,62.538242
5.0557,-0.002038,0.006794,-0.000133,0.000308,-0.004257,-0.000247,-0.000895,-0.50323,0.001246,1.604391,-265.556072,1.616174,62.538242
5.0755,-0.00208,0.006429,0.002316,0.000277,-0.00425,-0.000398,-0.002095,-0.503335,-0.000134,1.651082,-265.557703,1.652039,62.53663
5.0956,-0.0016,0.006827,0.001257,0.000276,-0.004237,-0.000857,-0.001001,-0.503556,0.002105,1.651082,-265.557703,1.652039,62.53663
5.1154,-0.001534,0.006319,0.000287,0.000274,-0.004224,-0.001193,-0.001001,-0.503556,0.002105,1.651082,-265.557703,1.652039,62.53663
5.136,-0.001787,0.006313,0.000124,0.000271,-0.004212,-0.001438,-0.001376,-0.503857,0.000271,1.632352,-265.559489,1.639791,62.535037
5.1558,-0.001842,0.006762,-0.00021,0.000352,-0.004186,-0.000756,-0.001516,-0.503809,0.000209,1.632352,-265.559489,1.639791,62.535037
5.1757,-0.001634,0.006566,0.000293,0.00042,-0.004165,-0.000269,-0.00194,-0.503372,-0.000256,1.624014,-265.561522,1.651959,62.533703
5.196,-0.001498,0.006271,0.001265,0.000463,-0.004159,6.8e-05,-0.001526,-0.503436,0.00024,1.624014,-265.561522,1.651959,62.533703
5.2153,-0.001618,0.006192,0.002919,0.000499,-0.004155,0.00031,-0.001526,-0.503436,0.00024,1.624014,-265.561522,1.651959,62.533703
5.2355,-0.001716,0.00608,-0.000347,0.00053,-0.004151,0.000484,-0.000112,-0.503974,0.002908,1.667512,-265.563192,1.675404,62.532158
5.2555,-0.001527,0.005981,0.001517,0.000462,-0.004143,-4e-06,-0.000832,-0.503971,0.001587,1.667512,-265.563192,1.675404,62.532158
5.2752,-0.001482,0.005702,0.000318,0.000406,-0.004134,-0.00036,-0.000737,-0.504148,0.001532,1.707419,-265.564707,1.68943,62.530415
5.2959,-0.001583,0.005748,0.002105,0.000445,-0.004108,-9.5e-05,-0.001267,-0.504291,0.000426,1.707419,-265.564707,1.68943,62.530415
5.3159,-0.001698,0.006134,0.000466,0.000476,-0.004086,9.4e-05,-0.001267,-0.504291,0.000426,1.707419,-265.564707,1.68943,62.530415
5.3357,-0.00102,0.005587,0.000126,0.000502,-0.004069,0.00023,-0.001444,-0.504033,0.000452,1.663742,-265.566395,1.674123,62.528896
5.3556,-0.00141,0.005487,-0.000797,0.000514,-0.004059,0.000386,-0.001244,-0.504206,0.000318,1.663742,-265.566395,1.674123,62.528896
5.3754,-0.001653,0.005428,0.001093,0.000524,-0.004051,0.000499,-0.001801,-0.50464,-0.00079,1.697815,-265.567944,1.689428,62.527238
5.3954,-0.001554,0.005339,0.001922,0.000535,-0.004028,0.000274,-0.001158,-0.504585,0.000923,1.697815,-265.567944,1.689428,62.527238
5.4153,-0.001605,0.005297,0.000888,0.000543,-0.004008,0.000113,-0.001158,-0.504585,0.000923,1.697815,-265.567944,1.689428,62.527238
5.4355,-0.001556,0.005506,0.000209,0.000547,-0.003991,-4e-06,-0.00113,-0.504873,0.000909,1.70979,-265.569458,1.690527,62.525483
5.4554,-0.001727,0.005135,0.000432,0.000575,-0.003966,5.3e-05,-0.001258,-0.504738,0.000625,1.70979,-265.569458,1.690527,62.525483
5.4752,-0.001614,0.00513,-0.000552,0.000596,-0.003946,9.5e-05,-0.001489,-0.504991,0.000432,1.707021,-265.571061,1.70717,62.523881
5.4952,-0.001536,0.005158,-0.000817,0.000723,-0.003902,0.000681,-0.00186,-0.504886,-0.000468,1.707021,-265.571061,1.70717,62.523881
5.5153,-0.001369,0.005032,0.000222,0.000825,-0.003868,0.001107,-0.00186,-0.504886,-0.000468,1.707021,-265.571061,1.70717,62.523881
5.5355,-0.00156,0.004875,0.000842,0.000907,-0.00384,0.001419,-0.001231,-0.505131,0.000226,1.722965,-265.572624,1.718626,62.522272
5.5555,-0.001874,0.004878,0.000977,0.000866,-0.003821,0.001168,-0.001187,-0.505148,0.000479,1.722965,-265.572624,1.718626,62.522272
5.5751,-0.001393,0.005065,-0.000131,0.000833,-0.003804,0.000988,-0.001376,-0.505122,0.000977,1.647988,-265.572624,1.64365,62.522272
5.5958,-0.001511,0.004767,0.000596,0.000843,-0.003798,0.001125,-0.001452,-0.504951,-3.6e-05,1.647988,-265.572624,1.64365,62.522272
5.6159,-0.001713,0.004834,0.000345,0.000852,-0.003793,0.001223,-0.001452,-0.504951,-3.6e-05,1.647988,-265.572624,1.64365,62.522272
5.636,-0.001158,0.005067,0.000513,0.000859,-0.003789,0.001296,-0.001537,-0.505166,0.000345,1.572972,-265.572624,1.568634,62.522272
5.6558,-0.001457,0.004971,0.000381,0.000838,-0.003784,0.001116,-0.001277,-0.505071,0.000413,1.572972,-265.572624,1.568634,62.522272
5.6761,-0.001508,0.004793,0.001505,0.000822,-0.003779,0.000987,-0.001263,-0.505029,0.000381,1.497897,-265.572624,1.493558,62.522272
5.6955,-0.001497,0.004929,-0.000482,0.000716,-0.003777,0.000456,-0.000791,-0.505189,0.001395,1.497897,-265.572624,1.493558,62.522272
5.7157,-0.001571,0.004826,0.000554,0.000631,-0.003774,6.5e-05,-0.000791,-0.505189,0.001395,1.497897,-265.572624,1.493558,62.522272
5.7356,-0.001585,0.004695,-7e-06,0.000563,-0.003772,-0.000223,-0.001288,-0.505174,0.000554,1.422802,-265.572624,1.418464,62.522272
5.7555,-0.001418,0.004957,-0.000939,0.000628,-0.003755,5.6e-05,-0.001409,-0.505226,0.000328,1.422802,-265.572624,1.418464,62.522272
5.7753,-0.001607,0.004975,0.000872,0.000681,-0.003743,0.000255,-0.001897,-0.505049,-0.000939,1.497517,-265.572711,1.493179,62.522191
5.7958,-0.001679,0.004896,0.001022,0.000678,-0.003751,0.000209,-0.001226,-0.505028,0.000715,1.497517,-265.572711,1.493179,62.522191
5.8155,-0.00157,0.00476,0.001135,0.000675,-0.003757,0.000174,-0.001226,-0.505028,0.000715,1.497517,-265.572711,1.493179,62.522191
5.8357,-0.001425,0.004916,0.001413,0.000673,-0.003762,0.000148,-0.000991,-0.50524,0.001135,1.422421,-265.572711,1.568275,62.522191
5.8559,-0.001604,0.004512,-0.000364,0.00061,-0.003765,-0.000109,-0.000874,-0.505176,0.001248,1.422421,-265.572711,1.568275,62.522191
5.8753,-0.001506,0.00482,0.000992,0.000558,-0.003767,-0.000298,-0.00179,-0.505488,-0.000364,1.347515,-265.572711,1.643181,62.522191
5.8958,-0.001559,0.00469,0.000885,0.000556,-0.003764,-0.000269,-0.001071,-0.505208,0.00087,1.347515,-265.572711,1.643181,62.522191
5.9155,-0.00128,0.004798,0.000176,0.000555,-0.003762,-0.000249,-0.001071,-0.505208,0.00087,1.347515,-265.572711,1.643181,62.522191
5.9358,-0.001421,0.005242,0.001872,0.000553,-0.00376,-0.000237,-0.00119,-0.505218,0.000175,1.422513,-265.572876,1.718178,62.522041
5.9554,-0.00126,0.004835,0.00116,0.000507,-0.003775,-0.000216,-0.000895,-0.505032,0.000867,1.422513,-265.572876,1.718178,62.522041
5.9757,-0.00145,0.004791,0.001008,0.000471,-0.003788,-0.000203,-0.000667,-0.505196,0.001158,1.497599,-265.573281,1.722639,62.521665
5.9957,-0.001359,0.004682,-0.000419,0.000454,-0.003788,-0.000274,-0.000912,-0.505209,0.001021,1.497599,-265.573281,1.722639,62.521665
6.0158,-0.001307,0.00495,0.000202,0.00044,-0.003789,-0.000326,-0.000912,-0.505209,0.001021,1.497599,-265.573281,1.722639,62.521665
6.0352,-0.001437,0.004748,0.000705,0.000429,-0.003789,-0.000364,-0.001199,-0.505137,0.000197,1.572503,-265.574139,1.698593,62.520861
6.0553,-0.001388,0.004653,6e-06,0.000462,-0.003786,-9.1e-05,-0.001149,-0.505194,0.000404,1.572503,-265.574139,1.698593,62.520861
6.0752,-0.001351,0.004163,-3.9e-05,0.00049,-0.003785,0.000105,-0.001375,-0.505448,-4e-06,1.647507,-265.575491,1.69041,62.519658
6.0954,-0.001516,0.004636,0.001089,0.000591,-0.003732,0.00046,-0.00137,-0.505808,-3.6e-05,1.647507,-265.575491,1.69041,62.519658
6.1152,-0.001254,0.004404,0.000242,0.000671,-0.00369,0.000719,-0.00137,-0.505808,-3.6e-05,1.647507,-265.575491,1.69041,62.519658
6.1355,-0.001768,0.004595,0.001702,0.000733,-0.003657,0.00091,-0.001111,-0.505747,0.000246,1.70186,-265.576921,1.697536,62.518178
6.1555,-0.001542,0.004466,0.001401,0.000705,-0.003651,0.000619,-0.001023,-0.505625,0.000839,1.70186,-265.576921,1.697536,62.518178
6.1751,-0.001221,0.004224,0.001367,0.000682,-0.003644,0.000409,-0.000827,-0.505534,0.001401,1.626857,-265.576921,1.743074,62.518178
6.1954,-0.001771,0.004349,0.001686,0.000567,-0.003635,3.6e-05,-0.000551,-0.505755,0.00137,1.626857,-265.576921,1.743074,62.518178
6.2156,-0.001567,0.004213,-0.000722,0.000474,-0.003628,-0.000238,-0.000551,-0.505755,0.00137,1.626857,-265.576921,1.743074,62.518178
6.2355,-0.001563,0.004122,0.002317,0.000401,-0.003621,-0.000441,-0.001935,-0.505786,-0.000722,1.551759,-265.576921,1.74428,62.518178
6.2554,-0.001807,0.004378,0.000111,0.000506,-0.003594,-0.000216,-0.001302,-0.505823,0.000517,1.551759,-265.576921,1.74428,62.518178
6.2754,-0.001238,0.004417,0.000323,0.000589,-0.003573,-5.4e-05,-0.001743,-0.505709,0.0001,1.626759,-265.578097,1.689944,62.517163
6.2955,-0.001319,0.004319,0.001359,0.000604,-0.003579,0.000189,-0.00113,-0.505598,0.000303,1.626759,-265.578097,1.689944,62.517163
6.3156,-0.001424,0.00423,0.002064,0.000617,-0.003584,0.000364,-0.00113,-0.505598,0.000303,1.626759,-265.578097,1.689944,62.517163
6.3354,-0.001419,0.004158,0.000787,0.000629,-0.003588,0.00049,-0.000353,-0.50589,0.002062,1.701779,-265.579276,1.735675,62.516005
6.3555,-0.001218,0.004098,0.000326,0.000545,-0.003577,1.6e-05,-0.000622,-0.505884,0.001541,1.701779,-265.579276,1.735675,62.516005
6.3754,-0.001323,0.004264,0.001698,0.000478,-0.003567,-0.000331,-0.001052,-0.505902,0.000326,1.626903,-265.579276,1.731157,62.516005
6.3952,-0.001359,0.003958,0.000187,0.000392,-0.00357,-0.000593,-0.000508,-0.505749,0.001581,1.626903,-265.579276,1.731157,62.516005
6.4154,-0.00143,0.003985,0.000691,0.000325,-0.003572,-0.000788,-0.000508,-0.505749,0.001581,1.626903,-265.579276,1.731157,62.516005
6.4359,-0.001341,0.004309,0.000265,0.000271,-0.003574,-0.000933,-0.001059,-0.506151,0.000678,1.696962,-265.580672,1.711928,62.514756
6.4558,-0.001405,0.003829,0.0013,0.000372,-0.003543,-0.000563,-0.001118,-0.505977,0.000506,1.696962,-265.580672,1.711928,62.514756
6.4753,-0.001509,0.003511,-6.4e-05,0.000452,-0.003519,-0.000298,-0.000734,-0.506273,0.001274,1.636105,-265.582173,1.660769,62.513665
6.4953,-0.001517,0.003636,0.000499,0.000627,-0.003433,0.000104,-0.001471,-0.506476,5e-05,1.636105,-265.582173,1.660769,62.513665
6.5157,-0.001456,0.003701,0.000445,0.000763,-0.003366,0.000398,-0.001471,-0.506476,5e-05,1.636105,-265.582173,1.660769,62.513665
6.5361,-0.001491,0.003609,0.000747,0.00087,-0.003313,0.000616,-0.001211,-0.506435,0.000434,1.692281,-265.583546,1.705383,62.512426
6.5556,-0.00123,0.003571,0.001988,0.000885,-0.003286,0.000525,-0.001168,-0.506432,0.000561,1.692281,-265.583546,1.705383,62.512426
6.5753,-0.001702,0.003719,-0.000226,0.000895,-0.003265,0.000463,-0.000216,-0.506428,0.001988,1.617317,-265.583546,1.630419,62.512426
6.5959,-0.00142,0.003514,-0.000173,0.001,-0.003244,0.000717,-0.001681,-0.506294,-3.7e-05,1.617317,-265.583546,1.630419,62.512426
6.6156,-0.001152,0.004126,-0.000306,0.001083,-0.003228,0.000904,-0.001681,-0.506294,-3.7e-05,1.617317,-265.583546,1.630419,62.512426
6.6353,-0.001114,0.00365,-0.000452,0.001149,-0.003215,0.001043,-0.001308,-0.505874,-0.000306,1.542318,-265.583546,1.55542,62.512426
6.6551,-0.001515,0.003495,0.001147,0.001106,-0.003243,0.001348,-0.001323,-0.50607,-0.000366,1.542318,-265.583546,1.55542,62.512426
6.6751,-0.001234,0.003718,0.001544,0.001074,-0.003265,0.001568,-0.00093,-0.506505,0.001147,1.467252,-265.583546,1.480354,62.512426
6.6952,-0.001241,0.003557,0.000225,0.000873,-0.003278,0.000853,-0.00049,-0.506302,0.001508,1.467252,-265.583546,1.480354,62.512426
6.7152,-0.001203,0.003447,0.000114,0.000716,-0.003287,0.000325,-0.00049,-0.506302,0.001508,1.467252,-265.583546,1.480354,62.512426
6.7358,-0.001217,0.003803,-0.000764,0.000593,-0.003294,-6.8e-05,-0.001145,-0.506553,0.000114,1.392419,-265.583546,1.405521,62.512426
6.7558,-0.001261,0.003278,0.00122,0.000691,-0.003268,0.000468,-0.001332,-0.506409,-0.000241,1.392419,-265.583546,1.405521,62.512426
6.7756,-0.001238,0.003466,0.001485,0.00077,-0.003249,0.000852,-0.000638,-0.506721,0.00122,1.317413,-265.583546,1.330515,62.512426
6.7959,-0.001149,0.003761,-0.000691,0.000646,-0.003241,0.000329,-0.000495,-0.50655,0.001461,1.317413,-265.583546,1.330515,62.512426
6.8157,-0.0015,0.003868,0.001812,0.000548,-0.003234,-5.7e-05,-0.000495,-0.50655,0.001461,1.317413,-265.583546,1.330515,62.512426
6.8357,-0.001135,0.00379,0.00274,0.00047,-0.003228,-0.000343,-0.000576,-0.506131,0.001812,1.242408,-265.583546,1.25551,62.512426
6.8557,-0.001526,0.003669,0.000632,0.000324,-0.003269,-0.000809,-0.000233,-0.506162,0.002191,1.242408,-265.583546,1.25551,62.512426
6.8755,-0.001316,0.003231,0.00179,0.000209,-0.003301,-0.001158,-0.001203,-0.506331,0.000632,1.317468,-265.583547,1.33057,62.512425
6.8957,-0.00125,0.003505,0.001078,0.000205,-0.003267,-0.001254,-0.000473,-0.50673,0.001689,1.317468,-265.583547,1.33057,62.512425
6.9155,-0.001101,0.00361,-0.000796,0.000201,-0.00324,-0.001328,-0.000473,-0.50673,0.001689,1.317468,-265.583547,1.33057,62.512425
6.9357,-0.001472,0.003315,0.000587,0.000196,-0.003219,-0.001385,-0.001508,-0.506396,-0.000798,1.392456,-265.583613,1.405558,62.512382
6.9552,-0.001308,0.003413,-7e-06,0.000374,-0.003202,-0.000511,-0.001371,-0.506515,-0.00023,1.392456,-265.583613,1.405558,62.512382
6.9755,-0.001213,0.003389,-0.00041,0.00052,-0.00319,0.000121,-0.001313,-0.506603,-1.4e-05,1.467453,-265.583877,1.480555,62.512227
6.9958,-0.001267,0.003713,0.001717,0.000653,-0.003169,0.000649,-0.001412,-0.506611,-0.000375,1.467453,-265.583877,1.480555,62.512227
7.0161,-0.001321,0.003795,-0.00083,0.00076,-0.003153,0.001034,-0.001412,-0.506611,-0.000375,1.467453,-265.583877,1.480555,62.512227
7.0355,-0.000731,0.003244,-0.00047,0.000846,-0.003141,0.001315,-0.001745,-0.506221,-0.000829,1.542405,-265.584023,1.555508,62.512075
7.0554,-0.0014,0.003484,0.001262,0.000904,-0.00315,0.00169,-0.001433,-0.506438,-0.000685,1.542405,-265.584023,1.555508,62.512075
7.0751,-0.001826,0.00367,9.3e-05,0.000952,-0.003158,0.001963,-0.000756,-0.506516,0.001262,1.467394,-265.584023,1.480496,62.512075
7.0954,-0.001216,0.003855,0.001267,0.001044,-0.003164,0.001684,-0.001689,-0.506346,0.000196,1.467394,-265.584023,1.480496,62.512075
7.1157,-0.001358,0.003761,-0.000708,0.001116,-0.003168,0.001488,-0.001689,-0.506346,0.000196,1.467394,-265.584023,1.480496,62.512075
7.1356,-0.001233,0.003477,0.00112,0.001173,-0.003171,0.00135,-0.001719,-0.506239,-0.000708,1.392403,-265.584023,1.405505,62.512075
7.1559,-0.001288,0.003241,-0.000839,0.001133,-0.003187,0.001362,-0.001292,-0.506354,3e-05,1.392403,-265.584023,1.405505,62.512075
7.1755,-0.001122,0.003413,0.000647,0.001103,-0.0032,0.001369,-0.001715,-0.506759,-0.000839,1.317405,-265.584023,1.330507,62.512075
7.196,-0.001375,0.003395,0.000426,0.001,-0.003196,0.001134,-0.000874,-0.506602,0.000514,1.317405,-265.584023,1.330507,62.512075
7.2158,-0.001291,0.003661,0.000988,0.000919,-0.003191,0.000961,-0.000874,-0.506602,0.000514,1.317405,-265.584023,1.330507,62.512075
7.2355,-0.001336,0.003661,0.00218,0.000856,-0.003188,0.000834,-0.000787,-0.506339,0.000988,1.242406,-265.584023,1.255508,62.512075
7.2554,-0.001208,0.003644,-0.000571,0.000715,-0.003217,0.000319,-0.000555,-0.506338,0.001479,1.242406,-265.584023,1.255508,62.512075
7.2754,-0.001505,0.003659,0.001337,0.000605,-0.00324,-6.3e-05,-0.001499,-0.506356,-0.000571,1.167307,-265.584023,1.180409,62.512075
7.2955,-0.001477,0.003324,0.001405,0.000596,-0.003252,-0.000227,-0.000885,-0.506342,0.001165,1.167307,-265.584023,1.180409,62.512075
7.3156,-0.001094,0.003549,0.000736,0.000589,-0.003262,-0.00035,-0.000885,-0.506342,0.001165,1.167307,-265.584023,1.180409,62.512075
7.3359,-0.001417,0.003667,-0.00067,0.000583,-0.003269,-0.000442,-0.000719,-0.506451,0.000736,1.092403,-265.584023,1.105505,62.512075
7.3557,-0.001299,0.003549,0.000641,0.000633,-0.003263,-2.3e-05,-0.001133,-0.506404,0.000175,1.092403,-265.584023,1.105505,62.512075
7.3756,-0.001428,0.00351,0.000704,0.000675,-0.00326,0.000276,-0.000973,-0.506451,0.000641,1.167406,-265.584023,1.030501,62.512075
7.3963,-0.000765,0.00334,-0.000446,0.000701,-0.00325,0.000219,-0.001061,-0.506486,0.000699,1.167406,-265.584023,1.030501,62.512075
7.4156,-0.001301,0.003272,0.001216,0.000721,-0.003242,0.000178,-0.001061,-0.506486,0.000699,1.167406,-265.584023,1.030501,62.512075
7.4356,-0.001372,0.003385,0.001019,0.000736,-0.003236,0.000148,-0.000681,-0.506728,0.001216,1.092316,-265.584023,0.955411,62.512075
7.4556,-0.001231,0.00327,-0.00023,0.000686,-0.003217,-7.3e-05,-0.000749,-0.506683,0.001137,1.092316,-265.584023,0.955411,62.512075
7.4755,-0.001128,0.003343,0.001344,0.000646,-0.003202,-0.000234,-0.001348,-0.50673,-0.00023,1.017307,-265.584023,0.880402,62.512075
7.4955,-0.001093,0.003371,-0.000198,0.000554,-0.003196,-0.000372,-0.000522,-0.506663,0.001206,1.017307,-265.584023,0.880402,62.512075
7.5158,-0.001307,0.003576,0.000307,0.000482,-0.003191,-0.000475,-0.000522,-0.506663,0.001206,1.017307,-265.584023,0.880402,62.512075
7.5355,-0.001434,0.003692,0.001275,0.000425,-0.003187,-0.000552,-0.001151,-0.506424,0.000307,0.942294,-265.584023,0.805389,62.512075
7.5552,-0.001337,0.003676,0.00054,0.000477,-0.003204,-0.000384,-0.001001,-0.506377,0.000703,0.942294,-265.584023,0.805389,62.512075
7.5755,-0.001355,0.00352,0.000766,0.000519,-0.003218,-0.000263,-0.001062,-0.506324,0.00054,1.017307,-265.584023,0.880402,62.512075
7.5955,-0.001134,0.003606,0.00077,0.000552,-0.003221,-0.0002,-0.000972,-0.506466,0.000747,1.017307,-265.584023,0.880402,62.512075
7.6152,-0.001143,0.003704,0.001022,0.000579,-0.003223,-0.000153,-0.000972,-0.506466,0.000747,1.017307,-265.584023,0.880402,62.512075
7.6355,-0.001322,0.003331,0.001267,0.0006,-0.003225,-0.00012,-0.000621,-0.506296,0.001022,1.092313,-265.584023,0.955408,62.512075
7.6555,-0.001066,0.003637,-0.000305,0.000538,-0.003236,-0.000259,-0.000644,-0.50645,0.001124,1.092313,-265.584023,0.955408,62.512075
7.6756,-0.001382,0.003523,0.000489,0.000489,-0.003244,-0.000361,-0.001221,-0.506363,-0.000305,1.017317,-265.584023,0.880412,62.512075
7.6959,-0.001403,0.003328,2.2e-05,0.000566,-0.003237,-0.00011,-0.00114,-0.506467,0.000419,1.017317,-265.584023,0.880412,62.512075
7.7158,-0.001282,0.003708,-0.000304,0.000627,-0.003232,7.2e-05,-0.00114,-0.506467,0.000419,1.017317,-265.584023,0.880412,62.512075
7.7357,-0.001468,0.003488,3.9e-05,0.000676,-0.003229,0.000205,-0.001437,-0.506292,-0.000304,1.092294,-265.584023,0.955389,62.512075
7.756,-0.001051,0.00341,0.000862,0.000771,-0.003225,0.000603,-0.001441,-0.506381,-0.000165,1.092294,-265.584023,0.955389,62.512075
7.7751,-0.001355,0.003922,-0.000122,0.000848,-0.003222,0.000893,-0.000612,-0.50659,0.000862,1.017351,-265.584023,0.880447,62.512075
7.7958,-0.001127,0.003373,-0.001012,0.000872,-0.003249,0.001047,-0.001345,-0.506124,-3.3e-05,1.017351,-265.584023,0.880447,62.512075
7.8158,-0.001317,0.003176,0.00073,0.000892,-0.003271,0.00116,-0.001345,-0.506124,-3.3e-05,1.017351,-265.584023,0.880447,62.512075
7.8355,-0.001536,0.003251,0.000132,0.00091,-0.003289,0.001243,-0.000945,-0.506824,0.00073,0.942397,-265.584023,0.805493,62.512075
7.8556,-0.001121,0.00359,-0.000916,0.000933,-0.003237,0.001018,-0.001157,-0.506794,0.000488,0.942397,-265.584023,0.805493,62.512075
7.8753,-0.001251,0.003622,0.000738,0.00095,-0.003195,0.000859,-0.001588,-0.50641,-0.000916,0.867401,-265.584023,0.730496,62.512075
7.8956,-0.001113,0.003539,0.002152,0.000878,-0.003214,0.000705,-0.000926,-0.50638,0.000617,0.867401,-265.584023,0.730496,62.512075
7.9162,-0.00124,0.003599,0.001387,0.000823,-0.003229,0.000591,-0.000926,-0.50638,0.000617,0.867401,-265.584023,0.730496,62.512075
7.9358,-0.001449,0.002923,0.000969,0.00078,-0.00324,0.000507,-0.000533,-0.506401,0.001387,0.791867,-265.584023,0.654962,62.512075
7.9561,-0.001662,0.003447,0.001653,0.00071,-0.003223,0.000163,-0.000704,-0.506674,0.001217,0.791867,-265.584023,0.654962,62.512075
7.9754,-0.001337,0.003585,0.002334,0.000654,-0.003209,-9e-05,-0.000819,-0.506552,0.001653,0.717275,-265.584023,0.580371,62.512075
7.9958,-0.001267,0.00325,0.000722,0.00047,-0.00323,-0.00065,-0.000207,-0.506426,0.002273,0.717275,-265.584023,0.580371,62.512075
8.0161,-0.001147,0.003579,0.000815,0.000325,-0.003246,-0.001068,-0.000207,-0.506426,0.002273,0.717275,-265.584023,0.580371,62.512075
8.0354,-0.001334,0.003928,0.000262,0.000212,-0.003258,-0.001381,-0.000731,-0.506421,0.000815,0.642389,-265.584023,0.505484,62.512075
8.0558,-0.001028,0.003429,0.001193,0.000281,-0.003272,-0.000903,-0.000921,-0.50628,0.00059,0.642389,-265.584023,0.505484,62.512075
8.0756,-0.000959,0.003722,-0.00075,0.000339,-0.003284,-0.000567,-0.00042,-0.506571,0.001193,0.717749,-265.584023,0.580845,62.512075
8.0956,-0.001086,0.00328,0.000425,0.00045,-0.003282,0.00027,-0.001257,-0.506304,-0.000572,0.717749,-265.584023,0.580845,62.512075
8.116,-0.001253,0.003301,0.00191,0.000544,-0.003282,0.000876,-0.001257,-0.506304,-0.000572,0.717749,-265.584023,0.580845,62.512075
8.1358,-0.001244,0.003356,-9.2e-05,0.000621,-0.003283,0.001315,-0.000279,-0.506698,0.00191,0.792375,-265.584023,0.65547,62.512075
8.1557,-0.001192,0.003397,0.001497,0.000582,-0.003261,0.000799,-0.000691,-0.506676,0.001096,0.792375,-265.584023,0.65547,62.512075
8.1751,-0.00097,0.003404,0.000945,0.000551,-0.003242,0.000424,-0.000429,-0.506602,0.001497,0.717373,-265.584023,0.730472,62.512075
8.1953,-0.001119,0.003529,0.001033,0.000468,-0.003238,0.000209,-0.000483,-0.506596,0.000996,0.717373,-265.584023,0.730472,62.512075
8.2154,-0.001208,0.003441,0.001662,0.000402,-0.003235,5e-05,-0.000483,-0.506596,0.000996,0.717373,-265.584023,0.730472,62.512075
8.2361,-0.001373,0.003653,-0.000988,0.00035,-0.003232,-6.9e-05,-0.00036,-0.506558,0.001662,0.64237,-265.584023,0.805475,62.512075
8.2553,-0.001086,0.003531,-0.000678,0.00042,-0.003232,1.9e-05,-0.000972,-0.506473,0.000592,0.64237,-265.584023,0.805475,62.512075
8.2751,-0.001481,0.003655,0.000669,0.000475,-0.003233,8.3e-05,-0.001432,-0.506469,-0.000678,0.717409,-265.584023,0.880514,62.512075
8.2953,-0.001363,0.003751,0.000643,0.000554,-0.00324,0.000142,-0.001164,-0.506356,0.000554,0.717409,-265.584023,0.880514,62.512075
8.3153,-0.001175,0.003479,0.000946,0.000617,-0.003246,0.000187,-0.001164,-0.506356,0.000554,0.717409,-265.584023,0.880514,62.512075
8.3355,-0.00162,0.003401,0.000791,0.000666,-0.003251,0.00022,-0.000692,-0.50652,0.000946,0.792536,-265.584023,0.955641,62.512075
8.3554,-0.001205,0.003489,-4.1e-05,0.00066,-0.003241,8.9e-05,-0.000905,-0.506552,0.000883,0.792536,-265.584023,0.955641,62.512075
8.3755,-0.000807,0.003404,2e-05,0.000655,-0.003233,-5e-06,-0.001226,-0.506511,-4.1e-05,0.717697,-265.584023,0.880802,62.512075
8.3956,-0.001036,0.003708,0.000984,0.00063,-0.003226,0.000382,-0.000835,-0.506588,1.4e-05,0.717697,-265.584023,0.880802,62.512075
8.4154,-0.000941,0.003364,1.5e-05,0.000612,-0.00322,0.00066,-0.000835,-0.506588,1.4e-05,0.717697,-265.584023,0.880802,62.512075
8.4352,-0.000984,0.003567,0.00104,0.000601,-0.003216,0.00086,-0.000933,-0.506636,1.5e-05,0.642697,-265.584023,0.805801,62.512075
8.4558,-0.001428,0.003433,-0.000556,0.000569,-0.003219,0.00079,-0.00074,-0.506554,0.000427,0.642697,-265.584023,0.805801,62.512075
8.4751,-0.000918,0.00338,0.002023,0.000545,-0.003221,0.000739,-0.001712,-0.506567,-0.000556,0.567698,-265.584023,0.8808,62.512075
8.4954,-0.001036,0.003236,-0.001132,0.00035,-0.003222,0.000125,-4.4e-05,-0.506615,0.0018,0.567698,-265.584023,0.8808,62.512075
8.5162,-0.001231,0.00319,-0.001221,0.000197,-0.003222,-0.000331,-4.4e-05,-0.506615,0.0018,0.567698,-265.584023,0.8808,62.512075
8.5353,-0.001109,0.003459,0.000137,7.7e-05,-0.003222,-0.00067,-0.001854,-0.50681,-0.001221,0.492595,-265.584023,0.955903,62.512075
8.5555,-0.001519,0.003409,0.000858,0.000327,-0.003175,0.000219,-0.001522,-0.5067,-0.000668,0.492595,-265.584023,0.955903,62.512075
8.5757,-0.000789,0.003528,0.000497,0.000529,-0.00314,0.000865,-0.001082,-0.506591,0.000858,0.568045,-265.584023,1.031353,62.512075
8.5958,-0.001242,0.003518,0.001387,0.000466,-0.003168,0.000755,-0.000584,-0.506482,0.000528,0.568045,-265.584023,1.031353,62.512075
8.6157,-0.001198,0.003468,0.000836,0.000418,-0.003189,0.000673,-0.000584,-0.506482,0.000528,0.568045,-265.584023,1.031353,62.512075
8.6355,-0.001644,0.003451,0.000319,0.000381,-0.003207,0.000611,-0.000771,-0.506532,0.000836,0.493518,-265.584023,1.105881,62.512075
8.6558,-0.001034,0.003421,0.00149,0.000471,-0.003203,0.000489,-0.001062,-0.506539,0.000625,0.493518,-265.584023,1.105881,62.512075
8.6754,-0.001552,0.003536,0.000923,0.000541,-0.0032,0.000403,-0.000274,-0.506579,0.00149,0.568574,-265.584023,1.180937,62.512075
8.6961,-0.001478,0.00346,0.001867,0.000579,-0.003206,0.000176,-0.001006,-0.506474,0.000976,0.568574,-265.584023,1.180937,62.512075
8.7154,-0.001399,0.003649,-0.00044,0.000608,-0.00321,1.2e-05,-0.001006,-0.506474,0.000976,0.568574,-265.584023,1.180937,62.512075
8.7355,-0.001345,0.003532,0.001042,0.000631,-0.003213,-0.000106,-0.001624,-0.506351,-0.00044,0.493688,-265.584023,1.255824,62.512075
8.7554,-0.001068,0.00338,0.000531,0.000703,-0.003216,0.000206,-0.001286,-0.5064,0.000177,0.493688,-265.584023,1.255824,62.512075
8.7751,-0.001617,0.003311,4.9e-05,0.000761,-0.003218,0.000432,-0.000798,-0.50662,0.000531,0.418343,-265.584023,1.180479,62.512075
8.7958,-0.001053,0.003608,0.000317,0.000881,-0.003178,0.000622,-0.00152,-0.506683,9.2e-05,0.418343,-265.584023,1.180479,62.512075
8.8155,-0.001332,0.003385,0.000107,0.000976,-0.003147,0.000763,-0.00152,-0.506683,9.2e-05,0.418343,-265.584023,1.180479,62.512075
8.8357,-0.001293,0.003601,0.001851,0.001051,-0.003123,0.000869,-0.001277,-0.506615,0.000107,0.343717,-265.584023,1.105853,62.512075
8.8553,-0.001261,0.003389,0.000296,0.000957,-0.003141,0.000615,-0.000902,-0.506527,0.000813,0.343717,-265.584023,1.105853,62.512075
8.8754,-0.00118,0.003525,-0.00162,0.000884,-0.003155,0.000429,-0.001109,-0.506611,0.000296,0.268707,-265.584023,1.030843,62.512075
8.8957,-0.001017,0.003517,8.5e-05,0.001028,-0.003132,0.001392,-0.001927,-0.506486,-0.001449,0.268707,-265.584023,1.030843,62.512075
8.9161,-0.001296,0.003521,0.000479,0.001147,-0.003115,0.002096,-0.001927,-0.506486,-0.001449,0.268707,-265.584023,1.030843,62.512075
8.9355,-0.001211,0.003403,0.002211,0.001244,-0.003102,0.002612,-0.001052,-0.506479,0.000479,0.193715,-265.584023,0.955851,62.512075
8.9561,-0.001318,0.003853,0.001758,0.00105,-0.003131,0.001748,-0.000657,-0.506527,0.001185,0.193715,-265.584023,0.955851,62.512075
8.9758,-0.001199,0.003634,0.000836,0.000898,-0.003153,0.001112,-0.000422,-0.506146,0.001758,0.118717,-265.584023,0.880853,62.512075
8.9966,-0.001492,0.003569,0.000301,0.000792,-0.003185,0.000764,-0.000741,-0.506346,0.000919,0.118717,-265.584023,0.880853,62.512075
9.0156,-0.001415,0.00343,0.001506,0.000709,-0.003211,0.000507,-0.000741,-0.506346,0.000919,0.118717,-265.584023,0.880853,62.512075
9.0355,-0.001405,0.0035,0.001286,0.000644,-0.003232,0.000315,-0.000647,-0.506569,0.001506,0.043715,-265.584023,0.805851,62.512075
9.0555,-0.001684,0.003862,-0.000389,0.000592,-0.00323,-5.5e-05,-0.000688,-0.506541,0.001416,0.043715,-265.584023,0.805851,62.512075
9.0758,-0.001119,0.00388,-0.000891,0.00055,-0.003228,-0.000328,-0.001882,-0.506138,-0.000389,-0.031286,-265.584023,0.73085,62.512075
9.0965,-0.001394,0.003286,0.00088,0.000674,-0.003241,0.000585,-0.001601,-0.506121,-0.000845,-0.031286,-265.584023,0.73085,62.512075
9.1157,-0.001295,0.003617,-0.000242,0.000779,-0.003253,0.001246,-0.001601,-0.506121,-0.000845,-0.031286,-265.584023,0.73085,62.512075
9.1356,-0.001039,0.003582,-0.000763,0.000865,-0.003263,0.001725,-0.001419,-0.506383,-0.000242,-0.106289,-265.584023,0.655847,62.512075
9.1554,-0.001559,0.003817,-4e-06,0.000924,-0.003253,0.00187,-0.001423,-0.506397,-0.000456,-0.106289,-265.584023,0.655847,62.512075
9.1755,-0.001228,0.003564,-0.00017,0.000971,-0.003245,0.001976,-0.00156,-0.506183,-4e-06,-0.181414,-265.584023,0.580722,62.512075
9.1956,-0.001045,0.003624,-0.000184,0.000992,-0.003241,0.001898,-0.001337,-0.506413,-0.000155,-0.181414,-265.584023,0.580722,62.512075
9.2157,-0.001441,0.003532,-0.000331,0.001009,-0.003237,0.001843,-0.001337,-0.506413,-0.000155,-0.181414,-265.584023,0.580722,62.512075
9.2357,-0.001411,0.003512,0.001621,0.001022,-0.003234,0.001806,-0.00161,-0.506468,-0.000331,-0.256289,-265.584023,0.505847,62.512075
9.2556,-0.001478,0.003363,-0.000173,0.001007,-0.003229,0.00146,-0.001192,-0.506476,0.000463,-0.256289,-265.584023,0.505847,62.512075
9.2754,-0.001207,0.003671,0.001413,0.000994,-0.003225,0.00121,-0.001566,-0.506637,-0.000173,-0.331286,-265.584023,0.43085,62.512075
9.2955,-0.00127,0.003914,-0.000246,0.000831,-0.003246,0.000683,-0.00058,-0.506355,0.001275,-0.331286,-265.584023,0.43085,62.512075
9.3155,-0.001673,0.003683,0.000951,0.000704,-0.003262,0.000293,-0.00058,-0.506355,0.001275,-0.331286,-265.584023,0.43085,62.512075
9.3356,-0.001351,0.003735,0.002156,0.000604,-0.003275,3e-06,-0.001188,-0.506317,0.000951,-0.406384,-265.584023,0.355752,62.512075
9.3553,-0.001164,0.0033,0.001141,0.000576,-0.003287,-0.000296,-0.000806,-0.506295,0.001443,-0.406384,-265.584023,0.355752,62.512075
9.3752,-0.001335,0.003611,0.000161,0.000553,-0.003296,-0.000517,-0.000582,-0.5067,0.001141,-0.481403,-265.584023,0.280733,62.512075
9.3956,-0.001344,0.003278,0.001121,0.000625,-0.003282,-0.000117,-0.001193,-0.506417,0.000249,-0.481403,-265.584023,0.280733,62.512075
9.4156,-0.001241,0.00385,-0.001029,0.000683,-0.003271,0.000169,-0.001193,-0.506417,0.000249,-0.481403,-265.584023,0.280733,62.512075
9.4352,-0.00122,0.003287,0.001359,0.00073,-0.003263,0.000374,-0.001766,-0.50615,-0.001029,-0.556287,-265.584023,0.205849,62.512075
9.4555,-0.001716,0.00321,0.000508,0.000779,-0.003259,0.000685,-0.001264,-0.506378,-6.1e-05,-0.556287,-265.584023,0.205849,62.512075
9.4754,-0.000868,0.003138,0.00121,0.000819,-0.003256,0.00091,-0.001457,-0.50679,0.000508,-0.631285,-265.584023,0.130851,62.512075
9.4954,-0.001553,0.003684,0.001882,0.000657,-0.00322,0.000499,-0.000354,-0.506855,0.00115,-0.631285,-265.584023,0.130851,62.512075
9.516,-0.001602,0.00369,-0.000578,0.00053,-0.003191,0.000197,-0.000354,-0.506855,0.00115,-0.631285,-265.584023,0.130851,62.512075
9.5357,-0.001004,0.003652,0.000894,0.00043,-0.003169,-2.8e-05,-0.001897,-0.50631,-0.000578,-0.7064,-265.584023,0.055736,62.512075
9.5556,-0.000789,0.003422,-0.000356,0.000551,-0.003185,0.000344,-0.001346,-0.506325,2.3e-05,-0.7064,-265.584023,0.055736,62.512075
9.5752,-0.001382,0.003501,-0.000322,0.000648,-0.003198,0.000612,-0.00097,-0.506577,-0.000356,-0.781318,-265.584023,-0.019182,62.512075
9.5954,-0.001229,0.003476,0.000413,0.00077,-0.003185,0.000982,-0.001496,-0.506506,-0.000325,-0.781318,-265.584023,-0.019182,62.512075
9.6157,-0.001343,0.003386,0.001627,0.000867,-0.003175,0.001252,-0.001496,-0.506506,-0.000325,-0.781318,-265.584023,-0.019182,62.512075
9.6354,-0.001297,0.003486,0.002187,0.000945,-0.003168,0.00145,-0.000514,-0.506613,0.001627,-0.856372,-265.584023,-0.094236,62.512075
9.6555,-0.00122,0.003332,0.000648,0.000745,-0.003184,0.000638,-0.000377,-0.506572,0.001856,-0.856372,-265.584023,-0.094236,62.512075
9.6756,-0.001454,0.003603,0.000187,0.000589,-0.003195,3.3e-05,-0.000889,-0.506668,0.000648,-0.931383,-265.584023,-0.169247,62.512075
9.6956,-0.001355,0.003919,0.001162,0.000679,-0.003196,0.000295,-0.001318,-0.50642,0.000227,-0.931383,-265.584023,-0.169247,62.512075
9.7158,-0.001205,0.003488,0.001489,0.000751,-0.003198,0.000481,-0.001318,-0.50642,0.000227,-0.931383,-265.584023,-0.169247,62.512075
9.7359,-0.001452,0.003374,0.000639,0.000809,-0.0032,0.000614,-0.000445,-0.506511,0.001489,-1.006379,-265.584023,-0.244243,62.512075
9.7559,-0.001089,0.003697,0.001625,0.000729,-0.003203,0.000282,-0.000725,-0.506558,0.00114,-1.006379,-265.584023,-0.244243,62.512075
9.7753,-0.001285,0.003609,0.000932,0.000665,-0.003205,3.8e-05,-0.00026,-0.506303,0.001625,-1.081422,-265.584023,-0.319286,62.512075
9.7958,-0.001445,0.003405,-0.000401,0.000614,-0.003223,-7.1e-05,-0.000763,-0.506383,0.000991,-1.081422,-265.584023,-0.319286,62.512075
9.8156,-0.001622,0.003454,0.001104,0.000574,-0.003238,-0.000154,-0.000763,-0.506383,0.000991,-1.081422,-265.584023,-0.319286,62.512075
9.8353,-0.000975,0.00363,0.00028,0.000543,-0.003249,-0.000217,-0.001059,-0.506546,0.001104,-1.156409,-265.584023,-0.394273,62.512076
9.8556,-0.001443,0.003523,-6.7e-05,0.000572,-0.003245,-0.00017,-0.000967,-0.506474,0.000769,-1.156409,-265.584023,-0.394273,62.512076
9.8752,-0.001303,0.003332,-0.000137,0.000595,-0.003241,-0.000137,-0.001477,-0.506477,-6.7e-05,-1.231285,-265.584022,-0.469149,62.512076
9.8957,-0.001567,0.003139,0.001301,0.000714,-0.003205,0.000335,-0.001382,-0.506651,-0.000131,-1.231285,-265.584022,-0.469149,62.512076
9.9158,-0.00121,0.003671,0.002027,0.00081,-0.003178,0.000678,-0.001382,-0.506651,-0.000131,-1.231285,-265.584022,-0.469149,62.512076
9.9354,-0.001233,0.003447,0.000774,0.000886,-0.003157,0.000928,-0.000177,-0.506328,0.002027,-1.306382,-265.584022,-0.544246,62.512076
9.9556,-0.001192,0.003426,0.002395,0.000711,-0.003187,0.000368,-0.000444,-0.506419,0.00152,-1.306382,-265.584022,-0.544246,62.512076
9.9751,-0.001268,0.003275,0.002077,0.000575,-0.00321,-4.7e-05,3e-05,-0.506573,0.002395,-1.241182,-265.584022,-0.619138,62.512076
9.9956,-0.001646,0.003112,0.000889,0.000412,-0.003201,-0.000568,-0.000188,-0.506711,0.002105,-1.241182,-265.584022,-0.619138,62.512076
10.0155,-0.001504,0.003132,0.000695,0.000284,-0.003193,-0.000956,-0.000188,-0.506711,0.002105,-1.241182,-265.584022,-0.619138,62.512076
10.0356,-0.00125,0.003462,0.000568,0.000183,-0.003186,-0.001245,-0.001149,-0.506868,0.000695,-1.316293,-265.584022,-0.69425,62.512076
10.0555,-0.001388,0.003459,0.002495,0.000324,-0.00316,-0.000857,-0.001072,-0.506733,0.000643,-1.316293,-265.584022,-0.69425,62.512076
10.0751,-0.001383,0.003798,0.000415,0.000434,-0.003141,-0.000581,-0.000116,-0.50654,0.002495,-1.391185,-265.584022,-0.769142,62.512076
10.0956,-0.001395,0.00392,0.000108,0.000487,-0.003179,-0.000348,-0.001076,-0.506232,0.000602,-1.391185,-265.584022,-0.769142,62.512076
10.1155,-0.001479,0.003577,0.00211,0.000531,-0.003209,-0.000182,-0.001076,-0.506232,0.000602,-1.391185,-265.584022,-0.769142,62.512076
10.1351,-0.001114,0.00352,0.000518,0.000567,-0.003234,-6.3e-05,-0.000403,-0.506422,0.00211,-1.447225,-265.584021,-0.844137,62.512077
10.1552,-0.001168,0.003598,0.000955,0.000496,-0.003245,-0.000361,-0.000585,-0.506446,0.001463,-1.447225,-265.584021,-0.844137,62.512077
10.1751,-0.001149,0.003943,-5e-06,0.000441,-0.003252,-0.00058,-0.000681,-0.506403,0.000955,-1.399206,-265.584013,-0.919139,62.512084
10.1958,-0.001346,0.003738,0.001364,0.00049,-0.003282,-7e-05,-0.001109,-0.506088,8.2e-05,-1.399206,-265.584013,-0.919139,62.512084
10.2157,-0.001629,0.00398,0.001656,0.000533,-0.003306,0.000294,-0.001109,-0.506088,8.2e-05,-1.399206,-265.584013,-0.919139,62.512084
10.2352,-0.001493,0.003453,5.8e-05,0.000569,-0.003327,0.000555,-0.000784,-0.506021,0.001655,-1.449153,-265.583992,-0.994135,62.512102
10.2554,-0.00108,0.003378,-9.1e-05,0.000604,-0.00333,0.000277,-0.001064,-0.506238,0.000996,-1.449153,-265.583992,-0.994135,62.512102
10.2752,-0.001415,0.003529,0.000557,0.000631,-0.003333,7.7e-05,-0.001125,-0.506627,-9.1e-05,-1.382503,-265.583933,-1.069274,62.512174
10.2954,-0.00106,0.003675,0.000353,0.000681,-0.003307,0.000169,-0.00113,-0.506485,0.000501,-1.382503,-265.583933,-1.069274,62.512174
10.3156,-0.001004,0.003704,0.001297,0.00072,-0.003287,0.000236,-0.00113,-0.506485,0.000501,-1.382503,-265.583933,-1.069274,62.512174
10.3354,-0.00125,0.003633,0.000228,0.000751,-0.003272,0.000285,-0.000334,-0.506322,0.001296,-1.381125,-265.583672,-1.144233,62.512442
10.3557,-0.001415,0.00343,0.002313,0.000658,-0.003284,0.000172,-0.000664,-0.506344,0.000855,-1.381125,-265.583672,-1.144233,62.512442
10.3753,-0.001295,0.003787,0.001269,0.000585,-0.003293,8.7e-05,-0.000221,-0.506617,0.002315,-1.332858,-265.583077,-1.219285,62.5131
10.3955,-0.001348,0.003637,0.000469,0.000511,-0.003311,-0.000205,-0.000609,-0.506251,0.001363,-1.332858,-265.583077,-1.219285,62.5131
10.4157,-0.001501,0.003567,0.000826,0.000453,-0.003325,-0.000419,-0.000609,-0.506251,0.001363,-1.332858,-265.583077,-1.219285,62.5131
10.4354,-0.001293,0.003113,0.003371,0.000407,-0.003335,-0.000577,-0.001061,-0.50651,0.000826,-1.392315,-265.582332,-1.294155,62.513869
10.4554,-0.001039,0.003414,0.000796,0.000354,-0.003303,-0.0009,-0.000456,-0.50667,0.001858,-1.392315,-265.582332,-1.294155,62.513869
10.4756,-0.000956,0.002968,0.000862,0.00031,-0.003278,-0.001137,-0.000623,-0.506657,0.000783,-1.460871,-265.581331,-1.369147,62.514681
10.4955,-0.001226,0.003395,0.001589,0.000309,-0.003215,-0.000877,-0.000525,-0.507003,0.000855,-1.460871,-265.581331,-1.369147,62.514681
10.5157,-0.00116,0.002965,0.000974,0.000306,-0.003166,-0.000693,-0.000525,-0.507003,0.000855,-1.460871,-265.581331,-1.369147,62.514681
10.5354,-0.00114,0.003218,0.00047,0.000304,-0.003128,-0.000563,-0.000652,-0.507156,0.000932,-1.492808,-265.579925,-1.444233,62.515599
10.5556,-0.001004,0.003132,0.00228,0.000361,-0.003091,-0.000426,-0.000751,-0.507018,0.00074,-1.492808,-265.579925,-1.444233,62.515599
10.5752,-0.001127,0.002866,0.000135,0.000405,-0.003062,-0.000326,0.000169,-0.506966,0.002262,-1.483565,-265.578539,-1.462177,62.516713
10.5957,-0.001193,0.002926,0.000942,0.0005,-0.003011,-4.8e-05,-0.000952,-0.507125,0.000316,-1.483565,-265.578539,-1.462177,62.516713
10.6157,-0.001127,0.003141,0.000489,0.000574,-0.002971,0.000155,-0.000952,-0.507125,0.000316,-1.483565,-265.578539,-1.462177,62.516713
10.6354,-0.000903,0.00275,0.000576,0.000631,-0.002939,0.000306,-0.000861,-0.506982,0.000476,-1.447194,-265.577272,-1.430212,62.517827
10.6556,-0.001371,0.002532,-0.001301,0.000625,-0.00292,0.000324,-0.000755,-0.507107,0.000516,-1.447194,-265.577272,-1.430212,62.517827
10.6753,-0.000837,0.002769,0.000782,0.00062,-0.002905,0.000339,-0.002019,-0.507542,-0.001293,-1.372199,-265.576368,-1.371451,62.518849
10.6956,-0.000775,0.00232,0.000789,0.000577,-0.002873,0.000311,-0.000574,-0.507261,0.000604,-1.372199,-265.576368,-1.371451,62.518849
10.716,-0.000574,0.002465,0.001171,0.000543,-0.002848,0.000291,-0.000574,-0.507261,0.000604,-1.372199,-265.576368,-1.371451,62.518849
10.7356,-0.001009,0.00219,-0.000189,0.000515,-0.002828,0.000276,4.9e-05,-0.507654,0.001185,-1.344935,-265.575273,-1.374156,62.520104
10.7557,-0.001065,0.002332,-0.000554,0.00048,-0.002734,0.000248,-0.000423,-0.507732,0.000622,-1.344935,-265.575273,-1.374156,62.520104
10.7752,-0.00109,0.00242,0.000309,0.00045,-0.002661,0.000228,-0.001332,-0.507755,-0.000546,-1.379371,-265.574223,-1.400462,62.521282
10.7956,-0.000987,0.002244,0.000167,0.000572,-0.002609,0.000391,-0.000968,-0.5076,0.000232,-1.379371,-265.574223,-1.400462,62.521282
10.8156,-0.001049,0.002321,6.9e-05,0.000665,-0.002568,0.000512,-0.000968,-0.5076,0.000232,-1.379371,-265.574223,-1.400462,62.521282
10.8355,-0.001324,0.002057,0.001269,0.000737,-0.002537,0.000605,-0.000995,-0.50779,7.8e-05,-1.394102,-265.573204,-1.411396,62.52241
10.8556,-0.001091,0.002128,7.3e-05,0.000788,-0.002464,0.000498,-0.000864,-0.507864,0.000562,-1.394102,-265.573204,-1.411396,62.52241
10.8753,-0.000701,0.002168,0.001808,0.000825,-0.002406,0.000425,-0.001042,-0.507922,8.4e-05,-1.319115,-265.572645,-1.33641,62.523143
10.8956,-0.001148,0.002265,0.001417,0.000541,-0.002376,-5.2e-05,0.000109,-0.507841,0.001654,-1.319115,-265.572645,-1.33641,62.523143
10.9155,-0.001336,0.00223,0.000578,0.000321,-0.002353,-0.000408,0.000109,-0.507841,0.001654,-1.319115,-265.572645,-1.33641,62.523143
10.9356,-0.000949,0.002532,-0.000556,0.00015,-0.002335,-0.000675,-0.001017,-0.507847,0.000591,-1.2441,-265.571951,-1.270632,62.523985
10.9557,-0.001035,0.00242,0.000828,0.000361,-0.002321,-0.000199,-0.001102,-0.507701,0.000124,-1.2441,-265.571951,-1.270632,62.523985
10.9755,-0.000853,0.002227,0.000894,0.000528,-0.002312,0.000145,-0.00061,-0.507589,0.000825,-1.319097,-265.571802,-1.345629,62.52409
10.9956,-0.001255,0.002084,-0.000204,0.00047,-0.002318,4e-05,-0.000416,-0.507757,0.000888,-1.319097,-265.571802,-1.345629,62.52409
11.0159,-0.001534,0.00186,-0.000516,0.000426,-0.002323,-3.8e-05,-0.000416,-0.507757,0.000888,-1.319097,-265.571802,-1.345629,62.52409
11.0355,-0.000838,0.001612,0.000796,0.000392,-0.002327,-9.7e-05,-0.001775,-0.508237,-0.00051,-1.337772,-265.570894,-1.354416,62.525066
11.0555,-0.000964,0.002139,0.000107,0.000644,-0.002184,0.000241,-0.001235,-0.508308,1.4e-05,-1.337772,-265.570894,-1.354416,62.525066
11.0754,-0.000938,0.001673,0.000824,0.000839,-0.002074,0.000493,-0.000898,-0.507927,0.000104,-1.408095,-265.570029,-1.399771,62.525889
11.0957,-0.0007,0.002155,-0.00036,0.000785,-0.002021,0.000338,-0.000552,-0.508294,0.000759,-1.408095,-265.570029,-1.399771,62.525889
11.1161,-0.001122,0.001696,-0.000531,0.000743,-0.001979,0.000227,-0.000552,-0.508294,0.000759,-1.408095,-265.570029,-1.399771,62.525889
11.1356,-0.001106,0.001756,0.000397,0.000709,-0.001946,0.000148,-0.001389,-0.508321,-0.000528,-1.333101,-265.569889,-1.324777,62.526069
11.1556,-0.000815,0.002083,0.000933,0.000865,-0.001898,0.000531,-0.001191,-0.508292,-0.000151,-1.333101,-265.569889,-1.324777,62.526069
11.1757,-0.000902,0.001765,0.001037,0.000987,-0.001862,0.000813,-0.000326,-0.507959,0.000936,-1.258123,-265.56935,-1.249799,62.526655
11.1966,-0.001008,0.001758,0.000173,0.000827,-0.001878,0.000475,-0.000368,-0.508213,0.001028,-1.258123,-265.56935,-1.249799,62.526655
11.2158,-0.001389,0.001621,-0.000219,0.000704,-0.001891,0.000226,-0.000368,-0.508213,0.001028,-1.258123,-265.56935,-1.249799,62.526655
11.2356,-0.000875,0.001795,0.000437,0.00061,-0.0019,4.1e-05,-0.001495,-0.508395,-0.000214,-1.18309,-265.569225,-1.174766,62.526844
11.2559,-0.001118,0.001537,0.001526,0.000777,-0.001859,0.000351,-0.001149,-0.508319,5.3e-05,-1.18309,-265.569225,-1.174766,62.526844
11.2757,-0.000969,0.001947,-0.000517,0.000907,-0.001828,0.000577,-0.000324,-0.508511,0.001527,-1.256137,-265.568588,-1.249859,62.527497
11.2953,-0.000845,0.001693,-0.000243,0.000983,-0.001854,0.000964,-0.001149,-0.508096,-0.000332,-1.256137,-265.568588,-1.249859,62.527497
11.3158,-0.000766,0.001721,-0.001667,0.001046,-0.001874,0.001244,-0.001149,-0.508096,-0.000332,-1.256137,-265.568588,-1.249859,62.527497
11.3353,-0.001146,0.001497,-0.000776,0.001098,-0.001889,0.001449,-0.001604,-0.508307,-0.00166,-1.181254,-265.568331,-1.176523,62.527847
11.3553,-0.001184,0.001717,0.001171,0.001266,-0.001817,0.002048,-0.001577,-0.50839,-0.001299,-1.181254,-265.568331,-1.176523,62.527847
11.3751,-0.001184,0.001806,-0.000246,0.0014,-0.001761,0.00249,-0.000585,-0.508285,0.001173,-1.10625,-265.568307,-1.19399,62.527895
11.3952,-0.00112,0.001504,0.001124,0.001411,-0.00178,0.002237,-0.001245,-0.508203,-0.00012,-1.10625,-265.568307,-1.19399,62.527895
11.4155,-0.001047,0.001879,-0.000632,0.001421,-0.001793,0.002059,-0.001245,-0.508203,-0.00012,-1.10625,-265.568307,-1.19399,62.527895
11.4352,-0.001032,0.001535,0.000526,0.001429,-0.001802,0.001934,-0.001369,-0.508121,-0.000632,-1.031229,-265.568307,-1.167725,62.527896
11.4555,-0.000758,0.001881,0.000146,0.0,0.0,0.0,-0.001122,-0.508262,-0.000159,-1.031229,-265.568307,-1.167725,62.527896
