mach0312/omni-docking-bench/src/icros_test_setup/results/MPPI_sample/timeseries/trial_067.csv
t,x,y,yaw,vx,vy,wz,bl_x,bl_y,bl_yaw,front_steering_joint,front_wheel_joint,rear_steering_joint,rear_wheel_joint
0.0,0.053381,-0.019761,-0.046171,0.007832,-0.010228,-0.023986,0.028593,-0.528382,-0.044384,-1.265798,-259.619406,0.513936,68.521021
0.0005,0.053322,-0.019779,-0.044622,0.004078,-0.005325,-0.012488,0.028479,-0.528441,-0.044733,-1.265798,-259.608509,0.513936,68.524779
0.0008,0.054053,-0.02018,-0.046308,0.003351,-0.004377,-0.010264,0.028479,-0.528441,-0.044733,-1.265798,-259.599197,0.513936,68.52799
0.0011,0.05385,-0.019844,-0.049904,0.002587,-0.003378,-0.007922,0.029125,-0.52867,-0.044889,-1.265798,-259.59125,0.513936,68.53073
0.0014,0.053945,-0.020225,-0.048007,0.001771,-0.002313,-0.005425,0.029125,-0.52867,-0.044889,-1.265798,-259.585818,0.513936,68.532603
0.0017,0.054473,-0.020572,-0.048408,0.000903,-0.001179,-0.002765,0.028667,-0.528409,-0.046626,-1.265798,-259.582372,0.513936,68.533792
0.002,0.054317,-0.020438,-0.048738,0.0,0.0,0.0,0.028667,-0.528409,-0.046626,-1.265798,-259.582372,0.513936,68.533792
0.0023,0.054687,-0.020619,-0.048309,0.0,0.0,0.0,0.028667,-0.528409,-0.046626,-1.265798,-259.582372,0.513936,68.533792
0.0025,0.054999,-0.02029,-0.048164,0.0,0.0,0.0,0.029918,-0.52914,-0.04568,-1.265798,-259.582372,0.513936,68.533792
0.0028,0.054809,-0.02069,-0.048302,0.0,0.0,0.0,0.029918,-0.52914,-0.04568,-1.265798,-259.582372,0.513936,68.533792
0.0078,0.054881,-0.02065,-0.049403,0.0,0.0,0.0,0.030185,-0.530095,-0.048302,-1.265798,-259.582372,0.513936,68.533792
0.028,0.05506,-0.020529,-0.048597,0.0,0.0,0.0,0.029987,-0.530068,-0.048746,-1.265798,-259.582372,0.513936,68.533792
0.0479,0.054855,-0.020596,-0.048009,0.0,0.0,0.0,0.030286,-0.529927,-0.048597,-1.265798,-259.582372,0.513936,68.533792
0.0681,0.054428,-0.02066,-0.047438,0.0,0.0,0.0,0.030371,-0.530001,-0.048062,-1.265798,-259.582372,0.513936,68.533792
0.0881,0.054594,-0.020942,-0.050156,0.0,0.0,0.0,0.030371,-0.530001,-0.048062,-1.265798,-259.582372,0.513936,68.533792
0.108,0.054961,-0.020357,-0.049104,0.0,0.0,0.0,0.029025,-0.530301,-0.050156,-1.265798,-259.582372,0.513936,68.533792
0.1281,0.054868,-0.020765,-0.048975,-0.004076,0.000354,0.003867,0.029391,-0.530074,-0.049729,-1.265798,-259.582372,0.513936,68.533792
0.1477,0.054734,-0.020889,-0.048588,-0.004342,0.000389,0.004253,0.029901,-0.530154,-0.048975,-1.265798,-259.582372,0.513936,68.533792
0.168,0.055018,-0.020484,-0.049179,-0.004568,0.000417,0.004856,0.029959,-0.530275,-0.048623,-1.265798,-259.582372,0.513936,68.533792
0.1878,0.055012,-0.020794,-0.048528,-0.004758,0.000439,0.005315,0.029959,-0.530275,-0.048623,-1.265798,-259.582372,0.513936,68.533792
0.2081,0.054711,-0.021079,-0.048926,-0.004758,0.000439,0.005315,0.030272,-0.530194,-0.048527,-1.190938,-259.582373,0.470405,68.53379
0.228,0.054832,-0.02083,-0.049381,-0.005054,0.000471,0.006375,0.030068,-0.530305,-0.048689,-1.190938,-259.582373,0.470405,68.53379
0.2475,0.054889,-0.020616,-0.048071,-0.005167,0.000482,0.006736,0.029657,-0.530208,-0.049379,-1.115938,-259.582393,0.532984,68.533772
0.2676,0.054833,-0.02069,-0.048295,-0.005267,0.000482,0.007212,0.030321,-0.530042,-0.048182,-1.115938,-259.582393,0.532984,68.533772
0.2875,0.054973,-0.020512,-0.047532,-0.005351,0.000482,0.00759,0.030321,-0.530042,-0.048182,-1.115938,-259.582393,0.532984,68.533772
0.3078,0.055039,-0.020538,-0.049015,-0.005351,0.000482,0.00759,0.030727,-0.529932,-0.047507,-1.040802,-259.582601,0.608121,68.533582
0.3278,0.054851,-0.020751,-0.048463,-0.005485,0.000471,0.008384,0.030447,-0.529929,-0.048126,-1.040802,-259.582601,0.608121,68.533582
0.348,0.054617,-0.020963,-0.04808,-0.005536,0.000466,0.008668,0.030103,-0.530142,-0.04839,-0.965803,-259.583414,0.660107,68.532839
0.368,0.054873,-0.020671,-0.049531,-0.005571,0.000471,0.009014,0.030103,-0.530354,-0.048102,-0.965803,-259.583414,0.660107,68.532839
0.3877,0.054749,-0.020982,-0.048511,-0.005601,0.000475,0.009293,0.030103,-0.530354,-0.048102,-0.965803,-259.583414,0.660107,68.532839
0.4082,0.054433,-0.020942,-0.045719,-0.005601,0.000475,0.009293,0.029881,-0.530357,-0.048274,-0.890735,-259.585415,0.717232,68.530999
0.428,0.054134,-0.020675,-0.048183,-0.005649,0.000475,0.009858,0.030375,-0.530376,-0.0472,-0.890735,-259.585415,0.717232,68.530999
0.4477,0.053856,-0.020884,-0.046942,-0.005668,0.000474,0.010065,0.029405,-0.530062,-0.047907,-0.832167,-259.588517,0.74832,68.528149
0.4681,0.053956,-0.020797,-0.048259,-0.005679,0.000478,0.01031,0.029872,-0.530299,-0.047011,-0.832167,-259.588517,0.74832,68.528149
0.4883,0.053879,-0.020397,-0.047425,-0.005688,0.000481,0.010512,0.029872,-0.530299,-0.047011,-0.832167,-259.588517,0.74832,68.528149
0.5079,0.053705,-0.020697,-0.047046,-0.005688,0.000481,0.010512,0.029474,-0.529794,-0.047019,-0.862818,-259.591869,0.785864,68.525065
0.5275,0.053407,-0.020501,-0.046672,-0.005705,0.000479,0.010879,0.029547,-0.529928,-0.046984,-0.862818,-259.591869,0.785864,68.525065
0.5475,0.052996,-0.020197,-0.047972,-0.005711,0.000478,0.011016,0.029434,-0.529922,-0.046341,-0.881425,-259.595401,0.806978,68.521816
0.5675,0.052995,-0.020512,-0.045935,-0.005712,0.000483,0.011166,0.028611,-0.529637,-0.047808,-0.881425,-259.595401,0.806978,68.521816
0.5882,0.053144,-0.02039,-0.047913,-0.005712,0.000487,0.01129,0.028611,-0.529637,-0.047808,-0.881425,-259.595401,0.806978,68.521816
0.6078,0.051955,-0.020508,-0.04563,-0.005712,0.000487,0.01129,0.028483,-0.529774,-0.047458,-0.900603,-259.59903,0.830399,68.518475
0.6281,0.05246,-0.020273,-0.044915,-0.005705,0.000504,0.011542,0.028541,-0.529854,-0.046657,-0.900603,-259.59903,0.830399,68.518475
0.6482,0.051689,-0.020626,-0.044576,-0.005702,0.00051,0.011637,0.029381,-0.529736,-0.044558,-0.912219,-259.602742,0.842742,68.515061
0.6679,0.051826,-0.020613,-0.047269,-0.005699,0.000515,0.011749,0.028991,-0.530085,-0.044557,-0.912219,-259.602742,0.842742,68.515061
0.6878,0.052018,-0.02014,-0.045144,-0.005697,0.00052,0.011841,0.028991,-0.530085,-0.044557,-0.912219,-259.602742,0.842742,68.515061
0.7075,0.050788,-0.020054,-0.04559,-0.005697,0.00052,0.011841,0.028766,-0.529588,-0.044661,-0.928204,-259.606518,0.858059,68.511601
0.7279,0.051038,-0.020093,-0.04434,-0.005693,0.000526,0.012039,0.028243,-0.529559,-0.044983,-0.928204,-259.606518,0.858059,68.511601
0.7475,0.050378,-0.020628,-0.044332,-0.005691,0.000529,0.012113,0.028251,-0.529567,-0.043963,-0.937011,-259.610357,0.867016,68.508088
0.768,0.050859,-0.019908,-0.045475,-0.005678,0.000547,0.012207,0.02781,-0.530075,-0.044279,-0.937011,-259.610357,0.867016,68.508088
0.7883,0.050543,-0.020183,-0.045435,-0.005666,0.000562,0.012285,0.02781,-0.530075,-0.044279,-0.937011,-259.610357,0.867016,68.508088
0.8075,0.050032,-0.020425,-0.043226,-0.005666,0.000562,0.012285,0.027143,-0.529624,-0.044929,-0.948129,-259.614248,0.878932,68.50453
0.8282,0.050102,-0.020343,-0.042789,-0.005649,0.000584,0.012455,0.027464,-0.529753,-0.044175,-0.948129,-259.614248,0.878932,68.50453
0.8478,0.049326,-0.020183,-0.043833,-0.005643,0.000592,0.012518,0.028108,-0.529851,-0.042399,-0.958361,-259.618176,0.886155,68.50096
0.8682,0.04977,-0.020408,-0.04237,-0.005633,0.000604,0.012597,0.027076,-0.529707,-0.043676,-0.958361,-259.618176,0.886155,68.50096
0.8881,0.049466,-0.020387,-0.043197,-0.005625,0.000614,0.012661,0.027076,-0.529707,-0.043676,-0.958361,-259.618176,0.886155,68.50096
0.9076,0.048705,-0.019766,-0.043792,-0.005625,0.000614,0.012661,0.027209,-0.529876,-0.042675,-0.970213,-259.62216,0.896047,68.497356
0.928,0.049073,-0.020216,-0.043467,-0.005609,0.000634,0.012791,0.026841,-0.529626,-0.043072,-0.970213,-259.62216,0.896047,68.497356
0.9478,0.048072,-0.020109,-0.041699,-0.005602,0.000641,0.01284,0.026735,-0.529707,-0.043066,-0.977798,-259.626175,0.902061,68.493737
0.9677,0.04823,-0.020419,-0.042941,-0.005595,0.00065,0.012891,0.026795,-0.529668,-0.041802,-0.977798,-259.626175,0.902061,68.493737
0.9884,0.047667,-0.020397,-0.042246,-0.005589,0.000657,0.012932,0.026795,-0.529668,-0.041802,-0.977798,-259.626175,0.902061,68.493737
1.0081,0.047612,-0.020205,-0.041919,-0.005589,0.000657,0.012932,0.025894,-0.529905,-0.041709,-0.987146,-259.630237,0.909591,68.490091
1.0279,0.047648,-0.020538,-0.040489,-0.005558,0.000695,0.013011,0.026009,-0.529841,-0.041733,-0.987146,-259.630237,0.909591,68.490091
1.0474,0.046867,-0.020141,-0.039356,-0.005546,0.00071,0.01304,0.026828,-0.530092,-0.040078,-0.992149,-259.634332,0.913471,68.486426
1.0675,0.04699,-0.020205,-0.040611,-0.005545,0.000711,0.01307,0.026795,-0.529772,-0.039395,-0.992149,-259.634332,0.913471,68.486426
1.0879,0.047538,-0.020133,-0.041748,-0.005544,0.000713,0.013094,0.026795,-0.529772,-0.039395,-0.992149,-259.634332,0.913471,68.486426
1.1077,0.046232,-0.019911,-0.040159,-0.005544,0.000713,0.013094,0.026023,-0.52965,-0.041206,-1.001885,-259.638428,0.918034,68.482794
1.1275,0.046373,-0.020173,-0.041365,-0.005529,0.00073,0.013142,0.025888,-0.529584,-0.040715,-1.001885,-259.638428,0.918034,68.482794
1.1478,0.045718,-0.020198,-0.038824,-0.005524,0.000737,0.01316,0.025108,-0.529707,-0.040948,-1.00399,-259.642557,0.920273,68.479132
1.168,0.045959,-0.019641,-0.040901,-0.005514,0.000749,0.01318,0.02584,-0.529803,-0.038995,-1.00399,-259.642557,0.920273,68.479132
1.188,0.045925,-0.020188,-0.040721,-0.005506,0.000759,0.013196,0.02584,-0.529803,-0.038995,-1.00399,-259.642557,0.920273,68.479132
1.2079,0.045185,-0.019704,-0.03694,-0.005506,0.000759,0.013196,0.024933,-0.529725,-0.040169,-1.008983,-259.646703,0.92307,68.475472
1.2279,0.045173,-0.019501,-0.03809,-0.005492,0.000777,0.013229,0.025485,-0.52957,-0.038789,-1.008983,-259.646703,0.92307,68.475472
1.2484,0.044475,-0.019812,-0.037807,-0.005487,0.000783,0.01324,0.025577,-0.5291,-0.03767,-1.012664,-259.650866,0.924618,68.471811
1.2682,0.04436,-0.019631,-0.039087,-0.005481,0.000791,0.013254,0.025226,-0.529411,-0.03777,-1.012664,-259.650866,0.924618,68.471811
1.288,0.044661,-0.019564,-0.038198,-0.005476,0.000797,0.013265,0.025226,-0.529411,-0.03777,-1.012664,-259.650866,0.924618,68.471811
1.3076,0.043993,-0.01965,-0.038675,-0.005476,0.000797,0.013265,0.024957,-0.529151,-0.037646,-1.016834,-259.655038,0.926497,68.468157
1.3278,0.043917,-0.019603,-0.036368,-0.005461,0.000815,0.013287,0.024648,-0.529195,-0.038007,-1.016834,-259.655038,0.926497,68.468157
1.3479,0.043381,-0.019616,-0.036216,-0.005456,0.000822,0.013295,0.0252,-0.529234,-0.035946,-1.019147,-259.659209,0.927534,68.464512
1.3681,0.043263,-0.019759,-0.035974,-0.005452,0.000826,0.013304,0.024931,-0.529276,-0.03617,-1.019147,-259.659209,0.927534,68.464512
1.3878,0.043359,-0.019623,-0.037389,-0.005449,0.00083,0.013312,0.024931,-0.529276,-0.03617,-1.019147,-259.659209,0.927534,68.464512
1.4081,0.042874,-0.01935,-0.036347,-0.005449,0.00083,0.013312,0.024068,-0.529224,-0.036833,-1.02294,-259.663398,0.928886,68.460868
1.428,0.042467,-0.019576,-0.03562,-0.005431,0.000852,0.013327,0.024154,-0.529132,-0.03657,-1.02294,-259.663398,0.928886,68.460868
1.4478,0.042247,-0.019666,-0.03649,-0.005424,0.000861,0.013333,0.024132,-0.52922,-0.035196,-1.024374,-259.667592,0.929566,68.457224
1.4681,0.042071,-0.019682,-0.033756,-0.005409,0.000879,0.01334,0.023677,-0.529315,-0.036351,-1.024374,-259.667592,0.929566,68.457224
1.4881,0.041737,-0.019657,-0.035554,-0.005396,0.000895,0.013346,0.023677,-0.529315,-0.036351,-1.024374,-259.667592,0.929566,68.457224
1.5082,0.041561,-0.019108,-0.035244,-0.005396,0.000895,0.013346,0.023383,-0.529291,-0.034997,-1.028596,-259.671796,0.930611,68.453593
1.5281,0.0415,-0.019656,-0.034931,-0.005376,0.00092,0.013356,0.023441,-0.529084,-0.035031,-1.028596,-259.671796,0.930611,68.453593
1.5481,0.040772,-0.019597,-0.034408,-0.005368,0.000929,0.01336,0.023518,-0.529311,-0.034506,-1.032906,-259.676013,0.931353,68.449972
1.5681,0.040963,-0.019769,-0.034078,-0.005355,0.000945,0.013364,0.023244,-0.529295,-0.034395,-1.032906,-259.676013,0.931353,68.449972
1.5878,0.040932,-0.019425,-0.033803,-0.005344,0.000958,0.013368,0.023244,-0.529295,-0.034395,-1.032906,-259.676013,0.931353,68.449972
1.608,0.040224,-0.019367,-0.035017,-0.005344,0.000958,0.013368,0.023473,-0.529087,-0.033245,-1.037266,-259.680231,0.932126,68.446374
1.6283,0.040304,-0.019901,-0.03455,-0.005327,0.000979,0.013374,0.022994,-0.529068,-0.033908,-1.037266,-259.680231,0.932126,68.446374
1.6479,0.039772,-0.01909,-0.032599,-0.005321,0.000987,0.013376,0.022517,-0.52956,-0.034123,-1.040845,-259.684457,0.932655,68.442788
1.6681,0.039586,-0.018777,-0.031603,-0.005319,0.00099,0.013379,0.023084,-0.528884,-0.032715,-1.040845,-259.684457,0.932655,68.442788
1.6882,0.039915,-0.019328,-0.03258,-0.005318,0.000993,0.01338,0.023084,-0.528884,-0.032715,-1.040845,-259.684457,0.932655,68.442788
1.708,0.039031,-0.018921,-0.031801,-0.005318,0.000993,0.01338,0.023081,-0.529009,-0.03202,-1.044406,-259.688697,0.933176,68.439209
1.728,0.03927,-0.01948,-0.03273,-0.005311,0.001001,0.013384,0.022947,-0.528861,-0.031866,-1.044406,-259.688697,0.933176,68.439209
1.7477,0.038846,-0.019014,-0.031927,-0.005309,0.001004,0.013386,0.022413,-0.52917,-0.032305,-1.045049,-259.692937,0.933294,68.435634
1.7681,0.038508,-0.018922,-0.031801,-0.005302,0.001012,0.013388,0.022544,-0.528788,-0.031939,-1.045049,-259.692937,0.933294,68.435634
1.7882,0.038604,-0.019165,-0.031947,-0.005297,0.001019,0.013389,0.022544,-0.528788,-0.031939,-1.045049,-259.692937,0.933294,68.435634
1.8082,0.037578,-0.01945,-0.031049,-0.005297,0.001019,0.013389,0.022093,-0.528856,-0.031388,-1.046468,-259.697177,0.933521,68.432066
1.8278,0.038193,-0.019419,-0.030422,-0.005264,0.001057,0.013394,0.021925,-0.528993,-0.031184,-1.046468,-259.697177,0.933521,68.432066
1.8479,0.03767,-0.01905,-0.028625,-0.005251,0.001071,0.013395,0.022512,-0.529146,-0.029996,-1.048247,-259.701417,0.933786,68.428509
1.8679,0.03721,-0.018973,-0.031169,-0.005258,0.001065,0.013395,0.023014,-0.528866,-0.028726,-1.048247,-259.701417,0.933786,68.428509
1.8879,0.037155,-0.019147,-0.031207,-0.005263,0.00106,0.013395,0.023014,-0.528866,-0.028726,-1.048247,-259.701417,0.933786,68.428509
1.9078,0.036476,-0.018862,-0.029077,-0.005263,0.00106,0.013395,0.021024,-0.528847,-0.030648,-1.05457,-259.705676,0.934662,68.42497
1.9275,0.036546,-0.019325,-0.030716,-0.005226,0.0011,0.013399,0.021258,-0.528758,-0.029933,-1.05457,-259.705676,0.934662,68.42497
1.9474,0.035986,-0.01884,-0.027257,-0.005213,0.001116,0.0134,0.020717,-0.529045,-0.03029,-1.053079,-259.709928,0.934374,68.421429
1.9676,0.036115,-0.018682,-0.029196,-0.005212,0.001117,0.0134,0.02196,-0.528682,-0.027498,-1.053079,-259.709928,0.934374,68.421429
1.9882,0.035829,-0.018982,-0.03052,-0.005211,0.001119,0.0134,0.02196,-0.528682,-0.027498,-1.053079,-259.709928,0.934374,68.421429
2.0077,0.035612,-0.018543,-0.028519,-0.005211,0.001119,0.0134,0.02005,-0.528691,-0.029961,-1.059921,-259.714185,0.935383,68.417923
2.0282,0.035507,-0.018742,-0.02705,-0.005173,0.00116,0.013403,0.020442,-0.52854,-0.029307,-1.059921,-259.714185,0.935383,68.417923
2.0474,0.034763,-0.018345,-0.029545,-0.005159,0.001176,0.013404,0.021548,-0.528515,-0.026623,-1.060152,-259.71845,0.935295,68.414411
2.0677,0.034716,-0.018789,-0.027654,-0.005144,0.001192,0.013405,0.019856,-0.528156,-0.02926,-1.060152,-259.71845,0.935295,68.414411
2.0878,0.034616,-0.018377,-0.029374,-0.005131,0.001206,0.013405,0.019856,-0.528156,-0.02926,-1.060152,-259.71845,0.935295,68.414411
2.1077,0.034383,-0.018799,-0.027058,-0.005131,0.001206,0.013405,0.019423,-0.528101,-0.028814,-1.06715,-259.722722,0.936396,68.410932
2.1276,0.034337,-0.018471,-0.026868,-0.005105,0.001234,0.013406,0.019872,-0.528303,-0.028033,-1.06715,-259.722722,0.936396,68.410932
2.1474,0.033581,-0.01841,-0.027024,-0.005096,0.001245,0.013406,0.020474,-0.528244,-0.026442,-1.070863,-259.727007,0.93697,68.407464
2.1677,0.033306,-0.018085,-0.026039,-0.005088,0.001254,0.013406,0.01985,-0.528224,-0.026953,-1.070863,-259.727007,0.93697,68.407464
2.1882,0.033789,-0.018549,-0.02562,-0.005082,0.001262,0.013406,0.01985,-0.528224,-0.026953,-1.070863,-259.727007,0.93697,68.407464
2.208,0.033225,-0.018365,-0.026346,-0.005082,0.001262,0.013406,0.020511,-0.528324,-0.025055,-1.075515,-259.731297,0.937614,68.404018
2.2282,0.032709,-0.01863,-0.024896,-0.00508,0.001265,0.013405,0.020199,-0.528263,-0.025507,-1.075515,-259.731297,0.937614,68.404018
2.248,0.032348,-0.018596,-0.024693,-0.00508,0.001267,0.013405,0.019852,-0.528428,-0.024467,-1.077394,-259.735587,0.937805,68.400584
2.2679,0.032343,-0.018676,-0.025297,-0.005067,0.00128,0.013405,0.019756,-0.528437,-0.024652,-1.077394,-259.735587,0.937805,68.400584
2.2878,0.0323,-0.018017,-0.025778,-0.005057,0.001291,0.013406,0.019756,-0.528437,-0.024652,-1.077394,-259.735587,0.937805,68.400584
2.3079,0.031467,-0.018185,-0.025354,-0.005057,0.001291,0.013406,0.018942,-0.527789,-0.025214,-1.07775,-259.739878,0.937612,68.397151
2.3279,0.032006,-0.01878,-0.023127,-0.005027,0.001322,0.013407,0.018756,-0.527876,-0.025207,-1.07775,-259.739878,0.937612,68.397151
2.3479,0.031789,-0.018176,-0.024093,-0.005015,0.001334,0.013407,0.020053,-0.528599,-0.022701,-1.080699,-259.744176,0.938102,68.39373
2.368,0.031703,-0.018367,-0.02325,-0.005016,0.001334,0.013407,0.019542,-0.528075,-0.023951,-1.080699,-259.744176,0.938102,68.39373
2.3883,0.031344,-0.018443,-0.025481,-0.005017,0.001334,0.013406,0.019542,-0.528075,-0.023951,-1.080699,-259.744176,0.938102,68.39373
2.4077,0.030558,-0.018267,-0.022562,-0.005017,0.001334,0.013406,0.018142,-0.528216,-0.02492,-1.086016,-259.748479,0.939152,68.390333
2.428,0.030793,-0.017999,-0.022397,-0.004977,0.001374,0.013408,0.018491,-0.528177,-0.023889,-1.086016,-259.748479,0.939152,68.390333
2.4479,0.030105,-0.018152,-0.020709,-0.004962,0.001389,0.013408,0.019213,-0.527826,-0.021972,-1.085855,-259.752778,0.938932,68.38694
2.4679,0.030168,-0.018123,-0.023334,-0.00497,0.001382,0.013406,0.019506,-0.528021,-0.020801,-1.085855,-259.752778,0.938932,68.38694
2.4885,0.030534,-0.018305,-0.022819,-0.004976,0.001376,0.013405,0.019506,-0.528021,-0.020801,-1.085855,-259.752778,0.938932,68.38694
2.5078,0.029597,-0.01845,-0.022081,-0.004976,0.001376,0.013405,0.018691,-0.528109,-0.022257,-1.092848,-259.757096,0.940435,68.383572
2.5278,0.029546,-0.018119,-0.021396,-0.004947,0.001406,0.013406,0.018522,-0.528191,-0.022121,-1.092848,-259.757096,0.940435,68.383572
2.548,0.028769,-0.018305,-0.019437,-0.004936,0.001417,0.013406,0.018478,-0.527956,-0.02097,-1.090985,-259.761409,0.939767,68.380197
2.5679,0.028939,-0.017745,-0.020682,-0.004931,0.001422,0.013404,0.018817,-0.528185,-0.019547,-1.090985,-259.761409,0.939767,68.380197
2.5877,0.02873,-0.017895,-0.020649,-0.004927,0.001427,0.013402,0.018817,-0.528185,-0.019547,-1.090985,-259.761409,0.939767,68.380197
2.6079,0.028,-0.017734,-0.019901,-0.004927,0.001427,0.013402,0.017994,-0.527723,-0.020088,-1.096088,-259.765719,0.940856,68.376852
2.6276,0.02865,-0.017522,-0.020632,-0.004906,0.001447,0.013402,0.017913,-0.527679,-0.019948,-1.096088,-259.765719,0.940856,68.376852
2.6479,0.027725,-0.017492,-0.019673,-0.004898,0.001455,0.013401,0.017972,-0.527365,-0.020205,-1.097142,-259.77004,0.940892,68.373507
2.668,0.027744,-0.018037,-0.020702,-0.004892,0.00146,0.0134,0.01771,-0.527388,-0.019699,-1.097142,-259.77004,0.940892,68.373507
2.688,0.027579,-0.017876,-0.019702,-0.004888,0.001464,0.0134,0.01771,-0.527388,-0.019699,-1.097142,-259.77004,0.940892,68.373507
2.7081,0.027107,-0.017858,-0.019435,-0.004888,0.001464,0.0134,0.017328,-0.527712,-0.019141,-1.100728,-259.774364,0.941697,68.370178
2.7278,0.026815,-0.017614,-0.019506,-0.004849,0.0015,0.013398,0.01725,-0.527725,-0.019196,-1.100728,-259.774364,0.941697,68.370178
2.7481,0.026513,-0.017662,-0.014962,-0.004835,0.001514,0.013398,0.016713,-0.527467,-0.019079,-1.101869,-259.778695,0.941901,68.366851
2.7681,0.026623,-0.017682,-0.017596,-0.004851,0.001496,0.013364,0.018688,-0.527591,-0.015295,-1.101869,-259.778695,0.941901,68.366851
2.7879,0.026509,-0.017756,-0.017943,-0.004865,0.001482,0.013338,0.018688,-0.527591,-0.015295,-1.101869,-259.778695,0.941901,68.366851
2.8078,0.026179,-0.017199,-0.017178,-0.004865,0.001482,0.013338,0.017158,-0.527608,-0.017384,-1.108278,-259.783027,0.943484,68.363557
2.8276,0.025791,-0.017555,-0.017362,-0.004842,0.001504,0.013341,0.017243,-0.527399,-0.017234,-1.108278,-259.783027,0.943484,68.363557
2.8478,0.025382,-0.017448,-0.016342,-0.004834,0.001513,0.013342,0.016783,-0.527428,-0.016939,-1.102928,-259.787339,0.940254,68.36026
2.8676,0.025286,-0.017562,-0.017142,-0.004821,0.001524,0.013336,0.017017,-0.527381,-0.016373,-1.102928,-259.787339,0.940254,68.36026
2.8877,0.025352,-0.01708,-0.017466,-0.00481,0.001534,0.013331,0.017017,-0.527381,-0.016373,-1.102928,-259.787339,0.940254,68.36026
2.9077,0.024716,-0.01743,-0.016539,-0.00481,0.001534,0.013331,0.016244,-0.526936,-0.016909,-1.106903,-259.791659,0.941267,68.356976
2.9277,0.024631,-0.017511,-0.015583,-0.004771,0.001569,0.01333,0.016236,-0.527104,-0.016691,-1.106903,-259.791659,0.941267,68.356976
2.9475,0.023735,-0.016975,-0.015767,-0.004757,0.001583,0.013329,0.016532,-0.527398,-0.015159,-1.109518,-259.795975,0.941595,68.353712
2.9674,0.024354,-0.017046,-0.013976,-0.004734,0.001601,0.013317,0.015762,-0.526953,-0.01569,-1.109518,-259.795975,0.941595,68.353712
2.9876,0.024181,-0.017383,-0.012656,-0.004716,0.001616,0.013307,0.015762,-0.526953,-0.01569,-1.109518,-259.795975,0.941595,68.353712
3.0082,0.023795,-0.017186,-0.012668,-0.004716,0.001616,0.013307,0.017528,-0.527274,-0.012096,-1.115828,-259.800307,0.943282,68.35047
3.0281,0.02393,-0.017066,-0.015921,-0.004748,0.001571,0.013084,0.017427,-0.527214,-0.012263,-1.115828,-259.800307,0.943282,68.35047
3.0478,0.023097,-0.017073,-0.014061,-0.00476,0.001555,0.013008,0.015661,-0.526947,-0.015498,-1.120013,-259.804636,0.943912,68.347255
3.0677,0.022947,-0.017146,-0.012851,-0.004739,0.001577,0.013028,0.015896,-0.527013,-0.014165,-1.120013,-259.804636,0.943912,68.347255
3.0877,0.022754,-0.017224,-0.014603,-0.004721,0.001595,0.013043,0.015896,-0.527013,-0.014165,-1.120013,-259.804636,0.943912,68.347255
3.1079,0.022389,-0.016955,-0.013523,-0.004721,0.001595,0.013043,0.01511,-0.527102,-0.014063,-1.106292,-259.808864,0.93059,68.344084
3.128,0.022507,-0.016673,-0.012933,-0.004663,0.001647,0.013045,0.015245,-0.527014,-0.013777,-1.106292,-259.808864,0.93059,68.344084
3.148,0.021812,-0.016792,-0.012484,-0.004641,0.001668,0.013045,0.015762,-0.526578,-0.012519,-1.112097,-259.813119,0.933014,68.34092
3.1682,0.022258,-0.017472,-0.012453,-0.004635,0.001669,0.012988,0.015466,-0.526734,-0.012466,-1.112097,-259.813119,0.933014,68.34092
3.1877,0.021655,-0.016666,-0.013421,-0.004629,0.00167,0.012944,0.015466,-0.526734,-0.012466,-1.112097,-259.813119,0.933014,68.34092
3.2077,0.020748,-0.016489,-0.012146,-0.004629,0.00167,0.012944,0.014617,-0.526548,-0.012875,-1.121874,-259.817389,0.935813,68.337796
3.2282,0.02121,-0.016841,-0.010509,-0.004586,0.001702,0.012886,0.014569,-0.5265,-0.012517,-1.121874,-259.817389,0.935813,68.337796
3.2477,0.020637,-0.016348,-0.011434,-0.00457,0.001715,0.012866,0.0157,-0.526757,-0.010088,-1.120502,-259.821663,0.932149,68.334675
3.2676,0.020492,-0.016684,-0.011946,-0.00457,0.001708,0.012771,0.014879,-0.526351,-0.011292,-1.120502,-259.821663,0.932149,68.334675
3.2881,0.020943,-0.016844,-0.011239,-0.004571,0.001704,0.012697,0.014879,-0.526351,-0.011292,-1.120502,-259.821663,0.932149,68.334675
3.3081,0.020185,-0.016708,-0.009922,-0.004571,0.001704,0.012697,0.015022,-0.526738,-0.010703,-1.125382,-259.825884,0.931187,68.331628
3.3275,0.020182,-0.01697,-0.010442,-0.004571,0.001695,0.012441,0.015042,-0.526707,-0.010325,-1.125382,-259.825884,0.931187,68.331628
3.3478,0.020077,-0.016426,-0.009666,-0.004571,0.001693,0.012357,0.014712,-0.526887,-0.010038,-1.120628,-259.830081,0.923848,68.328599
3.3676,0.019796,-0.016555,-0.011238,-0.004582,0.001682,0.012218,0.015101,-0.526443,-0.009679,-1.120628,-259.830081,0.923848,68.328599
3.3875,0.019951,-0.016228,-0.00922,-0.004591,0.001674,0.012115,0.015101,-0.526443,-0.009679,-1.120628,-259.830081,0.923848,68.328599
3.4083,0.019006,-0.01665,-0.009913,-0.004591,0.001674,0.012115,0.015059,-0.526135,-0.008705,-1.11141,-259.834206,0.907829,68.325627
3.4278,0.019128,-0.016267,-0.009498,-0.004588,0.001675,0.011852,0.01458,-0.526328,-0.009142,-1.11141,-259.834206,0.907829,68.325627
3.4476,0.018656,-0.01616,-0.009419,-0.004587,0.001677,0.011769,0.014141,-0.52619,-0.009117,-1.102324,-259.838239,0.894893,68.322716
3.4679,0.018511,-0.016374,-0.007011,-0.004569,0.001693,0.011737,0.013869,-0.526139,-0.009375,-1.102324,-259.838239,0.894893,68.322716
3.488,0.018549,-0.016514,-0.008857,-0.004554,0.001706,0.011712,0.013869,-0.526139,-0.009375,-1.102324,-259.838239,0.894893,68.322716
3.508,0.018136,-0.01607,-0.008678,-0.004554,0.001706,0.011712,0.013842,-0.526423,-0.008368,-1.093295,-259.842204,0.876633,68.319868
3.5281,0.017956,-0.016303,-0.006681,-0.004526,0.001727,0.011433,0.013766,-0.526262,-0.008439,-1.093295,-259.842204,0.876633,68.319868
3.5477,0.017473,-0.016072,-0.007202,-0.004516,0.001737,0.011346,0.014404,-0.526237,-0.006308,-1.096018,-259.846188,0.874506,68.317028
3.5677,0.017706,-0.016471,-0.006927,-0.004515,0.001734,0.011005,0.013843,-0.526071,-0.007109,-1.096018,-259.846188,0.874506,68.317028
3.5879,0.017597,-0.016335,-0.006561,-0.004516,0.001733,0.010762,0.013843,-0.526071,-0.007109,-1.096018,-259.846188,0.874506,68.317028
3.6082,0.016989,-0.015977,-0.00672,-0.004516,0.001733,0.010762,0.014064,-0.52625,-0.006091,-1.090409,-259.85007,0.854964,68.314295
3.6275,0.017065,-0.015816,-0.006809,-0.004513,0.001734,0.010109,0.013836,-0.526125,-0.006295,-1.090409,-259.85007,0.854964,68.314295
3.6474,0.016633,-0.016051,-0.005042,-0.004514,0.001737,0.009918,0.013452,-0.52575,-0.006475,-1.072837,-259.853761,0.819988,68.31171
3.668,0.016541,-0.016232,-0.007889,-0.004518,0.001732,0.009441,0.014002,-0.526016,-0.00515,-1.072837,-259.853761,0.819988,68.31171
3.6882,0.016925,-0.015906,-0.007722,-0.004524,0.001731,0.009109,0.014002,-0.526016,-0.00515,-1.072837,-259.853761,0.819988,68.31171
3.7079,0.015987,-0.015822,-0.007284,-0.004524,0.001731,0.009109,0.012809,-0.525821,-0.00733,-1.045887,-259.857146,0.763447,68.309363
3.7279,0.016303,-0.015566,-0.006958,-0.004466,0.001799,0.009611,0.012573,-0.525808,-0.007267,-1.045887,-259.857146,0.763447,68.309363
3.7477,0.015913,-0.015872,-0.005969,-0.004444,0.001823,0.009771,0.012621,-0.525501,-0.006689,-1.015675,-259.860338,0.70284,68.307158
3.7679,0.015623,-0.016243,-0.00573,-0.004434,0.001832,0.009597,0.012842,-0.52583,-0.006016,-1.015675,-259.860338,0.70284,68.307158
3.7879,0.015538,-0.015571,-0.006701,-0.004426,0.00184,0.009472,0.012842,-0.52583,-0.006016,-1.015675,-259.860338,0.70284,68.307158
3.8077,0.014875,-0.015611,-0.006325,-0.004426,0.00184,0.009472,0.011946,-0.525486,-0.006316,-1.052418,-259.863722,0.750498,68.304865
3.8278,0.015513,-0.015509,-0.00592,-0.004365,0.001889,0.009426,0.011804,-0.525525,-0.006275,-1.052418,-259.863722,0.750498,68.304865
3.8481,0.014342,-0.015446,-0.004815,-0.004342,0.001909,0.00941,0.012355,-0.525441,-0.005621,-1.044833,-259.867215,0.728001,68.302516
3.8685,0.014712,-0.015652,-0.005357,-0.004324,0.001917,0.008987,0.01192,-0.525437,-0.004869,-1.044833,-259.867215,0.728001,68.302516
3.8882,0.014893,-0.015692,-0.004456,-0.004311,0.001927,0.008689,0.01192,-0.525437,-0.004869,-1.044833,-259.867215,0.728001,68.302516
3.908,0.014185,-0.015902,-0.005547,-0.004311,0.001927,0.008689,0.012439,-0.525606,-0.004063,-1.054882,-259.870732,0.72395,68.3002
3.9279,0.014286,-0.015535,-0.004125,-0.004282,0.001952,0.00819,0.011976,-0.525715,-0.004624,-1.054882,-259.870732,0.72395,68.3002
3.9476,0.014094,-0.01552,-0.003777,-0.004273,0.001964,0.008045,0.012053,-0.525473,-0.003866,-1.033351,-259.873888,0.664926,68.298147
3.9679,0.013867,-0.0153,-0.003239,-0.004274,0.001964,0.00763,0.012151,-0.52551,-0.003772,-1.033351,-259.873888,0.664926,68.298147
3.9876,0.014115,-0.015781,-0.004022,-0.004276,0.001967,0.007341,0.012151,-0.52551,-0.003772,-1.033351,-259.873888,0.664926,68.298147
4.008,0.013903,-0.015536,-0.00492,-0.004276,0.001967,0.007341,0.011896,-0.525699,-0.003706,-1.014854,-259.876928,0.604195,68.296197
4.0279,0.013762,-0.015253,-0.003944,-0.004249,0.002002,0.007248,0.011671,-0.525621,-0.004166,-1.014854,-259.876928,0.604195,68.296197
4.0481,0.013064,-0.015536,-0.002766,-0.00424,0.002016,0.007221,0.011627,-0.525192,-0.003732,-0.9854,-259.879736,0.53191,68.294397
4.0677,0.013631,-0.015281,-0.003353,-0.004226,0.00202,0.006664,0.011644,-0.525499,-0.002845,-0.9854,-259.879736,0.53191,68.294397
4.0877,0.013604,-0.015107,-0.003828,-0.004218,0.002027,0.006276,0.011644,-0.525499,-0.002845,-0.9854,-259.879736,0.53191,68.294397
4.1076,0.013077,-0.015289,-0.00219,-0.004218,0.002027,0.006276,0.011476,-0.525019,-0.003527,-0.987551,-259.882796,0.514095,68.292462
4.1281,0.012738,-0.014958,-0.004141,-0.00423,0.002032,0.005894,0.011652,-0.525118,-0.002951,-0.987551,-259.882796,0.514095,68.292462
4.1482,0.012398,-0.014753,-0.001988,-0.004236,0.002035,0.005784,0.010519,-0.524903,-0.003977,-0.946911,-259.885116,0.439225,68.290987
4.1685,0.012455,-0.014998,-0.003244,-0.00423,0.002035,0.005341,0.011298,-0.524763,-0.002163,-0.946911,-259.885116,0.439225,68.290987
4.188,0.012426,-0.014991,-0.00196,-0.004227,0.002037,0.005031,0.011298,-0.524763,-0.002163,-0.946911,-259.885116,0.439225,68.290987
4.2075,0.012364,-0.014966,-0.001602,-0.004227,0.002037,0.005031,0.011277,-0.52492,-0.001753,-0.920429,-259.887478,0.364219,68.289471
4.2278,0.012565,-0.01484,-0.00328,-0.004213,0.002039,0.004232,0.01137,-0.52493,-0.001667,-0.920429,-259.887478,0.364219,68.289471
4.2477,0.011931,-0.015219,-0.002235,-0.004211,0.002043,0.003999,0.010789,-0.52479,-0.003153,-0.879632,-259.889496,0.289192,68.288146
4.2677,0.01158,-0.015176,-0.002348,-0.004189,0.002074,0.004157,0.010786,-0.525177,-0.002312,-0.879632,-259.889496,0.289192,68.288146
4.288,0.011766,-0.014633,-0.001801,-0.00417,0.002099,0.00427,0.010786,-0.525177,-0.002312,-0.879632,-259.889496,0.289192,68.288146
4.3078,0.011579,-0.015056,-0.001172,-0.00417,0.002099,0.00427,0.010759,-0.524593,-0.001707,-0.816927,-259.890751,0.214225,68.287284
4.3281,0.011788,-0.014841,-0.000441,-0.00415,0.002108,0.003694,0.010839,-0.524777,-0.001478,-0.816927,-259.890751,0.214225,68.287284
4.3477,0.01152,-0.014834,-0.000179,-0.004144,0.002114,0.003525,0.011449,-0.524784,-0.000323,-0.845798,-259.892916,0.13923,68.285837
4.3679,0.011649,-0.014699,-0.002891,-0.004147,0.002085,0.002693,0.011425,-0.524827,-0.000186,-0.845798,-259.892916,0.13923,68.285837
4.3876,0.011386,-0.014774,-0.001646,-0.004152,0.002067,0.002096,0.011425,-0.524827,-0.000186,-0.845798,-259.892916,0.13923,68.285837
4.4079,0.011242,-0.014588,-0.002211,-0.004152,0.002067,0.002096,0.010419,-0.524711,-0.001532,-0.799991,-259.894668,0.064092,68.284616
4.4279,0.011512,-0.014268,-0.000152,-0.004124,0.002134,0.002869,0.01028,-0.524653,-0.001795,-0.799991,-259.894668,0.064092,68.284616
4.4481,0.011126,-0.014975,-0.003659,-0.004112,0.002156,0.003098,0.011398,-0.524252,-0.000126,-0.725091,-259.895275,-0.010807,68.284136
4.4681,0.011262,-0.015003,-0.004339,-0.004064,0.002204,0.003884,0.00944,-0.52491,-0.003358,-0.725091,-259.895275,-0.010807,68.284136
4.4877,0.011114,-0.014938,-0.002707,-0.004023,0.00224,0.004457,0.00944,-0.52491,-0.003358,-0.725091,-259.895275,-0.010807,68.284136
4.5075,0.011109,-0.014561,-0.001478,-0.004023,0.00224,0.004457,0.009576,-0.524853,-0.002588,-0.777575,-259.897385,-0.064164,68.282629
4.5274,0.010895,-0.014457,0.000458,-0.003994,0.002259,0.004312,0.009876,-0.524724,-0.002122,-0.777575,-259.897385,-0.064164,68.282629
4.5474,0.010574,-0.014641,-0.000518,-0.003983,0.002267,0.004268,0.011066,-0.524421,0.000518,-0.852562,-259.8986,0.010824,68.281858
4.5679,0.010698,-0.014893,-0.000629,-0.003979,0.002234,0.003338,0.010372,-0.52462,-0.000426,-0.852562,-259.8986,0.010824,68.281858
4.5878,0.010775,-0.014436,-0.001679,-0.00398,0.002214,0.002675,0.010372,-0.52462,-0.000426,-0.852562,-259.8986,0.010824,68.281858
4.6079,0.01084,-0.014195,-0.001025,-0.00398,0.002214,0.002675,0.009769,-0.52435,-0.001518,-0.885585,-259.900866,0.085063,68.280419
4.6279,0.010575,-0.014446,-0.000874,-0.003992,0.002226,0.002699,0.009978,-0.524276,-0.001296,-0.885585,-259.900866,0.085063,68.280419
4.6478,0.010372,-0.014302,-0.00187,-0.003997,0.002231,0.002708,0.010087,-0.524424,-0.000838,-0.810539,-259.901622,0.010017,68.27987
4.6679,0.010242,-0.014381,-0.001239,-0.003984,0.002253,0.002957,0.009478,-0.524311,-0.001773,-0.810539,-259.901622,0.010017,68.27987
4.6876,0.010173,-0.014285,-0.001754,-0.003972,0.00227,0.003135,0.009478,-0.524311,-0.001773,-0.810539,-259.901622,0.010017,68.27987
4.708,0.010134,-0.014243,-0.002081,-0.003972,0.00227,0.003135,0.009166,-0.524226,-0.001671,-0.771108,-259.903115,-0.06484,68.278788
4.728,0.01051,-0.014157,-0.001544,-0.003928,0.002308,0.003402,0.009115,-0.524226,-0.00183,-0.771108,-259.903115,-0.06484,68.278788
4.7476,0.009819,-0.01408,6.7e-05,-0.003911,0.002322,0.003479,0.009601,-0.524087,-0.001448,-0.811441,-259.905341,-0.089043,68.277249
4.7679,0.010187,-0.014205,-0.002203,-0.003913,0.002285,0.002579,0.009825,-0.524077,-6e-05,-0.811441,-259.905341,-0.089043,68.277249
4.7877,0.01004,-0.014196,-0.001393,-0.003917,0.002261,0.001934,0.009825,-0.524077,-6e-05,-0.811441,-259.905341,-0.089043,68.277249
4.8076,0.009746,-0.013942,-0.001389,-0.003917,0.002261,0.001934,0.009173,-0.524102,-0.001254,-0.849405,-259.907598,-0.050374,68.275757
4.8277,0.009607,-0.014082,0.000596,-0.003896,0.002301,0.002318,0.0091,-0.524026,-0.001293,-0.849405,-259.907598,-0.050374,68.275757
4.8478,0.009635,-0.014246,-0.001862,-0.003888,0.002315,0.002434,0.009867,-0.524059,0.000625,-0.774486,-259.908339,-0.125293,68.275179
4.8676,0.009691,-0.014078,-0.000838,-0.003864,0.00234,0.002699,0.008784,-0.524228,-0.001649,-0.774486,-259.908339,-0.125293,68.275179
4.8876,0.009738,-0.01436,-0.0006,-0.003843,0.00236,0.002889,0.008784,-0.524228,-0.001649,-0.774486,-259.908339,-0.125293,68.275179
4.9077,0.009253,-0.014098,-0.000449,-0.003843,0.00236,0.002889,0.009287,-0.524275,-0.000509,-0.774179,-259.910275,-0.200455,68.273764
4.9279,0.009362,-0.014117,0.000483,-0.003822,0.002345,0.002037,0.009163,-0.524193,-0.000474,-0.774179,-259.910275,-0.200455,68.273764
4.9475,0.00927,-0.013649,-0.000454,-0.003815,0.002344,0.001785,0.009494,-0.524047,0.00057,-0.820675,-259.912379,-0.153757,68.272313
4.9679,0.009431,-0.013973,-0.000913,-0.00382,0.002337,0.001537,0.009074,-0.523682,-0.000356,-0.820675,-259.912379,-0.153757,68.272313
4.9877,0.008989,-0.013879,-0.000745,-0.003825,0.002333,0.001361,0.009074,-0.523682,-0.000356,-0.820675,-259.912379,-0.153757,68.272313
5.008,0.008466,-0.013491,-0.001372,-0.003825,0.002333,0.001361,0.008517,-0.523826,-0.000694,-0.745687,-259.913557,-0.228746,68.271391
5.0277,0.008841,-0.013573,-0.000592,-0.003769,0.002387,0.001737,0.008201,-0.523683,-0.000964,-0.745687,-259.913557,-0.228746,68.271391
5.0479,0.008615,-0.013783,-0.001762,-0.003747,0.002406,0.00185,0.008455,-0.523525,-0.000558,-0.691123,-259.914907,-0.303727,68.270273
5.068,0.009011,-0.013878,2.4e-05,-0.003711,0.002439,0.002284,0.007777,-0.523757,-0.001655,-0.691123,-259.914907,-0.303727,68.270273
5.0878,0.008865,-0.013618,-0.000708,-0.00368,0.002464,0.002595,0.007777,-0.523757,-0.001655,-0.691123,-259.914907,-0.303727,68.270273
5.1077,0.008749,-0.013609,-0.001987,-0.00368,0.002464,0.002595,0.008359,-0.523525,-0.000636,-0.756335,-259.916814,-0.328142,68.268808
5.1277,0.008733,-0.013486,-0.000644,-0.003664,0.002471,0.002567,0.008086,-0.523548,-0.001184,-0.756335,-259.916814,-0.328142,68.268808
5.1475,0.008128,-0.013276,0.001161,-0.003658,0.002474,0.002559,0.008312,-0.523423,-0.00058,-0.831364,-259.918553,-0.253113,68.267606
5.1681,0.008531,-0.013456,0.000493,-0.003664,0.002418,0.001378,0.008686,-0.523283,0.001036,-0.831364,-259.918553,-0.253113,68.267606
5.1882,0.008608,-0.013149,0.000342,-0.003675,0.00238,0.000519,0.008686,-0.523283,0.001036,-0.831364,-259.918553,-0.253113,68.267606
5.2081,0.007988,-0.013868,0.000158,-0.003675,0.00238,0.000519,0.00863,-0.523046,0.000448,-0.834487,-259.920716,-0.243998,68.266109
5.2277,0.007828,-0.013223,-0.000686,-0.003681,0.002376,5.6e-05,0.008384,-0.523368,0.000343,-0.834487,-259.920716,-0.243998,68.266109
5.2478,0.007963,-0.01352,-0.001099,-0.003685,0.002378,-8.2e-05,0.007459,-0.523211,-0.000679,-0.759939,-259.921013,-0.318546,68.265834
5.268,0.008157,-0.013725,0.000521,-0.003649,0.002426,0.000602,0.007406,-0.523492,-0.001062,-0.759939,-259.921013,-0.318546,68.265834
5.288,0.008062,-0.013407,0.000286,-0.003617,0.002462,0.001092,0.007406,-0.523492,-0.001062,-0.759939,-259.921013,-0.318546,68.265834
5.3076,0.007871,-0.01359,-0.000112,-0.003617,0.002462,0.001092,0.008181,-0.523391,0.000293,-0.684864,-259.921316,-0.393621,68.265527
5.3276,0.008332,-0.013202,0.000412,-0.003606,0.002455,0.000556,0.008027,-0.523471,0.000127,-0.684864,-259.921316,-0.393621,68.265527
5.3474,0.007397,-0.01299,0.000381,-0.003603,0.002455,0.000395,0.008436,-0.523131,0.000444,-0.713155,-259.923074,-0.460755,68.264043
5.3676,0.007905,-0.013556,0.001114,-0.003593,0.002454,0.000137,0.007658,-0.522999,0.000388,-0.713155,-259.923074,-0.460755,68.264043
5.3875,0.007931,-0.013398,-0.002089,-0.003585,0.002455,-4.8e-05,0.007658,-0.522999,0.000388,-0.713155,-259.923074,-0.460755,68.264043
5.408,0.00776,-0.012889,-0.001934,-0.003585,0.002455,-4.8e-05,0.006744,-0.523314,-0.002074,-0.642397,-259.924531,-0.535796,68.262674
5.4284,0.007821,-0.01318,0.000412,-0.003506,0.002546,0.00185,0.006742,-0.52313,-0.002015,-0.642397,-259.924531,-0.535796,68.262674
5.4478,0.007494,-0.01304,-0.000386,-0.003474,0.002576,0.002432,0.007929,-0.52311,0.000411,-0.594829,-259.926073,-0.605889,68.26112
5.468,0.007344,-0.01305,0.000728,-0.003466,0.002561,0.001972,0.007348,-0.523043,-0.000315,-0.594829,-259.926073,-0.605889,68.26112
5.488,0.007216,-0.012823,0.000705,-0.003462,0.002552,0.001645,0.007348,-0.523043,-0.000315,-0.594829,-259.926073,-0.605889,68.26112
5.5078,0.007522,-0.012906,-0.000107,-0.003462,0.002552,0.001645,0.007565,-0.522815,0.000708,-0.669773,-259.926225,-0.530944,68.261016
5.5279,0.00763,-0.013152,-0.001016,-0.003475,0.002511,0.000601,0.007523,-0.522852,0.000372,-0.669773,-259.926225,-0.530944,68.261016
5.5478,0.007676,-0.012772,0.000943,-0.003484,0.0025,0.000288,0.007041,-0.523102,-0.000988,-0.744924,-259.927473,-0.455794,68.260063
5.5679,0.007183,-0.012961,-0.000345,-0.00352,0.00247,-0.000158,0.008061,-0.522797,0.000784,-0.744924,-259.927473,-0.455794,68.260063
5.5879,0.007742,-0.01266,0.000191,-0.003551,0.002448,-0.000478,0.008061,-0.522797,0.000784,-0.744924,-259.927473,-0.455794,68.260063
5.6079,0.007661,-0.012651,0.00077,-0.003551,0.002448,-0.000478,0.007741,-0.522593,0.000205,-0.669906,-259.928638,-0.530812,68.258953
5.6276,0.007038,-0.012834,7.5e-05,-0.003599,0.002436,-0.000553,0.007859,-0.522609,0.00044,-0.669906,-259.928638,-0.530812,68.258953
5.6478,0.007188,-0.012759,0.000629,-0.003617,0.002432,-0.000575,0.007008,-0.522787,7.2e-05,-0.594881,-259.929639,-0.605837,68.257872
5.6677,0.006944,-0.012481,0.000168,-0.003603,0.002441,-0.000662,0.007457,-0.522759,0.000576,-0.594881,-259.929639,-0.605837,68.257872
5.6877,0.007444,-0.012963,0.001218,-0.003592,0.002449,-0.000725,0.007457,-0.522759,0.000576,-0.594881,-259.929639,-0.605837,68.257872
5.708,0.00726,-0.012982,-0.000245,-0.003592,0.002449,-0.000725,0.007931,-0.522873,0.001197,-0.522085,-259.931114,-0.655861,68.256259
5.7279,0.007183,-0.012695,-0.000713,-0.003581,0.002459,-0.000826,0.007589,-0.522907,0.000602,-0.522085,-259.931114,-0.655861,68.256259
5.7483,0.006727,-0.012658,-0.001949,-0.003578,0.002464,-0.000856,0.006706,-0.522618,-0.000736,-0.509438,-259.932741,-0.677819,68.254435
5.768,0.0065,-0.013021,-2.7e-05,-0.003492,0.002535,0.000364,0.005836,-0.522648,-0.001813,-0.509438,-259.932741,-0.677819,68.254435
5.7879,0.007059,-0.012945,9e-06,-0.003421,0.002589,0.001256,0.005836,-0.522648,-0.001813,-0.509438,-259.932741,-0.677819,68.254435
5.8076,0.006631,-0.012534,-0.001292,-0.003421,0.002589,0.001256,0.006915,-0.522843,-2.6e-05,-0.497076,-259.934356,-0.695636,68.252586
5.8279,0.006777,-0.01252,7.6e-05,-0.003366,0.002613,0.001276,0.006516,-0.522706,-0.000543,-0.497076,-259.934356,-0.695636,68.252586
5.8482,0.006039,-0.01242,-0.000113,-0.003345,0.002623,0.001284,0.006799,-0.522509,7.7e-05,-0.572058,-259.93463,-0.620654,68.252364
5.868,0.006805,-0.012244,-6.2e-05,-0.003301,0.002632,0.001038,0.006053,-0.522427,-9.6e-05,-0.572058,-259.93463,-0.620654,68.252364
5.8878,0.006649,-0.012676,-0.000927,-0.003266,0.002641,0.000862,0.006053,-0.522427,-9.6e-05,-0.572058,-259.93463,-0.620654,68.252364
5.9079,0.0067,-0.012302,-0.000489,-0.003266,0.002641,0.000862,0.006123,-0.522639,-0.000916,-0.647058,-259.935318,-0.545654,68.251815
5.9279,0.006639,-0.012454,2e-06,-0.00325,0.002664,0.001268,0.006251,-0.522497,-0.00074,-0.647058,-259.935318,-0.545654,68.251815
5.9477,0.006135,-0.012232,0.000229,-0.003243,0.002671,0.001389,0.006558,-0.522391,2e-05,-0.722184,-259.936726,-0.574663,68.25061
5.9675,0.006449,-0.012376,0.001173,-0.003234,0.002657,0.000941,0.006274,-0.522243,0.000211,-0.722184,-259.936726,-0.574663,68.25061
5.9876,0.00644,-0.012858,0.000329,-0.003229,0.002648,0.000619,0.006274,-0.522243,0.000211,-0.722184,-259.936726,-0.574663,68.25061
6.0079,0.006179,-0.01239,-0.001007,-0.003229,0.002648,0.000619,0.0065,-0.522772,0.000372,-0.797257,-259.938236,-0.512082,68.249436
6.0278,0.006497,-0.012089,-0.000405,-0.003196,0.002669,0.000618,0.006143,-0.522605,-0.000191,-0.797257,-259.938236,-0.512082,68.249436
6.0475,0.006529,-0.012171,-0.000929,-0.003184,0.002677,0.000618,0.006205,-0.52202,-0.000387,-0.753005,-259.939694,-0.586988,68.248136
6.0682,0.006149,-0.01224,-8e-06,-0.003191,0.002686,0.001001,0.006064,-0.522155,-0.000882,-0.753005,-259.939694,-0.586988,68.248136
6.0883,0.006311,-0.012512,-0.001827,-0.003195,0.002693,0.001275,0.006064,-0.522155,-0.000882,-0.753005,-259.939694,-0.586988,68.248136
6.1083,0.005931,-0.011976,-0.001243,-0.003195,0.002693,0.001275,0.005249,-0.522402,-0.001802,-0.764573,-259.941412,-0.625406,68.246607
6.1285,0.006021,-0.011878,4.3e-05,-0.003101,0.002751,0.002213,0.005254,-0.522219,-0.001575,-0.764573,-259.941412,-0.625406,68.246607
6.1482,0.006027,-0.01172,-6e-05,-0.003065,0.002769,0.002494,0.005957,-0.521805,7.7e-05,-0.826773,-259.942991,-0.550527,68.245361
6.1681,0.005694,-0.0119,-0.000601,-0.003079,0.002734,0.001841,0.005867,-0.52162,1e-06,-0.826773,-259.942991,-0.550527,68.245361
6.188,0.006046,-0.011868,0.000275,-0.003091,0.002711,0.001375,0.005867,-0.52162,1e-06,-0.826773,-259.942991,-0.550527,68.245361
6.2077,0.005578,-0.011352,0.002086,-0.003091,0.002711,0.001375,0.00612,-0.521808,0.00032,-0.902017,-259.944057,-0.475283,68.244692
6.2277,0.005995,-0.011405,0.000191,-0.003154,0.002627,-0.000133,0.006324,-0.521616,0.001039,-0.902017,-259.944057,-0.475283,68.244692
6.2482,0.005787,-0.011443,0.000797,-0.003183,0.002604,-0.000587,0.006004,-0.521327,0.000231,-0.854443,-259.94574,-0.54422,68.2434
6.2681,0.005669,-0.011478,-0.001052,-0.003207,0.002594,-0.000764,0.006171,-0.521428,0.000746,-0.854443,-259.94574,-0.54422,68.2434
6.2884,0.006043,-0.011652,-0.000308,-0.003227,0.002588,-0.00089,0.006171,-0.521428,0.000746,-0.854443,-259.94574,-0.54422,68.2434
6.3082,0.005362,-0.011147,-0.000812,-0.003227,0.002588,-0.00089,0.00586,-0.52163,-0.000307,-0.779437,-259.946052,-0.619226,68.243052
6.328,0.005509,-0.011886,-0.000481,-0.003195,0.002647,0.000169,0.005478,-0.521427,-0.000516,-0.779437,-259.946052,-0.619226,68.243052
6.3477,0.005606,-0.011426,0.001852,-0.003181,0.002666,0.000485,0.00523,-0.521858,-0.000485,-0.704175,-259.946553,-0.694488,68.242462
6.3683,0.005551,-0.01174,-0.001806,-0.003209,0.002616,-0.000401,0.00643,-0.521462,0.001641,-0.704175,-259.946553,-0.694488,68.242462
6.3881,0.005623,-0.011324,0.000943,-0.003235,0.00258,-0.001044,0.00643,-0.521462,0.001641,-0.704175,-259.946553,-0.694488,68.242462
6.4076,0.005902,-0.011519,-0.000109,-0.003235,0.00258,-0.001044,0.005981,-0.521221,0.000962,-0.749769,-259.948158,-0.640329,68.240997
6.4278,0.005183,-0.011444,0.000133,-0.003243,0.002595,-0.000905,0.005912,-0.521331,0.000526,-0.749769,-259.948158,-0.640329,68.240997
6.4477,0.005222,-0.011501,0.00228,-0.003245,0.0026,-0.000865,0.005215,-0.521414,0.000127,-0.674753,-259.948696,-0.715345,68.240346
6.4675,0.00502,-0.011774,0.002004,-0.00325,0.00257,-0.001552,0.006272,-0.52149,0.002076,-0.674753,-259.948696,-0.715345,68.240346
6.488,0.005504,-0.01169,0.000761,-0.003257,0.002548,-0.00205,0.006272,-0.52149,0.002076,-0.674753,-259.948696,-0.715345,68.240346
6.5076,0.005099,-0.011237,-0.000662,-0.003257,0.002548,-0.00205,0.005784,-0.521602,0.000735,-0.59978,-259.949929,-0.767099,68.238903
6.528,0.004727,-0.011041,0.000146,-0.003192,0.002625,-0.001046,0.005351,-0.521441,0.000158,-0.59978,-259.949929,-0.767099,68.238903
6.5481,0.005033,-0.011143,0.000927,-0.003166,0.00265,-0.000752,0.004762,-0.521006,0.000126,-0.524641,-259.950479,-0.842238,68.238118
6.5681,0.005306,-0.011149,0.000756,-0.003151,0.00265,-0.000924,0.005434,-0.521128,0.00085,-0.524641,-259.950479,-0.842238,68.238118
6.5875,0.005341,-0.011098,0.000829,-0.00314,0.002652,-0.001049,0.005434,-0.521128,0.00085,-0.524641,-259.950479,-0.842238,68.238118
6.6077,0.005313,-0.010834,0.001138,-0.00314,0.002652,-0.001049,0.005652,-0.521005,0.000802,-0.59951,-259.951777,-0.776489,68.236622
6.6276,0.005023,-0.010913,-0.00035,-0.003177,0.002628,-0.001286,0.005739,-0.520923,0.000938,-0.59951,-259.951777,-0.776489,68.236622
6.6478,0.004793,-0.010662,-0.0022,-0.003191,0.00262,-0.001359,0.004748,-0.520831,-0.000382,-0.569715,-259.95322,-0.809079,68.23486
6.6676,0.00489,-0.010863,0.00021,-0.003065,0.002696,8e-05,0.003758,-0.520671,-0.002046,-0.569715,-259.95322,-0.809079,68.23486
6.6878,0.004701,-0.011134,0.000765,-0.002962,0.002754,0.001143,0.003758,-0.520671,-0.002046,-0.569715,-259.95322,-0.809079,68.23486
6.7078,0.004734,-0.010637,4.5e-05,-0.002962,0.002754,0.001143,0.004966,-0.521031,0.000712,-0.511285,-259.954601,-0.824336,68.233087
6.728,0.004587,-0.01114,-0.001986,-0.002932,0.002733,0.00028,0.004865,-0.520856,0.00043,-0.511285,-259.954601,-0.824336,68.233087
6.7477,0.004823,-0.010918,0.000317,-0.002923,0.002729,2.4e-05,0.003568,-0.521134,-0.001986,-0.586279,-259.954715,-0.749341,68.232997
6.7683,0.00505,-0.010833,-8.4e-05,-0.002919,0.002736,1.6e-05,0.004861,-0.520936,0.000118,-0.586279,-259.954715,-0.749341,68.232997
6.7876,0.004459,-0.010987,0.000647,-0.002915,0.002742,1.2e-05,0.004861,-0.520936,0.000118,-0.586279,-259.954715,-0.749341,68.232997
6.8075,0.005001,-0.011014,0.000106,-0.002915,0.002742,1.2e-05,0.004708,-0.520918,0.000642,-0.661275,-259.955736,-0.748418,68.231981
6.8276,0.004598,-0.010527,0.000956,-0.0029,0.002743,-0.000281,0.004842,-0.520949,0.00042,-0.661275,-259.955736,-0.748418,68.231981
6.848,0.004448,-0.01048,0.001024,-0.002896,0.002746,-0.000367,0.005005,-0.520452,0.000955,-0.736278,-259.957122,-0.753361,68.230599
6.8678,0.00465,-0.010738,-0.000398,-0.002912,0.002725,-0.000743,0.004969,-0.520474,0.001018,-0.736278,-259.957122,-0.753361,68.230599
6.8877,0.004422,-0.010656,0.000885,-0.002926,0.002711,-0.001013,0.004969,-0.520474,0.001018,-0.736278,-259.957122,-0.753361,68.230599
6.9075,0.004884,-0.010703,2e-06,-0.002926,0.002711,-0.001013,0.004756,-0.520545,0.00087,-0.71644,-259.958602,-0.798061,68.228999
6.9276,0.004447,-0.010728,-0.000137,-0.002925,0.002724,-0.000884,0.004796,-0.520598,0.000511,-0.71644,-259.958602,-0.798061,68.228999
6.9479,0.004235,-0.010126,-0.000302,-0.002924,0.002728,-0.000846,0.004301,-0.520656,-0.000163,-0.641282,-259.959793,-0.849807,68.227532
6.968,0.004272,-0.010614,0.002216,-0.002885,0.002758,-0.000362,0.004096,-0.520167,-0.000291,-0.641282,-259.959793,-0.849807,68.227532
6.9882,0.004228,-0.010244,-0.00078,-0.002853,0.00278,-1.7e-05,0.004096,-0.520167,-0.000291,-0.641282,-259.959793,-0.849807,68.227532
7.008,0.004089,-0.010479,-0.000558,-0.002853,0.00278,-1.7e-05,0.003709,-0.520131,-0.000815,-0.647619,-259.961259,-0.837334,68.225786
7.028,0.004346,-0.010184,-8.7e-05,-0.002741,0.002836,0.000809,0.003734,-0.520264,-0.000711,-0.647619,-259.961259,-0.837334,68.225786
7.048,0.004133,-0.009734,0.000645,-0.002698,0.002854,0.001054,0.004234,-0.520121,-9e-05,-0.722808,-259.962426,-0.774323,68.224614
7.068,0.003762,-0.010321,-0.001442,-0.00273,0.002815,0.000503,0.004439,-0.519764,0.000582,-0.722808,-259.962426,-0.774323,68.224614
7.0883,0.004145,-0.010505,0.000548,-0.002757,0.002788,0.000108,0.004439,-0.519764,0.000582,-0.722808,-259.962426,-0.774323,68.224614
7.1082,0.003827,-0.010304,0.000329,-0.002757,0.002788,0.000108,0.004366,-0.520449,0.000564,-0.797577,-259.963294,-0.699554,68.223929
7.1283,0.004236,-0.009785,0.000522,-0.002726,0.002791,-0.000269,0.004206,-0.520383,0.000469,-0.797577,-259.963294,-0.699554,68.223929
7.1481,0.004013,-0.009922,0.000385,-0.002716,0.002794,-0.000381,0.004423,-0.519705,0.000525,-0.802609,-259.964728,-0.774586,68.222529
7.1678,0.003992,-0.01002,0.000287,-0.002727,0.00279,-0.000423,0.004224,-0.519899,0.000398,-0.802609,-259.964728,-0.774586,68.222529
7.1876,0.004014,-0.010016,0.001658,-0.002736,0.002787,-0.000453,0.004224,-0.519899,0.000398,-0.802609,-259.964728,-0.774586,68.222529
7.2078,0.003624,-0.009875,0.001191,-0.002736,0.002787,-0.000453,0.004757,-0.51991,0.001644,-0.755995,-259.966076,-0.839367,68.22106
7.2282,0.003537,-0.010042,0.000644,-0.002784,0.002733,-0.001404,0.004528,-0.519883,0.001455,-0.755995,-259.966076,-0.839367,68.22106
7.2478,0.003843,-0.009792,-0.000892,-0.002804,0.002717,-0.00169,0.003778,-0.519953,0.000629,-0.742289,-259.967555,-0.841671,68.219425
7.2677,0.003776,-0.009647,-0.001028,-0.002738,0.002769,-0.000709,0.003419,-0.519802,-0.000755,-0.742289,-259.967555,-0.841671,68.219425
7.2879,0.003959,-0.009733,-0.000789,-0.002682,0.002808,-3e-06,0.003419,-0.519802,-0.000755,-0.742289,-259.967555,-0.841671,68.219425
7.3078,0.003754,-0.009644,-0.000285,-0.002682,0.002808,-3e-06,0.003504,-0.519677,-0.000816,-0.66743,-259.968159,-0.916531,68.21856
7.3278,0.003594,-0.00962,-0.000231,-0.002626,0.002846,0.000723,0.00354,-0.519658,-0.000605,-0.66743,-259.968159,-0.916531,68.21856
7.3478,0.003253,-0.009473,0.00039,-0.002603,0.002857,0.000938,0.003424,-0.519567,-0.000235,-0.742574,-259.969097,-0.841386,68.217622
7.3683,0.003294,-0.009754,0.001152,-0.002567,0.00285,0.000561,0.003447,-0.519479,0.000336,-0.742574,-259.969097,-0.841386,68.217622
7.3883,0.003403,-0.009732,-0.000162,-0.00254,0.002846,0.00029,0.003447,-0.519479,0.000336,-0.742574,-259.969097,-0.841386,68.217622
7.4082,0.003425,-0.009569,-0.001766,-0.00254,0.002846,0.00029,0.003267,-0.519677,-0.00015,-0.817557,-259.96991,-0.766404,68.216968
7.428,0.003388,-0.009445,0.000918,-0.002423,0.0029,0.001066,0.002955,-0.519626,-0.000813,-0.817557,-259.96991,-0.766404,68.216968
7.4476,0.003186,-0.009282,0.002019,-0.002378,0.002917,0.001297,0.003781,-0.519361,0.000926,-0.872071,-259.97137,-0.81013,68.215605
7.4681,0.003412,-0.009486,-0.000913,-0.002445,0.002844,9.6e-05,0.004174,-0.519284,0.001925,-0.872071,-259.97137,-0.81013,68.215605
7.4882,0.003193,-0.00945,0.000298,-0.002506,0.002789,-0.000786,0.004174,-0.519284,0.001925,-0.872071,-259.97137,-0.81013,68.215605
7.5085,0.003298,-0.009153,-0.000775,-0.002506,0.002789,-0.000786,0.003273,-0.519368,0.000332,-0.947086,-259.972587,-0.735114,68.214724
7.5282,0.003415,-0.009268,-0.000177,-0.002443,0.002841,-0.00013,0.003112,-0.51927,-0.00012,-0.947086,-259.972587,-0.735114,68.214724
7.5481,0.002993,-0.009359,7.1e-05,-0.002419,0.002858,6.2e-05,0.003301,-0.519241,-0.00018,-0.87209,-259.973,-0.81011,68.214225
7.5677,0.003142,-0.009048,-0.000116,-0.002389,0.002871,0.000102,0.003052,-0.519347,4.9e-05,-0.87209,-259.973,-0.81011,68.214225
7.5876,0.00324,-0.008761,0.00041,-0.002364,0.002881,0.000129,0.003052,-0.519347,4.9e-05,-0.87209,-259.973,-0.81011,68.214225
7.6082,0.002879,-0.009111,-0.001166,-0.002364,0.002881,0.000129,0.003352,-0.518646,0.000412,-0.874815,-259.974445,-0.861736,68.212802
7.6277,0.00311,-0.008945,-0.000501,-0.00233,0.002895,0.000437,0.002904,-0.518823,-0.000234,-0.874815,-259.974445,-0.861736,68.212802
7.6477,0.00328,-0.009431,0.001155,-0.002317,0.002898,0.000528,0.00278,-0.518854,-0.000497,-0.896898,-259.975948,-0.870084,68.211348
7.6676,0.003013,-0.009105,-0.00056,-0.002369,0.00286,-8.6e-05,0.003769,-0.519376,0.001009,-0.896898,-259.975948,-0.870084,68.211348
7.6885,0.00325,-0.009403,-7.3e-05,-0.002413,0.002834,-0.000528,0.003769,-0.519376,0.001009,-0.896898,-259.975948,-0.870084,68.211348
7.7074,0.002723,-0.008876,0.00117,-0.002413,0.002834,-0.000528,0.00312,-0.519287,-5.2e-05,-0.947169,-259.977449,-0.838259,68.210037
7.7276,0.002907,-0.009077,-0.002523,-0.002394,0.002845,-0.000551,0.003189,-0.51911,0.000438,-0.947169,-259.977449,-0.838259,68.210037
7.7476,0.002986,-0.008653,-0.000949,-0.002388,0.00285,-0.000558,0.001572,-0.519014,-0.002531,-0.872094,-259.97836,-0.913334,68.208998
7.7675,0.003186,-0.008712,-0.000165,-0.002321,0.002886,0.000274,0.002421,-0.51868,-0.001083,-0.872094,-259.97836,-0.913334,68.208998
7.7876,0.002959,-0.008805,-0.000287,-0.002265,0.002911,0.000873,0.002421,-0.51868,-0.001083,-0.872094,-259.97836,-0.913334,68.208998
7.8075,0.002199,-0.008254,-0.000529,-0.002265,0.002911,0.000873,0.002719,-0.518693,-0.000309,-0.810038,-259.979656,-0.928273,68.207507
7.8275,0.002298,-0.008611,-0.001046,-0.002165,0.002926,0.000979,0.002387,-0.518502,-0.000401,-0.810038,-259.979656,-0.928273,68.207507
7.8474,0.00238,-0.008746,-0.001163,-0.002129,0.002931,0.00101,0.001728,-0.518568,-0.001037,-0.884908,-259.980443,-0.853402,68.20688
7.8676,0.002428,-0.008856,-9.7e-05,-0.002024,0.00296,0.001442,0.00178,-0.518729,-0.001152,-0.884908,-259.980443,-0.853402,68.20688
7.8876,0.002613,-0.008267,-0.000197,-0.001938,0.002982,0.001752,0.00178,-0.518729,-0.001152,-0.884908,-259.980443,-0.853402,68.20688
7.9076,0.002286,-0.008239,-0.001458,-0.001938,0.002982,0.001752,0.002446,-0.518183,-0.000171,-0.960072,-259.981607,-0.827048,68.205995
7.9275,0.002525,-0.008184,0.000218,-0.001891,0.002975,0.00171,0.002069,-0.518196,-0.000694,-0.960072,-259.981607,-0.827048,68.205995
7.9474,0.002286,-0.008545,-0.000414,-0.001874,0.002972,0.001697,0.002594,-0.518127,0.00025,-1.035007,-259.982727,-0.778553,68.205317
7.9683,0.00234,-0.008282,0.000807,-0.001855,0.002969,0.001499,0.002115,-0.518509,-0.000359,-1.035007,-259.982727,-0.778553,68.205317
7.9882,0.002197,-0.008586,0.000995,-0.001841,0.002968,0.001358,0.002115,-0.518509,-0.000359,-1.035007,-259.982727,-0.778553,68.205317
8.0076,0.002562,-0.007868,0.000162,-0.001841,0.002968,0.001358,0.002636,-0.518481,0.001053,-1.110079,-259.984232,-0.801467,68.2044
8.0279,0.002435,-0.008306,-0.000155,-0.001939,0.0029,0.000185,0.002632,-0.518213,0.000688,-1.110079,-259.984232,-0.801467,68.2044
8.048,0.002113,-0.007708,0.001268,-0.001977,0.00288,-0.000167,0.002301,-0.518217,-0.000114,-1.119424,-259.985824,-0.860219,68.203336
8.068,0.002297,-0.008248,-0.000703,-0.002031,0.002845,-0.00065,0.002717,-0.517748,0.00115,-1.119424,-259.985824,-0.860219,68.203336
8.0877,0.002288,-0.008018,0.000289,-0.002076,0.00282,-0.000996,0.002717,-0.517748,0.00115,-1.119424,-259.985824,-0.860219,68.203336
8.1076,0.001893,-0.008221,0.000717,-0.002076,0.00282,-0.000996,0.002396,-0.517957,0.000291,-1.04458,-259.9865,-0.935064,68.202625
8.1276,0.002067,-0.008199,0.00032,-0.002043,0.002844,-0.000804,0.002335,-0.518058,0.000466,-1.04458,-259.9865,-0.935064,68.202625
8.1474,0.002091,-0.00769,-0.000899,-0.002032,0.002852,-0.000746,0.002207,-0.518164,0.000311,-0.969562,-259.986963,-1.010081,68.202015
8.1682,0.002097,-0.00791,-7.9e-05,-0.001951,0.002884,8e-06,0.001675,-0.517723,-0.000809,-0.969562,-259.986963,-1.010081,68.202015
8.188,0.001992,-0.00795,9.3e-05,-0.001885,0.002907,0.00055,0.001675,-0.517723,-0.000809,-0.969562,-259.986963,-1.010081,68.202015
8.2081,0.001858,-0.007524,-1.8e-05,-0.001885,0.002907,0.00055,0.001969,-0.517848,6.8e-05,-0.89425,-259.988018,-1.019975,68.20071
8.2283,0.00199,-0.007717,-0.00094,-0.001834,0.002904,0.000407,0.001912,-0.517706,3e-05,-0.89425,-259.988018,-1.019975,68.20071
8.2474,0.001888,-0.007748,-0.000132,-0.001816,0.002904,0.000364,0.00147,-0.51766,-0.000932,-0.96879,-259.988957,-0.945436,68.199913
8.2683,0.001824,-0.007598,0.000831,-0.001786,0.002911,0.000467,0.001787,-0.517738,-0.000203,-0.96879,-259.988957,-0.945436,68.199913
8.288,0.001847,-0.007794,0.001536,-0.001761,0.002916,0.00054,0.001787,-0.517738,-0.000203,-0.96879,-259.988957,-0.945436,68.199913
8.3078,0.001859,-0.00741,0.000208,-0.001761,0.002916,0.00054,0.002562,-0.517684,0.00155,-1.043791,-259.990259,-0.975465,68.198746
8.328,0.001632,-0.008016,1.4e-05,-0.00185,0.002852,-0.000499,0.00231,-0.51756,0.001005,-1.043791,-259.990259,-0.975465,68.198746
8.3481,0.002107,-0.007086,0.000264,-0.001883,0.002834,-0.000812,0.001583,-0.517925,3.1e-05,-1.073784,-259.991717,-0.97301,68.197511
8.3682,0.001755,-0.007407,-0.000876,-0.001913,0.002828,-0.000625,0.002185,-0.517151,0.000246,-1.073784,-259.991717,-0.97301,68.197511
8.3885,0.001969,-0.007502,0.000697,-0.001936,0.002821,-0.000492,0.002185,-0.517151,0.000246,-1.073784,-259.991717,-0.97301,68.197511
8.4082,0.001616,-0.007146,-6.3e-05,-0.001936,0.002821,-0.000492,0.002285,-0.517437,0.000683,-0.998667,-259.99235,-1.048128,68.196704
8.4281,0.001329,-0.007418,0.000666,-0.001904,0.002825,-0.000456,0.001997,-0.517312,0.000379,-0.998667,-259.99235,-1.048128,68.196704
8.4481,0.001688,-0.00718,-0.000727,-0.001893,0.002826,-0.000446,0.001614,-0.517338,0.000652,-0.9239,-259.993474,-1.015681,68.195406
8.4679,0.001908,-0.00738,-0.000505,-0.001793,0.002854,0.000127,0.001339,-0.517189,-0.000616,-0.9239,-259.993474,-1.015681,68.195406
8.4875,0.002144,-0.007212,0.00043,-0.001712,0.002872,0.000536,0.001339,-0.517189,-0.000616,-0.9239,-259.993474,-1.015681,68.195406
8.5077,0.001693,-0.007023,0.000546,-0.001712,0.002872,0.000536,0.002284,-0.517095,0.000412,-0.932941,-259.99474,-1.022364,68.193959
8.5278,0.001726,-0.007609,0.000679,-0.001812,0.002819,-1.5e-05,0.002147,-0.517052,0.000464,-0.932941,-259.99474,-1.022364,68.193959
8.5478,0.001369,-0.007132,0.001436,-0.001848,0.002802,-0.000179,0.002033,-0.517548,0.000688,-1.00764,-259.995737,-0.978556,68.193117
8.568,0.001664,-0.00661,0.00148,-0.001855,0.002779,-0.00075,0.002093,-0.517165,0.00137,-1.00764,-259.995737,-0.978556,68.193117
8.5879,0.001436,-0.007182,-6.4e-05,-0.001863,0.002764,-0.00116,0.002093,-0.517165,0.00137,-1.00764,-259.995737,-0.978556,68.193117
8.608,0.001433,-0.007058,0.001071,-0.001863,0.002764,-0.00116,0.001329,-0.517069,-7.1e-05,-0.969279,-259.997002,-1.005233,68.191781
8.6277,0.001661,-0.00702,-0.00012,-0.001752,0.002797,-0.000806,0.001591,-0.517051,0.000403,-0.969279,-259.997002,-1.005233,68.191781
8.6478,0.001681,-0.006967,-0.000398,-0.001713,0.002807,-0.000701,0.001561,-0.516959,-0.000144,-0.893968,-259.997763,-1.078384,68.1907
8.6678,0.001072,-0.007006,0.000626,-0.001675,0.002825,-0.000184,0.001483,-0.516963,-0.000379,-0.893968,-259.997763,-1.078384,68.1907
8.6881,0.001174,-0.007028,0.001759,-0.001644,0.002837,0.000186,0.001483,-0.516963,-0.000379,-0.893968,-259.997763,-1.078384,68.1907
8.7076,0.001533,-0.006508,0.001212,-0.001644,0.002837,0.000186,0.002003,-0.516916,0.001731,-0.946701,-259.998879,-1.083866,68.189306
8.728,0.001332,-0.006482,0.000231,-0.001742,0.002753,-0.001072,0.002055,-0.516737,0.001517,-0.946701,-259.998879,-1.083866,68.189306
8.7475,0.001177,-0.006346,-0.001353,-0.001778,0.002727,-0.001453,0.001408,-0.516413,0.000234,-1.021373,-259.999914,-1.027716,68.188331
8.768,0.001112,-0.006586,0.000622,-0.001572,0.002764,-0.000293,0.00057,-0.516348,-0.001206,-1.021373,-259.999914,-1.027716,68.188331
8.7878,0.001299,-0.006447,0.001355,-0.001409,0.002789,0.000548,0.00057,-0.516348,-0.001206,-1.021373,-259.999914,-1.027716,68.188331
8.8086,0.001251,-0.00667,-0.000804,-0.001409,0.002789,0.000548,0.001961,-0.516398,0.001334,-0.946437,-260.000334,-1.102652,68.187669
8.8281,0.001118,-0.00608,0.000159,-0.001455,0.002754,3e-06,0.001507,-0.516502,0.00047,-0.946437,-260.000334,-1.102652,68.187669
8.8474,0.001142,-0.006375,-0.001185,-0.001471,0.002745,-0.000161,0.001174,-0.516037,0.000165,-1.021498,-260.00102,-1.049454,68.187103
8.8679,0.001246,-0.00657,-0.001184,-0.001334,0.00277,0.000571,0.000594,-0.516342,-0.001063,-1.021498,-260.00102,-1.049454,68.187103
8.8878,0.001251,-0.006659,-0.000281,-0.001224,0.002785,0.001097,0.000594,-0.516342,-0.001063,-1.021498,-260.00102,-1.049454,68.187103
8.9078,0.000999,-0.006642,5.1e-05,-0.001224,0.002785,0.001097,0.00105,-0.51655,-0.000287,-1.063602,-260.002167,-1.093387,68.185891
8.9278,0.000969,-0.006156,-6.8e-05,-0.001191,0.002786,0.000873,0.001033,-0.516576,-0.000148,-1.063602,-260.002167,-1.093387,68.185891
8.9474,0.000773,-0.005867,0.000278,-0.001179,0.002787,0.000806,0.000908,-0.516103,-4.9e-05,-1.138979,-260.003071,-1.046078,68.185288
8.9677,0.000931,-0.006186,0.000895,-0.001151,0.002753,0.000538,0.000913,-0.515884,0.000253,-1.138979,-260.003071,-1.046078,68.185288
8.9878,0.001184,-0.006214,7.6e-05,-0.001129,0.002728,0.000346,0.000913,-0.515884,0.000253,-1.138979,-260.003071,-1.046078,68.185288
9.0075,0.000916,-0.00639,0.000209,-0.001129,0.002728,0.000346,0.00118,-0.516115,0.000104,-1.213919,-260.004256,-1.09606,68.184411
9.0276,0.000848,-0.006003,0.000679,-0.001166,0.002716,0.000204,0.001111,-0.516216,0.00015,-1.213919,-260.004256,-1.09606,68.184411
9.0476,0.000739,-0.006184,-0.000259,-0.001178,0.002713,0.000162,0.00116,-0.51592,0.00069,-1.20389,-260.005456,-1.148925,68.183359
9.0684,0.000796,-0.005877,0.000328,-0.001105,0.002722,0.000319,0.000655,-0.516156,-0.000173,-1.20389,-260.005456,-1.148925,68.183359
9.0879,0.001051,-0.006072,-0.001125,-0.001047,0.002727,0.000432,0.000655,-0.516156,-0.000173,-1.20389,-260.005456,-1.148925,68.183359
9.1078,0.001012,-0.005852,0.000463,-0.001047,0.002727,0.000432,0.000429,-0.51596,-0.001118,-1.173995,-260.006659,-1.147271,68.182229
9.1278,0.000757,-0.005751,-0.000913,-0.001011,0.002714,0.000869,0.000754,-0.515903,-0.000479,-1.173995,-260.006659,-1.147271,68.182229
9.1477,0.001046,-0.005778,-0.000899,-0.000997,0.002708,0.000999,0.00026,-0.515669,-0.0009,-1.233991,-260.007846,-1.168847,68.181225
9.1676,0.001156,-0.00593,0.000185,-0.00095,0.002702,0.001324,0.000556,-0.515764,-0.000899,-1.233991,-260.007846,-1.168847,68.181225
9.1875,0.000989,-0.005619,0.000658,-0.000912,0.002695,0.001556,0.000556,-0.515764,-0.000899,-1.233991,-260.007846,-1.168847,68.181225
9.2079,0.000609,-0.005651,0.000267,-0.000912,0.002695,0.001556,0.001285,-0.515512,0.000697,-1.278921,-260.009152,-1.127057,68.18035
9.228,0.000484,-0.005579,-0.001296,-0.001022,0.002603,0.000478,0.00106,-0.515556,0.000526,-1.278921,-260.009152,-1.127057,68.18035
9.2478,0.000569,-0.005353,-3.6e-05,-0.001061,0.002575,0.000156,-0.000204,-0.515498,-0.001249,-1.325536,-260.010569,-1.088815,68.179608
9.2682,0.000615,-0.005111,-0.002627,-0.000987,0.002565,0.000305,0.000482,-0.515362,-0.000143,-1.325536,-260.010569,-1.088815,68.179608
9.288,0.000362,-0.00557,0.001781,-0.00093,0.002555,0.000412,0.000482,-0.515362,-0.000143,-1.325536,-260.010569,-1.088815,68.179608
9.3075,0.000544,-0.005359,0.001688,-0.00093,0.002555,0.000412,0.001242,-0.515495,0.001787,-1.250633,-260.011355,-1.163718,68.17887
9.3279,0.000663,-0.005536,0.000513,-0.001128,0.002459,-0.001092,0.001305,-0.515431,0.001748,-1.250633,-260.011355,-1.163718,68.17887
9.3479,0.000607,-0.005328,-0.000306,-0.001198,0.002431,-0.001549,0.000895,-0.515455,0.000526,-1.250749,-260.012527,-1.187042,68.177885
9.3679,0.000348,-0.005381,0.001866,-0.001102,0.002455,-0.000847,0.000489,-0.515335,-0.000231,-1.250749,-260.012527,-1.187042,68.177885
9.3879,0.000937,-0.005291,-0.000129,-0.001027,0.002471,-0.000347,0.000489,-0.515335,-0.000231,-1.250749,-260.012527,-1.187042,68.177885
9.4079,0.000514,-0.00525,0.00065,-0.001027,0.002471,-0.000347,0.000866,-0.515278,-0.000136,-1.175748,-260.012617,-1.229823,68.177715
9.4276,0.000341,-0.005011,0.000755,-0.001057,0.002458,-0.000146,0.000857,-0.515265,0.000184,-1.175748,-260.012617,-1.229823,68.177715
9.4476,0.000349,-0.005051,0.001201,-0.001066,0.002452,-8.8e-05,0.000695,-0.514934,0.000744,-1.144207,-260.013586,-1.205379,68.176594
9.4679,0.000497,-0.005076,-0.000378,-0.001084,0.002412,-0.00056,0.000937,-0.515037,0.001161,-1.144207,-260.013586,-1.205379,68.176594
9.4881,0.000588,-0.005572,-0.001065,-0.001098,0.002382,-0.0009,0.000937,-0.515037,0.001161,-1.144207,-260.013586,-1.205379,68.176594
9.5079,0.000254,-0.004974,-0.000882,-0.001098,0.002382,-0.0009,1e-06,-0.515471,-0.001069,-1.152551,-260.014611,-1.168571,68.17553
9.5281,0.00032,-0.004669,-0.000425,-0.000749,0.00244,0.000673,-8.5e-05,-0.515256,-0.000993,-1.152551,-260.014611,-1.168571,68.17553
9.5477,0.000203,-0.004874,0.000538,-0.000628,0.002454,0.001147,7.8e-05,-0.514611,-0.000446,-1.077676,-260.015265,-1.212369,68.174572
9.5678,0.000525,-0.005003,0.001009,-0.000635,0.002408,0.000684,0.000442,-0.514848,0.000453,-1.077676,-260.015265,-1.212369,68.174572
9.588,0.000709,-0.00518,-8.4e-05,-0.000641,0.002373,0.000354,0.000442,-0.514848,0.000453,-1.077676,-260.015265,-1.212369,68.174572
9.6079,0.000181,-0.004679,-0.001262,-0.000641,0.002373,0.000354,0.000656,-0.515157,-7.4e-05,-1.152804,-260.015572,-1.226958,68.174394
9.6277,0.000411,-0.005003,0.000533,-0.000568,0.002375,0.000924,0.000196,-0.514958,-0.00056,-1.152804,-260.015572,-1.226958,68.174394
9.6476,7.6e-05,-0.004867,0.000913,-0.000542,0.002373,0.001094,0.000668,-0.51496,0.000539,-1.2278,-260.016192,-1.281991,68.173871
9.6679,0.000522,-0.004627,-0.00224,-0.000587,0.002335,0.000423,0.000552,-0.514872,0.000881,-1.2278,-260.016192,-1.281991,68.173871
9.6878,1e-05,-0.004951,-0.000433,-0.000624,0.002308,-5.9e-05,0.000552,-0.514872,0.000881,-1.2278,-260.016192,-1.281991,68.173871
9.7077,0.000599,-0.004888,-0.000213,-0.000624,0.002308,-5.9e-05,-0.000228,-0.514889,-0.000405,-1.302763,-260.016978,-1.26297,68.173416
9.728,0.000309,-0.005,-0.000468,-0.000498,0.002323,0.000488,6.7e-05,-0.514881,-0.000322,-1.302763,-260.016978,-1.26297,68.173416
9.7483,0.000159,-0.004488,-0.000101,-0.000455,0.002326,0.00065,5.2e-05,-0.51493,-0.00047,-1.302767,-260.017886,-1.310643,68.172482
9.7678,-4.7e-05,-0.004865,0.001336,-0.000423,0.002295,0.000667,9.9e-05,-0.514534,-0.000143,-1.302767,-260.017886,-1.310643,68.172482
9.7876,3.1e-05,-0.004508,5.2e-05,-0.000399,0.00227,0.000679,9.9e-05,-0.514534,-0.000143,-1.302767,-260.017886,-1.310643,68.172482
9.8075,0.000179,-0.005096,7e-05,-0.000399,0.00227,0.000679,4e-05,-0.514427,7.5e-05,-1.377618,-260.018811,-1.339261,68.171818
9.8278,0.000583,-0.004415,0.000252,-0.000366,0.002251,0.000477,0.000111,-0.514694,7.5e-05,-1.377618,-260.018811,-1.339261,68.171818
9.8477,0.000114,-0.004554,0.000293,-0.000356,0.002245,0.000417,0.000699,-0.514346,0.000273,-1.423384,-260.019851,-1.359123,68.17109
9.8677,0.000141,-0.004624,0.001271,-0.000392,0.00222,0.000253,0.0003,-0.514533,0.000293,-1.423384,-260.019851,-1.359123,68.17109
9.8876,7.3e-05,-0.00428,-0.001334,-0.000419,0.002202,0.000136,0.0003,-0.514533,0.000293,-1.423384,-260.019851,-1.359123,68.17109
9.9076,8.3e-05,-0.004386,0.000399,-0.000419,0.002202,0.000136,-0.000622,-0.514188,-0.001316,-1.429355,-260.020839,-1.393817,68.170299
9.9278,0.000766,-0.00463,0.002418,-0.000222,0.002152,0.000881,-0.000255,-0.514258,-0.000619,-1.429355,-260.020839,-1.393817,68.170299
9.9476,6.7e-05,-0.004129,-0.001134,-0.000155,0.002131,0.001104,0.001986,-0.51456,0.002422,-1.389248,-260.02174,-1.375395,68.169461
9.968,0.000508,-0.003971,0.000553,-9.5e-05,0.002106,0.001371,-0.000289,-0.514164,-0.000816,-1.389248,-260.02174,-1.375395,68.169461
9.9884,0.000165,-0.004112,0.000133,-4.8e-05,0.002084,0.001563,-0.000289,-0.514164,-0.000816,-1.389248,-260.02174,-1.375395,68.169461
10.0077,0.000319,-0.004131,-2.6e-05,-4.8e-05,0.002084,0.001563,0.000226,-0.514051,0.000165,-1.464242,-260.022506,-1.450389,68.169062
10.0275,0.000378,-0.004442,0.000903,-0.000216,0.002006,0.00092,0.000258,-0.514077,9.1e-05,-1.464242,-260.022506,-1.450389,68.169062
10.0476,-4.5e-05,-0.003758,0.000944,-0.000273,0.001981,0.000729,0.000837,-0.514389,0.000943,-1.539265,-260.023476,-1.525412,68.168701
10.0678,0.000144,-0.003811,0.001912,-0.000366,0.001913,0.000138,0.000469,-0.513807,0.000946,-1.539265,-260.023476,-1.525412,68.168701
10.088,0.000207,-0.003562,-0.00012,-0.000438,0.001863,-0.000285,0.000469,-0.513807,0.000946,-1.539265,-260.023476,-1.525412,68.168701
10.1078,0.000545,-0.003531,-0.000401,-0.000438,0.001863,-0.000285,0.000139,-0.513505,-0.0001,-1.464061,-260.024145,-1.450208,68.168273
10.1277,-0.000283,-0.004138,0.000848,-0.000442,0.001769,0.000305,0.000221,-0.513509,-0.000221,-1.464061,-260.024145,-1.450208,68.168273
10.1483,0.000273,-0.003946,0.000386,-0.000442,0.001734,0.000481,0.000143,-0.514101,0.000842,-1.389212,-260.024576,-1.375358,68.167758
10.168,5.9e-05,-0.003899,0.001095,-0.000492,0.001745,0.000234,0.00044,-0.513958,0.000426,-1.389212,-260.024576,-1.375358,68.167758
10.1879,0.000355,-0.003834,0.000309,-0.00053,0.001756,5.8e-05,0.00044,-0.513958,0.000426,-1.389212,-260.024576,-1.375358,68.167758
10.208,7.4e-05,-0.003758,0.000495,-0.00053,0.001756,5.8e-05,0.000498,-0.513774,0.000325,-1.356079,-260.025266,-1.300449,68.167258
10.2283,0.000271,-0.003888,0.000725,-0.00058,0.001736,-0.000125,0.000426,-0.51376,0.000396,-1.356079,-260.025266,-1.300449,68.167258
10.2482,-9.7e-05,-0.003945,-0.000503,-0.000597,0.00173,-0.000179,0.000625,-0.513837,0.000727,-1.283147,-260.025943,-1.271982,68.166605
10.2678,0.000367,-0.0036,0.00095,-0.000435,0.00176,0.000225,-0.000263,-0.513933,-0.000389,-1.283147,-260.025943,-1.271982,68.166605
10.2879,-0.000405,-0.003902,0.001438,-0.00031,0.001782,0.000514,-0.000263,-0.513933,-0.000389,-1.283147,-260.025943,-1.271982,68.166605
10.3079,-1.2e-05,-0.003584,0.000443,-0.00031,0.001782,0.000514,0.000305,-0.513834,0.001431,-1.217637,-260.026586,-1.256789,68.165885
10.3279,0.000136,-0.003505,0.000509,-0.000363,0.001723,-0.000453,0.000265,-0.513724,0.001027,-1.217637,-260.026586,-1.256789,68.165885
10.3476,0.000291,-0.003505,-0.000402,-0.000382,0.001707,-0.000743,0.000389,-0.513481,0.000515,-1.292601,-260.026943,-1.331752,68.165633
10.3679,-0.000191,-0.003771,0.000935,-0.00037,0.001691,-0.000205,0.000111,-0.513502,-0.000324,-1.292601,-260.026943,-1.331752,68.165633
10.3878,-0.000125,-0.003892,0.000805,-0.00036,0.001677,0.00018,0.000111,-0.513502,-0.000324,-1.292601,-260.026943,-1.331752,68.165633
10.4081,-0.000269,-0.003757,0.002569,-0.00036,0.001677,0.00018,0.000271,-0.513825,0.000777,-1.275079,-260.02743,-1.395939,68.164816
10.4278,2.5e-05,-0.003439,-8e-06,-0.000534,0.001654,-0.001002,0.000581,-0.513789,0.001499,-1.275079,-260.02743,-1.395939,68.164816
10.448,8.6e-05,-0.003023,-0.001488,-0.000595,0.001651,-0.001359,1.1e-05,-0.513395,-4e-06,-1.349956,-260.028032,-1.34516,68.164285
10.4679,-0.000154,-0.003457,0.000733,-0.000318,0.001588,-0.000122,-0.000615,-0.513052,-0.001361,-1.349956,-260.028032,-1.34516,68.164285
10.4884,6.1e-05,-0.003879,-0.001142,-0.00011,0.001534,0.00078,-0.000615,-0.513052,-0.001361,-1.349956,-260.028032,-1.34516,68.164285
10.508,-0.000255,-0.003151,0.000843,-0.00011,0.001534,0.00078,-0.000522,-0.513874,-0.001146,-1.274848,-260.028059,-1.335612,68.164217
10.5281,7.2e-05,-0.003199,-7.7e-05,-2.1e-05,0.001574,0.000963,-0.000239,-0.513579,-0.000338,-1.274848,-260.028059,-1.335612,68.164217
10.548,4.9e-05,-0.003082,-4.1e-05,1e-05,0.001588,0.001017,3e-05,-0.513185,-7e-05,-1.349749,-260.028297,-1.410513,68.164092
10.568,-0.000147,-0.003473,0.000354,-3.7e-05,0.001525,0.000892,2.8e-05,-0.513091,-4.3e-05,-1.349749,-260.028297,-1.410513,68.164092
10.588,-0.000129,-0.003378,0.000915,-7.2e-05,0.001477,0.000803,2.8e-05,-0.513091,-4.3e-05,-1.349749,-260.028297,-1.410513,68.164092
10.6075,-0.000346,-0.00321,0.00059,-7.2e-05,0.001477,0.000803,0.000336,-0.51336,0.000927,-1.424793,-260.02854,-1.485557,68.163985
10.6276,-0.0003,-0.00319,0.000197,-0.00018,0.001439,-9.2e-05,0.000179,-0.513296,0.00079,-1.424793,-260.02854,-1.485557,68.163985
10.6481,0.000402,-0.003506,0.001047,-0.000217,0.00143,-0.000359,-0.000203,-0.513151,0.000218,-1.499819,-260.029189,-1.497483,68.163659
10.6678,-2.4e-05,-0.003227,0.000821,-0.000427,0.001431,-0.000657,0.000836,-0.513473,0.000976,-1.499819,-260.029189,-1.497483,68.163659
10.688,-0.000361,-0.003601,0.000905,-0.000588,0.001435,-0.000869,0.000836,-0.513473,0.000976,-1.499819,-260.029189,-1.497483,68.163659
10.7078,7.2e-05,-0.003197,0.001241,-0.000588,0.001435,-0.000869,9.4e-05,-0.513554,0.000894,-1.424837,-260.029579,-1.439918,68.163133
10.7279,-3.8e-05,-0.003273,-0.000587,-0.000563,0.001449,-0.001164,0.000341,-0.513403,0.001033,-1.424837,-260.029579,-1.439918,68.163133
10.7478,-0.000157,-0.003485,0.001137,-0.000556,0.001455,-0.001251,-0.000337,-0.513271,-0.000587,-1.349842,-260.029592,-1.364923,68.163107
10.7678,2e-06,-0.003328,0.000476,-0.000555,0.001476,-0.001289,0.000355,-0.513466,0.000983,-1.349842,-260.029592,-1.364923,68.163107
10.7877,0.000256,-0.003156,3e-05,-0.000555,0.001493,-0.001316,0.000355,-0.513466,0.000983,-1.349842,-260.029592,-1.364923,68.163107
10.8077,5.9e-05,-0.003242,0.000739,-0.000555,0.001493,-0.001316,0.000271,-0.513154,2.9e-05,-1.274892,-260.029603,-1.325412,68.163079
10.8278,-0.000149,-0.003176,0.000122,-0.000565,0.00147,-0.000728,0.000338,-0.51319,0.000319,-1.274892,-260.029603,-1.325412,68.163079
10.8478,-0.000264,-0.003629,0.000719,-0.000567,0.001461,-0.000554,-8.8e-05,-0.513172,0.000118,-1.19989,-260.029635,-1.333575,68.162994
10.868,5.4e-05,-0.003663,0.001049,-0.000491,0.001501,-0.000624,8.6e-05,-0.513587,0.000665,-1.19989,-260.029635,-1.333575,68.162994
10.8882,1.6e-05,-0.003256,-1.5e-05,-0.000434,0.001532,-0.000675,8.6e-05,-0.513587,0.000665,-1.19989,-260.029635,-1.333575,68.162994
10.9079,-4.1e-05,-0.003308,-0.000177,-0.000434,0.001532,-0.000675,-1e-05,-0.513206,-3.4e-05,-1.12489,-260.030038,-1.265751,68.16239
10.9279,9.5e-05,-0.003148,-0.000405,-0.000295,0.001518,-1e-06,-6.2e-05,-0.513242,-9.4e-05,-1.12489,-260.030038,-1.265751,68.16239
10.9477,1.4e-05,-0.003174,0.000893,-0.000248,0.001511,0.000199,-0.000123,-0.513108,-0.000422,-1.199882,-260.030428,-1.340743,68.161743
10.9678,0.00024,-0.002797,0.000814,-0.000343,0.001473,-0.000146,0.000418,-0.513166,0.00078,-1.199882,-260.030428,-1.340743,68.161743
10.9876,-0.000134,-0.002959,-0.001258,0.0,0.0,0.0,0.000418,-0.513166,0.00078,-1.199882,-260.030428,-1.340743,68.161743
