mach0312/omni-docking-bench/src/icros_test_setup/results/MPPI_sample/timeseries/trial_095.csv
t,x,y,yaw,vx,vy,wz,bl_x,bl_y,bl_yaw,front_steering_joint,front_wheel_joint,rear_steering_joint,rear_wheel_joint
0.0,-0.030355,0.028534,0.052056,0.0,0.0,0.0,-0.004923,-0.480794,0.05078,0.536087,-263.179074,-0.123216,67.013107
0.0004,-0.030649,0.028774,0.051648,0.0,0.0,0.0,-0.004923,-0.480794,0.05078,0.536087,-263.177566,-0.123216,67.014413
0.0007,-0.030781,0.028818,0.052548,0.0,0.0,0.0,-0.003864,-0.480624,0.051555,0.536087,-263.177566,-0.123216,67.014413
0.001,-0.030344,0.028198,0.051653,0.0,0.0,0.0,-0.003624,-0.480811,0.052057,0.536087,-263.177566,-0.123216,67.014413
0.0013,-0.030107,0.028382,0.050939,0.0,0.0,0.0,-0.003624,-0.480811,0.052057,0.536087,-263.177566,-0.123216,67.014413
0.0016,-0.030523,0.028197,0.050279,0.0,0.0,0.0,-0.004189,-0.480783,0.0511,0.536087,-263.177566,-0.123216,67.014413
0.0019,-0.030368,0.028682,0.051679,0.0,0.0,0.0,-0.004189,-0.480783,0.0511,0.536087,-263.177566,-0.123216,67.014413
0.0021,-0.030348,0.028416,0.052832,0.0,0.0,0.0,-0.003843,-0.480965,0.052105,0.536087,-263.177566,-0.123216,67.014413
0.0024,-0.03063,0.028042,0.05179,0.0,0.0,0.0,-0.003843,-0.480965,0.052105,0.536087,-263.177566,-0.123216,67.014413
0.0168,-0.03027,0.028505,0.049822,0.0,0.0,0.0,-0.00347,-0.480851,0.052728,0.536087,-263.177566,-0.123216,67.014413
0.0366,-0.03071,0.028471,0.051567,0.0,0.0,0.0,-0.004872,-0.480862,0.049822,0.536087,-263.177566,-0.123216,67.014413
0.0569,-0.03064,0.02846,0.052992,0.0,0.0,0.0,-0.004688,-0.480857,0.050534,0.536087,-263.177566,-0.123216,67.014413
0.077,-0.030123,0.028584,0.051233,0.0,0.0,0.0,-0.003627,-0.480824,0.052992,0.536087,-263.177566,-0.123216,67.014413
0.0968,-0.030389,0.028345,0.052059,0.0,0.0,0.0,-0.003971,-0.480754,0.051393,0.536087,-263.177566,-0.123216,67.014413
0.1165,-0.030358,0.028146,0.051711,-0.002698,-0.002785,-0.004836,-0.003971,-0.480754,0.051393,0.536087,-263.177566,-0.123216,67.014413
0.1371,-0.030048,0.028567,0.051255,-0.00297,-0.003059,-0.00524,-0.003998,-0.481172,0.051711,0.536087,-263.177566,-0.123216,67.014413
0.1567,-0.030626,0.028414,0.050474,-0.003206,-0.003295,-0.005621,-0.003966,-0.481004,0.051523,0.536087,-263.177566,-0.123216,67.014413
0.1765,-0.030323,0.028583,0.052272,-0.003413,-0.003499,-0.005934,-0.004895,-0.480936,0.050474,0.611167,-263.177573,-0.048135,67.014411
0.1965,-0.030475,0.02854,0.051189,-0.003599,-0.003676,-0.006193,-0.003782,-0.480739,0.052117,0.611167,-263.177573,-0.048135,67.014411
0.2167,-0.03036,0.028225,0.051416,-0.003762,-0.00383,-0.006408,-0.003782,-0.480739,0.052117,0.611167,-263.177573,-0.048135,67.014411
0.2365,-0.030685,0.028435,0.050993,-0.003905,-0.003963,-0.006586,-0.004152,-0.481103,0.051414,0.686203,-263.177612,-0.036779,67.014394
0.2569,-0.030187,0.028376,0.051981,-0.00401,-0.004074,-0.006738,-0.004379,-0.481018,0.051236,0.686203,-263.177612,-0.036779,67.014394
0.2768,-0.030546,0.028198,0.052008,-0.004103,-0.004171,-0.006864,-0.003697,-0.48094,0.051973,0.761544,-263.177778,-0.015266,67.014321
0.2972,-0.030332,0.028646,0.051712,-0.004198,-0.004258,-0.006967,-0.004004,-0.481098,0.052004,0.761544,-263.177778,-0.015266,67.014321
0.3168,-0.030078,0.02829,0.053146,-0.004281,-0.004334,-0.007052,-0.004004,-0.481098,0.052004,0.761544,-263.177778,-0.015266,67.014321
0.3368,-0.030311,0.028699,0.051444,-0.004355,-0.0044,-0.007124,-0.003013,-0.48101,0.053115,0.836073,-263.178262,-0.005156,67.014107
0.3568,-0.030113,0.028395,0.052665,-0.004438,-0.00446,-0.007181,-0.00345,-0.480857,0.052436,0.836073,-263.178262,-0.005156,67.014107
0.3769,-0.030742,0.028677,0.0504,-0.004511,-0.004513,-0.00723,-0.003314,-0.480937,0.052605,0.911077,-263.179426,0.011191,67.013589
0.3971,-0.03037,0.028632,0.049985,-0.00453,-0.004548,-0.007278,-0.004894,-0.480701,0.050597,0.911077,-263.179426,0.011191,67.013589
0.4169,-0.030544,0.028232,0.051398,-0.004548,-0.004579,-0.007318,-0.004894,-0.480701,0.050597,0.911077,-263.179426,0.011191,67.013589
0.4369,-0.030336,0.028012,0.050041,-0.004565,-0.004607,-0.00735,-0.004454,-0.481198,0.051242,0.986083,-263.181634,0.02148,67.012593
0.4569,-0.030464,0.027932,0.051149,-0.004586,-0.004634,-0.007376,-0.004618,-0.481272,0.050734,0.986083,-263.181634,0.02148,67.012593
0.4766,-0.030307,0.028358,0.049526,-0.004605,-0.004657,-0.007398,-0.004504,-0.481521,0.050967,1.061092,-263.184869,0.025878,67.011142
0.4966,-0.030714,0.028007,0.051467,-0.00461,-0.004674,-0.007459,-0.005015,-0.481069,0.049648,1.061092,-263.184869,0.025878,67.011142
0.5167,-0.030414,0.027945,0.052387,-0.004615,-0.00469,-0.00751,-0.005015,-0.481069,0.049648,1.061092,-263.184869,0.025878,67.011142
0.5375,-0.030897,0.028365,0.05032,-0.00462,-0.004704,-0.007552,-0.003886,-0.481554,0.052087,1.10565,-263.188845,0.029998,67.009357
0.5569,-0.030737,0.02818,0.051433,-0.00464,-0.00472,-0.007607,-0.004457,-0.481348,0.051336,1.10565,-263.188845,0.029998,67.009357
0.5776,-0.030674,0.028057,0.050934,-0.004658,-0.004735,-0.007653,-0.004657,-0.481303,0.051192,1.11041,-263.192997,0.019803,67.007512
0.5971,-0.030778,0.027757,0.05096,-0.004665,-0.004745,-0.007716,-0.004712,-0.481293,0.050947,1.11041,-263.192997,0.019803,67.007512
0.617,-0.030481,0.027505,0.050585,-0.004671,-0.004754,-0.007769,-0.004712,-0.481293,0.050947,1.11041,-263.192997,0.019803,67.007512
0.6368,-0.030453,0.027629,0.050162,-0.004676,-0.004762,-0.007813,-0.004879,-0.48205,0.050264,1.111103,-263.197193,0.012967,67.00565
0.6567,-0.030529,0.027546,0.050363,-0.00467,-0.004766,-0.007873,-0.004901,-0.481944,0.050186,1.111103,-263.197193,0.012967,67.00565
0.6766,-0.030589,0.027334,0.049884,-0.004665,-0.00477,-0.007923,-0.004996,-0.481966,0.050115,1.114764,-263.201424,-0.002114,67.003787
0.6972,-0.030638,0.027343,0.051782,-0.004652,-0.004771,-0.007986,-0.005151,-0.482034,0.049892,1.114764,-263.201424,-0.002114,67.003787
0.717,-0.030436,0.026865,0.049948,-0.00464,-0.004773,-0.008039,-0.005151,-0.482034,0.049892,1.114764,-263.201424,-0.002114,67.003787
0.7367,-0.0309,0.026939,0.051145,-0.004631,-0.004775,-0.008082,-0.005158,-0.482708,0.049616,1.1188,-263.205689,-0.014734,67.001924
0.7568,-0.030696,0.026736,0.049537,-0.004622,-0.004777,-0.008138,-0.005044,-0.482604,0.050204,1.1188,-263.205689,-0.014734,67.001924
0.7774,-0.030862,0.026215,0.047941,-0.004615,-0.004779,-0.008184,-0.005581,-0.482796,0.049282,1.125808,-263.209962,-0.034742,67.000084
0.797,-0.030799,0.026249,0.048252,-0.00456,-0.004765,-0.00825,-0.006351,-0.483171,0.04805,1.125808,-263.209962,-0.034742,67.000084
0.8168,-0.030551,0.026415,0.0483,-0.004514,-0.004756,-0.008303,-0.006351,-0.483171,0.04805,1.125808,-263.209962,-0.034742,67.000084
0.8366,-0.030689,0.026463,0.050914,-0.004474,-0.004749,-0.008345,-0.00611,-0.483198,0.047958,1.12979,-263.214277,-0.047626,66.99824
0.8569,-0.030808,0.026165,0.048182,-0.004467,-0.004752,-0.008395,-0.005566,-0.48309,0.049134,1.12979,-263.214277,-0.047626,66.99824
0.8766,-0.030856,0.026086,0.046324,-0.00446,-0.004755,-0.008436,-0.006377,-0.483398,0.047921,1.144238,-263.218519,-0.077627,66.996479
0.8973,-0.030697,0.026247,0.04574,-0.004399,-0.004738,-0.008495,-0.007167,-0.483378,0.046458,1.144238,-263.218519,-0.077627,66.996479
0.9172,-0.03062,0.026418,0.048096,-0.004347,-0.004726,-0.008543,-0.007167,-0.483378,0.046458,1.144238,-263.218519,-0.077627,66.996479
0.9369,-0.030915,0.025647,0.046912,-0.004302,-0.004716,-0.00858,-0.006278,-0.483199,0.047743,1.147765,-263.222862,-0.088847,66.99469
0.9567,-0.031052,0.025862,0.047189,-0.004282,-0.004716,-0.00862,-0.006593,-0.483466,0.047362,1.147765,-263.222862,-0.088847,66.99469
0.9769,-0.030965,0.025493,0.047244,-0.004265,-0.004716,-0.008652,-0.007122,-0.483723,0.046922,1.162945,-263.227106,-0.121219,66.992994
0.9969,-0.030838,0.025897,0.047965,-0.004236,-0.004711,-0.008687,-0.006908,-0.483926,0.047201,1.162945,-263.227106,-0.121219,66.992994
1.0169,-0.031228,0.026059,0.04639,-0.004211,-0.004707,-0.008716,-0.006908,-0.483926,0.047201,1.162945,-263.227106,-0.121219,66.992994
1.0373,-0.030845,0.025714,0.045555,-0.00419,-0.004704,-0.008739,-0.007747,-0.483598,0.046028,1.167673,-263.231445,-0.132537,66.991277
1.0569,-0.030921,0.025399,0.046428,-0.004148,-0.004693,-0.008766,-0.007714,-0.483686,0.045795,1.167673,-263.231445,-0.132537,66.991277
1.0766,-0.030795,0.025345,0.046935,-0.004112,-0.004684,-0.008786,-0.007377,-0.484206,0.046151,1.175508,-263.235778,-0.150012,66.989589
1.0969,-0.030664,0.025358,0.046737,-0.004103,-0.004686,-0.008802,-0.006917,-0.48411,0.046854,1.175508,-263.235778,-0.150012,66.989589
1.1168,-0.030737,0.025378,0.046331,-0.004096,-0.004688,-0.008815,-0.006917,-0.48411,0.046854,1.175508,-263.235778,-0.150012,66.989589
1.1367,-0.030713,0.024741,0.045522,-0.004089,-0.00469,-0.008825,-0.007278,-0.484277,0.045966,1.18247,-263.240106,-0.164338,66.987928
1.1573,-0.031026,0.025378,0.044336,-0.004064,-0.004683,-0.00884,-0.007391,-0.484489,0.045739,1.18247,-263.240106,-0.164338,66.987928
1.1766,-0.030467,0.024937,0.046605,-0.004043,-0.004678,-0.008851,-0.008545,-0.484276,0.044056,1.18538,-263.244471,-0.16963,66.986263
1.1972,-0.030401,0.024687,0.045328,-0.004042,-0.004682,-0.00886,-0.00685,-0.484499,0.046402,1.18538,-263.244471,-0.16963,66.986263
1.217,-0.030518,0.025183,0.044801,-0.004042,-0.004684,-0.008867,-0.00685,-0.484499,0.046402,1.18538,-263.244471,-0.16963,66.986263
1.2366,-0.030707,0.024811,0.04442,-0.004042,-0.004686,-0.008873,-0.007836,-0.484507,0.044434,1.189516,-263.248792,-0.178057,66.984629
1.2566,-0.030684,0.024603,0.046131,-0.004003,-0.004673,-0.008887,-0.007947,-0.484604,0.044385,1.189516,-263.248792,-0.178057,66.984629
1.2765,-0.030581,0.0245,0.044601,-0.003971,-0.004662,-0.008897,-0.007287,-0.485009,0.045849,1.190345,-263.253146,-0.179436,66.982986
1.2968,-0.030532,0.024274,0.043925,-0.003944,-0.004654,-0.008906,-0.007801,-0.485002,0.044694,1.190345,-263.253146,-0.179436,66.982986
1.3167,-0.030305,0.024328,0.045529,-0.003921,-0.004648,-0.008914,-0.007801,-0.485002,0.044694,1.190345,-263.253146,-0.179436,66.982986
1.3367,-0.030495,0.023953,0.044882,-0.003902,-0.004644,-0.008919,-0.00725,-0.485345,0.045158,1.196061,-263.257476,-0.191915,66.981372
1.3569,-0.030512,0.0242,0.044159,-0.003893,-0.004643,-0.008923,-0.007417,-0.485446,0.045001,1.196061,-263.257476,-0.191915,66.981372
1.3769,-0.030279,0.024181,0.04478,-0.003886,-0.004643,-0.008927,-0.008115,-0.485454,0.043877,1.201827,-263.261787,-0.203124,66.979784
1.397,-0.030501,0.024388,0.043709,-0.003878,-0.004642,-0.008932,-0.007512,-0.485328,0.044689,1.201827,-263.261787,-0.203124,66.979784
1.4169,-0.030594,0.02365,0.043603,-0.003871,-0.004642,-0.008935,-0.007512,-0.485328,0.044689,1.201827,-263.261787,-0.203124,66.979784
1.4369,-0.030675,0.023457,0.042652,-0.003865,-0.004641,-0.008939,-0.008517,-0.486066,0.04323,1.203329,-263.266114,-0.205198,66.978196
1.4567,-0.03057,0.02366,0.04399,-0.003811,-0.004619,-0.00895,-0.008705,-0.486095,0.042948,1.203329,-263.266114,-0.205198,66.978196
1.4767,-0.030298,0.023389,0.041787,-0.003765,-0.004601,-0.008958,-0.008259,-0.485999,0.043706,1.205354,-263.27044,-0.208586,66.976616
1.4967,-0.03033,0.023423,0.041038,-0.003717,-0.004582,-0.008966,-0.008935,-0.486159,0.041939,1.205354,-263.27044,-0.208586,66.976616
1.5173,-0.030445,0.023709,0.044007,-0.003677,-0.004568,-0.008971,-0.008935,-0.486159,0.041939,1.205354,-263.27044,-0.208586,66.976616
1.5369,-0.030293,0.023101,0.042701,-0.003642,-0.004556,-0.008974,-0.008157,-0.485995,0.043634,1.213053,-263.274719,-0.227121,66.975078
1.5573,-0.030233,0.023493,0.042792,-0.003633,-0.004557,-0.008974,-0.008323,-0.486197,0.043211,1.213053,-263.274719,-0.227121,66.975078
1.5768,-0.030342,0.023591,0.042008,-0.003625,-0.004558,-0.008973,-0.008525,-0.48619,0.042507,1.222738,-263.27894,-0.248642,66.973593
1.5971,-0.030311,0.023022,0.042808,-0.003602,-0.004551,-0.008976,-0.008889,-0.485992,0.042044,1.222738,-263.27894,-0.248642,66.973593
1.6168,-0.030091,0.023126,0.041162,-0.003582,-0.004545,-0.008978,-0.008889,-0.485992,0.042044,1.222738,-263.27894,-0.248642,66.973593
1.6366,-0.030263,0.022935,0.042238,-0.003565,-0.004541,-0.008979,-0.009248,-0.486638,0.040786,1.224273,-263.283215,-0.249098,66.972095
1.6568,-0.030277,0.022814,0.041025,-0.003536,-0.00453,-0.008982,-0.009051,-0.486649,0.04134,1.224273,-263.283215,-0.249098,66.972095
1.6765,-0.030373,0.022896,0.041291,-0.003512,-0.004522,-0.008984,-0.009468,-0.486906,0.04074,1.229143,-263.287463,-0.258516,66.970623
1.6968,-0.03057,0.022611,0.04069,-0.003482,-0.00451,-0.008986,-0.009338,-0.486697,0.041229,1.229143,-263.287463,-0.258516,66.970623
1.717,-0.030173,0.022902,0.041111,-0.003456,-0.004501,-0.008988,-0.009338,-0.486697,0.041229,1.229143,-263.287463,-0.258516,66.970623
1.737,-0.029909,0.022515,0.040065,-0.003434,-0.004494,-0.008989,-0.009351,-0.486862,0.040736,1.2333,-263.291701,-0.268054,66.969167
1.7568,-0.029942,0.022626,0.040458,-0.003409,-0.004484,-0.00899,-0.00942,-0.486972,0.040416,1.2333,-263.291701,-0.268054,66.969167
1.7772,-0.029941,0.022183,0.04081,-0.003387,-0.004477,-0.008991,-0.009416,-0.487103,0.040174,1.23948,-263.295905,-0.282345,66.967743
1.797,-0.029971,0.022186,0.039718,-0.003372,-0.004472,-0.008991,-0.009163,-0.487375,0.040741,1.23948,-263.295905,-0.282345,66.967743
1.8172,-0.030121,0.022203,0.039532,-0.003359,-0.004469,-0.00899,-0.009163,-0.487375,0.040741,1.23948,-263.295905,-0.282345,66.967743
1.8372,-0.030238,0.022133,0.039549,-0.003347,-0.004466,-0.008989,-0.010099,-0.487591,0.039157,1.243236,-263.300111,-0.291054,66.966331
1.8571,-0.029998,0.021868,0.04103,-0.003304,-0.004445,-0.008994,-0.010104,-0.487563,0.039274,1.243236,-263.300111,-0.291054,66.966331
1.877,-0.029831,0.021652,0.038823,-0.003268,-0.004428,-0.008997,-0.009179,-0.487849,0.040744,1.246445,-263.304303,-0.296848,66.964934
1.8967,-0.029769,0.02137,0.039537,-0.003235,-0.004414,-0.008999,-0.009965,-0.487961,0.038981,1.246445,-263.304303,-0.296848,66.964934
1.9167,-0.030012,0.021775,0.04055,-0.003207,-0.004402,-0.008999,-0.009965,-0.487961,0.038981,1.246445,-263.304303,-0.296848,66.964934
1.9369,-0.030027,0.02144,0.039227,-0.003184,-0.004393,-0.008999,-0.009466,-0.487996,0.040176,1.252663,-263.308456,-0.315492,66.963567
1.957,-0.029573,0.021349,0.038886,-0.003171,-0.00439,-0.008997,-0.009708,-0.488087,0.039749,1.252663,-263.308456,-0.315492,66.963567
1.9767,-0.030181,0.021103,0.037823,-0.00316,-0.004388,-0.008995,-0.009842,-0.488409,0.0386,1.25934,-263.312587,-0.333494,66.962227
1.9967,-0.029624,0.021305,0.038498,-0.003108,-0.004359,-0.009001,-0.010804,-0.488528,0.03788,1.25934,-263.312587,-0.333494,66.962227
2.0169,-0.029644,0.020826,0.038433,-0.003064,-0.004337,-0.009004,-0.010804,-0.488528,0.03788,1.25934,-263.312587,-0.333494,66.962227
2.0366,-0.029965,0.020976,0.037467,-0.003027,-0.004319,-0.009006,-0.010173,-0.488987,0.038056,1.261323,-263.316736,-0.336786,66.960889
2.0566,-0.02941,0.020997,0.038051,-0.003,-0.004308,-0.009005,-0.010467,-0.488878,0.037774,1.261323,-263.316736,-0.336786,66.960889
2.0769,-0.029438,0.020782,0.036173,-0.002977,-0.004299,-0.009004,-0.010098,-0.488772,0.037771,1.271815,-263.320758,-0.372046,66.959617
2.0966,-0.029834,0.021326,0.037074,-0.002943,-0.004282,-0.009005,-0.010916,-0.488881,0.036304,1.271815,-263.320758,-0.372046,66.959617
2.1169,-0.029647,0.02058,0.039092,-0.002913,-0.004269,-0.009006,-0.010916,-0.488881,0.036304,1.271815,-263.320758,-0.372046,66.959617
2.1367,-0.029491,0.020598,0.036498,-0.002889,-0.004258,-0.009005,-0.009832,-0.489215,0.038715,1.275836,-263.324845,-0.383272,66.958336
2.1571,-0.029622,0.020469,0.038145,-0.002884,-0.00426,-0.009001,-0.010272,-0.489174,0.037772,1.275836,-263.324845,-0.383272,66.958336
2.1771,-0.029212,0.020412,0.034124,-0.00288,-0.004262,-0.008998,-0.010259,-0.489298,0.03786,1.28297,-263.328878,-0.406067,66.95709
2.197,-0.029254,0.020535,0.036109,-0.00283,-0.004231,-0.009003,-0.011676,-0.489299,0.034447,1.28297,-263.328878,-0.406067,66.95709
2.2167,-0.029181,0.020181,0.036143,-0.002787,-0.004206,-0.009007,-0.011676,-0.489299,0.034447,1.28297,-263.328878,-0.406067,66.95709
2.2369,-0.029429,0.020181,0.036431,-0.00275,-0.004186,-0.009008,-0.010866,-0.489669,0.035766,1.283724,-263.332947,-0.404633,66.955836
2.2568,-0.029271,0.019883,0.03571,-0.00274,-0.004184,-0.009005,-0.010874,-0.489613,0.035994,1.283724,-263.332947,-0.404633,66.955836
2.2768,-0.028941,0.020058,0.034621,-0.00273,-0.004183,-0.009002,-0.011144,-0.489924,0.035432,1.294181,-263.33686,-0.446127,66.954652
2.2969,-0.029213,0.020075,0.035187,-0.002708,-0.004172,-0.009001,-0.011279,-0.489669,0.034679,1.294181,-263.33686,-0.446127,66.954652
2.3166,-0.028959,0.01985,0.035596,-0.002689,-0.004163,-0.009001,-0.011279,-0.489669,0.034679,1.294181,-263.33686,-0.446127,66.954652
2.3369,-0.029114,0.019502,0.034611,-0.002674,-0.004156,-0.008999,-0.010917,-0.490006,0.03522,1.295904,-263.340882,-0.448813,66.95344
2.3568,-0.02907,0.019949,0.035171,-0.002657,-0.004148,-0.008998,-0.011152,-0.490102,0.034929,1.295904,-263.340882,-0.448813,66.95344
2.3768,-0.028879,0.019552,0.034951,-0.002642,-0.004141,-0.008997,-0.011217,-0.489871,0.034885,1.30059,-263.344871,-0.464692,66.952249
2.3966,-0.029026,0.019722,0.034514,-0.002632,-0.004138,-0.008995,-0.011076,-0.49012,0.034931,1.30059,-263.344871,-0.464692,66.952249
2.4169,-0.028634,0.019255,0.034679,-0.002624,-0.004135,-0.008993,-0.011076,-0.49012,0.034931,1.30059,-263.344871,-0.464692,66.952249
2.4369,-0.029071,0.01928,0.034457,-0.002617,-0.004132,-0.008992,-0.011056,-0.490616,0.034303,1.303167,-263.348862,-0.473451,66.951063
2.4571,-0.028839,0.019064,0.033144,-0.002597,-0.00412,-0.008993,-0.011249,-0.490555,0.034322,1.303167,-263.348862,-0.473451,66.951063
2.4769,-0.028812,0.019229,0.032599,-0.00258,-0.004111,-0.008993,-0.012017,-0.490791,0.032857,1.305333,-263.352849,-0.479235,66.949884
2.4969,-0.029041,0.018993,0.03309,-0.002538,-0.004082,-0.008998,-0.012178,-0.490534,0.032607,1.305333,-263.352849,-0.479235,66.949884
2.5168,-0.028827,0.019312,0.034014,-0.002502,-0.004058,-0.009001,-0.012178,-0.490534,0.032607,1.305333,-263.352849,-0.479235,66.949884
2.5368,-0.028185,0.018665,0.035214,-0.002472,-0.004039,-0.009003,-0.011585,-0.490569,0.033639,1.308294,-263.356817,-0.491552,66.948716
2.5569,-0.028545,0.018675,0.033261,-0.002477,-0.004048,-0.008997,-0.011043,-0.490772,0.034239,1.308294,-263.356817,-0.491552,66.948716
2.5768,-0.028762,0.01856,0.033344,-0.002481,-0.004054,-0.008993,-0.011657,-0.491171,0.032982,1.317228,-263.360645,-0.533232,66.947601
2.5967,-0.028308,0.018639,0.033431,-0.002455,-0.004037,-0.008994,-0.011754,-0.491164,0.033296,1.317228,-263.360645,-0.533232,66.947601
2.6166,-0.028417,0.018919,0.031818,-0.002433,-0.004023,-0.008995,-0.011754,-0.491164,0.033296,1.317228,-263.360645,-0.533232,66.947601
2.6366,-0.028471,0.018706,0.031894,-0.002415,-0.004012,-0.008995,-0.012292,-0.490995,0.031441,1.316524,-263.364587,-0.525213,66.946455
2.6566,-0.028709,0.018624,0.033095,-0.002385,-0.003993,-0.008997,-0.012269,-0.491032,0.031583,1.316524,-263.364587,-0.525213,66.946455
2.677,-0.028448,0.018426,0.030823,-0.00236,-0.003977,-0.008998,-0.011906,-0.491225,0.032812,1.322047,-263.368469,-0.550268,66.945334
2.6967,-0.028295,0.018413,0.03156,-0.002322,-0.00395,-0.009002,-0.012661,-0.491328,0.030987,1.322047,-263.368469,-0.550268,66.945334
2.717,-0.028547,0.018259,0.031702,-0.002289,-0.003928,-0.009003,-0.012661,-0.491328,0.030987,1.322047,-263.368469,-0.550268,66.945334
2.7369,-0.028034,0.017839,0.032653,-0.002262,-0.00391,-0.009003,-0.012474,-0.491653,0.031328,1.326614,-263.372343,-0.571861,66.94422
2.7569,-0.027935,0.018254,0.030116,-0.002248,-0.003904,-0.009001,-0.012043,-0.491768,0.031822,1.326614,-263.372343,-0.571861,66.94422
2.7769,-0.028248,0.018126,0.030796,-0.002237,-0.0039,-0.008998,-0.012645,-0.491638,0.029837,1.334879,-263.37611,-0.612225,66.943144
2.797,-0.027888,0.017656,0.031169,-0.002214,-0.003885,-0.008998,-0.012557,-0.491639,0.030693,1.334879,-263.37611,-0.612225,66.943144
2.8169,-0.028171,0.017652,0.03112,-0.002195,-0.003873,-0.008998,-0.012557,-0.491639,0.030693,1.334879,-263.37611,-0.612225,66.943144
2.8374,-0.027943,0.017853,0.028779,-0.002178,-0.003863,-0.008997,-0.012391,-0.492267,0.030744,1.33704,-263.379975,-0.619645,66.942045
2.857,-0.028074,0.018062,0.031119,-0.002148,-0.003841,-0.008998,-0.012756,-0.492152,0.029904,1.33704,-263.379975,-0.619645,66.942045
2.8772,-0.027808,0.017529,0.030589,-0.002123,-0.003824,-0.008999,-0.01227,-0.491815,0.030836,1.342078,-263.383784,-0.642733,66.940966
2.897,-0.027811,0.017155,0.030483,-0.002116,-0.003822,-0.008995,-0.012218,-0.492202,0.030596,1.342078,-263.383784,-0.642733,66.940966
2.917,-0.027799,0.018225,0.028573,-0.00211,-0.003821,-0.008992,-0.012218,-0.492202,0.030596,1.342078,-263.383784,-0.642733,66.940966
2.937,-0.027795,0.017089,0.030996,-0.002105,-0.00382,-0.00899,-0.013312,-0.491727,0.0282,1.346828,-263.387569,-0.667234,66.939896
2.9569,-0.027355,0.017189,0.031155,-0.002086,-0.003806,-0.00899,-0.012779,-0.492131,0.029305,1.346828,-263.387569,-0.667234,66.939896
2.977,-0.027692,0.017411,0.02907,-0.002069,-0.003795,-0.00899,-0.011532,-0.492688,0.030868,1.348419,-263.391381,-0.670622,66.938822
2.9971,-0.027618,0.017312,0.029006,-0.00205,-0.003782,-0.008991,-0.01275,-0.492408,0.029219,1.348419,-263.391381,-0.670622,66.938822
3.0172,-0.027892,0.017334,0.029812,-0.002034,-0.003771,-0.00899,-0.01275,-0.492408,0.029219,1.348419,-263.391381,-0.670622,66.938822
3.0367,-0.027246,0.01704,0.028576,-0.002021,-0.003762,-0.00899,-0.012771,-0.4926,0.029437,1.351555,-263.395171,-0.686585,66.937757
3.0572,-0.027632,0.016991,0.030222,-0.002004,-0.00375,-0.008989,-0.012741,-0.49268,0.029044,1.351555,-263.395171,-0.686585,66.937757
3.0774,-0.027265,0.017232,0.028482,-0.00199,-0.00374,-0.008989,-0.012282,-0.492897,0.029937,1.355771,-263.398939,-0.707581,66.936699
3.0974,-0.02753,0.016984,0.029034,-0.00198,-0.003735,-0.008988,-0.012697,-0.492603,0.028616,1.355771,-263.398939,-0.707581,66.936699
3.1172,-0.027059,0.01686,0.029007,-0.001972,-0.00373,-0.008986,-0.012697,-0.492603,0.028616,1.355771,-263.398939,-0.707581,66.936699
3.1371,-0.027299,0.016741,0.027299,-0.001965,-0.003727,-0.008985,-0.012346,-0.493084,0.028632,1.35849,-263.402696,-0.721294,66.935644
3.1575,-0.027266,0.016767,0.028151,-0.001946,-0.003712,-0.008986,-0.012776,-0.493096,0.028046,1.35849,-263.402696,-0.721294,66.935644
3.1772,-0.026855,0.016407,0.028837,-0.00193,-0.0037,-0.008986,-0.01297,-0.493151,0.027866,1.360717,-263.406459,-0.730726,66.934591
3.1969,-0.027187,0.016435,0.027454,-0.001927,-0.0037,-0.008984,-0.012229,-0.493366,0.028732,1.360717,-263.406459,-0.730726,66.934591
3.2174,-0.026645,0.016805,0.027603,-0.001925,-0.003699,-0.008982,-0.012229,-0.493366,0.028732,1.360717,-263.406459,-0.730726,66.934591
3.2373,-0.026908,0.016302,0.027509,-0.001923,-0.003699,-0.00898,-0.012645,-0.493157,0.027229,1.363713,-263.410198,-0.747233,66.933543
3.2572,-0.026718,0.016014,0.027081,-0.001906,-0.003685,-0.008981,-0.012749,-0.493316,0.027299,1.363713,-263.410198,-0.747233,66.933543
3.2771,-0.026938,0.015812,0.026692,-0.001892,-0.003674,-0.008982,-0.012966,-0.493918,0.026795,1.36442,-263.413957,-0.748342,66.932491
3.2973,-0.026805,0.016361,0.025865,-0.00185,-0.003635,-0.008989,-0.013298,-0.494005,0.026687,1.36442,-263.413957,-0.748342,66.932491
3.3174,-0.026717,0.015886,0.026858,-0.001815,-0.003604,-0.008992,-0.013298,-0.494005,0.026687,1.36442,-263.413957,-0.748342,66.932491
3.3372,-0.026768,0.016014,0.026781,-0.001785,-0.003579,-0.008994,-0.013096,-0.494086,0.026484,1.367106,-263.417685,-0.763622,66.931448
3.3574,-0.02634,0.016041,0.027553,-0.001765,-0.003564,-0.008993,-0.013111,-0.493988,0.026562,1.367106,-263.417685,-0.763622,66.931448
3.3772,-0.026666,0.015995,0.025496,-0.001747,-0.003552,-0.008992,-0.012341,-0.493875,0.027282,1.376531,-263.421186,-0.820411,66.930456
3.3973,-0.026615,0.016255,0.026225,-0.001724,-0.003533,-0.008991,-0.013545,-0.493848,0.025646,1.376531,-263.421186,-0.820411,66.930456
3.4172,-0.026582,0.015729,0.026967,-0.001704,-0.003518,-0.00899,-0.013545,-0.493848,0.025646,1.376531,-263.421186,-0.820411,66.930456
3.4372,-0.025875,0.015814,0.025193,-0.001687,-0.003505,-0.008988,-0.0129,-0.494235,0.026592,1.379913,-263.424853,-0.83762,66.929417
3.4569,-0.026506,0.016067,0.025646,-0.001682,-0.003504,-0.008984,-0.01296,-0.494166,0.025975,1.379913,-263.424853,-0.83762,66.929417
3.4768,-0.026228,0.015482,0.024399,-0.001677,-0.003503,-0.00898,-0.013479,-0.493877,0.025364,1.385392,-263.428464,-0.866118,66.928389
3.497,-0.026149,0.01582,0.025313,-0.001647,-0.003476,-0.008982,-0.013761,-0.494328,0.024471,1.385392,-263.428464,-0.866118,66.928389
3.5169,-0.026067,0.015619,0.024856,-0.001622,-0.003454,-0.008983,-0.013761,-0.494328,0.024471,1.385392,-263.428464,-0.866118,66.928389
3.5373,-0.026212,0.014979,0.023588,-0.001601,-0.003437,-0.008982,-0.013458,-0.494372,0.024481,1.38636,-263.432121,-0.868472,66.927351
3.5574,-0.026044,0.015552,0.023759,-0.001577,-0.003416,-0.008982,-0.013762,-0.494596,0.024073,1.38636,-263.432121,-0.868472,66.927351
3.577,-0.026136,0.015144,0.023509,-0.001556,-0.003399,-0.008981,-0.013975,-0.494412,0.023479,1.393245,-263.435671,-0.907537,66.926333
3.5971,-0.025637,0.014975,0.022813,-0.001527,-0.003372,-0.008981,-0.014136,-0.494696,0.023494,1.393245,-263.435671,-0.907537,66.926333
3.6171,-0.025829,0.014978,0.02273,-0.001502,-0.003351,-0.008981,-0.014136,-0.494696,0.023494,1.393245,-263.435671,-0.907537,66.926333
3.6372,-0.025856,0.014879,0.02322,-0.001481,-0.003333,-0.008979,-0.014299,-0.495033,0.022357,1.397366,-263.439234,-0.929915,66.925304
3.6569,-0.025927,0.014879,0.025755,-0.001454,-0.003308,-0.008979,-0.014193,-0.49503,0.022656,1.397366,-263.439234,-0.929915,66.925304
3.6767,-0.025652,0.014962,0.02249,-0.001431,-0.003288,-0.008978,-0.012837,-0.495057,0.025475,1.40434,-263.442731,-0.967691,66.924283
3.6966,-0.025535,0.014809,0.02245,-0.001417,-0.003279,-0.008974,-0.014068,-0.494928,0.022737,1.40434,-263.442731,-0.967691,66.924283
3.717,-0.025534,0.014721,0.024241,-0.001405,-0.003271,-0.008971,-0.014068,-0.494928,0.022737,1.40434,-263.442731,-0.967691,66.924283
3.7368,-0.025281,0.014458,0.022596,-0.001394,-0.003264,-0.008968,-0.013229,-0.495267,0.023869,1.409069,-263.446251,-0.992955,66.923245
3.7569,-0.025613,0.014509,0.022827,-0.001392,-0.003266,-0.008963,-0.013451,-0.495342,0.023307,1.409069,-263.446251,-0.992955,66.923245
3.7768,-0.025396,0.01437,0.019645,-0.00139,-0.003267,-0.008959,-0.014014,-0.495462,0.022542,1.412606,-263.449771,-1.008532,66.922205
3.797,-0.025026,0.014502,0.023591,-0.00134,-0.003211,-0.008965,-0.015257,-0.495531,0.019892,1.412606,-263.449771,-1.008532,66.922205
3.817,-0.025052,0.013857,0.021404,-0.001297,-0.003166,-0.008968,-0.015257,-0.495531,0.019892,1.412606,-263.449771,-1.008532,66.922205
3.8368,-0.025243,0.014587,0.021168,-0.00126,-0.003129,-0.008968,-0.014192,-0.496164,0.021029,1.413025,-263.453317,-1.008271,66.92116
3.8566,-0.024792,0.014407,0.022358,-0.001245,-0.003118,-0.008965,-0.014304,-0.495823,0.021043,1.413025,-263.453317,-1.008271,66.92116
3.8769,-0.024772,0.013863,0.021321,-0.001232,-0.003109,-0.008961,-0.013426,-0.495558,0.022096,1.425388,-263.456525,-1.07817,66.920178
3.8967,-0.025049,0.014099,0.020976,-0.001228,-0.00311,-0.008955,-0.013861,-0.495986,0.021374,1.425388,-263.456525,-1.07817,66.920178
3.9168,-0.025011,0.014332,0.021653,-0.001225,-0.003111,-0.008951,-0.013861,-0.495986,0.021374,1.425388,-263.456525,-1.07817,66.920178
3.9368,-0.025067,0.013941,0.020312,-0.001222,-0.003111,-0.008947,-0.014018,-0.495679,0.021279,1.428207,-263.459984,-1.090295,66.919114
3.9567,-0.024567,0.013805,0.020337,-0.001213,-0.003104,-0.008945,-0.014306,-0.495806,0.020841,1.428207,-263.459984,-1.090295,66.919114
3.9771,-0.024617,0.013971,0.021204,-0.001205,-0.003098,-0.008943,-0.014232,-0.496189,0.020053,1.429277,-263.46345,-1.091865,66.918053
3.9966,-0.025002,0.01379,0.018879,-0.001206,-0.003103,-0.00894,-0.013842,-0.495943,0.021091,1.429277,-263.46345,-1.091865,66.918053
4.0167,-0.024787,0.01389,0.020962,-0.001207,-0.003107,-0.008937,-0.013842,-0.495943,0.021091,1.429277,-263.46345,-1.091865,66.918053
4.0368,-0.024747,0.013784,0.02117,-0.001208,-0.00311,-0.008935,-0.014145,-0.496129,0.020589,1.430998,-263.466904,-1.099468,66.916993
4.057,-0.024567,0.013474,0.021158,-0.001199,-0.003101,-0.008935,-0.014071,-0.496132,0.020785,1.430998,-263.466904,-1.099468,66.916993
4.0768,-0.024349,0.013572,0.019366,-0.001191,-0.003093,-0.008935,-0.013814,-0.496512,0.020873,1.430709,-263.470367,-1.095432,66.915937
4.0972,-0.024889,0.013533,0.01885,-0.00117,-0.003069,-0.008936,-0.014419,-0.496352,0.019478,1.430709,-263.470367,-1.095432,66.915937
4.117,-0.024155,0.014011,0.019635,-0.001152,-0.00305,-0.008937,-0.014419,-0.496352,0.019478,1.430709,-263.470367,-1.095432,66.915937
4.1366,-0.024087,0.013341,0.018825,-0.001137,-0.003035,-0.008936,-0.01419,-0.496021,0.019262,1.432371,-263.473815,-1.104085,66.91488
4.1569,-0.023758,0.013391,0.020407,-0.001128,-0.003028,-0.008934,-0.014318,-0.496263,0.019038,1.432371,-263.473815,-1.104085,66.91488
4.1768,-0.02416,0.013312,0.018855,-0.001121,-0.003022,-0.008932,-0.013385,-0.496599,0.020127,1.437667,-263.477199,-1.131879,66.913822
4.1972,-0.023758,0.013206,0.019953,-0.001104,-0.003004,-0.008932,-0.014449,-0.496602,0.018948,1.437667,-263.477199,-1.131879,66.913822
4.2173,-0.023941,0.013068,0.019311,-0.001089,-0.002988,-0.008931,-0.014449,-0.496602,0.018948,1.437667,-263.477199,-1.131879,66.913822
4.2372,-0.023639,0.013387,0.018147,-0.001077,-0.002976,-0.00893,-0.014137,-0.496964,0.018938,1.439352,-263.480615,-1.13909,66.912752
4.2572,-0.023834,0.012983,0.016454,-0.001066,-0.002966,-0.008928,-0.014244,-0.4968,0.01857,1.439352,-263.480615,-1.13909,66.912752
4.2766,-0.023851,0.012958,0.017872,-0.001056,-0.002957,-0.008926,-0.015476,-0.497042,0.016172,1.44378,-263.483988,-1.160923,66.91168
4.297,-0.023854,0.013194,0.016963,-0.001031,-0.002928,-0.008925,-0.014802,-0.496972,0.017713,1.44378,-263.483988,-1.160923,66.91168
4.3168,-0.023698,0.01311,0.018936,-0.00101,-0.002905,-0.008924,-0.014802,-0.496972,0.017713,1.44378,-263.483988,-1.160923,66.91168
4.3366,-0.023463,0.012912,0.017985,-0.000992,-0.002886,-0.008922,-0.014083,-0.496922,0.018564,1.445843,-263.487374,-1.170221,66.910598
4.3565,-0.023763,0.012758,0.017025,-0.000991,-0.002889,-0.008917,-0.014174,-0.496971,0.01828,1.445843,-263.487374,-1.170221,66.910598
4.3769,-0.023309,0.012437,0.017704,-0.00099,-0.002892,-0.008914,-0.01511,-0.497259,0.016746,1.452352,-263.490676,-1.201594,66.909517
4.3967,-0.023453,0.012755,0.017667,-0.000973,-0.002871,-0.008914,-0.014353,-0.497469,0.017609,1.452352,-263.490676,-1.201594,66.909517
4.4166,-0.023325,0.01256,0.017318,-0.000958,-0.002855,-0.008913,-0.014353,-0.497469,0.017609,1.452352,-263.490676,-1.201594,66.909517
4.4367,-0.022741,0.012284,0.01741,-0.000946,-0.002842,-0.008912,-0.014533,-0.497485,0.016946,1.452565,-263.49403,-1.200757,66.908423
4.4569,-0.023148,0.012704,0.015596,-0.000935,-0.00283,-0.008908,-0.014263,-0.497562,0.017093,1.452565,-263.49403,-1.200757,66.908423
4.4767,-0.022814,0.012304,0.016491,-0.000925,-0.002821,-0.008905,-0.015223,-0.497324,0.015315,1.457109,-263.497341,-1.221959,66.907324
4.4967,-0.023048,0.012302,0.017422,-0.00091,-0.002805,-0.008899,-0.014476,-0.497605,0.016376,1.457109,-263.497341,-1.221959,66.907324
4.5165,-0.022913,0.012086,0.015615,-0.000898,-0.002792,-0.008894,-0.014476,-0.497605,0.016376,1.457109,-263.497341,-1.221959,66.907324
4.5368,-0.022736,0.01196,0.015688,-0.000888,-0.002782,-0.00889,-0.014987,-0.49797,0.015244,1.459286,-263.500657,-1.231199,66.906216
4.5567,-0.022771,0.012187,0.015268,-0.000861,-0.002747,-0.00888,-0.014888,-0.497987,0.015382,1.459286,-263.500657,-1.231199,66.906216
4.5767,-0.022254,0.012385,0.013868,-0.000838,-0.002719,-0.008872,-0.015012,-0.497842,0.014985,1.463116,-263.503946,-1.247329,66.905104
4.5968,-0.022103,0.012156,0.014655,-0.000824,-0.002702,-0.008834,-0.015168,-0.497596,0.013955,1.463116,-263.503946,-1.247329,66.905104
4.6169,-0.022313,0.012062,0.014946,-0.000812,-0.002688,-0.008804,-0.015168,-0.497596,0.013955,1.463116,-263.503946,-1.247329,66.905104
4.6365,-0.022341,0.011714,0.015662,-0.000801,-0.002677,-0.008779,-0.014724,-0.497995,0.014578,1.468145,-263.507203,-1.269688,66.903979
4.6569,-0.02244,0.01216,0.016715,-0.000792,-0.002668,-0.008779,-0.014573,-0.498104,0.014989,1.468145,-263.507203,-1.269688,66.903979
4.6771,-0.022174,0.01188,0.01406,-0.000785,-0.002662,-0.008778,-0.01394,-0.497854,0.016437,1.471432,-263.51042,-1.280771,66.902863
4.6967,-0.021935,0.011761,0.014674,-0.000774,-0.002648,-0.008765,-0.014912,-0.498055,0.014252,1.471432,-263.51042,-1.280771,66.902863
4.7171,-0.022107,0.011684,0.014085,-0.000764,-0.002636,-0.008754,-0.014912,-0.498055,0.014252,1.471432,-263.51042,-1.280771,66.902863
4.7366,-0.022048,0.011891,0.013216,-0.000756,-0.002627,-0.008744,-0.014955,-0.498377,0.013719,1.473276,-263.513637,-1.287887,66.901741
4.7572,-0.021681,0.011772,0.01366,-0.000743,-0.002607,-0.008716,-0.015103,-0.498262,0.013471,1.473276,-263.513637,-1.287887,66.901741
4.7769,-0.021431,0.011735,0.013445,-0.000732,-0.002591,-0.008692,-0.014738,-0.498264,0.013381,1.476203,-263.516832,-1.299066,66.900617
4.797,-0.021863,0.011812,0.014596,-0.000733,-0.002594,-0.008667,-0.01459,-0.498228,0.013425,1.476203,-263.516832,-1.299066,66.900617
4.8168,-0.021646,0.011686,0.012191,-0.000734,-0.002596,-0.008648,-0.01459,-0.498228,0.013425,1.476203,-263.516832,-1.299066,66.900617
4.8368,-0.02169,0.011352,0.013737,-0.000735,-0.002598,-0.008632,-0.015458,-0.498384,0.011828,1.478432,-263.520001,-1.307802,66.899492
4.8568,-0.021787,0.011369,0.014397,-0.000724,-0.002574,-0.008587,-0.015147,-0.498485,0.012561,1.478432,-263.520001,-1.307802,66.899492
4.8766,-0.021551,0.011504,0.011734,-0.000714,-0.002555,-0.00855,-0.014467,-0.498661,0.014122,1.477649,-263.523164,-1.302504,66.898382
4.897,-0.020997,0.011137,0.011483,-0.000704,-0.002531,-0.008486,-0.015471,-0.498483,0.011929,1.477649,-263.523164,-1.302504,66.898382
4.9168,-0.021409,0.011397,0.012068,-0.000695,-0.002512,-0.008435,-0.015471,-0.498483,0.011929,1.477649,-263.523164,-1.302504,66.898382
4.9369,-0.021286,0.011118,0.013645,-0.000687,-0.002497,-0.008395,-0.015283,-0.498674,0.011711,1.479248,-263.526289,-1.309232,66.897277
4.957,-0.021497,0.011442,0.012052,-0.000681,-0.00249,-0.00839,-0.014893,-0.498752,0.012466,1.479248,-263.526289,-1.309232,66.897277
4.9766,-0.021245,0.010832,0.012209,-0.000677,-0.002484,-0.008386,-0.015371,-0.498601,0.011785,1.480945,-263.529346,-1.315396,66.896192
4.997,-0.020899,0.010988,0.011512,-0.000664,-0.002462,-0.008368,-0.015051,-0.499088,0.012159,1.480945,-263.529346,-1.315396,66.896192
5.0168,-0.021264,0.010903,0.012906,-0.000653,-0.002444,-0.008353,-0.015051,-0.499088,0.012159,1.480945,-263.529346,-1.315396,66.896192
5.0366,-0.020939,0.010925,0.012263,-0.000644,-0.002429,-0.008341,-0.014709,-0.499159,0.012555,1.48206,-263.532401,-1.319704,66.895102
5.057,-0.020886,0.010842,0.009482,-0.00064,-0.002426,-0.00834,-0.014702,-0.49912,0.012394,1.48206,-263.532401,-1.319704,66.895102
5.0769,-0.020736,0.010836,0.011389,-0.000637,-0.002424,-0.008339,-0.01607,-0.499212,0.009218,1.485436,-263.53541,-1.333734,66.89401
5.0972,-0.020537,0.010931,0.011908,-0.000637,-0.002413,-0.008263,-0.015027,-0.499142,0.011189,1.485436,-263.53541,-1.333734,66.89401
5.117,-0.020593,0.010875,0.011436,-0.000636,-0.002404,-0.008204,-0.015027,-0.499142,0.011189,1.485436,-263.53541,-1.333734,66.89401
5.1372,-0.020418,0.011061,0.011322,-0.000635,-0.002397,-0.008157,-0.014786,-0.499193,0.011088,1.486221,-263.538423,-1.336474,66.892913
5.1572,-0.020657,0.010956,0.010767,-0.000641,-0.002402,-0.008114,-0.014731,-0.499088,0.011143,1.486221,-263.538423,-1.336474,66.892913
5.1766,-0.020248,0.010781,0.009792,-0.000646,-0.002406,-0.00808,-0.015185,-0.499091,0.010508,1.484969,-263.541383,-1.329974,66.89185
5.1968,-0.020428,0.010801,0.008154,-0.000649,-0.002389,-0.007938,-0.015249,-0.499189,0.009844,1.484969,-263.541383,-1.329974,66.89185
5.2169,-0.02034,0.010755,0.010024,-0.000651,-0.002375,-0.00783,-0.015249,-0.499189,0.009844,1.484969,-263.541383,-1.329974,66.89185
5.2367,-0.020193,0.010546,0.010147,-0.000653,-0.002364,-0.007747,-0.015254,-0.49932,0.009686,1.483009,-263.544348,-1.320664,66.890799
5.2569,-0.020226,0.010401,0.009925,-0.000652,-0.002351,-0.007683,-0.015156,-0.499378,0.009844,1.483009,-263.544348,-1.320664,66.890799
5.2773,-0.019927,0.010123,0.00848,-0.00065,-0.00234,-0.007633,-0.015184,-0.499648,0.009682,1.479033,-263.547166,-1.301635,66.889828
5.2968,-0.019796,0.010677,0.010134,-0.000639,-0.002296,-0.007435,-0.015568,-0.499844,0.00857,1.479033,-263.547166,-1.301635,66.889828
5.3169,-0.019795,0.010477,0.009879,-0.00063,-0.002262,-0.007285,-0.015568,-0.499844,0.00857,1.479033,-263.547166,-1.301635,66.889828
5.3372,-0.019932,0.01001,0.010342,-0.000623,-0.002234,-0.007173,-0.014783,-0.499596,0.00956,1.478185,-263.549977,-1.297731,66.888864
5.357,-0.019858,0.010608,0.009036,-0.000623,-0.002242,-0.007232,-0.014735,-0.499756,0.009841,1.478185,-263.549977,-1.297731,66.888864
5.3766,-0.019755,0.009961,0.007976,-0.000625,-0.002249,-0.007278,-0.015269,-0.499443,0.008808,1.476966,-263.552632,-1.28856,66.887971
5.3969,-0.019617,0.010312,0.008728,-0.000616,-0.002213,-0.00708,-0.015653,-0.499977,0.008035,1.476966,-263.552632,-1.28856,66.887971
5.4169,-0.019535,0.009779,0.010902,-0.000609,-0.002185,-0.006933,-0.015653,-0.499977,0.008035,1.476966,-263.552632,-1.28856,66.887971
5.4367,-0.019359,0.009751,0.008398,-0.000604,-0.002163,-0.006822,-0.014,-0.500285,0.010598,1.477748,-263.555315,-1.293657,66.88706
5.4568,-0.019759,0.010393,0.008954,-0.000602,-0.002171,-0.006937,-0.01444,-0.500274,0.009671,1.477748,-263.555315,-1.293657,66.88706
5.4769,-0.019459,0.00992,0.007553,-0.000601,-0.002178,-0.007026,-0.015211,-0.499656,0.008737,1.475584,-263.557848,-1.277843,66.886226
5.4967,-0.019789,0.009984,0.008026,-0.000598,-0.002154,-0.006819,-0.015573,-0.500032,0.007647,1.475584,-263.557848,-1.277843,66.886226
5.517,-0.01935,0.009881,0.008665,-0.000596,-0.002136,-0.006666,-0.015573,-0.500032,0.007647,1.475584,-263.557848,-1.277843,66.886226
5.537,-0.019049,0.009815,0.006874,-0.000595,-0.002121,-0.006552,-0.014955,-0.500191,0.008372,1.478098,-263.560436,-1.293598,66.885351
5.5573,-0.019279,0.009841,0.009006,-0.000597,-0.002114,-0.006479,-0.015195,-0.500194,0.007734,1.478098,-263.560436,-1.293598,66.885351
5.5764,-0.018932,0.009634,0.006009,-0.000599,-0.002109,-0.006424,-0.014704,-0.500206,0.008799,1.473897,-263.562865,-1.264234,66.884572
5.5966,-0.019242,0.009821,0.008099,-0.000582,-0.002072,-0.006084,-0.015768,-0.500347,0.00624,1.473897,-263.562865,-1.264234,66.884572
5.617,-0.01903,0.009759,0.006878,-0.00057,-0.002044,-0.005839,-0.015768,-0.500347,0.00624,1.473897,-263.562865,-1.264234,66.884572
5.6369,-0.019103,0.009583,0.007995,-0.000563,-0.002022,-0.005663,-0.015547,-0.500317,0.006611,1.471879,-263.565285,-1.252137,66.883809
5.6567,-0.019014,0.00975,0.00593,-0.000568,-0.002022,-0.005713,-0.015335,-0.500362,0.00715,1.471879,-263.565285,-1.252137,66.883809
5.6767,-0.01886,0.009907,0.007619,-0.000572,-0.002022,-0.00575,-0.016006,-0.500303,0.005759,1.46836,-263.567384,-1.197092,66.883221
5.6966,-0.019138,0.009644,0.007508,-0.000585,-0.002042,-0.005822,-0.015063,-0.5001,0.007452,1.46836,-263.567384,-1.197092,66.883221
5.7167,-0.019072,0.009997,0.008202,-0.000595,-0.002058,-0.005875,-0.015063,-0.5001,0.007452,1.46836,-263.567384,-1.197092,66.883221
5.7368,-0.018473,0.009287,0.005839,-0.000604,-0.002071,-0.005914,-0.014912,-0.500071,0.007962,1.467788,-263.569607,-1.204078,66.882584
5.7567,-0.01854,0.009716,0.006169,-0.000606,-0.002066,-0.005872,-0.015156,-0.500342,0.007058,1.467788,-263.569607,-1.204078,66.882584
5.777,-0.018519,0.009366,0.004297,-0.000607,-0.002062,-0.005841,-0.015412,-0.50034,0.005981,1.464832,-263.571892,-1.197006,66.881922
5.7969,-0.018224,0.009428,0.005437,-0.000558,-0.001997,-0.005179,-0.016251,-0.500608,0.004431,1.464832,-263.571892,-1.197006,66.881922
5.8169,-0.018358,0.009013,0.007069,-0.000526,-0.001947,-0.004713,-0.016251,-0.500608,0.004431,1.464832,-263.571892,-1.197006,66.881922
5.8366,-0.018376,0.008897,0.006634,-0.000505,-0.001909,-0.004382,-0.014777,-0.50106,0.006826,1.46335,-263.574153,-1.187235,66.881274
5.8568,-0.018871,0.009386,0.006207,-0.000515,-0.001912,-0.004667,-0.014869,-0.501083,0.006718,1.46335,-263.574153,-1.187235,66.881274
5.8769,-0.018197,0.009073,0.006887,-0.000524,-0.001914,-0.00488,-0.015713,-0.500636,0.006133,1.461082,-263.575129,-1.112265,66.88108
5.897,-0.018569,0.009252,0.005458,-0.000536,-0.001927,-0.005048,-0.014775,-0.500892,0.006817,1.461082,-263.575129,-1.112265,66.88108
5.9167,-0.018355,0.009397,0.004947,-0.000546,-0.001937,-0.005173,-0.014775,-0.500892,0.006817,1.461082,-263.575129,-1.112265,66.88108
5.9368,-0.018195,0.009107,0.004055,-0.000554,-0.001944,-0.005264,-0.015854,-0.500677,0.004743,1.464199,-263.577098,-1.114478,66.880604
5.9569,-0.018224,0.009137,0.007031,-0.000523,-0.001903,-0.004764,-0.015969,-0.500774,0.004436,1.464199,-263.577098,-1.114478,66.880604
5.977,-0.018184,0.008822,0.005018,-0.000503,-0.001873,-0.004408,-0.014655,-0.50091,0.006869,1.463765,-263.579107,-1.159541,66.880068
5.9966,-0.018082,0.008798,0.003929,-0.000498,-0.00185,-0.004351,-0.015542,-0.501152,0.005171,1.463765,-263.579107,-1.159541,66.880068
6.0166,-0.018251,0.009111,0.004182,-0.000494,-0.001832,-0.004309,-0.015542,-0.501152,0.005171,1.463765,-263.579107,-1.159541,66.880068
6.0369,-0.018132,0.008947,0.005112,-0.000491,-0.001817,-0.004279,-0.016133,-0.500942,0.004047,1.460973,-263.580449,-1.084587,66.879786
6.057,-0.018251,0.009044,0.003076,-0.00048,-0.001797,-0.004067,-0.015888,-0.500991,0.004463,1.460973,-263.580449,-1.084587,66.879786
6.0769,-0.01766,0.009008,0.005103,-0.000472,-0.001782,-0.003915,-0.016697,-0.501008,0.002948,1.460361,-263.58211,-1.017928,66.879438
6.0969,-0.018412,0.008994,0.004386,-0.000482,-0.001793,-0.003917,-0.015205,-0.50099,0.004905,1.460361,-263.58211,-1.017928,66.879438
6.1167,-0.018318,0.008741,0.003887,-0.00049,-0.001802,-0.003918,-0.015205,-0.50099,0.004905,1.460361,-263.58211,-1.017928,66.879438
6.1368,-0.017998,0.008953,0.003016,-0.000497,-0.001809,-0.003917,-0.016352,-0.501317,0.003749,1.458163,-263.583519,-0.94285,66.879179
6.157,-0.018068,0.009077,0.004518,-0.000459,-0.00176,-0.003492,-0.016399,-0.50121,0.003427,1.458163,-263.583519,-0.94285,66.879179
6.1768,-0.017841,0.008774,0.004228,-0.000433,-0.001722,-0.00319,-0.015778,-0.50097,0.004406,1.452985,-263.585048,-0.867527,66.878902
6.197,-0.017535,0.008551,0.003963,-0.000437,-0.001719,-0.003215,-0.015694,-0.501201,0.004238,1.452985,-263.585048,-0.867527,66.878902
6.2169,-0.017452,0.008801,0.003441,-0.000441,-0.001716,-0.003232,-0.015694,-0.501201,0.004238,1.452985,-263.585048,-0.867527,66.878902
6.2372,-0.017881,0.0086,0.006124,-0.000443,-0.001713,-0.003243,-0.015698,-0.501202,0.003429,1.453392,-263.585178,-0.792851,66.878885
6.2572,-0.018179,0.008135,0.00521,-0.000453,-0.001721,-0.003322,-0.015315,-0.50128,0.004526,1.453392,-263.585178,-0.792851,66.878885
6.2768,-0.018057,0.00871,0.005375,-0.00046,-0.001726,-0.003377,-0.015526,-0.501877,0.005171,1.451365,-263.585718,-0.717829,66.87881
6.2966,-0.017971,0.008648,0.003339,-0.00047,-0.001734,-0.003608,-0.015334,-0.501335,0.005356,1.451365,-263.585718,-0.717829,66.87881
6.3167,-0.017906,0.008499,0.004377,-0.000478,-0.00174,-0.003775,-0.015334,-0.501335,0.005356,1.451365,-263.585718,-0.717829,66.87881
6.337,-0.01775,0.008669,0.003236,-0.000483,-0.001743,-0.003895,-0.015691,-0.501561,0.004252,1.449984,-263.587072,-0.64274,66.878608
6.3569,-0.017584,0.008504,0.003057,-0.000457,-0.001711,-0.003575,-0.015861,-0.501472,0.00382,1.449984,-263.587072,-0.64274,66.878608
6.3765,-0.017608,0.008703,0.003263,-0.000439,-0.001687,-0.003346,-0.016029,-0.50151,0.003023,1.45424,-263.587542,-0.717743,66.878517
6.3969,-0.017495,0.008224,0.005468,-0.000418,-0.001668,-0.003,-0.015951,-0.501314,0.00324,1.45424,-263.587542,-0.717743,66.878517
6.4172,-0.018309,0.008499,0.003269,-0.000404,-0.001655,-0.002753,-0.015951,-0.501314,0.00324,1.45424,-263.587542,-0.717743,66.878517
6.4368,-0.017713,0.008344,0.003043,-0.000397,-0.001646,-0.002577,-0.016659,-0.501567,0.003132,1.453576,-263.589019,-0.682774,66.878295
6.4568,-0.017745,0.008403,0.003977,-0.000377,-0.001611,-0.002404,-0.016456,-0.501611,0.00308,1.453576,-263.589019,-0.682774,66.878295
6.4768,-0.017632,0.008603,0.003771,-0.000364,-0.001584,-0.00228,-0.015717,-0.501593,0.003977,1.448278,-263.589019,-0.607623,66.878295
6.4968,-0.017514,0.008482,0.003559,-0.000379,-0.001598,-0.002403,-0.015709,-0.50141,0.003788,1.448278,-263.589019,-0.607623,66.878295
6.5168,-0.017931,0.008307,0.004266,-0.000391,-0.001609,-0.002489,-0.015709,-0.50141,0.003788,1.448278,-263.589019,-0.607623,66.878295
6.5367,-0.017915,0.008359,0.002924,-0.0004,-0.001617,-0.00255,-0.015755,-0.501689,0.004266,1.449183,-263.589019,-0.532649,66.878295
6.5572,-0.017914,0.008293,0.003069,-0.000397,-0.001604,-0.00257,-0.016032,-0.501668,0.00371,1.449183,-263.589019,-0.532649,66.878295
6.5773,-0.018003,0.008398,0.005509,-0.000395,-0.001594,-0.002583,-0.016349,-0.501704,0.003069,1.445514,-263.58902,-0.45764,66.878294
6.5974,-0.017743,0.007967,0.003243,-0.000415,-0.00162,-0.002967,-0.015293,-0.501604,0.005297,1.445514,-263.58902,-0.45764,66.878294
6.617,-0.017988,0.008607,0.002608,-0.00043,-0.00164,-0.00325,-0.015293,-0.501604,0.005297,1.445514,-263.58902,-0.45764,66.878294
6.6369,-0.017703,0.008558,0.005964,-0.000441,-0.001654,-0.003456,-0.016659,-0.501392,0.002606,1.446848,-263.58904,-0.382684,66.878292
6.6573,-0.018048,0.008408,0.003943,-0.000433,-0.001648,-0.003274,-0.015837,-0.501409,0.003986,1.446848,-263.58904,-0.382684,66.878292
6.6769,-0.017878,0.008339,0.002862,-0.000428,-0.001645,-0.003143,-0.016038,-0.501591,0.003937,1.454117,-263.589123,-0.457721,66.878278
6.6968,-0.017697,0.008173,0.00501,-0.000395,-0.001608,-0.002725,-0.016386,-0.501653,0.002952,1.454117,-263.589123,-0.457721,66.878278
6.717,-0.017665,0.008198,0.003311,-0.000372,-0.001581,-0.002426,-0.016386,-0.501653,0.002952,1.454117,-263.589123,-0.457721,66.878278
6.7366,-0.017471,0.008806,0.004318,-0.000357,-0.00156,-0.002211,-0.015991,-0.501855,0.003205,1.451349,-263.590289,-0.532756,66.878113
6.7568,-0.017403,0.00826,0.00418,-0.000368,-0.001571,-0.002278,-0.015696,-0.501588,0.003649,1.451349,-263.590289,-0.532756,66.878113
6.7765,-0.018,0.008226,0.005264,-0.000377,-0.00158,-0.002326,-0.015271,-0.501736,0.00418,1.448617,-263.590289,-0.457769,66.878113
6.797,-0.017693,0.00851,0.003342,-0.000397,-0.0016,-0.002729,-0.015312,-0.501765,0.005167,1.448617,-263.590289,-0.457769,66.878113
6.817,-0.017709,0.008749,0.004616,-0.000411,-0.001615,-0.003026,-0.015312,-0.501765,0.005167,1.448617,-263.590289,-0.457769,66.878113
6.8371,-0.017582,0.008174,0.002677,-0.000422,-0.001626,-0.003244,-0.015355,-0.501245,0.004616,1.445749,-263.590289,-0.382921,66.878113
6.8574,-0.017916,0.008341,0.003613,-0.000417,-0.001625,-0.003055,-0.015702,-0.501478,0.003836,1.445749,-263.590289,-0.382921,66.878113
6.8768,-0.017522,0.008479,0.003784,-0.000414,-0.001625,-0.002918,-0.016077,-0.501667,0.003593,1.454366,-263.59057,-0.457873,66.87807
6.8971,-0.01779,0.008429,0.00548,-0.000413,-0.001625,-0.002799,-0.015636,-0.501531,0.003766,1.454366,-263.59057,-0.457873,66.87807
6.9173,-0.018209,0.008235,0.003435,-0.000412,-0.001626,-0.002713,-0.015636,-0.501531,0.003766,1.454366,-263.59057,-0.457873,66.87807
6.9372,-0.017502,0.008224,0.003014,-0.000413,-0.001627,-0.002651,-0.016472,-0.501821,0.003329,1.449768,-263.591757,-0.382813,66.877917
6.9574,-0.017532,0.008189,0.004459,-0.00039,-0.001593,-0.002436,-0.016268,-0.501809,0.003189,1.449768,-263.591757,-0.382813,66.877917
6.9771,-0.017543,0.007999,0.00461,-0.000375,-0.001566,-0.002284,-0.015258,-0.50181,0.004453,1.444368,-263.59185,-0.30784,66.877905
6.9969,-0.017498,0.008431,0.004855,-0.00039,-0.001579,-0.002552,-0.015198,-0.501979,0.004595,1.444368,-263.59185,-0.30784,66.877905
7.0169,-0.017455,0.008461,0.004337,-0.000401,-0.001587,-0.002747,-0.015198,-0.501979,0.004595,1.444368,-263.59185,-0.30784,66.877905
7.0368,-0.017344,0.008396,0.002886,-0.000408,-0.001592,-0.002889,-0.015243,-0.501534,0.004337,1.444967,-263.59185,-0.23284,66.877905
7.0572,-0.01801,0.00835,0.003599,-0.000408,-0.0016,-0.002762,-0.015504,-0.501562,0.003735,1.444967,-263.59185,-0.23284,66.877905
7.0765,-0.017657,0.008212,0.003602,-0.000409,-0.001606,-0.002671,-0.016182,-0.501679,0.003541,1.449731,-263.592713,-0.308126,66.877792
7.0969,-0.017746,0.008477,0.002458,-0.0004,-0.001592,-0.002568,-0.015853,-0.501777,0.003594,1.449731,-263.592713,-0.308126,66.877792
7.1173,-0.017611,0.008305,0.003403,-0.000393,-0.001581,-0.002496,-0.015853,-0.501777,0.003594,1.449731,-263.592713,-0.308126,66.877792
7.1374,-0.017759,0.008306,0.004144,-0.000389,-0.001572,-0.002444,-0.015881,-0.501717,0.003361,1.445184,-263.593198,-0.233417,66.877731
7.1572,-0.017833,0.008256,0.002741,-0.000389,-0.001571,-0.002429,-0.015787,-0.501709,0.00367,1.445184,-263.593198,-0.233417,66.877731
7.1769,-0.017642,0.008227,0.003729,-0.000389,-0.001571,-0.002418,-0.016436,-0.501744,0.002737,1.444662,-263.593252,-0.158405,66.877724
7.1967,-0.01755,0.007917,0.002275,-0.000388,-0.001567,-0.002405,-0.015796,-0.501767,0.00365,1.444662,-263.593252,-0.158405,66.877724
7.2167,-0.017375,0.008487,0.003522,-0.000387,-0.001564,-0.002396,-0.015796,-0.501767,0.00365,1.444662,-263.593252,-0.158405,66.877724
7.2366,-0.017814,0.008105,0.00314,-0.000386,-0.001562,-0.002389,-0.01558,-0.501515,0.003514,1.443874,-263.593346,-0.083066,66.877712
7.257,-0.017478,0.008324,0.002851,-0.000383,-0.00156,-0.002298,-0.01584,-0.50167,0.003359,1.443874,-263.593346,-0.083066,66.877712
7.2765,-0.018004,0.007751,0.003763,-0.000381,-0.00156,-0.002233,-0.016026,-0.501681,0.002839,1.443634,-263.593526,-0.008232,66.877688
7.2967,-0.017822,0.008547,0.002969,-0.000372,-0.001531,-0.002286,-0.01608,-0.502194,0.003678,1.443634,-263.593526,-0.008232,66.877688
7.3168,-0.017464,0.008013,0.004453,-0.000363,-0.001508,-0.002323,-0.01608,-0.502194,0.003678,1.443634,-263.593526,-0.008232,66.877688
7.3366,-0.018009,0.007989,0.002986,-0.000356,-0.001489,-0.00235,-0.015193,-0.501983,0.004451,1.441109,-263.59355,0.066587,66.877685
7.3572,-0.017365,0.008326,0.003101,-0.000359,-0.001494,-0.002414,-0.015719,-0.501994,0.003855,1.441109,-263.59355,0.066587,66.877685
7.3766,-0.017795,0.007852,0.004518,-0.000361,-0.001497,-0.002461,-0.015794,-0.501714,0.003034,1.449796,-263.594605,0.141611,66.877556
7.3972,-0.018168,0.008238,0.003521,-0.000369,-0.001504,-0.00263,-0.015518,-0.502108,0.004384,1.449796,-263.594605,0.141611,66.877556
7.417,-0.017824,0.007993,0.004755,-0.000373,-0.001508,-0.002753,-0.015518,-0.502108,0.004384,1.449796,-263.594605,0.141611,66.877556
7.4369,-0.017576,0.008228,0.002127,-0.000375,-0.001511,-0.002841,-0.015408,-0.502043,0.004687,1.450911,-263.595414,0.066491,66.877459
7.4573,-0.017339,0.008269,0.003285,-0.000367,-0.001505,-0.002701,-0.01585,-0.501937,0.003639,1.450911,-263.595414,0.066491,66.877459
7.4767,-0.017157,0.008444,0.002662,-0.000361,-0.001502,-0.002602,-0.015664,-0.501729,0.003285,1.455657,-263.595417,-0.008364,66.877459
7.4969,-0.017524,0.008253,0.003302,-0.000347,-0.001511,-0.002237,-0.015787,-0.501571,0.002721,1.455657,-263.595417,-0.008364,66.877459
7.5172,-0.017637,0.008038,0.004896,-0.00034,-0.001521,-0.001981,-0.015787,-0.501571,0.002721,1.455657,-263.595417,-0.008364,66.877459
7.5371,-0.017648,0.008126,0.002025,-0.000339,-0.00153,-0.001801,-0.015147,-0.501984,0.00485,1.454663,-263.595957,-0.083366,66.877395
7.5568,-0.017453,0.007811,0.002743,-0.000349,-0.001529,-0.001961,-0.015774,-0.50194,0.003641,1.454663,-263.595957,-0.083366,66.877395
7.5772,-0.017448,0.008138,0.003176,-0.000356,-0.001528,-0.002076,-0.016054,-0.502187,0.002743,1.442502,-263.595957,-0.007678,66.877395
7.5971,-0.017314,0.007906,0.003383,-0.000352,-0.001521,-0.002004,-0.015855,-0.501899,0.003125,1.442502,-263.595957,-0.007678,66.877395
7.6171,-0.017553,0.007906,0.004148,-0.00035,-0.001516,-0.001954,-0.015855,-0.501899,0.003125,1.442502,-263.595957,-0.007678,66.877395
7.6369,-0.017337,0.007921,0.002709,-0.000349,-0.001512,-0.001918,-0.015437,-0.502089,0.004148,1.444316,-263.595958,0.06663,66.877394
7.6567,-0.017623,0.008122,0.003476,-0.000354,-0.001509,-0.002023,-0.015651,-0.502085,0.003554,1.444316,-263.595958,0.06663,66.877394
7.677,-0.01733,0.008203,0.003406,-0.000357,-0.001507,-0.002098,-0.01585,-0.501875,0.003476,1.441355,-263.595958,0.141774,66.877394
7.6969,-0.017354,0.007677,0.003043,-0.000363,-0.001517,-0.002108,-0.015616,-0.501801,0.003412,1.441355,-263.595958,0.141774,66.877394
7.7174,-0.017363,0.008201,0.003712,-0.000368,-0.001526,-0.002115,-0.015616,-0.501801,0.003412,1.441355,-263.595958,0.141774,66.877394
7.7369,-0.017298,0.007617,0.004318,-0.000372,-0.001533,-0.002121,-0.015471,-0.501799,0.003707,1.443463,-263.596018,0.216628,66.877385
7.7572,-0.017746,0.007959,0.003277,-0.000381,-0.00154,-0.002276,-0.01532,-0.502033,0.003953,1.443463,-263.596018,0.216628,66.877385
7.7765,-0.01755,0.008225,0.002185,-0.000387,-0.001545,-0.002387,-0.016076,-0.502045,0.003268,1.439899,-263.59617,0.291631,66.877362
7.797,-0.017628,0.008268,0.003219,-0.000351,-0.001518,-0.001935,-0.016405,-0.501798,0.002278,1.439899,-263.59617,0.291631,66.877362
7.8169,-0.017617,0.007865,0.002038,-0.000327,-0.001498,-0.001617,-0.016405,-0.501798,0.002278,1.439899,-263.59617,0.291631,66.877362
7.8372,-0.017503,0.007789,0.002224,-0.000312,-0.001483,-0.001394,-0.016593,-0.502194,0.001946,1.442459,-263.597284,0.220128,66.877216
7.8572,-0.017298,0.007948,0.002866,-0.000287,-0.001449,-0.001154,-0.016504,-0.502207,0.002048,1.442459,-263.597284,0.220128,66.877216
7.8772,-0.017199,0.007953,0.001708,-0.00027,-0.001421,-0.000986,-0.015836,-0.50205,0.002866,1.43806,-263.597284,0.294997,66.877216
7.8971,-0.017391,0.00798,0.003357,-0.000256,-0.001411,-0.000771,-0.016286,-0.502047,0.001808,1.43806,-263.597284,0.294997,66.877216
7.9171,-0.01722,0.007835,0.002577,-0.000248,-0.001404,-0.00062,-0.016286,-0.502047,0.001808,1.43806,-263.597284,0.294997,66.877216
7.9371,-0.017569,0.007813,0.002354,-0.000244,-0.001398,-0.000514,-0.015906,-0.502163,0.002577,1.438371,-263.597284,0.370127,66.877216
7.9573,-0.017554,0.007825,0.002608,-0.000256,-0.001397,-0.000692,-0.016096,-0.502172,0.002486,1.438371,-263.597284,0.370127,66.877216
7.9769,-0.017041,0.008032,0.003783,-0.000265,-0.001396,-0.000818,-0.016224,-0.502173,0.002608,1.429471,-263.597285,0.445185,66.877216
7.997,-0.017778,0.007992,0.00414,-0.000302,-0.001438,-0.001261,-0.015208,-0.501983,0.003681,1.429471,-263.597285,0.445185,66.877216
8.017,-0.017346,0.007748,0.002789,-0.00033,-0.001469,-0.001582,-0.015208,-0.501983,0.003681,1.429471,-263.597285,0.445185,66.877216
8.0368,-0.017619,0.007932,0.003343,-0.000351,-0.001493,-0.001814,-0.015923,-0.50225,0.002789,1.431952,-263.597285,0.520112,66.877215
8.0568,-0.017512,0.008169,0.00224,-0.000344,-0.001477,-0.001788,-0.015919,-0.502175,0.003016,1.431952,-263.597285,0.520112,66.877215
8.0769,-0.017565,0.007738,0.002167,-0.000339,-0.001464,-0.00177,-0.016372,-0.501839,0.002228,1.436516,-263.597502,0.595117,66.877172
8.0966,-0.017402,0.007889,0.003029,-0.000308,-0.001431,-0.001467,-0.016452,-0.502226,0.002172,1.436516,-263.597502,0.595117,66.877172
8.1169,-0.017654,0.008114,0.002461,-0.000287,-0.001407,-0.001254,-0.016452,-0.502226,0.002172,1.436516,-263.597502,0.595117,66.877172
8.1367,-0.01721,0.008032,0.003022,-0.000271,-0.001387,-0.001104,-0.016405,-0.501906,0.002433,1.438503,-263.597871,0.670176,66.877099
8.1566,-0.017579,0.00778,0.001179,-0.00028,-0.001399,-0.001171,-0.016106,-0.501933,0.00267,1.438503,-263.597871,0.670176,66.877099
8.177,-0.017528,0.007934,0.004505,-0.000287,-0.001408,-0.001219,-0.016978,-0.50222,0.001179,1.440023,-263.597877,0.745029,66.877097
8.1968,-0.01738,0.007765,0.002332,-0.000317,-0.001441,-0.001686,-0.015379,-0.502074,0.004223,1.440023,-263.597877,0.745029,66.877097
8.217,-0.017558,0.007875,0.003333,-0.00034,-0.001465,-0.002028,-0.015379,-0.502074,0.004223,1.440023,-263.597877,0.745029,66.877097
8.2366,-0.017712,0.008,0.003419,-0.000356,-0.001483,-0.002277,-0.015859,-0.502125,0.003329,1.438044,-263.597927,0.820166,66.87708
8.2566,-0.017774,0.008171,0.003276,-0.000351,-0.001475,-0.002223,-0.015904,-0.502073,0.003366,1.438044,-263.597927,0.820166,66.87708
8.2765,-0.01742,0.008112,0.003124,-0.000346,-0.001469,-0.002185,-0.016103,-0.501826,0.003276,1.447429,-263.597932,0.745167,66.877079
8.2971,-0.017622,0.007806,0.002683,-0.000343,-0.001472,-0.002085,-0.01585,-0.50188,0.003137,1.447429,-263.597932,0.745167,66.877079
8.3168,-0.017431,0.008019,0.003768,-0.000342,-0.001476,-0.002015,-0.01585,-0.50188,0.003137,1.447429,-263.597932,0.745167,66.877079
8.3366,-0.017664,0.007896,0.002511,-0.000342,-0.00148,-0.001965,-0.015511,-0.501983,0.003759,1.447903,-263.598044,0.670172,66.877065
8.3568,-0.017555,0.008043,0.002999,-0.000341,-0.001476,-0.001965,-0.015869,-0.502033,0.003246,1.447903,-263.598044,0.670172,66.877065
8.3767,-0.017358,0.008057,0.003133,-0.000341,-0.001473,-0.001965,-0.016036,-0.502002,0.002937,1.443806,-263.599122,0.685266,66.876888
8.397,-0.017221,0.00816,0.003083,-0.000341,-0.001476,-0.001923,-0.015784,-0.501948,0.003113,1.443806,-263.599122,0.685266,66.876888
8.4167,-0.017512,0.007979,0.002055,-0.000341,-0.001479,-0.001894,-0.015784,-0.501948,0.003113,1.443806,-263.599122,0.685266,66.876888
8.4366,-0.01719,0.008009,0.001592,-0.000342,-0.001481,-0.001873,-0.016478,-0.502081,0.001973,1.444075,-263.600196,0.675532,66.876714
8.4566,-0.017315,0.00778,0.002801,-0.000303,-0.001452,-0.001392,-0.016439,-0.502051,0.001807,1.444075,-263.600196,0.675532,66.876714
8.4767,-0.017358,0.008198,0.002271,-0.000276,-0.001431,-0.001054,-0.015895,-0.502258,0.002751,1.441268,-263.601091,0.750359,66.876552
8.4967,-0.017187,0.007566,0.003253,-0.000278,-0.001434,-0.001008,-0.016173,-0.501843,0.002311,1.441268,-263.601091,0.750359,66.876552
8.5167,-0.017442,0.00765,0.001956,-0.000281,-0.001438,-0.000976,-0.016173,-0.501843,0.002311,1.441268,-263.601091,0.750359,66.876552
8.5366,-0.017413,0.0076,0.002833,-0.000283,-0.00144,-0.000955,-0.016445,-0.50235,0.001954,1.438387,-263.601108,0.825431,66.876545
8.5568,-0.017373,0.008229,0.003612,-0.000275,-0.001415,-0.000948,-0.016246,-0.50237,0.002321,1.438387,-263.601108,0.825431,66.876545
8.5767,-0.017049,0.007686,0.002049,-0.000268,-0.001394,-0.000944,-0.015531,-0.50177,0.003611,1.431725,-263.601149,0.900605,66.876527
8.5966,-0.017295,0.00802,0.003157,-0.000265,-0.001389,-0.000888,-0.015964,-0.502266,0.002182,1.431725,-263.601149,0.900605,66.876527
8.6169,-0.017736,0.007791,0.003922,-0.000263,-0.001384,-0.000849,-0.015964,-0.502266,0.002182,1.431725,-263.601149,0.900605,66.876527
8.6369,-0.017191,0.007563,0.001795,-0.000261,-0.001381,-0.000822,-0.015738,-0.502213,0.003917,1.43549,-263.601252,0.975512,66.876482
8.6566,-0.01733,0.007778,0.002445,-0.000276,-0.001384,-0.001092,-0.01596,-0.502306,0.003041,1.43549,-263.601252,0.975512,66.876482
8.6767,-0.01751,0.007505,0.001367,-0.000285,-0.001385,-0.001286,-0.016085,-0.50223,0.002439,1.432912,-263.601418,1.050511,66.876403
8.6966,-0.017069,0.007417,0.002681,-0.000243,-0.001346,-0.000837,-0.016754,-0.502474,0.001454,1.432912,-263.601418,1.050511,66.876403
8.7166,-0.017147,0.007694,0.002968,-0.000213,-0.001315,-0.000521,-0.016754,-0.502474,0.001454,1.432912,-263.601418,1.050511,66.876403
8.7369,-0.017339,0.007778,0.00226,-0.000192,-0.001291,-0.000299,-0.015644,-0.502357,0.002919,1.440157,-263.602212,1.125627,66.876162
8.7567,-0.016864,0.007535,0.005958,-0.000217,-0.001311,-0.000588,-0.015866,-0.502307,0.002645,1.440157,-263.602212,1.125627,66.876162
8.777,-0.017019,0.007478,0.002262,-0.000236,-0.001326,-0.000795,-0.013829,-0.502468,0.005955,1.440919,-263.602389,1.200351,66.876027
8.7974,-0.017347,0.00797,0.002982,-0.000245,-0.001331,-0.000923,-0.015689,-0.502516,0.002581,1.440919,-263.602389,1.200351,66.876027
8.8169,-0.017339,0.0075,0.001949,-0.000252,-0.001334,-0.001014,-0.015689,-0.502516,0.002581,1.440919,-263.602389,1.200351,66.876027
8.8369,-0.017404,0.007377,0.001871,-0.000257,-0.001336,-0.001079,-0.016354,-0.502546,0.001921,1.441452,-263.603018,1.275467,66.875727
8.857,-0.017089,0.007615,0.003278,-0.000235,-0.001312,-0.000877,-0.016394,-0.502583,0.001897,1.441452,-263.603018,1.275467,66.875727
8.8766,-0.017382,0.007285,0.002473,-0.00022,-0.001293,-0.000735,-0.015425,-0.502422,0.003246,1.442692,-263.603766,1.208179,66.875458
8.8975,-0.01757,0.007551,0.002275,-0.000224,-0.001285,-0.000868,-0.016063,-0.502691,0.002536,1.442692,-263.603766,1.208179,66.875458
8.9173,-0.017363,0.007406,0.002454,-0.000226,-0.001279,-0.000963,-0.016063,-0.502691,0.002536,1.442692,-263.603766,1.208179,66.875458
8.9371,-0.017305,0.007458,0.003202,-0.000227,-0.001273,-0.00103,-0.01612,-0.502637,0.002428,1.445098,-263.604349,1.283202,66.875168
8.9567,-0.017113,0.007803,0.002775,-0.000234,-0.001277,-0.001144,-0.015941,-0.502603,0.002735,1.445098,-263.604349,1.283202,66.875168
8.9767,-0.017041,0.007346,0.001865,-0.000238,-0.001279,-0.001225,-0.015705,-0.502234,0.002744,1.451957,-263.605082,1.231385,66.874907
8.9966,-0.017169,0.00735,0.001129,-0.000221,-0.001271,-0.000995,-0.016057,-0.502619,0.001939,1.451957,-263.605082,1.231385,66.874907
9.0168,-0.017366,0.007559,0.002934,-0.000209,-0.001266,-0.000833,-0.016057,-0.502619,0.001939,1.451957,-263.605082,1.231385,66.874907
9.037,-0.017298,0.007284,0.00202,-0.000202,-0.001262,-0.000718,-0.015879,-0.502487,0.002888,1.45403,-263.605817,1.156366,66.874697
9.0567,-0.017458,0.007235,0.002828,-0.000211,-0.001266,-0.000851,-0.01604,-0.502587,0.002524,1.45403,-263.605817,1.156366,66.874697
9.0767,-0.017197,0.007381,0.001674,-0.000217,-0.001269,-0.000946,-0.016021,-0.502788,0.002813,1.45258,-263.606237,1.231414,66.874489
9.0969,-0.017631,0.007233,0.003339,-0.0002,-0.001256,-0.000735,-0.016315,-0.502635,0.001776,1.45258,-263.606237,1.231414,66.874489
9.1169,-0.017389,0.007436,0.002243,-0.000188,-0.001246,-0.000586,-0.016315,-0.502635,0.001776,1.45258,-263.606237,1.231414,66.874489
9.1366,-0.017513,0.007557,0.001729,-0.000181,-0.001239,-0.00048,-0.016254,-0.502615,0.002204,1.453643,-263.606968,1.266066,66.874204
9.1568,-0.017183,0.007121,0.002129,-0.000182,-0.001237,-0.000494,-0.016412,-0.502549,0.002002,1.453643,-263.606968,1.266066,66.874204
9.1766,-0.016974,0.007045,0.000932,-0.000183,-0.001235,-0.000505,-0.016103,-0.50291,0.002116,1.45335,-263.607466,1.341269,66.873894
9.1966,-0.016888,0.007135,0.004325,-0.000148,-0.001203,-9.8e-05,-0.016464,-0.502953,0.001034,1.45335,-263.607466,1.341269,66.873894
9.2166,-0.017568,0.007426,0.002112,-0.000125,-0.001178,0.000189,-0.016464,-0.502953,0.001034,1.45335,-263.607466,1.341269,66.873894
9.2367,-0.017304,0.007383,0.001934,-0.00011,-0.001158,0.000392,-0.016499,-0.502623,0.002091,1.452872,-263.608075,1.375991,66.873524
9.2566,-0.017349,0.007034,0.000815,-0.000131,-0.001167,0.000122,-0.016426,-0.502626,0.002025,1.452872,-263.608075,1.375991,66.873524
9.2768,-0.017382,0.007273,0.002423,-0.000145,-0.001173,-7.2e-05,-0.016937,-0.502995,0.000825,1.451618,-263.608373,1.450943,66.873072
9.2971,-0.017431,0.006571,0.002122,-0.00016,-0.001178,-0.000306,-0.016214,-0.50275,0.002287,1.451618,-263.608373,1.450943,66.873072
9.3169,-0.017438,0.007332,0.001785,-0.00017,-0.001181,-0.000473,-0.016214,-0.50275,0.002287,1.451618,-263.608373,1.450943,66.873072
9.3366,-0.01761,0.007128,0.002866,-0.000177,-0.001183,-0.000593,-0.016534,-0.502716,0.001782,1.451996,-263.608863,1.442869,66.872617
9.3568,-0.017167,0.007272,0.001247,-0.000177,-0.001178,-0.000659,-0.016375,-0.502785,0.00223,1.451996,-263.608863,1.442869,66.872617
9.3767,-0.017243,0.007097,0.002841,-0.000176,-0.001174,-0.000706,-0.016536,-0.502761,0.00123,1.456968,-263.609417,1.36783,66.872318
9.3968,-0.016998,0.006776,0.002742,-0.000188,-0.001181,-0.000899,-0.015862,-0.50289,0.002693,1.456968,-263.609417,1.36783,66.872318
9.4168,-0.017391,0.00694,0.003185,-0.000195,-0.001186,-0.001036,-0.015862,-0.50289,0.002693,1.456968,-263.609417,1.36783,66.872318
9.4369,-0.017493,0.006723,0.00466,-0.000199,-0.00119,-0.001134,-0.015774,-0.503106,0.003156,1.461363,-263.610054,1.337756,66.872017
9.457,-0.017389,0.007016,0.003046,-0.000214,-0.001196,-0.001518,-0.015507,-0.503179,0.003766,1.461363,-263.610054,1.337756,66.872017
9.4772,-0.017249,0.006964,0.001385,-0.000224,-0.001199,-0.001797,-0.01584,-0.503009,0.003021,1.465309,-263.610587,1.262681,66.871866
9.4968,-0.017535,0.006541,0.002372,-0.000175,-0.001168,-0.001223,-0.016481,-0.503035,0.001528,1.465309,-263.610587,1.262681,66.871866
9.5168,-0.01749,0.006826,0.002279,-0.000142,-0.001144,-0.00082,-0.016481,-0.503035,0.001528,1.465309,-263.610587,1.262681,66.871866
9.5368,-0.017435,0.006963,0.003204,-0.000119,-0.001126,-0.000537,-0.016327,-0.503172,0.002279,1.47368,-263.610587,1.187651,66.871866
9.5571,-0.017428,0.007156,0.000842,-0.000133,-0.001128,-0.000762,-0.016114,-0.503116,0.002653,1.47368,-263.610587,1.187651,66.871866
9.5768,-0.017237,0.006606,0.002937,-0.000143,-0.001129,-0.000923,-0.017001,-0.502858,0.000835,1.488834,-263.610826,1.262565,66.871734
9.5969,-0.017219,0.006704,0.002209,-0.000149,-0.001123,-0.001072,-0.015849,-0.503346,0.002754,1.488834,-263.610826,1.262565,66.871734
9.617,-0.017665,0.006939,0.001782,-0.000153,-0.001118,-0.001179,-0.015849,-0.503346,0.002754,1.488834,-263.610826,1.262565,66.871734
9.6366,-0.017186,0.006985,0.001502,-0.000155,-0.001114,-0.001255,-0.016761,-0.503105,0.001745,1.486583,-263.611467,1.323227,66.871514
9.6566,-0.017121,0.006915,0.003388,-0.000127,-0.001098,-0.000894,-0.016621,-0.503073,0.001641,1.486583,-263.611467,1.323227,66.871514
9.6768,-0.017213,0.006937,0.002249,-0.000108,-0.001086,-0.000641,-0.015395,-0.503104,0.003363,1.488512,-263.611935,1.248222,66.871419
9.6968,-0.016778,0.006326,0.001415,-0.000119,-0.001098,-0.000729,-0.01601,-0.503067,0.002341,1.488512,-263.611935,1.248222,66.871419
9.7167,-0.017246,0.006577,0.001754,-0.000127,-0.001106,-0.000793,-0.01601,-0.503067,0.002341,1.488512,-263.611935,1.248222,66.871419
9.7369,-0.017048,0.006735,0.001072,-0.000133,-0.001113,-0.000839,-0.016355,-0.503451,0.001737,1.497581,-263.61231,1.323261,66.871241
9.7569,-0.017028,0.006473,0.003451,-0.000106,-0.001087,-0.000528,-0.016415,-0.503378,0.001464,1.497581,-263.61231,1.323261,66.871241
9.7768,-0.01749,0.006996,0.002518,-8.8e-05,-0.001066,-0.000309,-0.015272,-0.503559,0.003425,1.489257,-263.612953,1.353236,66.870999
9.797,-0.017161,0.006832,0.002401,-0.00011,-0.001082,-0.000582,-0.016122,-0.503055,0.002598,1.489257,-263.612953,1.353236,66.870999
9.8171,-0.017471,0.006312,0.001146,-0.000125,-0.001095,-0.000778,-0.016122,-0.503055,0.002598,1.489257,-263.612953,1.353236,66.870999
9.8366,-0.017236,0.006411,0.002634,-0.000136,-0.001104,-0.000918,-0.01689,-0.503723,0.001136,1.501047,-263.613356,1.428225,66.870716
9.8566,-0.017255,0.006527,0.001374,-0.000111,-0.001063,-0.000714,-0.016469,-0.50367,0.001767,1.501047,-263.613356,1.428225,66.870716
9.8769,-0.017069,0.006875,0.002765,-9.2e-05,-0.001032,-0.000571,-0.016558,-0.503502,0.001349,1.489036,-263.613916,1.352825,66.870528
9.8972,-0.017398,0.006556,0.0029,-0.000113,-0.001058,-0.000785,-0.015734,-0.503156,0.002646,1.489036,-263.613916,1.352825,66.870528
9.917,-0.017322,0.006262,0.001338,-0.000129,-0.001078,-0.000938,-0.015734,-0.503156,0.002646,1.489036,-263.613916,1.352825,66.870528
9.937,-0.017251,0.006398,0.001773,-0.00014,-0.001094,-0.001047,-0.016643,-0.503776,0.001317,1.504364,-263.614409,1.427624,66.870283
9.9573,-0.017138,0.006825,0.002796,-0.000104,-0.00105,-0.000694,-0.01652,-0.503708,0.001505,1.504364,-263.614409,1.427624,66.870283
9.9773,-0.016993,0.006921,0.001787,-7.8e-05,-0.001016,-0.000446,-0.015715,-0.503197,0.002773,1.490065,-263.614876,1.352549,66.870155
9.9969,-0.016929,0.006279,0.003575,-8.5e-05,-0.001036,-0.000427,-0.016039,-0.503094,0.0019,1.490065,-263.614876,1.352549,66.870155
10.0169,-0.016935,0.006646,0.002398,-9.2e-05,-0.001052,-0.000414,-0.016039,-0.503094,0.0019,1.490065,-263.614876,1.352549,66.870155
10.0368,-0.017111,0.00598,0.004124,-9.7e-05,-0.001064,-0.000406,-0.015715,-0.503387,0.002383,1.51054,-263.615292,1.42731,66.869914
10.0569,-0.017171,0.006444,0.003132,-0.000119,-0.00107,-0.000804,-0.01543,-0.503645,0.003084,1.51054,-263.615292,1.42731,66.869914
10.0768,-0.017149,0.00611,0.002005,-0.000134,-0.001074,-0.001091,-0.015576,-0.503587,0.00312,1.496673,-263.615812,1.452032,66.869589
10.0967,-0.017256,0.006869,0.001586,-0.000114,-0.001039,-0.000966,-0.01608,-0.503865,0.0021,1.496673,-263.615812,1.452032,66.869589
10.1169,-0.016972,0.006542,0.002581,-9.9e-05,-0.001011,-0.000877,-0.01608,-0.503865,0.0021,1.496673,-263.615812,1.452032,66.869589
10.1369,-0.016952,0.006427,0.001159,-8.8e-05,-0.000989,-0.000815,-0.015658,-0.50348,0.002557,1.494111,-263.616181,1.376882,66.869498
10.157,-0.01679,0.0066,0.001571,-8.3e-05,-0.000992,-0.000724,-0.015945,-0.50352,0.001984,1.494111,-263.616181,1.376882,66.869498
10.1767,-0.017341,0.006259,0.001647,-8.1e-05,-0.000995,-0.00066,-0.015992,-0.503431,0.001545,1.511799,-263.616772,1.393848,66.8693
10.197,-0.01692,0.006422,0.001006,-6.3e-05,-0.000973,-0.000479,-0.016458,-0.503715,0.001637,1.511799,-263.616772,1.393848,66.8693
10.217,-0.017041,0.006131,0.002962,-5e-05,-0.000956,-0.000351,-0.016458,-0.503715,0.001637,1.511799,-263.616772,1.393848,66.8693
10.2368,-0.017299,0.006444,0.000638,-4.1e-05,-0.000942,-0.00026,-0.015533,-0.503907,0.002935,1.512894,-263.617318,1.434755,66.869067
10.2566,-0.017139,0.005911,0.002374,-4.6e-05,-0.000938,-0.000334,-0.016126,-0.503768,0.001987,1.512894,-263.617318,1.434755,66.869067
10.2765,-0.017166,0.006359,0.002112,-4.8e-05,-0.000935,-0.000387,-0.015929,-0.504114,0.002367,1.533217,-263.617709,1.509719,66.868789
10.2972,-0.017051,0.006384,0.00251,-5.5e-05,-0.000938,-0.000479,-0.016074,-0.503685,0.002135,1.533217,-263.617709,1.509719,66.868789
10.3169,-0.016911,0.006402,0.000136,-6e-05,-0.000941,-0.000545,-0.016074,-0.503685,0.002135,1.533217,-263.617709,1.509719,66.868789
10.337,-0.016599,0.006214,0.002492,-6.3e-05,-0.000943,-0.000592,-0.016843,-0.503637,0.00012,1.529685,-263.618177,1.501918,66.868509
10.3567,-0.017155,0.00643,0.002344,-3.5e-05,-0.000934,-0.000181,-0.016228,-0.503701,0.001081,1.529685,-263.618177,1.501918,66.868509
10.3774,-0.016993,0.005808,0.001813,-1.8e-05,-0.000926,0.00011,-0.015961,-0.503598,0.002326,1.522714,-263.618688,1.463316,66.868281
10.397,-0.017169,0.005991,0.001273,-2.1e-05,-0.000906,-2e-05,-0.016059,-0.504142,0.001857,1.522714,-263.618688,1.463316,66.868281
10.4172,-0.01709,0.00615,0.001597,-2.2e-05,-0.000889,-0.000113,-0.016059,-0.504142,0.001857,1.522714,-263.618688,1.463316,66.868281
10.437,-0.016997,0.006007,0.001654,-2.2e-05,-0.000875,-0.000179,-0.016277,-0.503883,0.001601,1.549944,-263.618986,1.538464,66.867936
10.4571,-0.016873,0.005942,0.00347,-1.8e-05,-0.00087,-0.000132,-0.016227,-0.503931,0.001623,1.549944,-263.618986,1.538464,66.867936
10.4767,-0.016873,0.006316,0.002434,-1.5e-05,-0.000865,-9.8e-05,-0.015104,-0.504083,0.003465,1.548044,-263.619381,1.541554,66.867629
10.4966,-0.016584,0.005822,0.001565,-4.2e-05,-0.000896,-0.000406,-0.015587,-0.503718,0.002521,1.548044,-263.619381,1.541554,66.867629
10.5168,-0.016854,0.006004,0.001801,-6.1e-05,-0.000919,-0.000626,-0.015587,-0.503718,0.002521,1.548044,-263.619381,1.541554,66.867629
10.5368,-0.016847,0.005617,0.001967,-7.5e-05,-0.000937,-0.000783,-0.015936,-0.504031,0.001797,1.554371,-263.619752,1.551926,66.867306
10.5567,-0.016694,0.006012,0.000963,-5.9e-05,-0.000913,-0.000659,-0.015897,-0.504185,0.001869,1.554371,-263.619752,1.551926,66.867306
10.5778,-0.017135,0.005758,0.003078,-4.6e-05,-0.000894,-0.000571,-0.016205,-0.504009,0.000945,1.518007,-263.62015,1.47655,66.867175
10.5968,-0.017124,0.006027,0.000521,-5.8e-05,-0.000891,-0.000851,-0.015638,-0.504215,0.002835,1.518007,-263.62015,1.47655,66.867175
10.6169,-0.016809,0.006132,0.000819,-6.5e-05,-0.000887,-0.00105,-0.015638,-0.504215,0.002835,1.518007,-263.62015,1.47655,66.867175
10.6368,-0.016708,0.006119,0.000669,-6.9e-05,-0.000883,-0.001193,-0.016393,-0.503905,0.000796,1.533442,-263.620644,1.485769,66.866958
10.6568,-0.016838,0.005713,0.000381,-1.5e-05,-0.00087,-0.000433,-0.016383,-0.503899,0.000741,1.533442,-263.620644,1.485769,66.866958
10.677,-0.016766,0.00564,-0.000417,2e-05,-0.000859,0.000103,-0.016644,-0.504292,0.000375,1.528164,-263.62075,1.410917,66.866947
10.6971,-0.017296,0.005801,0.000976,8.3e-05,-0.000815,0.001045,-0.01695,-0.504354,-0.000348,1.528164,-263.62075,1.410917,66.866947
10.717,-0.016914,0.006199,0.00022,0.000125,-0.000778,0.001719,-0.01695,-0.504354,-0.000348,1.528164,-263.62075,1.410917,66.866947
10.7367,-0.017423,0.006032,0.003255,0.000153,-0.000748,0.002203,-0.016803,-0.503821,0.000222,1.595756,-263.620924,1.486011,66.866745
10.7568,-0.017106,0.005676,0.00206,0.000108,-0.000774,0.001674,-0.016384,-0.503881,0.001445,1.595756,-263.620924,1.486011,66.866745
10.7765,-0.016975,0.005599,0.002795,7.6e-05,-0.000792,0.00129,-0.016056,-0.504328,0.002074,1.520843,-263.620875,1.560924,66.866579
10.7973,-0.017238,0.005778,0.003367,3.3e-05,-0.000804,0.000554,-0.015595,-0.504393,0.00273,1.520843,-263.620875,1.560924,66.866579
10.8171,-0.016935,0.005964,0.000894,4e-06,-0.000812,1.6e-05,-0.015595,-0.504393,0.00273,1.520843,-263.620875,1.560924,66.866579
10.8373,-0.016681,0.006019,0.001547,-1.6e-05,-0.000816,-0.000376,-0.01648,-0.504036,0.000894,1.445843,-263.620875,1.618636,66.866579
10.8571,-0.017277,0.005436,0.003373,6e-06,-0.000813,-4.7e-05,-0.016245,-0.504013,0.001154,1.445843,-263.620875,1.618636,66.866579
10.8765,-0.017006,0.005825,0.002235,2e-05,-0.000811,0.000182,-0.015557,-0.504581,0.003364,1.520834,-263.62119,1.543645,66.866403
10.897,-0.017088,0.006314,0.001322,0.0,-0.000817,-0.000133,-0.015838,-0.504211,0.002337,1.520834,-263.62119,1.543645,66.866403
10.917,-0.017236,0.005797,0.002054,-1.3e-05,-0.000821,-0.00036,-0.015838,-0.504211,0.002337,1.520834,-263.62119,1.543645,66.866403
10.937,-0.017062,0.005828,0.002895,-2.2e-05,-0.000823,-0.000524,-0.016188,-0.504231,0.002061,1.595838,-263.621435,1.592228,66.86608
10.9573,-0.017134,0.005842,0.00367,-2.7e-05,-0.000823,-0.000667,-0.01594,-0.504209,0.002405,1.595838,-263.621435,1.592228,66.86608
10.977,-0.017027,0.00585,0.002561,-3e-05,-0.000822,-0.00077,-0.015263,-0.504178,0.003655,1.551984,-263.62185,1.528068,66.865897
10.9972,-0.017334,0.005598,0.001429,-4e-05,-0.000832,-0.000929,-0.015681,-0.504152,0.002655,1.551984,-263.62185,1.528068,66.865897
11.0173,-0.01732,0.0056,-0.000718,-4.6e-05,-0.00084,-0.001043,-0.015681,-0.504152,0.002655,1.551984,-263.62185,1.528068,66.865897
11.0371,-0.016929,0.005606,0.001084,-5e-05,-0.000846,-0.001124,-0.017687,-0.504433,-0.00075,1.547218,-263.62235,1.484388,66.86576
11.057,-0.017201,0.005895,0.00125,3.3e-05,-0.000797,5e-06,-0.017159,-0.504421,-1.4e-05,1.547218,-263.62235,1.484388,66.86576
11.077,-0.01726,0.005763,0.001382,9.1e-05,-0.000756,0.000807,-0.016563,-0.504117,0.001234,1.538102,-263.622632,1.409502,66.86573
11.0967,-0.017003,0.00595,0.00073,8.2e-05,-0.000751,0.000696,-0.016556,-0.504227,0.001368,1.538102,-263.622632,1.409502,66.86573
11.1169,-0.017049,0.005393,0.00213,7.5e-05,-0.000746,0.000614,-0.016556,-0.504227,0.001368,1.538102,-263.622632,1.409502,66.86573
11.1372,-0.017155,0.005574,0.001685,7e-05,-0.000742,0.000552,-0.015963,-0.504606,0.00213,1.463098,-263.622632,1.484507,66.86573
11.1569,-0.016767,0.00594,0.001364,5.4e-05,-0.000735,0.000271,-0.0161,-0.504531,0.001947,1.463098,-263.622632,1.484507,66.86573
11.1769,-0.017053,0.005839,0.001504,4.3e-05,-0.000728,6.8e-05,-0.016072,-0.504064,0.001367,1.538255,-263.622665,1.559664,66.865645
11.1967,-0.016925,0.005561,0.000497,4.3e-05,-0.000736,0.000107,-0.016267,-0.504152,0.001492,1.538255,-263.622665,1.559664,66.865645
11.2169,-0.016959,0.005835,0.000105,4.2e-05,-0.000743,0.000133,-0.016267,-0.504152,0.001492,1.538255,-263.622665,1.559664,66.865645
11.2367,-0.016613,0.005507,0.002137,4e-05,-0.000748,0.00015,-0.016904,-0.50419,0.000107,1.613097,-263.622886,1.627175,66.865397
11.2569,-0.017361,0.005454,0.001811,5.7e-05,-0.000739,0.000409,-0.016334,-0.504317,0.000945,1.613097,-263.622886,1.627175,66.865397
11.2769,-0.017259,0.005968,0.001708,6.7e-05,-0.000731,0.000591,-0.016436,-0.504569,0.001815,1.631949,-263.623147,1.618616,66.865063
11.297,-0.017087,0.005633,0.001917,5e-05,-0.000743,0.000383,-0.016392,-0.50408,0.001717,1.631949,-263.623147,1.618616,66.865063
11.3173,-0.017247,0.006001,0.001223,3.7e-05,-0.000752,0.000234,-0.016392,-0.50408,0.001717,1.631949,-263.623147,1.618616,66.865063
11.3373,-0.016932,0.005544,0.000784,2.9e-05,-0.000759,0.000127,-0.016623,-0.503999,0.001223,1.557029,-263.623147,1.63187,66.865063
11.3571,-0.016922,0.005855,0.001669,4.4e-05,-0.00075,0.000343,-0.016586,-0.504183,0.001046,1.557029,-263.623147,1.63187,66.865063
11.3771,-0.017175,0.005294,0.001027,5.3e-05,-0.000743,0.000495,-0.016069,-0.504167,0.001673,1.613052,-263.623403,1.605216,66.864749
11.3969,-0.016884,0.005532,0.001833,6.6e-05,-0.000711,0.000582,-0.016599,-0.504658,0.001086,1.613052,-263.623403,1.605216,66.864749
11.417,-0.016925,0.005683,0.000679,7.6e-05,-0.000685,0.000644,-0.016599,-0.504658,0.001086,1.613052,-263.623403,1.605216,66.864749
11.4371,-0.016947,0.005585,0.003199,8.3e-05,-0.000664,0.000687,-0.016577,-0.504345,0.000698,1.688051,-263.623563,1.621915,66.864371
11.4568,-0.016998,0.005514,0.001733,6.4e-05,-0.000679,0.000453,-0.016067,-0.504375,0.001711,1.688051,-263.623563,1.621915,66.864371
11.477,-0.0173,0.005476,0.002574,5.2e-05,-0.00069,0.000285,-0.016114,-0.504485,0.001733,1.613046,-263.623563,1.647209,66.864371
11.4968,-0.017136,0.005729,0.000629,2.9e-05,-0.000699,-0.000123,-0.015999,-0.504519,0.002495,1.613046,-263.623563,1.647209,66.864371
11.5169,-0.017105,0.00559,0.002672,1.5e-05,-0.000704,-0.000415,-0.015999,-0.504519,0.002495,1.613046,-263.623563,1.647209,66.864371
11.5368,-0.017053,0.005572,0.001512,6e-06,-0.000707,-0.000625,-0.01574,-0.504436,0.002684,1.67042,-263.623759,1.630406,66.864044
11.5569,-0.016753,0.005454,0.001682,5e-06,-0.000712,-0.000672,-0.015961,-0.504435,0.002206,1.67042,-263.623759,1.630406,66.864044
11.5779,-0.016841,0.005658,0.001484,5e-06,-0.000717,-0.000706,-0.015895,-0.504564,0.001666,1.595402,-263.624126,1.588735,66.863934
11.5973,-0.017218,0.00535,0.001299,2.3e-05,-0.000716,-0.000451,-0.016063,-0.504368,0.001504,1.595402,-263.624126,1.588735,66.863934
11.6173,-0.0169,0.005486,0.000895,3.5e-05,-0.000717,-0.000271,-0.016063,-0.504368,0.001504,1.595402,-263.624126,1.588735,66.863934
11.637,-0.017338,0.005645,0.001609,4.2e-05,-0.000718,-0.000144,-0.016443,-0.504544,0.000866,1.57543,-263.624583,1.589439,66.863821
11.657,-0.016976,0.005325,0.001297,6.1e-05,-0.000703,9.5e-05,-0.016473,-0.504471,0.001163,1.57543,-263.624583,1.589439,66.863821
11.6768,-0.017018,0.005186,0.000929,7.2e-05,-0.000692,0.000264,-0.016314,-0.504696,0.001293,1.623408,-263.624882,1.63809,66.863586
11.6968,-0.017161,0.005539,0.002548,9.1e-05,-0.000661,0.000476,-0.016523,-0.504805,0.000961,1.623408,-263.624882,1.63809,66.863586
11.7166,-0.016964,0.005347,0.001318,0.000104,-0.000637,0.000626,-0.016523,-0.504805,0.000961,1.623408,-263.624882,1.63809,66.863586
11.7371,-0.016942,0.005337,0.002074,0.000113,-0.000617,0.000734,-0.016289,-0.504678,0.001328,1.698454,-263.625073,1.655618,66.863282
11.7566,-0.017173,0.005782,0.000851,9.6e-05,-0.000622,0.000516,-0.016123,-0.504674,0.001634,1.698454,-263.625073,1.655618,66.863282
11.7766,-0.016783,0.005297,0.00162,8.5e-05,-0.000625,0.00036,-0.016739,-0.504218,0.000851,1.62345,-263.625073,1.676077,66.863282
11.797,-0.016958,0.005028,0.001848,7.9e-05,-0.000629,0.000282,-0.016025,-0.50466,0.001553,1.62345,-263.625073,1.676077,66.863282
11.8167,-0.016867,0.005259,0.002352,7.4e-05,-0.000633,0.000227,-0.016025,-0.50466,0.001553,1.62345,-263.625073,1.676077,66.863282
11.8367,-0.016928,0.005654,0.002754,7.1e-05,-0.000635,0.000187,-0.015668,-0.50474,0.002352,1.548403,-263.625073,1.671578,66.863281
11.8568,-0.017269,0.005509,0.00184,4.5e-05,-0.000659,-0.0002,-0.015608,-0.504577,0.002517,1.548403,-263.625073,1.671578,66.863281
11.8771,-0.016934,0.00551,0.000962,2.6e-05,-0.000676,-0.000478,-0.016329,-0.504504,0.001844,1.62342,-263.625214,1.665534,66.86308
11.8971,-0.017143,0.005717,0.001337,5.5e-05,-0.000667,-7.9e-05,-0.016433,-0.504492,0.001038,1.62342,-263.625214,1.665534,66.86308
11.9169,-0.016794,0.005064,0.000297,7.4e-05,-0.00066,0.000202,-0.016433,-0.504492,0.001038,1.62342,-263.625214,1.665534,66.86308
11.937,-0.016937,0.005624,0.001505,8.6e-05,-0.000655,0.000401,-0.016641,-0.504964,0.000278,1.59796,-263.625593,1.639052,66.862929
11.9568,-0.016746,0.005291,-3.7e-05,0.000105,-0.000636,0.000666,-0.016448,-0.504727,0.000777,1.59796,-263.625593,1.639052,66.862929
11.9769,-0.016828,0.004897,0.002532,0.000116,-0.000621,0.000854,-0.016765,-0.504709,-3.7e-05,1.522969,-263.625593,1.666112,66.862929
11.9967,-0.017222,0.005372,0.002612,8.9e-05,-0.000618,0.000355,-0.015647,-0.505066,0.002302,1.522969,-263.625593,1.666112,66.862929
12.017,-0.017205,0.005481,0.001602,7e-05,-0.000613,-4e-06,-0.015647,-0.505066,0.002302,1.522969,-263.625593,1.666112,66.862929
12.0371,-0.017052,0.006035,0.000726,5.9e-05,-0.000609,-0.000262,-0.016388,-0.504518,0.001602,1.448053,-263.625593,1.672149,66.862929
12.0573,-0.017014,0.00548,0.000903,7.1e-05,-0.000622,-2.2e-05,-0.016506,-0.504295,0.001249,1.448053,-263.625593,1.672149,66.862929
12.0771,-0.017174,0.005299,0.000532,7.9e-05,-0.000634,0.000148,-0.016553,-0.50453,0.000898,1.523051,-263.625754,1.701218,66.862835
12.0974,-0.017244,0.005241,0.0013,0.000111,-0.000612,0.000595,-0.016872,-0.504686,0.000563,1.523051,-263.625754,1.701218,66.862835
12.117,-0.016876,0.004943,0.002628,0.000132,-0.000594,0.000912,-0.016872,-0.504686,0.000563,1.523051,-263.625754,1.701218,66.862835
12.137,-0.016646,0.005466,0.002783,0.000145,-0.00058,0.001138,-0.015535,-0.505069,0.002632,1.59815,-263.625874,1.679006,66.862675
12.1572,-0.017254,0.005536,0.002438,0.0001,-0.000608,0.000445,-0.01541,-0.504853,0.002693,1.59815,-263.625874,1.679006,66.862675
12.1769,-0.017026,0.005052,0.001536,6.9e-05,-0.000627,-6e-05,-0.01601,-0.504462,0.002438,1.523257,-263.625874,1.683833,66.862675
12.197,-0.017004,0.005326,0.002568,7.5e-05,-0.000611,-3.5e-05,-0.016222,-0.504905,0.001614,1.523257,-263.625874,1.683833,66.862675
12.217,-0.016593,0.005221,-0.000199,8e-05,-0.000599,-2e-05,-0.016222,-0.504905,0.001614,1.523257,-263.625874,1.683833,66.862675
12.2366,-0.016914,0.0053,0.001972,8.4e-05,-0.000589,-1.1e-05,-0.016693,-0.504797,-0.0002,1.598372,-263.626059,1.686875,66.86251
12.2568,-0.016699,0.005077,0.000516,0.000112,-0.000581,0.000421,-0.01637,-0.504759,0.000692,1.598372,-263.626059,1.686875,66.86251
12.277,-0.017027,0.005185,0.000825,0.000129,-0.000575,0.000726,-0.016434,-0.504938,0.000516,1.673373,-263.626254,1.714089,66.86232
12.2972,-0.01685,0.005181,0.000791,0.000139,-0.000563,0.000888,-0.016592,-0.504826,0.000799,1.673373,-263.626254,1.714089,66.86232
12.3168,-0.01716,0.005276,-0.000179,0.000144,-0.000554,0.001003,-0.016592,-0.504826,0.000799,1.673373,-263.626254,1.714089,66.86232
12.3369,-0.017163,0.005197,0.002849,0.000147,-0.000547,0.001085,-0.017252,-0.504724,-0.000179,1.598353,-263.626254,1.697181,66.86232
12.3567,-0.016917,0.005102,0.002529,0.00014,-0.000547,0.001012,-0.016613,-0.504756,0.001076,1.598353,-263.626254,1.697181,66.86232
12.3765,-0.017138,0.005142,-0.000114,0.000135,-0.000546,0.00096,-0.015627,-0.504897,0.002529,1.523256,-263.626254,1.691634,66.86232
12.3965,-0.01703,0.005476,0.001458,0.000163,-0.000527,0.001403,-0.017061,-0.504861,0.000115,1.523256,-263.626254,1.691634,66.86232
12.4165,-0.017068,0.005051,0.00105,0.000181,-0.000511,0.001722,-0.017061,-0.504861,0.000115,1.523256,-263.626254,1.691634,66.86232
12.4367,-0.017153,0.004637,0.000391,0.000193,-0.000498,0.001952,-0.016532,-0.504949,0.00105,1.44838,-263.626254,1.689014,66.86232
12.4567,-0.017418,0.005252,0.002812,0.000182,-0.000486,0.00178,-0.016708,-0.505122,0.000775,1.44838,-263.626254,1.689014,66.86232
12.4765,-0.016931,0.005111,0.000864,0.000175,-0.000474,0.001656,-0.01598,-0.504757,0.002856,1.37324,-263.626052,1.684294,66.861843
12.497,-0.016884,0.004906,0.003598,0.000158,-0.000486,0.001447,-0.016447,-0.504878,0.001035,1.37324,-263.626052,1.684294,66.861843
12.5166,-0.016746,0.005432,0.00189,0.000146,-0.000494,0.001295,-0.016447,-0.504878,0.001035,1.37324,-263.626052,1.684294,66.861843
12.5374,-0.01712,0.00508,0.000797,0.000138,-0.000501,0.001186,-0.015776,-0.504583,0.001946,1.298348,-263.62587,1.687708,66.861362
12.5571,-0.01711,0.005341,0.002404,0.000116,-0.000523,0.000911,-0.01616,-0.504723,0.001482,1.298348,-263.62587,1.687708,66.861362
12.5767,-0.017177,0.004901,0.002451,0.000102,-0.00054,0.000713,-0.015883,-0.504662,0.002415,1.223366,-263.625841,1.682695,66.861223
12.5971,-0.017416,0.005049,0.001755,7.7e-05,-0.000547,0.000207,-0.015924,-0.505061,0.002448,1.223366,-263.625841,1.682695,66.861223
12.6173,-0.017037,0.00513,0.002549,6.1e-05,-0.00055,-0.000158,-0.015924,-0.505061,0.002448,1.223366,-263.625841,1.682695,66.861223
12.6374,-0.016984,0.005132,0.003193,5.2e-05,-0.000552,-0.000421,-0.015737,-0.504869,0.002549,1.148328,-263.625841,1.674774,66.861223
12.657,-0.017279,0.005249,0.002878,3.5e-05,-0.000575,-0.000728,-0.01558,-0.504867,0.002814,1.148328,-263.625841,1.674774,66.861223
12.6767,-0.016739,0.005277,0.003095,2.5e-05,-0.000592,-0.000949,-0.015811,-0.504749,0.002878,1.223341,-263.625846,1.744096,66.861221
12.6965,-0.017018,0.005343,0.001905,9e-06,-0.000625,-0.001188,-0.015214,-0.504723,0.003077,1.223341,-263.625846,1.744096,66.861221
12.7166,-0.017084,0.005052,0.000344,-2e-06,-0.00065,-0.00136,-0.015214,-0.504723,0.003077,1.223341,-263.625846,1.744096,66.861221
12.7366,-0.017298,0.005352,0.001879,-1e-05,-0.00067,-0.001483,-0.016908,-0.504948,0.000344,1.298377,-263.625846,1.669059,66.861221
12.7567,-0.016961,0.005152,0.002175,5.1e-05,-0.000638,-0.000749,-0.016675,-0.504825,0.000973,1.298377,-263.625846,1.669059,66.861221
12.7767,-0.017284,0.005227,0.001259,9.1e-05,-0.000612,-0.000232,-0.015854,-0.504853,0.002161,1.373293,-263.626036,1.611095,66.861249
12.7969,-0.016679,0.004974,0.003885,0.000106,-0.000598,-3.7e-05,-0.016574,-0.50478,0.001336,1.373293,-263.626036,1.611095,66.861249
12.8173,-0.01721,0.005212,0.001141,0.000115,-0.000588,9.9e-05,-0.016574,-0.50478,0.001336,1.373293,-263.626036,1.611095,66.861249
12.8368,-0.016906,0.005391,0.003268,0.000121,-0.000579,0.000194,-0.016628,-0.504787,0.001141,1.448282,-263.626036,1.536106,66.861249
12.8566,-0.017143,0.005283,0.001584,0.000102,-0.000593,-2.8e-05,-0.016035,-0.50471,0.00205,1.448282,-263.626036,1.536106,66.861249
12.8775,-0.016907,0.005346,0.001558,8.8e-05,-0.000603,-0.000187,-0.016335,-0.504717,0.001584,1.372607,-263.626036,1.611781,66.861249
12.8969,-0.017234,0.005426,0.002878,9.1e-05,-0.000608,-0.000107,-0.016131,-0.504659,0.00156,1.372607,-263.626036,1.611781,66.861249
12.9172,-0.017234,0.00528,0.002983,9.1e-05,-0.000612,-5.2e-05,-0.016131,-0.504659,0.00156,1.372607,-263.626036,1.611781,66.861249
12.9369,-0.01705,0.005342,0.000474,9.1e-05,-0.000616,-1.3e-05,-0.015712,-0.504718,0.002983,1.447031,-263.626036,1.537357,66.861249
12.957,-0.016968,0.004971,0.00102,8.1e-05,-0.000619,-0.000143,-0.016163,-0.504693,0.001952,1.447031,-263.626036,1.537357,66.861249
12.9769,-0.016765,0.005115,0.002067,7.4e-05,-0.000622,-0.000237,-0.016447,-0.505032,0.00102,1.521977,-263.626082,1.612302,66.861204
12.997,-0.016735,0.005078,0.001333,7e-05,-0.00062,-0.000313,-0.015775,-0.504897,0.001976,1.521977,-263.626082,1.612302,66.861204
13.017,-0.016755,0.005139,0.002408,6.7e-05,-0.000618,-0.000367,-0.015775,-0.504897,0.001976,1.521977,-263.626082,1.612302,66.861204
13.0371,-0.016917,0.005334,0.001434,6.5e-05,-0.000616,-0.000406,-0.015526,-0.504875,0.002402,1.596922,-263.626261,1.687248,66.861091
13.0567,-0.016756,0.005084,0.001983,6.2e-05,-0.000621,-0.000444,-0.015797,-0.50479,0.002003,1.596922,-263.626261,1.687248,66.861091
13.077,-0.016729,0.005085,-0.000394,6e-05,-0.000625,-0.000471,-0.015744,-0.504915,0.001983,1.64602,-263.626261,1.612201,66.861091
13.0969,-0.016924,0.005361,0.002107,0.000128,-0.000594,0.000556,-0.016832,-0.504915,-0.000199,1.64602,-263.626261,1.612201,66.861091
13.1171,-0.016696,0.004998,0.001599,0.000174,-0.000568,0.001288,-0.016832,-0.504915,-0.000199,1.64602,-263.626261,1.612201,66.861091
13.1368,-0.016997,0.005014,0.002234,0.000202,-0.000547,0.001813,-0.015881,-0.505001,0.001599,1.636372,-263.626261,1.537122,66.861091
13.1574,-0.016947,0.005464,0.000639,0.000162,-0.000558,0.001223,-0.015871,-0.504994,0.001861,1.636372,-263.626261,1.537122,66.861091
13.1769,-0.016993,0.005273,0.002609,0.000132,-0.000565,0.000793,-0.016621,-0.504537,0.000641,1.561435,-263.626251,1.612059,66.861064
13.197,-0.017283,0.00524,0.002998,9.6e-05,-0.000593,0.000278,-0.015745,-0.504709,0.002441,1.561435,-263.626251,1.612059,66.861064
13.2168,-0.01697,0.004993,0.001609,7.1e-05,-0.000613,-9.6e-05,-0.015745,-0.504709,0.002441,1.561435,-263.626251,1.612059,66.861064
13.2368,-0.017135,0.005117,0.001076,5.3e-05,-0.000628,-0.000366,-0.016149,-0.505006,0.001609,1.486419,-263.626251,1.687075,66.861064
13.2568,-0.017078,0.005265,-0.000213,7.4e-05,-0.000605,-0.000157,-0.016327,-0.504956,0.001392,1.486419,-263.626251,1.687075,66.861064
13.2766,-0.017299,0.005267,0.001905,8.8e-05,-0.000588,-1e-05,-0.017186,-0.504749,-0.000221,1.561244,-263.626493,1.70073,66.860948
13.2969,-0.01714,0.004828,0.001459,8.7e-05,-0.000587,-4.6e-05,-0.016401,-0.504734,0.001722,1.561244,-263.626493,1.70073,66.860948
13.3169,-0.017,0.005394,-2.3e-05,8.6e-05,-0.000587,-7.4e-05,-0.016401,-0.504734,0.001722,1.561244,-263.626493,1.70073,66.860948
13.337,-0.017212,0.004807,0.000492,8.5e-05,-0.000587,-9.5e-05,-0.01701,-0.504623,-2.3e-05,1.636389,-263.626653,1.72186,66.860792
13.3571,-0.017171,0.005025,0.001815,0.000135,-0.000562,0.000618,-0.01699,-0.50486,0.000189,1.636389,-263.626653,1.72186,66.860792
13.3766,-0.017381,0.005043,0.00244,0.000167,-0.000542,0.001125,-0.016242,-0.504992,0.001812,1.702593,-263.626895,1.730905,66.860592
13.397,-0.016995,0.004974,0.001466,0.00013,-0.000552,0.00053,-0.016145,-0.504959,0.002386,1.702593,-263.626895,1.730905,66.860592
13.4171,-0.017332,0.005019,0.002238,0.000105,-0.000557,9.8e-05,-0.016145,-0.504959,0.002386,1.702593,-263.626895,1.730905,66.860592
13.4373,-0.017423,0.005131,0.000746,8.8e-05,-0.00056,-0.000213,-0.016191,-0.50498,0.002238,1.627628,-263.626895,1.705676,66.860592
13.4568,-0.017078,0.00536,0.001317,9.6e-05,-0.000549,-0.000151,-0.016539,-0.504934,0.001628,1.627628,-263.626895,1.705676,66.860592
13.477,-0.016745,0.004693,0.001011,0.000102,-0.000541,-0.00011,-0.016407,-0.504639,0.001317,1.697373,-263.626895,1.630668,66.860592
13.4968,-0.01709,0.004898,0.001727,0.000125,-0.000517,0.000181,-0.016245,-0.50525,0.001037,1.697373,-263.626895,1.630668,66.860592
13.5172,-0.017232,0.005353,0.001878,0.00014,-0.000499,0.000385,-0.016245,-0.50525,0.001037,1.697373,-263.626895,1.630668,66.860592
13.5366,-0.017045,0.005235,0.00029,0.00015,-0.000484,0.00053,-0.016274,-0.504646,0.001878,1.736496,-263.626896,1.555683,66.860592
13.5569,-0.016984,0.005108,0.001121,0.000145,-0.0005,0.000546,-0.016529,-0.504695,0.00123,1.736496,-263.626896,1.555683,66.860592
13.5769,-0.017175,0.005294,0.00153,0.00014,-0.000513,0.000556,-0.016413,-0.504892,0.001121,1.661484,-263.626896,1.480672,66.860592
13.5969,-0.017029,0.005433,0.001646,0.000129,-0.000527,0.000448,-0.016396,-0.504721,0.001495,1.661484,-263.626896,1.480672,66.860592
13.6166,-0.016911,0.005681,0.003206,0.00012,-0.000538,0.00037,-0.016396,-0.504721,0.001495,1.661484,-263.626896,1.480672,66.860592
13.6369,-0.017003,0.005188,0.000399,0.000113,-0.000547,0.000314,-0.015275,-0.504317,0.003206,1.586481,-263.626896,1.555675,66.860592
13.6572,-0.017174,0.005216,0.001795,8.9e-05,-0.00058,5.7e-05,-0.015904,-0.504521,0.002048,1.586481,-263.626896,1.555675,66.860592
13.6769,-0.016974,0.005086,0.001175,7.1e-05,-0.000606,-0.000126,-0.016259,-0.504783,0.001795,1.511489,-263.626895,1.630667,66.860592
13.6972,-0.017114,0.00489,0.00052,8.9e-05,-0.000589,7.8e-05,-0.016365,-0.504903,0.001228,1.511489,-263.626895,1.630667,66.860592
13.7172,-0.016803,0.004981,0.000121,0.000101,-0.000576,0.000222,-0.016365,-0.504903,0.001228,1.511489,-263.626895,1.630667,66.860592
13.7372,-0.017366,0.005189,0.002026,0.000109,-0.000565,0.000324,-0.01674,-0.505034,0.000117,1.586483,-263.62706,1.70442,66.860464
13.7571,-0.016876,0.004928,0.000876,0.000125,-0.000548,0.000548,-0.016572,-0.504944,0.000902,1.586483,-263.62706,1.70442,66.860464
13.777,-0.016889,0.004981,0.002526,0.000136,-0.000535,0.000707,-0.016429,-0.505072,0.000876,1.511487,-263.62706,1.712906,66.860464
13.7967,-0.017187,0.005052,0.00156,0.000105,-0.00055,0.000219,-0.015671,-0.505022,0.002385,1.511487,-263.62706,1.712906,66.860464
13.8166,-0.017113,0.005449,0.00175,8.4e-05,-0.00056,-0.000131,-0.015671,-0.505022,0.002385,1.511487,-263.62706,1.712906,66.860464
13.8369,-0.017115,0.005325,0.001616,6.9e-05,-0.000568,-0.000383,-0.01622,-0.50455,0.00175,1.436499,-263.62706,1.710661,66.860464
13.8566,-0.017015,0.005295,0.002377,7.3e-05,-0.00058,-0.000301,-0.016249,-0.504601,0.001695,1.436499,-263.62706,1.710661,66.860464
13.8765,-0.016835,0.005037,0.001521,7.5e-05,-0.00059,-0.000245,-0.015802,-0.504704,0.002377,1.511524,-263.62706,1.635636,66.860464
13.8968,-0.01706,0.00477,0.001749,8.3e-05,-0.000583,-0.000165,-0.016037,-0.50494,0.001593,1.511524,-263.62706,1.635636,66.860464
13.917,-0.016905,0.005272,0.001615,8.8e-05,-0.000577,-0.00011,-0.016037,-0.50494,0.001593,1.511524,-263.62706,1.635636,66.860464
13.9367,-0.017012,0.00522,0.001617,9.2e-05,-0.000573,-7.1e-05,-0.01608,-0.504741,0.001609,1.586545,-263.627224,1.710658,66.860365
13.9566,-0.017005,0.004748,0.001615,9.1e-05,-0.000578,-5e-05,-0.016124,-0.504758,0.001612,1.586545,-263.627224,1.710658,66.860365
13.9769,-0.016767,0.004853,0.001007,9.1e-05,-0.000583,-3.6e-05,-0.016179,-0.505265,0.001613,1.661413,-263.62741,1.742176,66.860205
13.9966,-0.016689,0.004896,0.002005,0.000112,-0.000557,0.000217,-0.016247,-0.505157,0.001058,1.661413,-263.62741,1.742176,66.860205
14.0166,-0.016817,0.004907,0.00064,0.000126,-0.000537,0.000396,-0.016247,-0.505157,0.001058,1.661413,-263.62741,1.742176,66.860205
14.0367,-0.017078,0.005107,0.000931,0.000136,-0.00052,0.000524,-0.016487,-0.505116,0.000638,1.71955,-263.627641,1.730917,66.85999
14.057,-0.017136,0.005025,0.002059,0.00015,-0.000507,0.000759,-0.016534,-0.505026,0.000759,1.71955,-263.627641,1.730917,66.85999
14.077,-0.017224,0.004759,0.00143,0.000159,-0.000497,0.000927,-0.016086,-0.504973,0.002059,1.644623,-263.627641,1.730945,66.85999
14.0969,-0.016898,0.004767,0.001314,0.000148,-0.000485,0.000714,-0.016461,-0.505218,0.001483,1.644623,-263.627641,1.730945,66.85999
14.1166,-0.017295,0.004833,0.000211,0.000141,-0.000475,0.000562,-0.016461,-0.505218,0.001483,1.644623,-263.627641,1.730945,66.85999
14.1367,-0.01705,0.005155,0.001516,0.000137,-0.000466,0.000453,-0.017187,-0.505167,0.000211,1.569548,-263.627641,1.719474,66.85999
14.1572,-0.01682,0.005254,0.001412,0.000154,-0.000456,0.000719,-0.016818,-0.505036,0.00074,1.569548,-263.627641,1.719474,66.85999
14.1769,-0.017086,0.004813,0.003152,0.000166,-0.000449,0.000908,-0.0161,-0.504745,0.001412,1.494731,-263.627641,1.644657,66.85999
14.197,-0.016844,0.005414,-0.000142,0.000123,-0.000481,0.000186,-0.015535,-0.505145,0.002995,1.494731,-263.627641,1.644657,66.85999
14.2167,-0.016645,0.005158,0.00217,9.2e-05,-0.000505,-0.000341,-0.015535,-0.505145,0.002995,1.494731,-263.627641,1.644657,66.85999
14.2366,-0.01703,0.005135,0.002703,7.1e-05,-0.000523,-0.000724,-0.015538,-0.504841,0.00217,1.419712,-263.627641,1.719677,66.85999
14.2566,-0.017331,0.005133,0.001397,6.3e-05,-0.000547,-0.0008,-0.015585,-0.50485,0.002387,1.419712,-263.627641,1.719677,66.85999
14.277,-0.016915,0.005299,0.001156,5.7e-05,-0.000566,-0.000855,-0.016618,-0.504866,0.001397,1.494706,-263.627641,1.644682,66.85999
14.2967,-0.017175,0.005136,0.001957,8.7e-05,-0.000565,-0.000408,-0.016359,-0.50472,0.001184,1.494706,-263.627641,1.644682,66.85999
14.3166,-0.01746,0.005121,0.002179,0.000106,-0.000566,-9.3e-05,-0.016359,-0.50472,0.001184,1.494706,-263.627641,1.644682,66.85999
14.3368,-0.017237,0.004694,0.002779,0.000118,-0.000567,0.000127,-0.016349,-0.504878,0.002179,1.569689,-263.627641,1.5697,66.85999
14.3569,-0.017162,0.005128,0.002067,9.9e-05,-0.000564,-0.000211,-0.016133,-0.505052,0.002424,1.569689,-263.627641,1.5697,66.85999
14.3769,-0.017073,0.005241,0.002252,8.7e-05,-0.000559,-0.000454,-0.016108,-0.504871,0.002067,1.494682,-263.627641,1.494693,66.85999
14.3968,-0.01683,0.004935,0.003139,7.7e-05,-0.000574,-0.000559,-0.01594,-0.504767,0.002236,1.494682,-263.627641,1.494693,66.85999
14.4167,-0.016969,0.005329,0.000464,7.1e-05,-0.000586,-0.000635,-0.01594,-0.504767,0.002236,1.494682,-263.627641,1.494693,66.85999
14.4367,-0.017086,0.004856,0.002194,6.6e-05,-0.000596,-0.00069,-0.016732,-0.504671,0.000464,1.569873,-263.627641,1.419502,66.85999
14.4568,-0.017296,0.005411,0.000924,9.4e-05,-0.000581,-0.000296,-0.016414,-0.504867,0.001182,1.569873,-263.627641,1.419502,66.85999
14.4766,-0.017417,0.004805,0.002419,0.000113,-0.00057,-1.9e-05,-0.016825,-0.504589,0.000924,1.635348,-263.627641,1.344517,66.85999
14.497,-0.016816,0.005271,0.001667,0.000101,-0.000557,-0.000272,-0.01624,-0.50514,0.002286,1.635348,-263.627641,1.344517,66.85999
14.5167,-0.01711,0.005059,0.001459,9.4e-05,-0.000546,-0.000452,-0.01624,-0.50514,0.002286,1.635348,-263.627641,1.344517,66.85999
14.537,-0.016677,0.004997,0.002164,9e-05,-0.000536,-0.000581,-0.016366,-0.504941,0.001459,1.560447,-263.627641,1.269617,66.85999
14.5569,-0.017084,0.005129,0.001999,9.7e-05,-0.000538,-0.000468,-0.016038,-0.504966,0.001751,1.560447,-263.627641,1.269617,66.85999
14.5768,-0.017222,0.004899,0.002086,0.000101,-0.00054,-0.000388,-0.016065,-0.50487,0.001999,1.635545,-263.627641,1.194519,66.85999
14.5971,-0.017521,0.005353,0.00027,9.8e-05,-0.000535,-0.000461,-0.01615,-0.505081,0.002079,1.635545,-263.627641,1.194519,66.85999
14.6168,-0.016767,0.00515,0.00217,9.6e-05,-0.000531,-0.000513,-0.01615,-0.505081,0.002079,1.635545,-263.627641,1.194519,66.85999
14.6368,-0.017238,0.004855,0.000751,9.5e-05,-0.000527,-0.00055,-0.01566,-0.504848,0.00217,1.699561,-263.627641,1.119523,66.85999
14.6571,-0.016774,0.00479,0.001645,0.000106,-0.000527,-0.000379,-0.016153,-0.504971,0.001585,1.699561,-263.627641,1.119523,66.85999
14.6765,-0.016694,0.004921,0.001047,0.000113,-0.000527,-0.000259,-0.015935,-0.505209,0.001645,1.680931,-263.627641,1.044561,66.85999
14.6966,-0.017205,0.005166,0.001358,0.000131,-0.000518,4.3e-05,-0.01614,-0.50509,0.001099,1.680931,-263.627641,1.044561,66.85999
14.7171,-0.016984,0.004693,0.002395,0.000143,-0.000511,0.000256,-0.01614,-0.50509,0.001099,1.680931,-263.627641,1.044561,66.85999
14.7368,-0.01687,0.005026,0.002877,0.00015,-0.000506,0.000407,-0.015762,-0.505306,0.002395,1.733794,-263.627641,0.969541,66.85999
14.757,-0.016564,0.004743,0.001702,0.000119,-0.00052,-6.7e-05,-0.015614,-0.505168,0.002594,1.733794,-263.627641,0.969541,66.85999
14.7768,-0.016927,0.005095,0.002539,9.7e-05,-0.00053,-0.000408,-0.015696,-0.505256,0.001702,1.658779,-263.627641,0.894527,66.85999
14.797,-0.016848,0.005205,0.00102,8.1e-05,-0.000548,-0.000608,-0.015638,-0.504935,0.002463,1.658779,-263.627641,0.894527,66.85999
14.8169,-0.016957,0.004806,0.0027,7e-05,-0.000563,-0.000751,-0.015638,-0.504935,0.002463,1.658779,-263.627641,0.894527,66.85999
14.837,-0.017249,0.004786,0.002053,6.2e-05,-0.000574,-0.000853,-0.01558,-0.505192,0.0027,1.695248,-263.627641,0.81968,66.85999
14.8574,-0.01742,0.005202,0.001623,6.3e-05,-0.000563,-0.00092,-0.015832,-0.5052,0.002438,1.695248,-263.627641,0.81968,66.85999
14.877,-0.017294,0.005146,0.001431,6.5e-05,-0.000554,-0.000968,-0.016592,-0.504797,0.001623,1.627791,-263.627641,0.744684,66.85999
14.8968,-0.01703,0.005013,0.001804,9.1e-05,-0.000545,-0.000613,-0.016567,-0.504848,0.001448,1.627791,-263.627641,0.744684,66.85999
14.9169,-0.017226,0.004904,0.001479,0.000109,-0.000539,-0.000363,-0.016567,-0.504848,0.001448,1.627791,-263.627641,0.744684,66.85999
