mach0312/omni-docking-bench/src/icros_test_setup/results/MPPI_sample/timeseries/trial_058.csv
t,x,y,yaw,vx,vy,wz,bl_x,bl_y,bl_yaw,front_steering_joint,front_wheel_joint,rear_steering_joint,rear_wheel_joint
0.0,0.030597,-0.029369,-0.049259,0.0,0.0,0.0,0.005072,-0.538576,-0.04942,0.800569,-258.606409,0.25734,72.927448
0.0003,0.03009,-0.029405,-0.047387,0.0,0.0,0.0,0.005072,-0.538576,-0.04942,0.800569,-258.606409,0.25734,72.927448
0.0005,0.030602,-0.029557,-0.048679,0.0,0.0,0.0,0.005201,-0.538727,-0.049745,0.800569,-258.606409,0.25734,72.927448
0.0008,0.030219,-0.029108,-0.047952,0.0,0.0,0.0,0.005201,-0.538727,-0.049745,0.800569,-258.606409,0.25734,72.927448
0.001,0.030607,-0.029563,-0.047792,0.0,0.0,0.0,0.005358,-0.538631,-0.048728,0.800569,-258.606409,0.25734,72.927448
0.0012,0.030549,-0.029054,-0.048898,0.0,0.0,0.0,0.005358,-0.538631,-0.048728,0.800569,-258.606409,0.25734,72.927448
0.0014,0.029964,-0.029193,-0.048169,0.0,0.0,0.0,0.005358,-0.538631,-0.048728,0.800569,-258.606409,0.25734,72.927448
0.0169,0.030505,-0.029421,-0.048698,0.0,0.0,0.0,0.005677,-0.538493,-0.048798,0.800569,-258.606409,0.25734,72.927448
0.0372,0.030293,-0.029079,-0.049167,0.0,0.0,0.0,0.005679,-0.538816,-0.048698,0.800569,-258.606409,0.25734,72.927448
0.0572,0.030611,-0.029421,-0.04701,0.0,0.0,0.0,0.005495,-0.538673,-0.048888,0.800569,-258.606409,0.25734,72.927448
0.0769,0.03043,-0.029188,-0.051556,0.0,0.0,0.0,0.006645,-0.538857,-0.04701,0.800569,-258.606409,0.25734,72.927448
0.097,0.030563,-0.029447,-0.049363,0.0,0.0,0.0,0.004367,-0.538541,-0.051158,0.800569,-258.606409,0.25734,72.927448
0.1174,0.030561,-0.029174,-0.048002,0.001095,0.00486,0.00763,0.004367,-0.538541,-0.051158,0.800569,-258.606409,0.25734,72.927448
0.1369,0.030349,-0.029321,-0.049432,0.001166,0.005306,0.00824,0.006089,-0.538587,-0.048002,0.800569,-258.606409,0.25734,72.927448
0.157,0.030106,-0.02914,-0.049659,0.001176,0.005675,0.008767,0.005716,-0.538631,-0.04857,0.800569,-258.606409,0.25734,72.927448
0.1769,0.030534,-0.029428,-0.050672,0.001176,0.00599,0.009198,0.004791,-0.538511,-0.049659,0.875473,-258.606406,0.230524,72.927448
0.1969,0.030264,-0.029153,-0.04998,0.001198,0.006268,0.009553,0.00471,-0.53875,-0.050582,0.875473,-258.606406,0.230524,72.927448
0.2172,0.03036,-0.029769,-0.050796,0.001211,0.006503,0.009842,0.00471,-0.53875,-0.050582,0.875473,-258.606406,0.230524,72.927448
0.2366,0.03038,-0.029669,-0.049528,0.001216,0.006704,0.010077,0.004466,-0.539111,-0.050796,0.950524,-258.606395,0.305575,72.927449
0.2569,0.03068,-0.029447,-0.049053,0.001217,0.006876,0.01027,0.004735,-0.539084,-0.050283,0.950524,-258.606395,0.305575,72.927449
0.2765,0.03037,-0.029425,-0.04932,0.001214,0.007022,0.010428,0.005674,-0.538833,-0.049051,1.025467,-258.606356,0.380518,72.927453
0.297,0.030327,-0.029526,-0.04979,0.001191,0.007143,0.010555,0.005266,-0.538807,-0.049297,1.025467,-258.606356,0.380518,72.927453
0.3171,0.03076,-0.029203,-0.049633,0.001169,0.007246,0.010659,0.005266,-0.538807,-0.049297,1.025467,-258.606356,0.380518,72.927453
0.337,0.029737,-0.029558,-0.050278,0.001148,0.007335,0.010746,0.005462,-0.538568,-0.049623,1.100575,-258.606213,0.455626,72.927468
0.3569,0.030446,-0.029273,-0.04901,0.00114,0.007415,0.010819,0.004884,-0.538715,-0.049901,1.100575,-258.606213,0.455626,72.927468
0.3768,0.030566,-0.029417,-0.051213,0.001131,0.007483,0.010879,0.005468,-0.538648,-0.04899,1.17615,-258.605865,0.531201,72.927503
0.3969,0.030326,-0.029187,-0.049125,0.001132,0.007545,0.01093,0.004545,-0.538739,-0.051023,1.17615,-258.605865,0.531201,72.927503
0.4171,0.030298,-0.029414,-0.049845,0.001132,0.007598,0.010971,0.004545,-0.538739,-0.051023,1.17615,-258.605865,0.531201,72.927503
0.4367,0.030491,-0.029303,-0.048814,0.00113,0.007643,0.011005,0.004909,-0.538732,-0.049773,1.250617,-258.604927,0.605668,72.927596
0.457,0.030175,-0.029397,-0.049257,0.001109,0.007676,0.011031,0.005194,-0.538711,-0.049377,1.250617,-258.604927,0.605668,72.927596
0.4771,0.030583,-0.029199,-0.049369,0.00109,0.007705,0.011052,0.005094,-0.538696,-0.049137,1.325496,-258.602894,0.680547,72.927801
0.4972,0.029853,-0.029329,-0.049549,0.001067,0.007728,0.011069,0.005388,-0.538584,-0.049342,1.325496,-258.602894,0.680547,72.927801
0.5173,0.030282,-0.029244,-0.049524,0.001047,0.007748,0.011084,0.005388,-0.538584,-0.049342,1.325496,-258.602894,0.680547,72.927801
0.5369,0.030319,-0.028986,-0.049246,0.001029,0.007766,0.011096,0.005091,-0.538425,-0.049243,1.400472,-258.59934,0.719322,72.928157
0.5569,0.03023,-0.02907,-0.04837,0.001021,0.007783,0.011158,0.005146,-0.53838,-0.049212,1.400472,-258.59934,0.719322,72.928157
0.5769,0.030206,-0.02868,-0.048429,0.001013,0.007797,0.011208,0.005613,-0.538271,-0.048079,1.475424,-258.594516,0.765218,72.928629
0.5974,0.030229,-0.028941,-0.048378,0.000993,0.007806,0.011278,0.005527,-0.538089,-0.048386,1.475424,-258.594516,0.765218,72.928629
0.617,0.029886,-0.028922,-0.047895,0.000975,0.007813,0.011337,0.005527,-0.538089,-0.048386,1.475424,-258.594516,0.765218,72.928629
0.6371,0.029873,-0.02805,-0.046525,0.00096,0.00782,0.011386,0.005526,-0.538017,-0.047433,1.501699,-258.588736,0.75412,72.929177
0.6572,0.029728,-0.028293,-0.048919,0.000937,0.007822,0.011459,0.005786,-0.537771,-0.047012,1.501699,-258.588736,0.75412,72.929177
0.6771,0.02973,-0.02761,-0.046707,0.000917,0.007825,0.011521,0.004831,-0.537438,-0.048559,1.505936,-258.582844,0.734015,72.929691
0.6972,0.029437,-0.02782,-0.047429,0.000894,0.007825,0.011602,0.005827,-0.537075,-0.046847,1.505936,-258.582844,0.734015,72.929691
0.7175,0.029729,-0.027707,-0.047476,0.000874,0.007825,0.01167,0.005827,-0.537075,-0.046847,1.505936,-258.582844,0.734015,72.929691
0.7371,0.029369,-0.027257,-0.046074,0.000857,0.007826,0.011727,0.005579,-0.536811,-0.046998,1.509166,-258.576953,0.710189,72.930169
0.757,0.029309,-0.027216,-0.046006,0.000844,0.007827,0.011802,0.005707,-0.536735,-0.046567,1.509166,-258.576953,0.710189,72.930169
0.7769,0.028797,-0.027334,-0.046527,0.000832,0.007828,0.011866,0.005892,-0.536438,-0.045648,1.513699,-258.571184,0.659185,72.930586
0.7973,0.029149,-0.026678,-0.046593,0.000841,0.007835,0.011944,0.005149,-0.536741,-0.046434,1.513699,-258.571184,0.659185,72.930586
0.8175,0.02884,-0.02693,-0.044097,0.000849,0.007841,0.012009,0.005149,-0.536741,-0.046434,1.513699,-258.571184,0.659185,72.930586
0.837,0.029099,-0.026652,-0.046283,0.000855,0.007846,0.012064,0.006405,-0.536122,-0.043621,1.515653,-258.565389,0.609628,72.930975
0.857,0.029077,-0.026816,-0.044437,0.000825,0.007838,0.012125,0.006043,-0.536079,-0.044652,1.515653,-258.565389,0.609628,72.930975
0.8767,0.028343,-0.026025,-0.045382,0.0008,0.007832,0.012178,0.006454,-0.536101,-0.044111,1.514654,-258.560169,0.534773,72.931311
0.897,0.02834,-0.026299,-0.046145,0.0008,0.007834,0.012244,0.005304,-0.535536,-0.045269,1.514654,-258.560169,0.534773,72.931311
0.9175,0.028497,-0.026442,-0.044747,0.000799,0.007836,0.012299,0.005304,-0.535536,-0.045269,1.514654,-258.560169,0.534773,72.931311
0.937,0.028778,-0.025831,-0.044884,0.000799,0.007837,0.012344,0.005728,-0.535635,-0.044284,1.518455,-258.554635,0.459393,72.931634
0.9568,0.028504,-0.025794,-0.044349,0.00078,0.007832,0.012398,0.005799,-0.535475,-0.044472,1.518455,-258.554635,0.459393,72.931634
0.9766,0.027912,-0.025534,-0.043151,0.000764,0.007828,0.012443,0.005924,-0.535082,-0.044017,1.518904,-258.549424,0.384777,72.931922
0.9968,0.028162,-0.025808,-0.042454,0.000744,0.007822,0.012493,0.005914,-0.535051,-0.043209,1.518904,-258.549424,0.384777,72.931922
1.0172,0.028034,-0.02555,-0.043914,0.000726,0.007817,0.012536,0.005914,-0.535051,-0.043209,1.518904,-258.549424,0.384777,72.931922
1.0369,0.028133,-0.024916,-0.044413,0.000711,0.007814,0.012571,0.005685,-0.534776,-0.043463,1.521318,-258.544076,0.309643,72.932198
1.0573,0.028222,-0.024801,-0.043571,0.000705,0.007813,0.01261,0.00561,-0.534595,-0.043799,1.521318,-258.544076,0.309643,72.932198
1.077,0.027679,-0.024731,-0.044829,0.0007,0.007812,0.012643,0.006034,-0.534121,-0.043256,1.52491,-258.539184,0.234683,72.932427
1.0969,0.027456,-0.024552,-0.042808,0.000718,0.007818,0.012675,0.004932,-0.5342,-0.044674,1.52491,-258.539184,0.234683,72.932427
1.1169,0.027817,-0.024877,-0.041672,0.000732,0.007823,0.012702,0.004932,-0.5342,-0.044674,1.52491,-258.539184,0.234683,72.932427
1.1377,0.027706,-0.024556,-0.04327,0.000744,0.007827,0.012723,0.006606,-0.534163,-0.041232,1.525751,-258.534005,0.159717,72.932662
1.1569,0.027551,-0.024599,-0.042821,0.000706,0.007814,0.012733,0.006219,-0.534098,-0.042012,1.525751,-258.534005,0.159717,72.932662
1.1768,0.027104,-0.024133,-0.041883,0.000675,0.007803,0.012743,0.005749,-0.53391,-0.042459,1.523128,-258.528424,0.084772,72.932929
1.1971,0.02703,-0.024095,-0.041941,0.000662,0.007799,0.012754,0.005751,-0.533695,-0.041917,1.523128,-258.528424,0.084772,72.932929
1.2168,0.027027,-0.024151,-0.043193,0.000651,0.007797,0.012763,0.005751,-0.533695,-0.041917,1.523128,-258.528424,0.084772,72.932929
1.237,0.026978,-0.023913,-0.041214,0.000642,0.007794,0.012771,0.005046,-0.533365,-0.042684,1.527535,-258.522476,0.030276,72.933186
1.257,0.026939,-0.02374,-0.040128,0.000645,0.007796,0.01278,0.005421,-0.533376,-0.042033,1.527535,-258.522476,0.030276,72.933186
1.2768,0.027108,-0.023398,-0.039009,0.000646,0.007797,0.012789,0.006509,-0.533089,-0.039731,1.529631,-258.516375,-0.008689,72.933437
1.2967,0.026728,-0.023419,-0.040828,0.000579,0.007771,0.012788,0.007158,-0.533005,-0.039052,1.529631,-258.516375,-0.008689,72.933437
1.3169,0.026794,-0.023528,-0.04059,0.000522,0.007749,0.01279,0.007158,-0.533005,-0.039052,1.529631,-258.516375,-0.008689,72.933437
1.3371,0.026503,-0.022673,-0.039417,0.000474,0.007732,0.012792,0.006138,-0.532784,-0.040057,1.52941,-258.510152,-0.021427,72.933695
1.3573,0.026662,-0.023151,-0.039772,0.000463,0.007731,0.012801,0.006252,-0.53254,-0.039735,1.52941,-258.510152,-0.021427,72.933695
1.3768,0.026412,-0.022541,-0.039421,0.000454,0.007729,0.012809,0.006401,-0.532573,-0.039484,1.540301,-258.505715,-0.096328,72.933832
1.3968,0.026735,-0.022791,-0.038686,0.00044,0.007725,0.012813,0.00632,-0.532169,-0.039413,1.540301,-258.505715,-0.096328,72.933832
1.417,0.026151,-0.022821,-0.038633,0.000427,0.007722,0.012817,0.00632,-0.532169,-0.039413,1.540301,-258.505715,-0.096328,72.933832
1.4375,0.026184,-0.022409,-0.038914,0.000417,0.00772,0.01282,0.00648,-0.532174,-0.038191,1.541606,-258.50059,-0.171875,72.933985
1.4566,0.026129,-0.02238,-0.038744,0.000403,0.007716,0.012822,0.006428,-0.532083,-0.038431,1.541606,-258.50059,-0.171875,72.933985
1.4765,0.025836,-0.022093,-0.036982,0.000392,0.007712,0.012823,0.006395,-0.53178,-0.038382,1.543999,-258.495064,-0.246332,72.934138
1.4969,0.025825,-0.021906,-0.037982,0.000359,0.0077,0.012823,0.006932,-0.531737,-0.037082,1.543999,-258.495064,-0.246332,72.934138
1.5168,0.025797,-0.022068,-0.038731,0.000331,0.00769,0.012824,0.006932,-0.531737,-0.037082,1.543999,-258.495064,-0.246332,72.934138
1.537,0.025588,-0.021656,-0.037472,0.000308,0.007682,0.012825,0.006077,-0.531376,-0.038215,1.545571,-258.489083,-0.295004,72.934295
1.5566,0.025313,-0.021625,-0.037684,0.00031,0.007684,0.012833,0.006245,-0.531309,-0.037853,1.545571,-258.489083,-0.295004,72.934295
1.5765,0.025367,-0.021327,-0.037966,0.000312,0.007686,0.012839,0.006112,-0.531104,-0.037418,1.550957,-258.485033,-0.36992,72.934385
1.5975,0.025145,-0.021376,-0.03775,0.000319,0.00769,0.012842,0.006019,-0.530964,-0.037904,1.550957,-258.485033,-0.36992,72.934385
1.6174,0.025076,-0.021553,-0.037703,0.000325,0.007693,0.012845,0.006019,-0.530964,-0.037904,1.550957,-258.485033,-0.36992,72.934385
1.637,0.025186,-0.021039,-0.037871,0.00033,0.007695,0.012846,0.005874,-0.530907,-0.037228,1.550691,-258.479603,-0.444814,72.934507
1.6568,0.025131,-0.020749,-0.034964,0.000338,0.007699,0.01285,0.005878,-0.530784,-0.037427,1.550691,-258.479603,-0.444814,72.934507
1.6768,0.024425,-0.021095,-0.034511,0.000345,0.007701,0.012852,0.007322,-0.530193,-0.034555,1.549576,-258.473401,-0.429193,72.934652
1.6977,0.02501,-0.020928,-0.033727,0.00031,0.007686,0.012852,0.006872,-0.530728,-0.034494,1.549576,-258.473401,-0.429193,72.934652
1.7174,0.024823,-0.020678,-0.036977,0.000281,0.007674,0.012852,0.006872,-0.530728,-0.034494,1.549576,-258.473401,-0.429193,72.934652
1.7372,0.024761,-0.020177,-0.036267,0.000256,0.007664,0.012852,0.005995,-0.53001,-0.036443,1.548601,-258.467241,-0.405902,72.9348
1.7566,0.024458,-0.020204,-0.035814,0.000255,0.007665,0.012858,0.006109,-0.529905,-0.036311,1.548601,-258.467241,-0.405902,72.9348
1.7765,0.024298,-0.020123,-0.03558,0.000255,0.007665,0.012862,0.006204,-0.529765,-0.035628,1.554294,-258.464407,-0.480805,72.934858
1.797,0.024451,-0.020175,-0.035119,0.000251,0.007664,0.012853,0.006161,-0.529791,-0.035575,1.554294,-258.464407,-0.480805,72.934858
1.817,0.024115,-0.019911,-0.035804,0.000248,0.007663,0.012845,0.006161,-0.529791,-0.035575,1.554294,-258.464407,-0.480805,72.934858
1.8376,0.024661,-0.019513,-0.034257,0.000246,0.007662,0.012838,0.005874,-0.529372,-0.035448,1.554379,-258.460297,-0.555848,72.934942
1.8574,0.024036,-0.019808,-0.03425,0.000226,0.007654,0.012823,0.006409,-0.529283,-0.034925,1.554379,-258.460297,-0.555848,72.934942
1.8774,0.0239,-0.019747,-0.034514,0.000209,0.007647,0.01281,0.006586,-0.529285,-0.033875,1.554944,-258.454597,-0.628374,72.935054
1.897,0.02417,-0.02009,-0.034626,0.000201,0.007644,0.012806,0.006328,-0.529418,-0.034436,1.554944,-258.454597,-0.628374,72.935054
1.9177,0.023675,-0.019523,-0.033905,0.000194,0.007642,0.012803,0.006328,-0.529418,-0.034436,1.554944,-258.454597,-0.628374,72.935054
1.9372,0.023517,-0.018748,-0.035979,0.000188,0.00764,0.0128,0.006405,-0.528937,-0.033412,1.557302,-258.448945,-0.703309,72.935154
1.9567,0.023721,-0.019349,-0.034671,0.000192,0.007642,0.012801,0.005913,-0.528696,-0.034385,1.557302,-258.448945,-0.703309,72.935154
1.9767,0.023396,-0.018332,-0.032498,0.000196,0.007643,0.012802,0.006057,-0.52881,-0.034281,1.558608,-258.443032,-0.756169,72.935253
1.9969,0.023276,-0.019075,-0.031664,0.00015,0.007621,0.012799,0.006754,-0.52812,-0.032644,1.558608,-258.443032,-0.756169,72.935253
2.0167,0.023218,-0.018758,-0.03267,0.000112,0.007604,0.012796,0.006754,-0.52812,-0.032644,1.558608,-258.443032,-0.756169,72.935253
2.037,0.023012,-0.017862,-0.031169,8e-05,0.00759,0.012795,0.006578,-0.528169,-0.032138,1.558148,-258.436901,-0.732849,72.935357
2.0567,0.023195,-0.018448,-0.033274,4.8e-05,0.007576,0.012795,0.0068,-0.527907,-0.031683,1.558148,-258.436901,-0.732849,72.935357
2.077,0.022906,-0.018482,-0.03199,2.1e-05,0.007565,0.012796,0.006228,-0.528161,-0.033268,1.565621,-258.436801,-0.80785,72.935359
2.0968,0.022867,-0.018391,-0.030611,1.6e-05,0.007565,0.012784,0.006554,-0.528215,-0.032128,1.565621,-258.436801,-0.80785,72.935359
2.1169,0.023001,-0.018339,-0.032229,1.2e-05,0.007565,0.012773,0.006554,-0.528215,-0.032128,1.565621,-258.436801,-0.80785,72.935359
2.1366,0.022812,-0.018116,-0.032644,8e-06,0.007565,0.012765,0.006567,-0.528074,-0.032229,1.569427,-258.436798,-0.882855,72.935359
2.1567,0.023055,-0.018551,-0.032378,8e-06,0.007566,0.012737,0.006404,-0.527981,-0.032397,1.569427,-258.436798,-0.882855,72.935359
2.1765,0.023078,-0.01823,-0.032219,8e-06,0.007567,0.012714,0.006545,-0.528283,-0.032378,1.570289,-258.436794,-0.957907,72.935359
2.1968,0.023234,-0.01812,-0.033588,-2e-06,0.007563,0.012669,0.00664,-0.527993,-0.032233,1.570289,-258.436794,-0.957907,72.935359
2.217,0.023003,-0.017898,-0.031889,-1e-05,0.00756,0.012631,0.00664,-0.527993,-0.032233,1.570289,-258.436794,-0.957907,72.935359
2.2366,0.023085,-0.018553,-0.032474,-1.7e-05,0.007558,0.0126,0.006743,-0.527637,-0.031887,1.570249,-258.436768,-1.032912,72.935359
2.2568,0.023304,-0.018774,-0.03188,-2.5e-05,0.007555,0.01255,0.006655,-0.527899,-0.032124,1.570249,-258.436768,-1.032912,72.935359
2.277,0.022391,-0.017982,-0.033454,-3.1e-05,0.007553,0.012507,0.007048,-0.528514,-0.03188,1.571932,-258.436765,-1.107858,72.935359
2.2969,0.022704,-0.017979,-0.03068,1.9e-05,0.007576,0.012466,0.005496,-0.527775,-0.033303,1.571932,-258.436765,-1.107858,72.935359
2.3169,0.022961,-0.018386,-0.0324,6.1e-05,0.007594,0.01243,0.005496,-0.527775,-0.033303,1.571932,-258.436765,-1.107858,72.935359
2.3369,0.022552,-0.0181,-0.033804,9.5e-05,0.007609,0.0124,0.00644,-0.528118,-0.0324,1.572835,-258.436764,-1.03286,72.935359
2.3571,0.023288,-0.017979,-0.033594,0.000104,0.007612,0.01235,0.005982,-0.527992,-0.032971,1.572835,-258.436764,-1.03286,72.935359
2.3768,0.023222,-0.017956,-0.034602,0.000112,0.007615,0.012308,0.006158,-0.527691,-0.033594,1.564513,-258.436764,-0.957702,72.935359
2.3966,0.022837,-0.018246,-0.031508,0.00013,0.007622,0.012241,0.00563,-0.527655,-0.034512,1.564513,-258.436764,-0.957702,72.935359
2.417,0.023354,-0.01813,-0.033405,0.000145,0.007628,0.012185,0.00563,-0.527655,-0.034512,1.564513,-258.436764,-0.957702,72.935359
2.4371,0.023228,-0.018478,-0.031406,0.000158,0.007633,0.012139,0.006321,-0.527846,-0.033405,1.563406,-258.436763,-0.882856,72.935359
2.457,0.022713,-0.018281,-0.032646,0.000125,0.007617,0.012058,0.006683,-0.528,-0.032594,1.563406,-258.436763,-0.882856,72.935359
2.4765,0.022893,-0.018393,-0.031586,9.8e-05,0.007605,0.011991,0.006067,-0.52801,-0.032646,1.560315,-258.436762,-0.807857,72.935359
2.4969,0.0229,-0.018322,-0.031479,7.8e-05,0.007596,0.011895,0.006724,-0.528127,-0.031679,1.560315,-258.436762,-0.807857,72.935359
2.5169,0.023003,-0.018002,-0.033483,6.1e-05,0.00759,0.011817,0.006724,-0.528127,-0.031679,1.560315,-258.436762,-0.807857,72.935359
2.537,0.023074,-0.018427,-0.032053,4.8e-05,0.007585,0.011753,0.005931,-0.527716,-0.033483,1.564242,-258.436762,-0.732798,72.935359
2.5569,0.023033,-0.018445,-0.031602,5.4e-05,0.007589,0.011648,0.006256,-0.527899,-0.032899,1.564242,-258.436762,-0.732798,72.935359
2.5768,0.022914,-0.018607,-0.031797,5.9e-05,0.007593,0.011562,0.006919,-0.528191,-0.031602,1.56755,-258.436761,-0.807785,72.935359
2.5971,0.022838,-0.018275,-0.030468,5e-05,0.00759,0.011491,0.006721,-0.528335,-0.031779,1.56755,-258.436761,-0.807785,72.935359
2.6168,0.023221,-0.017791,-0.032804,4.3e-05,0.007587,0.011433,0.006721,-0.528335,-0.031779,1.56755,-258.436761,-0.807785,72.935359
2.637,0.023053,-0.018298,-0.03224,3.7e-05,0.007586,0.011385,0.006494,-0.527516,-0.032804,1.566749,-258.436761,-0.882736,72.935359
2.6569,0.023026,-0.018257,-0.033299,2.9e-05,0.007583,0.011347,0.006543,-0.527727,-0.032574,1.566749,-258.436761,-0.882736,72.935359
2.6767,0.022992,-0.018346,-0.031892,2.3e-05,0.00758,0.011316,0.006046,-0.527974,-0.033299,1.56826,-258.43676,-0.957734,72.935359
2.6969,0.022764,-0.018004,-0.03218,1.8e-05,0.007579,0.011291,0.006672,-0.528077,-0.032011,1.56826,-258.43676,-0.957734,72.935359
2.7167,0.023124,-0.018615,-0.033386,1.5e-05,0.007578,0.01127,0.006672,-0.528077,-0.032011,1.56826,-258.43676,-0.957734,72.935359
2.7369,0.023076,-0.018358,-0.032725,1.1e-05,0.007577,0.011253,0.006101,-0.52833,-0.033386,1.569212,-258.436755,-1.032857,72.935359
2.7568,0.023277,-0.018447,-0.034105,3.2e-05,0.007587,0.011243,0.006219,-0.52823,-0.033115,1.569212,-258.436755,-1.032857,72.935359
2.7769,0.022481,-0.018194,-0.03297,4.9e-05,0.007595,0.011234,0.005887,-0.528149,-0.034103,1.570001,-258.436722,-1.107824,72.935358
2.7967,0.022573,-0.018449,-0.032141,8.6e-05,0.007611,0.011229,0.005688,-0.527936,-0.033066,1.570001,-258.436722,-1.107824,72.935358
2.8169,0.022688,-0.018084,-0.032216,0.000116,0.007623,0.011225,0.005688,-0.527936,-0.033066,1.570001,-258.436722,-1.107824,72.935358
2.8371,0.023054,-0.018253,-0.032415,0.000141,0.007633,0.01122,0.00626,-0.527817,-0.032212,1.567378,-258.436671,-1.182861,72.935355
2.8569,0.022886,-0.018546,-0.030804,0.000129,0.007626,0.011211,0.00637,-0.527886,-0.032296,1.567378,-258.436671,-1.182861,72.935355
2.8766,0.022933,-0.017945,-0.03198,0.000118,0.00762,0.011205,0.007179,-0.528304,-0.030804,1.561057,-258.43667,-1.107814,72.935355
2.8966,0.02305,-0.01808,-0.032454,9.3e-05,0.007608,0.011197,0.006675,-0.527739,-0.031876,1.561057,-258.43667,-1.107814,72.935355
2.9169,0.023131,-0.018405,-0.031153,7.2e-05,0.007598,0.011192,0.006675,-0.527739,-0.031876,1.561057,-258.43667,-1.107814,72.935355
2.937,0.022687,-0.018622,-0.031597,5.4e-05,0.00759,0.011188,0.007246,-0.528157,-0.031152,1.562611,-258.43666,-1.182678,72.935354
2.9569,0.023376,-0.018116,-0.031696,3.5e-05,0.007582,0.011184,0.006971,-0.528243,-0.031334,1.562611,-258.43666,-1.182678,72.935354
2.9769,0.023231,-0.018442,-0.031382,1.9e-05,0.007575,0.011181,0.007214,-0.527853,-0.031685,1.567023,-258.436488,-1.257759,72.935345
2.998,0.023155,-0.018584,-0.032727,-8e-06,0.007564,0.011178,0.007228,-0.52816,-0.031409,1.567023,-258.436488,-1.257759,72.935345
3.0173,0.022793,-0.018408,-0.031858,-3e-05,0.007554,0.011176,0.007228,-0.52816,-0.031409,1.567023,-258.436488,-1.257759,72.935345
3.0371,0.023271,-0.018194,-0.033434,-4.9e-05,0.007546,0.011174,0.006549,-0.528101,-0.031786,1.569464,-258.435602,-1.332662,72.935299
3.0571,0.02297,-0.018459,-0.032815,-3e-05,0.007557,0.011178,0.006416,-0.528017,-0.032451,1.569464,-258.435602,-1.332662,72.935299
3.0775,0.022975,-0.017877,-0.032348,-1.4e-05,0.007565,0.011181,0.006241,-0.528042,-0.032606,1.574185,-258.432211,-1.407659,72.935118
3.0971,0.02291,-0.01815,-0.032096,-9e-06,0.007568,0.011181,0.006455,-0.527647,-0.032363,1.574185,-258.432211,-1.407659,72.935118
3.1167,0.022515,-0.018265,-0.031488,-5e-06,0.00757,0.011182,0.006455,-0.527647,-0.032363,1.574185,-258.432211,-1.407659,72.935118
3.1369,0.022446,-0.017656,-0.03106,-2e-06,0.007572,0.011182,0.006465,-0.527786,-0.031153,1.571778,-258.428091,-1.482765,72.934907
3.157,0.02254,-0.017458,-0.030716,-3e-06,0.007571,0.011244,0.006524,-0.527607,-0.031076,1.571778,-258.428091,-1.482765,72.934907
3.1771,0.021933,-0.017738,-0.03076,-4e-06,0.00757,0.011295,0.006884,-0.527004,-0.0304,1.570911,-258.422972,-1.557665,72.934643
3.1971,0.022079,-0.017149,-0.030484,3e-06,0.007573,0.01137,0.006305,-0.527442,-0.030711,1.570911,-258.422972,-1.557665,72.934643
3.2167,0.022315,-0.017609,-0.02991,9e-06,0.007575,0.011432,0.006305,-0.527442,-0.030711,1.570911,-258.422972,-1.557665,72.934643
3.237,0.022037,-0.016615,-0.030113,1.3e-05,0.007576,0.011484,0.007072,-0.527064,-0.029438,1.57104,-258.417162,-1.565555,72.934374
3.2571,0.022419,-0.016896,-0.029714,-2.7e-05,0.007555,0.011554,0.006909,-0.526741,-0.029667,1.57104,-258.417162,-1.565555,72.934374
3.2769,0.021643,-0.016498,-0.02809,-6e-05,0.007538,0.011613,0.007274,-0.526435,-0.029356,1.569895,-258.411431,-1.594164,72.934153
3.2969,0.022044,-0.01645,-0.028859,-0.000117,0.007508,0.011688,0.007315,-0.526297,-0.028185,1.569895,-258.411431,-1.594164,72.934153
3.3169,0.021795,-0.016337,-0.029319,-0.000164,0.007484,0.011752,0.007315,-0.526297,-0.028185,1.569895,-258.411431,-1.594164,72.934153
3.337,0.021756,-0.01624,-0.028533,-0.000204,0.007464,0.011806,0.00685,-0.525905,-0.028991,1.574884,-258.40749,-1.519541,72.934032
3.357,0.021889,-0.01617,-0.028647,-0.000231,0.007452,0.011871,0.006995,-0.525932,-0.028768,1.574884,-258.40749,-1.519541,72.934032
3.3768,0.022022,-0.016303,-0.028969,-0.000254,0.007442,0.011925,0.007281,-0.525961,-0.028646,1.584724,-258.407483,-1.444521,72.934032
3.3968,0.021587,-0.016379,-0.031149,-0.000283,0.007428,0.01197,0.007253,-0.526078,-0.028941,1.584724,-258.407483,-1.444521,72.934032
3.4172,0.021668,-0.016445,-0.029742,-0.000307,0.007417,0.012008,0.007253,-0.526078,-0.028941,1.584724,-258.407483,-1.444521,72.934032
3.4367,0.021602,-0.016749,-0.029043,-0.000328,0.007409,0.01204,0.006502,-0.526219,-0.029742,1.588035,-258.407482,-1.369421,72.934032
3.4568,0.021574,-0.01657,-0.029439,-0.000308,0.007422,0.012072,0.006622,-0.526349,-0.029453,1.588035,-258.407482,-1.369421,72.934032
3.4766,0.021532,-0.016407,-0.02869,-0.000291,0.007432,0.012098,0.006563,-0.526349,-0.029439,1.593019,-258.407481,-1.294246,72.934032
3.4971,0.021545,-0.016602,-0.031476,-0.000293,0.007433,0.012116,0.006873,-0.52621,-0.028756,1.593019,-258.407481,-1.294246,72.934032
3.517,0.022073,-0.016491,-0.030543,-0.000295,0.007433,0.012132,0.006873,-0.52621,-0.028756,1.593019,-258.407481,-1.294246,72.934032
3.5371,0.021815,-0.016235,-0.028449,-0.000296,0.007433,0.012145,0.006498,-0.526253,-0.030543,1.590451,-258.407481,-1.219378,72.934032
3.5569,0.0212,-0.0161,-0.029767,-0.000297,0.007434,0.012151,0.006828,-0.526162,-0.029691,1.590451,-258.407481,-1.219378,72.934032
3.577,0.021841,-0.016493,-0.028818,-0.000298,0.007434,0.012157,0.006021,-0.525874,-0.029767,1.590727,-258.40748,-1.144522,72.934032
3.5974,0.021953,-0.016234,-0.028891,-0.000306,0.00743,0.012144,0.007039,-0.526243,-0.028908,1.590727,-258.40748,-1.144522,72.934032
3.6175,0.02145,-0.016024,-0.029521,-0.000313,0.007427,0.012134,0.007039,-0.526243,-0.028908,1.590727,-258.40748,-1.144522,72.934032
3.6369,0.021647,-0.016048,-0.029461,-0.000319,0.007424,0.012125,0.006397,-0.525802,-0.02952,1.590832,-258.40748,-1.069534,72.934031
3.6572,0.021629,-0.016353,-0.028909,-0.000305,0.007432,0.012099,0.006489,-0.525812,-0.029496,1.590832,-258.40748,-1.069534,72.934031
3.6767,0.021309,-0.01645,-0.031137,-0.000293,0.007438,0.012077,0.006888,-0.52614,-0.028909,1.592337,-258.407479,-0.994509,72.934031
3.6969,0.021693,-0.016321,-0.029889,-0.000226,0.007471,0.012036,0.005558,-0.526197,-0.030943,1.592337,-258.407479,-0.994509,72.934031
3.7168,0.021584,-0.016381,-0.029113,-0.000169,0.007498,0.012001,0.005558,-0.526197,-0.030943,1.592337,-258.407479,-0.994509,72.934031
3.7374,0.021695,-0.016551,-0.028864,-0.000122,0.007519,0.011971,0.006738,-0.526165,-0.029113,1.590603,-258.407478,-0.919429,72.934031
3.7572,0.021589,-0.016516,-0.030227,-0.000148,0.007505,0.011899,0.006835,-0.526235,-0.029012,1.590603,-258.407478,-0.919429,72.934031
3.7769,0.021478,-0.016282,-0.028825,-0.000169,0.007494,0.011841,0.006177,-0.526182,-0.030068,1.579041,-258.404977,-0.994353,72.933955
3.7973,0.02134,-0.016538,-0.028678,-0.000182,0.007487,0.011772,0.006728,-0.526075,-0.028923,1.579041,-258.404977,-0.994353,72.933955
3.8172,0.021608,-0.016087,-0.029421,-0.000194,0.007481,0.011716,0.006728,-0.526075,-0.028923,1.579041,-258.404977,-0.994353,72.933955
3.8367,0.021014,-0.015945,-0.029643,-0.000203,0.007477,0.01167,0.006606,-0.525599,-0.029002,1.582246,-258.399982,-0.998845,72.933831
3.8567,0.021169,-0.015612,-0.027213,-0.000199,0.007479,0.011641,0.006319,-0.525618,-0.029214,1.582246,-258.399982,-0.998845,72.933831
3.8772,0.020675,-0.015472,-0.028478,-0.000195,0.007481,0.011618,0.007292,-0.525193,-0.026854,1.584674,-258.394344,-1.045794,72.933674
3.8971,0.020878,-0.015423,-0.027275,-0.000198,0.007478,0.011635,0.006261,-0.525246,-0.028305,1.584674,-258.394344,-1.045794,72.933674
3.9171,0.020807,-0.015468,-0.028104,-0.000201,0.007477,0.011649,0.006261,-0.525246,-0.028305,1.584674,-258.394344,-1.045794,72.933674
3.937,0.020782,-0.014943,-0.026923,-0.000203,0.007475,0.011661,0.006477,-0.524968,-0.027642,1.584175,-258.388801,-1.10221,72.93351
3.9569,0.020762,-0.014964,-0.029397,-0.000238,0.007455,0.011699,0.00671,-0.524849,-0.027297,1.584175,-258.388801,-1.10221,72.93351
3.9766,0.020045,-0.014787,-0.027378,-0.000268,0.007438,0.011732,0.005773,-0.524515,-0.02904,1.58467,-258.383211,-1.050214,72.933354
3.9968,0.019901,-0.014652,-0.027483,-0.000264,0.00744,0.011794,0.006056,-0.524577,-0.027509,1.58467,-258.383211,-1.050214,72.933354
4.0169,0.019932,-0.014605,-0.02809,-0.00026,0.007442,0.011845,0.006056,-0.524577,-0.027509,1.58467,-258.383211,-1.050214,72.933354
4.037,0.020676,-0.014746,-0.027679,-0.000257,0.007443,0.011887,0.005608,-0.524296,-0.027921,1.589156,-258.381197,-0.975231,72.933302
4.0568,0.020128,-0.015011,-0.025374,-0.000256,0.007443,0.011932,0.005992,-0.524386,-0.027804,1.589156,-258.381197,-0.975231,72.933302
4.0773,0.020062,-0.014674,-0.02699,-0.000255,0.007442,0.011969,0.007189,-0.524817,-0.025327,1.588264,-258.380456,-0.900227,72.933286
4.0973,0.020042,-0.014658,-0.025906,-0.000275,0.007432,0.012002,0.006402,-0.524524,-0.026795,1.588264,-258.380456,-0.900227,72.933286
4.1167,0.020279,-0.014543,-0.026889,-0.000291,0.007423,0.012029,0.006402,-0.524524,-0.026795,1.588264,-258.380456,-0.900227,72.933286
4.1371,0.020559,-0.014227,-0.026478,-0.000304,0.007416,0.012051,0.006567,-0.524342,-0.026863,1.588112,-258.380149,-0.825219,72.93328
4.1569,0.020573,-0.014352,-0.027196,-0.000344,0.007394,0.012069,0.006764,-0.524223,-0.026706,1.588112,-258.380149,-0.825219,72.93328
4.1769,0.020239,-0.014592,-0.027275,-0.000377,0.007376,0.012084,0.006705,-0.524163,-0.027196,1.591383,-258.380144,-0.750217,72.93328
4.1967,0.019823,-0.014638,-0.027483,-0.000378,0.007377,0.0121,0.006363,-0.524382,-0.027268,1.591383,-258.380144,-0.750217,72.93328
4.217,0.020212,-0.014448,-0.026671,-0.000379,0.007378,0.012114,0.006363,-0.524382,-0.027268,1.591383,-258.380144,-0.750217,72.93328
4.2372,0.020091,-0.014356,-0.027025,-0.00038,0.007379,0.012126,0.006611,-0.524267,-0.026671,1.596339,-258.380143,-0.675096,72.93328
4.257,0.020015,-0.014328,-0.026959,-0.000391,0.007373,0.012134,0.00649,-0.524228,-0.026814,1.596339,-258.380143,-0.675096,72.93328
4.2767,0.02013,-0.01442,-0.02553,-0.000401,0.007368,0.012141,0.006267,-0.524142,-0.026959,1.59647,-258.380142,-0.600219,72.93328
4.2967,0.02022,-0.014625,-0.0266,-0.000438,0.007348,0.012131,0.007035,-0.524244,-0.025658,1.59647,-258.380142,-0.600219,72.93328
4.3171,0.02019,-0.014372,-0.026099,-0.000469,0.007331,0.012123,0.007035,-0.524244,-0.025658,1.59647,-258.380142,-0.600219,72.93328
4.3371,0.020253,-0.014565,-0.027501,-0.000495,0.007318,0.012117,0.006881,-0.524198,-0.026099,1.597934,-258.380141,-0.525217,72.93328
4.3568,0.020413,-0.014376,-0.027952,-0.000492,0.007322,0.012089,0.00662,-0.524267,-0.02666,1.597934,-258.380141,-0.525217,72.93328
4.3768,0.020195,-0.014835,-0.026504,-0.00049,0.007324,0.012065,0.006159,-0.524177,-0.027952,1.604388,-258.380139,-0.450211,72.93328
4.397,0.020295,-0.014521,-0.028234,-0.000479,0.007332,0.012012,0.006633,-0.524613,-0.026634,1.604388,-258.380139,-0.450211,72.93328
4.4175,0.020139,-0.014351,-0.025909,-0.000471,0.007339,0.011968,0.006633,-0.524613,-0.026634,1.604388,-258.380139,-0.450211,72.93328
4.4374,0.02001,-0.015014,-0.025269,-0.000463,0.007344,0.011931,0.006927,-0.524178,-0.025905,1.604142,-258.380095,-0.375192,72.933278
4.4574,0.020162,-0.014449,-0.026733,-0.00048,0.007335,0.011862,0.007005,-0.524445,-0.025652,1.604142,-258.380095,-0.375192,72.933278
4.4767,0.020128,-0.014631,-0.026223,-0.000494,0.007328,0.011805,0.006527,-0.524182,-0.026596,1.602448,-258.377996,-0.300217,72.933211
4.4969,0.019761,-0.014106,-0.025099,-0.00049,0.007331,0.011736,0.006736,-0.524428,-0.026249,1.602448,-258.377996,-0.300217,72.933211
4.5171,0.01967,-0.014549,-0.026131,-0.000487,0.007334,0.011679,0.006736,-0.524428,-0.026249,1.602448,-258.377996,-0.300217,72.933211
4.537,0.019923,-0.014018,-0.026854,-0.000484,0.007336,0.011632,0.006333,-0.524131,-0.025741,1.604771,-258.373398,-0.234723,72.933022
4.5572,0.01974,-0.013776,-0.0269,-0.000467,0.007345,0.011614,0.006289,-0.523982,-0.02615,1.604771,-258.373398,-0.234723,72.933022
4.5767,0.019601,-0.014248,-0.026053,-0.000453,0.007353,0.011599,0.006017,-0.523479,-0.026721,1.604304,-258.37061,-0.309627,72.932918
4.597,0.019766,-0.013866,-0.025925,-0.000442,0.007358,0.0116,0.006291,-0.524019,-0.0261,1.604304,-258.37061,-0.309627,72.932918
4.6168,0.01987,-0.013988,-0.025805,-0.000433,0.007362,0.011601,0.006291,-0.524019,-0.0261,1.604304,-258.37061,-0.309627,72.932918
4.6372,0.019693,-0.013722,-0.024478,-0.000426,0.007366,0.011601,0.006706,-0.523683,-0.025591,1.602181,-258.368065,-0.384717,72.932825
4.657,0.019668,-0.013679,-0.02496,-0.000466,0.00734,0.01161,0.006912,-0.523621,-0.02511,1.602181,-258.368065,-0.384717,72.932825
4.6768,0.019334,-0.013589,-0.024232,-0.000499,0.00732,0.011619,0.006936,-0.523396,-0.024762,1.600239,-258.36499,-0.459685,72.932717
4.6971,0.019433,-0.013145,-0.024386,-0.000535,0.007298,0.011644,0.006973,-0.523429,-0.02427,1.600239,-258.36499,-0.459685,72.932717
4.7172,0.019429,-0.013397,-0.025566,-0.000565,0.007281,0.011666,0.006973,-0.523429,-0.02427,1.600239,-258.36499,-0.459685,72.932717
4.737,0.018949,-0.013344,-0.025954,-0.00059,0.007266,0.011685,0.006379,-0.522934,-0.025096,1.605384,-258.359408,-0.422688,72.932503
4.7567,0.018902,-0.013416,-0.025037,-0.000573,0.007276,0.011738,0.006104,-0.522998,-0.025394,1.605384,-258.359408,-0.422688,72.932503
4.7768,0.019241,-0.013183,-0.025014,-0.00056,0.007284,0.011782,0.006127,-0.523139,-0.024851,1.611749,-258.356504,-0.347603,72.932381
4.7969,0.018806,-0.013249,-0.024114,-0.00057,0.007278,0.011831,0.006452,-0.523028,-0.024989,1.611749,-258.356504,-0.347603,72.932381
4.817,0.019087,-0.013164,-0.025521,-0.000578,0.007272,0.011871,0.006452,-0.523028,-0.024989,1.611749,-258.356504,-0.347603,72.932381
4.8371,0.018764,-0.012489,-0.023192,-0.000585,0.007268,0.011905,0.006064,-0.522829,-0.025251,1.609432,-258.353309,-0.272619,72.932256
4.857,0.018661,-0.0128,-0.024085,-0.000602,0.007257,0.011948,0.006421,-0.522614,-0.024375,1.609432,-258.353309,-0.272619,72.932256
4.8765,0.018486,-0.012539,-0.022564,-0.000616,0.007248,0.011984,0.006375,-0.522584,-0.023977,1.611001,-258.351636,-0.197609,72.932189
4.8973,0.018789,-0.012751,-0.024419,-0.000663,0.007216,0.012016,0.006924,-0.522422,-0.022688,1.611001,-258.351636,-0.197609,72.932189
4.9175,0.018438,-0.012567,-0.024288,-0.000703,0.007191,0.012043,0.006924,-0.522422,-0.022688,1.611001,-258.351636,-0.197609,72.932189
4.9375,0.018681,-0.012554,-0.022713,-0.000735,0.00717,0.012067,0.006048,-0.522354,-0.024187,1.613046,-258.350449,-0.122729,72.932138
4.9568,0.018726,-0.012275,-0.025121,-0.000737,0.007171,0.012096,0.006472,-0.522375,-0.02358,1.613046,-258.350449,-0.122729,72.932138
4.9771,0.018769,-0.0128,-0.022858,-0.000739,0.007171,0.012121,0.005914,-0.522095,-0.025089,1.621322,-258.349954,-0.04773,72.932112
4.9972,0.018581,-0.01266,-0.023014,-0.000764,0.007156,0.01213,0.007008,-0.522616,-0.023049,1.621322,-258.349954,-0.04773,72.932112
5.0175,0.01887,-0.012458,-0.023784,-0.000786,0.007143,0.012139,0.007008,-0.522616,-0.023049,1.621322,-258.349954,-0.04773,72.932112
5.0371,0.018477,-0.012506,-0.023244,-0.000803,0.007134,0.012146,0.006738,-0.522273,-0.023718,1.621453,-258.349185,0.027422,72.932071
5.0572,0.018868,-0.012925,-0.023334,-0.000809,0.007132,0.012136,0.006691,-0.522307,-0.023518,1.621453,-258.349185,0.027422,72.932071
5.0772,0.018324,-0.012345,-0.023175,-0.000813,0.00713,0.012127,0.006965,-0.522739,-0.023256,1.62594,-258.348003,0.102386,72.932002
5.0972,0.018428,-0.012764,-0.022935,-0.000809,0.007133,0.012112,0.006545,-0.522251,-0.023178,1.62594,-258.348003,0.102386,72.932002
5.1175,0.018665,-0.012546,-0.023994,-0.000806,0.007136,0.0121,0.006545,-0.522251,-0.023178,1.62594,-258.348003,0.102386,72.932002
5.1369,0.018731,-0.012353,-0.023202,-0.000804,0.007138,0.012089,0.006417,-0.522266,-0.023772,1.626695,-258.345442,0.177387,72.931851
5.1567,0.018427,-0.012276,-0.023422,-0.000807,0.007136,0.01208,0.006609,-0.522231,-0.023518,1.626695,-258.345442,0.177387,72.931851
5.1767,0.018247,-0.011796,-0.022634,-0.000809,0.007135,0.012073,0.006467,-0.521954,-0.023117,1.626084,-258.340811,0.252277,72.931584
5.197,0.017892,-0.012337,-0.022658,-0.000835,0.007116,0.012072,0.006683,-0.521681,-0.022662,1.626084,-258.340811,0.252277,72.931584
5.217,0.018205,-0.012096,-0.023357,-0.000855,0.007101,0.012072,0.006683,-0.521681,-0.022662,1.626084,-258.340811,0.252277,72.931584
5.2372,0.017973,-0.011654,-0.022358,-0.000873,0.007089,0.012072,0.006267,-0.521663,-0.022861,1.626503,-258.3351,0.286809,72.931252
5.2569,0.017447,-0.0118,-0.022196,-0.000871,0.007089,0.012076,0.006389,-0.521573,-0.022598,1.626503,-258.3351,0.286809,72.931252
5.2767,0.017263,-0.011251,-0.022863,-0.000871,0.007089,0.012079,0.006105,-0.521452,-0.021817,1.631055,-258.329377,0.314144,72.93089
5.2968,0.017062,-0.011277,-0.021371,-0.000834,0.007109,0.012102,0.005646,-0.521136,-0.022754,1.631055,-258.329377,0.314144,72.93089
5.3167,0.017479,-0.011053,-0.021585,-0.000805,0.007125,0.01212,0.005646,-0.521136,-0.022754,1.631055,-258.329377,0.314144,72.93089
5.3369,0.01712,-0.010697,-0.019927,-0.000781,0.007137,0.012135,0.006442,-0.520638,-0.021081,1.630908,-258.32359,0.319507,72.930524
5.3573,0.016618,-0.011045,-0.021275,-0.000851,0.007081,0.012141,0.006649,-0.520586,-0.020552,1.630908,-258.32359,0.319507,72.930524
5.3768,0.016589,-0.010796,-0.02145,-0.000908,0.007036,0.012148,0.005749,-0.520703,-0.02089,1.624412,-258.31779,0.337984,72.930194
5.3973,0.016934,-0.010225,-0.020844,-0.000883,0.00705,0.012184,0.005658,-0.52067,-0.021383,1.624412,-258.31779,0.337984,72.930194
5.4177,0.016836,-0.010491,-0.020508,-0.000863,0.007061,0.012213,0.005658,-0.52067,-0.021383,1.624412,-258.31779,0.337984,72.930194
5.4369,0.016347,-0.010332,-0.020663,-0.000846,0.007069,0.012237,0.006347,-0.520103,-0.020024,1.633538,-258.312352,0.399476,72.929824
5.4569,0.016403,-0.010402,-0.01975,-0.000891,0.007032,0.012263,0.006134,-0.520119,-0.020221,1.633538,-258.312352,0.399476,72.929824
5.4768,0.016138,-0.010142,-0.019908,-0.000927,0.007003,0.012286,0.00631,-0.520084,-0.019373,1.62891,-258.306714,0.445673,72.929461
5.4971,0.016365,-0.009623,-0.019379,-0.000952,0.00698,0.012325,0.006012,-0.520034,-0.019844,1.62891,-258.306714,0.445673,72.929461
5.5172,0.015838,-0.0098,-0.019327,-0.000973,0.006962,0.012359,0.006012,-0.520034,-0.019844,1.62891,-258.306714,0.445673,72.929461
5.5366,0.015626,-0.009646,-0.018075,-0.00099,0.006948,0.012387,0.00595,-0.519424,-0.018834,1.634616,-258.301127,0.495469,72.929056
5.5573,0.015563,-0.009776,-0.019811,-0.00104,0.006903,0.012422,0.006135,-0.519449,-0.018463,1.634616,-258.301127,0.495469,72.929056
5.5769,0.015158,-0.009183,-0.018205,-0.00108,0.006868,0.012452,0.005435,-0.519468,-0.019442,1.63889,-258.295652,0.557856,72.928617
5.5973,0.015455,-0.009124,-0.018449,-0.001108,0.00684,0.012495,0.005837,-0.519119,-0.018288,1.63889,-258.295652,0.557856,72.928617
5.617,0.015162,-0.009199,-0.018357,-0.00113,0.006818,0.012532,0.005837,-0.519119,-0.018288,1.63889,-258.295652,0.557856,72.928617
5.6369,0.014801,-0.008836,-0.017761,-0.001148,0.0068,0.012563,0.005761,-0.518833,-0.017852,1.645307,-258.290022,0.598531,72.92811
5.6568,0.015097,-0.008828,-0.016563,-0.001174,0.006773,0.012597,0.005749,-0.518769,-0.017756,1.645307,-258.290022,0.598531,72.92811
5.6769,0.014709,-0.008758,-0.017831,-0.001195,0.006751,0.012626,0.006619,-0.51855,-0.016179,1.649961,-258.284451,0.649883,72.927556
5.6968,0.014623,-0.008734,-0.016053,-0.001214,0.00673,0.012653,0.0057,-0.518656,-0.01767,1.649961,-258.284451,0.649883,72.927556
5.717,0.015227,-0.008679,-0.016466,-0.00123,0.006713,0.012677,0.0057,-0.518656,-0.01767,1.649961,-258.284451,0.649883,72.927556
5.7373,0.014221,-0.007828,-0.015378,-0.001242,0.0067,0.012697,0.006785,-0.518331,-0.015945,1.653261,-258.278722,0.676821,72.926951
5.7568,0.014164,-0.008102,-0.015507,-0.001354,0.006595,0.012682,0.006616,-0.518072,-0.015656,1.653261,-258.278722,0.676821,72.926951
5.7767,0.013921,-0.007791,-0.015576,-0.001444,0.006513,0.012672,0.00622,-0.517829,-0.015108,1.656545,-258.272984,0.704025,72.926306
5.7969,0.013792,-0.00812,-0.01589,-0.001491,0.006465,0.012669,0.005997,-0.517727,-0.015514,1.656545,-258.272984,0.704025,72.926306
5.8167,0.013916,-0.007882,-0.017416,-0.001528,0.006427,0.012667,0.005997,-0.517727,-0.015514,1.656545,-258.272984,0.704025,72.926306
5.8367,0.013831,-0.007704,-0.014999,-0.001558,0.006396,0.012666,0.004979,-0.517532,-0.016888,1.671766,-258.267278,0.704152,72.925552
5.8569,0.013295,-0.007381,-0.015073,-0.001542,0.0064,0.012681,0.005463,-0.517548,-0.016057,1.671766,-258.267278,0.704152,72.925552
5.877,0.012896,-0.007517,-0.013056,-0.001529,0.006402,0.012694,0.005561,-0.517119,-0.01467,1.680623,-258.261602,0.710045,72.924731
5.8969,0.013061,-0.007346,-0.012412,-0.001591,0.006342,0.012614,0.006174,-0.517432,-0.013181,1.680623,-258.261602,0.710045,72.924731
5.9174,0.013536,-0.007136,-0.014585,-0.001641,0.006294,0.012552,0.006174,-0.517432,-0.013181,1.680623,-258.261602,0.710045,72.924731
5.9371,0.012507,-0.00728,-0.014019,-0.001681,0.006256,0.012503,0.006038,-0.516814,-0.014055,1.678366,-258.255924,0.723653,72.923918
5.9571,0.013107,-0.007021,-0.014615,-0.001704,0.00622,0.012503,0.005756,-0.516951,-0.013979,1.678366,-258.255924,0.723653,72.923918
5.9766,0.012072,-0.006811,-0.013939,-0.001721,0.006192,0.012504,0.005604,-0.516771,-0.014225,1.691219,-258.25045,0.687448,72.923067
5.9967,0.012545,-0.006739,-0.013051,-0.001674,0.006207,0.012514,0.005017,-0.516753,-0.013945,1.691219,-258.25045,0.687448,72.923067
6.0168,0.012177,-0.006892,-0.012311,-0.001637,0.006217,0.012521,0.005017,-0.516753,-0.013945,1.691219,-258.25045,0.687448,72.923067
6.0367,0.011593,-0.00633,-0.013004,-0.001606,0.006225,0.012525,0.00583,-0.516594,-0.011789,1.694631,-258.244894,0.698246,72.922171
6.0568,0.012078,-0.006332,-0.012112,-0.001655,0.006163,0.012437,0.005469,-0.516439,-0.012222,1.694631,-258.244894,0.698246,72.922171
6.0766,0.011508,-0.005819,-0.010689,-0.001692,0.006114,0.012369,0.005853,-0.516098,-0.011719,1.686046,-258.239373,0.725765,72.921322
6.097,0.011513,-0.005565,-0.011832,-0.001826,0.005964,0.012189,0.006037,-0.515806,-0.010758,1.686046,-258.239373,0.725765,72.921322
6.1169,0.011759,-0.006141,-0.011306,-0.001929,0.005846,0.012055,0.006037,-0.515806,-0.010758,1.686046,-258.239373,0.725765,72.921322
6.1367,0.011196,-0.005797,-0.011083,-0.002009,0.005754,0.011955,0.005926,-0.515854,-0.010793,1.693987,-258.233916,0.705022,72.920442
6.1567,0.011427,-0.005901,-0.010847,-0.002048,0.0057,0.011893,0.005763,-0.515789,-0.010851,1.693987,-258.233916,0.705022,72.920442
6.1766,0.011078,-0.005581,-0.012084,-0.002078,0.005657,0.011846,0.005837,-0.515696,-0.010486,1.723512,-258.228901,0.65614,72.919479
6.1969,0.010566,-0.005193,-0.010954,-0.002028,0.005658,0.011904,0.004994,-0.515549,-0.011923,1.723512,-258.228901,0.65614,72.919479
6.2168,0.010391,-0.005307,-0.00948,-0.001988,0.005657,0.011947,0.004994,-0.515549,-0.011923,1.723512,-258.228901,0.65614,72.919479
6.237,0.010311,-0.005402,-0.009941,-0.001955,0.005655,0.01198,0.005471,-0.515047,-0.008985,1.730581,-258.223685,0.649447,72.918437
6.2569,0.010518,-0.004878,-0.010925,-0.002025,0.005568,0.011732,0.005368,-0.515153,-0.009314,1.730581,-258.223685,0.649447,72.918437
6.277,0.00978,-0.005029,-0.008612,-0.002076,0.005499,0.011551,0.004888,-0.514675,-0.010562,1.720396,-258.218695,0.704513,72.917461
6.2968,0.00988,-0.004615,-0.009655,-0.00213,0.005423,0.011334,0.00534,-0.514971,-0.008769,1.720396,-258.218695,0.704513,72.917461
6.3167,0.009854,-0.004738,-0.008218,-0.002168,0.005362,0.011178,0.00534,-0.514971,-0.008769,1.720396,-258.218695,0.704513,72.917461
6.3373,0.009797,-0.004793,-0.008491,-0.002195,0.005314,0.011065,0.005583,-0.514504,-0.007764,1.734643,-258.213918,0.643205,72.916487
6.3567,0.010083,-0.004492,-0.010087,-0.002271,0.005209,0.010848,0.005527,-0.514588,-0.008004,1.734643,-258.213918,0.643205,72.916487
6.3765,0.009659,-0.004539,-0.009084,-0.002327,0.005127,0.010693,0.004939,-0.514466,-0.010087,1.659637,-258.213919,0.58177,72.916487
6.3973,0.009633,-0.0046,-0.007186,-0.002297,0.005093,0.010755,0.005019,-0.514514,-0.009162,1.659637,-258.213919,0.58177,72.916487
6.4176,0.009244,-0.004484,-0.010919,-0.002272,0.005065,0.0108,0.005019,-0.514514,-0.009162,1.659637,-258.213919,0.58177,72.916487
6.437,0.00984,-0.004421,-0.00989,-0.002252,0.005043,0.010832,0.003676,-0.514454,-0.010919,1.584276,-258.213919,0.542837,72.916487
6.457,0.009722,-0.004432,-0.008268,-0.002106,0.005084,0.010995,0.004132,-0.51443,-0.0105,1.584276,-258.213919,0.542837,72.916487
6.4768,0.009049,-0.004258,-0.007523,-0.001993,0.005113,0.011115,0.005505,-0.514415,-0.008268,1.509639,-258.21392,0.609653,72.916487
6.497,0.009813,-0.00413,-0.007733,-0.002094,0.005028,0.010767,0.005239,-0.514259,-0.007591,1.509639,-258.21392,0.609653,72.916487
6.5171,0.009604,-0.00462,-0.008534,-0.002169,0.004962,0.010514,0.005239,-0.514259,-0.007591,1.509639,-258.21392,0.609653,72.916487
6.5369,0.009674,-0.004605,-0.009769,-0.002224,0.004912,0.010329,0.005235,-0.514517,-0.008354,1.584632,-258.212069,0.684645,72.916087
6.557,0.009617,-0.004469,-0.008128,-0.002198,0.004936,0.010394,0.005009,-0.514534,-0.008917,1.584632,-258.212069,0.684645,72.916087
6.5771,0.009282,-0.004217,-0.007108,-0.002178,0.004954,0.01044,0.005472,-0.514452,-0.008128,1.509502,-258.212069,0.609516,72.916087
6.5971,0.009411,-0.004416,-0.009061,-0.002278,0.004879,0.010167,0.00564,-0.514227,-0.0072,1.509502,-258.212069,0.609516,72.916087
6.6167,0.009241,-0.004728,-0.008159,-0.002355,0.00482,0.009968,0.00564,-0.514227,-0.0072,1.509502,-258.212069,0.609516,72.916087
6.6369,0.009533,-0.004384,-0.009079,-0.002413,0.004775,0.009824,0.00508,-0.514711,-0.008159,1.434625,-258.21207,0.578392,72.916087
6.6573,0.009196,-0.004111,-0.010387,-0.002344,0.004842,0.009928,0.005008,-0.514569,-0.008535,1.434625,-258.21207,0.578392,72.916087
6.6765,0.009337,-0.00486,-0.006977,-0.002291,0.004892,0.010002,0.003899,-0.514084,-0.010387,1.359596,-258.21207,0.503363,72.916087
6.6971,0.009546,-0.004481,-0.007882,-0.002317,0.004918,0.009835,0.00561,-0.514779,-0.007284,1.359596,-258.21207,0.503363,72.916087
6.7168,0.009273,-0.004765,-0.010579,-0.002336,0.004938,0.009711,0.00561,-0.514779,-0.007284,1.359596,-258.21207,0.503363,72.916087
6.7368,0.00934,-0.004416,-0.008263,-0.002351,0.004955,0.009618,0.003878,-0.514737,-0.010579,1.284623,-258.212071,0.488096,72.916087
6.7567,0.00931,-0.004506,-0.008063,-0.002199,0.005046,0.009848,0.004384,-0.5146,-0.00964,1.284623,-258.212071,0.488096,72.916087
6.7767,0.009505,-0.004597,-0.008851,-0.002081,0.005114,0.010018,0.005198,-0.514489,-0.008063,1.209637,-258.212071,0.413109,72.916087
6.797,0.009433,-0.004447,-0.00985,-0.002076,0.005121,0.010016,0.00501,-0.514569,-0.008779,1.209637,-258.212071,0.413109,72.916087
6.8169,0.009511,-0.004202,-0.007562,-0.002072,0.005126,0.010008,0.00501,-0.514569,-0.008779,1.209637,-258.212071,0.413109,72.916087
6.8369,0.009074,-0.004279,-0.009071,-0.00207,0.005131,0.009996,0.005655,-0.514188,-0.007562,1.134639,-258.212072,0.449563,72.916087
6.8568,0.009136,-0.004481,-0.009537,-0.002118,0.005071,0.009867,0.005165,-0.514216,-0.008175,1.134639,-258.212072,0.449563,72.916087
6.877,0.009555,-0.004446,-0.009659,-0.002154,0.005025,0.009765,0.004273,-0.514458,-0.009537,1.05964,-258.212072,0.439782,72.916087
6.8968,0.009116,-0.004446,-0.009158,-0.002081,0.005068,0.009853,0.004592,-0.514426,-0.009646,1.05964,-258.212072,0.439782,72.916087
6.9171,0.009368,-0.004916,-0.008852,-0.002025,0.005101,0.009913,0.004592,-0.514426,-0.009646,1.05964,-258.212072,0.439782,72.916087
6.937,0.009656,-0.004606,-0.007963,-0.001982,0.005125,0.009954,0.004853,-0.514896,-0.008852,0.984633,-258.212072,0.410811,72.916087
6.9567,0.009057,-0.004501,-0.008932,-0.002005,0.005147,0.009845,0.005153,-0.514773,-0.008493,0.984633,-258.212072,0.410811,72.916087
6.9767,0.009538,-0.004279,-0.008871,-0.002022,0.005165,0.009762,0.004502,-0.51448,-0.008932,0.909626,-258.212073,0.448537,72.916087
6.997,0.009519,-0.004178,-0.009428,-0.002046,0.005124,0.009749,0.004967,-0.514279,-0.008877,0.909626,-258.212073,0.448537,72.916087
7.0167,0.009394,-0.004501,-0.009131,-0.002063,0.005093,0.009736,0.004967,-0.514279,-0.008877,0.909626,-258.212073,0.448537,72.916087
7.0366,0.00926,-0.004849,-0.00864,-0.002077,0.005069,0.009726,0.004738,-0.514479,-0.009131,0.834473,-258.212073,0.375413,72.916087
7.0566,0.009578,-0.004467,-0.009987,-0.002042,0.005114,0.009725,0.004785,-0.514622,-0.008931,0.834473,-258.212073,0.375413,72.916087
7.0765,0.009561,-0.004465,-0.008194,-0.002014,0.005149,0.009722,0.004485,-0.514442,-0.009987,0.759593,-258.212074,0.397008,72.916087
7.0973,0.009697,-0.004106,-0.008899,-0.00207,0.005111,0.00964,0.005305,-0.514447,-0.008348,0.759593,-258.212074,0.397008,72.916087
7.1168,0.009886,-0.004431,-0.009803,-0.002113,0.005083,0.009579,0.005305,-0.514447,-0.008348,0.759593,-258.212074,0.397008,72.916087
7.1366,0.009296,-0.004475,-0.010487,-0.002147,0.005062,0.009535,0.004886,-0.514407,-0.009803,0.684514,-258.212074,0.373402,72.916086
7.1568,0.009736,-0.004945,-0.008333,-0.002061,0.005108,0.009692,0.004498,-0.514424,-0.010086,0.684514,-258.212074,0.373402,72.916086
7.1768,0.009526,-0.004276,-0.009304,-0.001994,0.005141,0.009809,0.005486,-0.514927,-0.008333,0.609457,-258.212075,0.340892,72.916086
7.197,0.009409,-0.0048,-0.008037,-0.002003,0.005121,0.009812,0.004841,-0.514311,-0.009221,0.609457,-258.212075,0.340892,72.916086
7.2172,0.00947,-0.004477,-0.009266,-0.002009,0.005106,0.009812,0.004841,-0.514311,-0.009221,0.609457,-258.212075,0.340892,72.916086
7.2373,0.009662,-0.004317,-0.008875,-0.002014,0.005094,0.009812,0.004744,-0.514455,-0.009266,0.534481,-258.212075,0.40272,72.916086
7.2573,0.009317,-0.004383,-0.009252,-0.002021,0.005092,0.009797,0.004905,-0.51439,-0.009105,0.534481,-258.212075,0.40272,72.916086
7.2766,0.009666,-0.004031,-0.009196,-0.002026,0.00509,0.009786,0.004599,-0.514361,-0.009252,0.45949,-258.212075,0.419649,72.916086
7.297,0.00954,-0.004343,-0.007874,-0.002058,0.005032,0.009788,0.004944,-0.514039,-0.009201,0.45949,-258.212075,0.419649,72.916086
7.3168,0.009723,-0.004723,-0.008408,-0.002082,0.004988,0.009789,0.004944,-0.514039,-0.009201,0.45949,-258.212075,0.419649,72.916086
7.3371,0.009912,-0.00417,-0.008652,-0.0021,0.004953,0.00979,0.005434,-0.514705,-0.008408,0.384479,-258.212076,0.412291,72.916086
7.3567,0.009733,-0.00428,-0.009199,-0.002147,0.004954,0.009699,0.005461,-0.51448,-0.008507,0.384479,-258.212076,0.412291,72.916086
7.3773,0.009357,-0.004609,-0.009188,-0.002184,0.004956,0.009634,0.005042,-0.514258,-0.009199,0.309624,-258.212076,0.454327,72.916086
7.3968,0.009799,-0.004842,-0.008023,-0.002115,0.005026,0.009677,0.004703,-0.514559,-0.009189,0.309624,-258.212076,0.454327,72.916086
7.417,0.009737,-0.004443,-0.009758,-0.002063,0.00508,0.009708,0.004703,-0.514559,-0.009189,0.309624,-258.212076,0.454327,72.916086
7.4366,0.00936,-0.004498,-0.007918,-0.002022,0.005121,0.009731,0.00476,-0.514418,-0.009758,0.234493,-258.212077,0.401851,72.916086
7.4566,0.009234,-0.004757,-0.008307,-0.002035,0.005114,0.009724,0.004989,-0.514444,-0.00901,0.234493,-258.212077,0.401851,72.916086
7.4772,0.009493,-0.004585,-0.00848,-0.002045,0.005109,0.009719,0.004998,-0.51474,-0.008307,0.159621,-258.212077,0.386369,72.916086
7.4974,0.009254,-0.004738,-0.008437,-0.002068,0.005112,0.009646,0.005152,-0.514583,-0.008464,0.159621,-258.212077,0.386369,72.916086
7.5168,0.009673,-0.004449,-0.007779,-0.002086,0.005114,0.009594,0.005152,-0.514583,-0.008464,0.159621,-258.212077,0.386369,72.916086
7.5365,0.009628,-0.004402,-0.00895,-0.0021,0.005116,0.009557,0.005706,-0.514434,-0.007779,0.084617,-258.212078,0.384089,72.916086
7.5575,0.009479,-0.004658,-0.007759,-0.002154,0.005073,0.009499,0.005444,-0.514412,-0.008256,0.084617,-258.212078,0.384089,72.916086
7.577,0.009175,-0.004855,-0.009757,-0.002197,0.00504,0.009458,0.005522,-0.514643,-0.007759,0.009622,-258.212078,0.33055,72.916086
7.5968,0.009231,-0.004344,-0.009119,-0.002053,0.005159,0.009595,0.004314,-0.514814,-0.009584,0.009622,-258.212078,0.33055,72.916086
7.6173,0.009516,-0.004648,-0.009927,-0.001942,0.005249,0.009695,0.004314,-0.514814,-0.009584,0.009622,-258.212078,0.33055,72.916086
7.6368,0.00922,-0.004569,-0.009455,-0.001857,0.005317,0.009769,0.004454,-0.514623,-0.009927,-0.065549,-258.212079,0.323426,72.916086
7.6569,0.009761,-0.004378,-0.008279,-0.00182,0.005329,0.009834,0.004431,-0.514591,-0.009732,-0.065549,-258.212079,0.323426,72.916086
7.6772,0.009401,-0.004637,-0.008289,-0.001791,0.005338,0.009881,0.005539,-0.514361,-0.008279,-0.140506,-258.212079,0.336636,72.916085
7.6971,0.009344,-0.004312,-0.008192,-0.001876,0.005285,0.009738,0.005208,-0.514595,-0.008288,-0.140506,-258.212079,0.336636,72.916085
7.717,0.009648,-0.004256,-0.008297,-0.001942,0.005244,0.009635,0.005208,-0.514595,-0.008288,-0.140506,-258.212079,0.336636,72.916085
7.7373,0.009479,-0.004296,-0.009533,-0.001994,0.005214,0.009561,0.005416,-0.514238,-0.008297,-0.215468,-258.212079,0.37096,72.916085
7.7573,0.009405,-0.004261,-0.008431,-0.002036,0.005152,0.009578,0.005077,-0.514253,-0.008822,-0.215468,-258.212079,0.37096,72.916085
7.7768,0.009292,-0.004235,-0.008976,-0.002069,0.005104,0.009591,0.005106,-0.514243,-0.008431,-0.290847,-258.21208,0.304004,72.916085
7.7971,0.00964,-0.004473,-0.009341,-0.002058,0.005085,0.009619,0.004748,-0.514217,-0.008929,-0.290847,-258.21208,0.304004,72.916085
7.8171,0.009627,-0.004188,-0.006881,-0.002049,0.00507,0.009639,0.004748,-0.514217,-0.008929,-0.290847,-258.21208,0.304004,72.916085
7.8366,0.009323,-0.004236,-0.00712,-0.002042,0.005058,0.009654,0.006118,-0.514176,-0.006881,-0.36548,-258.21208,0.349216,72.916085
7.8568,0.009462,-0.004222,-0.008939,-0.002184,0.004962,0.009344,0.00594,-0.514196,-0.006981,-0.36548,-258.21208,0.349216,72.916085
7.8766,0.009374,-0.00443,-0.008752,-0.002294,0.004888,0.009128,0.004903,-0.514202,-0.008939,-0.44067,-258.212081,0.389635,72.916085
7.897,0.00969,-0.004521,-0.008174,-0.002236,0.004934,0.009258,0.00491,-0.514393,-0.008767,-0.44067,-258.212081,0.389635,72.916085
7.9168,0.009723,-0.004538,-0.009081,-0.002192,0.004969,0.009354,0.00491,-0.514393,-0.008767,-0.44067,-258.212081,0.389635,72.916085
7.9369,0.009419,-0.0042,-0.00881,-0.002159,0.004996,0.009426,0.005092,-0.514517,-0.009081,-0.515668,-258.212081,0.314638,72.916085
7.9569,0.009365,-0.004493,-0.008022,-0.002146,0.005006,0.009499,0.005022,-0.514375,-0.008967,-0.515668,-258.212081,0.314638,72.916085
7.9769,0.009633,-0.00398,-0.007366,-0.002136,0.005014,0.009553,0.005274,-0.514477,-0.008022,-0.590741,-258.212082,0.338885,72.916085
7.9971,0.00939,-0.004474,-0.008746,-0.002253,0.004908,0.009366,0.005823,-0.514012,-0.007424,-0.590741,-258.212082,0.338885,72.916085
8.017,0.009348,-0.004133,-0.006343,-0.002343,0.004826,0.009234,0.005823,-0.514012,-0.007424,-0.590741,-258.212082,0.338885,72.916085
8.037,0.009751,-0.004219,-0.008665,-0.002413,0.004764,0.009142,0.006113,-0.514122,-0.006343,-0.665377,-258.212082,0.367038,72.916085
8.0566,0.009483,-0.004467,-0.006384,-0.002457,0.004739,0.009057,0.00579,-0.514155,-0.007305,-0.665377,-258.212082,0.367038,72.916085
8.0769,0.00945,-0.004823,-0.008671,-0.002491,0.004719,0.008999,0.006227,-0.514456,-0.006384,-0.740533,-258.212084,0.327584,72.916084
8.0968,0.009667,-0.004426,-0.009247,-0.002393,0.004838,0.009134,0.005135,-0.514773,-0.008466,-0.740533,-258.212084,0.327584,72.916084
8.1168,0.009738,-0.003926,-0.008325,-0.002319,0.00493,0.009233,0.005135,-0.514773,-0.008466,-0.740533,-258.212084,0.327584,72.916084
8.1372,0.009022,-0.004407,-0.007994,-0.002263,0.005001,0.009307,0.005492,-0.513908,-0.008324,-0.815382,-258.212095,0.302422,72.916082
8.1569,0.009419,-0.004502,-0.00837,-0.002284,0.004949,0.009325,0.005269,-0.514105,-0.008189,-0.815382,-258.212095,0.302422,72.916082
8.1765,0.009522,-0.004268,-0.00805,-0.002301,0.00491,0.009338,0.005149,-0.514484,-0.008369,-0.890383,-258.212124,0.293357,72.916075
8.1967,0.009336,-0.004116,-0.01058,-0.002316,0.004896,0.00933,0.005393,-0.514273,-0.008078,-0.890383,-258.212124,0.293357,72.916075
8.2168,0.009266,-0.004316,-0.009326,-0.002327,0.004886,0.009325,0.005393,-0.514273,-0.008078,-0.890383,-258.212124,0.293357,72.916075
8.2366,0.009501,-0.004691,-0.007808,-0.002337,0.004877,0.009321,0.004505,-0.514289,-0.009317,-0.965385,-258.212237,0.332128,72.91605
8.2567,0.00954,-0.003957,-0.008105,-0.002272,0.004932,0.009402,0.004917,-0.514446,-0.008702,-0.965385,-258.212237,0.332128,72.91605
8.2765,0.009271,-0.004363,-0.008729,-0.002222,0.004974,0.009462,0.005396,-0.513928,-0.008083,-1.040379,-258.212603,0.335658,72.915966
8.2967,0.00952,-0.004713,-0.008067,-0.002188,0.004988,0.009502,0.004869,-0.514307,-0.008671,-1.040379,-258.212603,0.335658,72.915966
8.3168,0.009608,-0.004226,-0.008693,-0.002162,0.004999,0.009531,0.004869,-0.514307,-0.008671,-1.040379,-258.212603,0.335658,72.915966
8.337,0.009576,-0.004235,-0.008207,-0.002142,0.005007,0.009551,0.005149,-0.514173,-0.008629,-1.115438,-258.213374,0.347511,72.915801
8.3568,0.009622,-0.004389,-0.00742,-0.002178,0.004968,0.009532,0.005245,-0.514188,-0.008449,-1.115438,-258.213374,0.347511,72.915801
8.3766,0.009227,-0.004418,-0.00993,-0.002206,0.004938,0.009518,0.005805,-0.514325,-0.007324,-1.190383,-258.214839,0.368281,72.915496
8.3971,0.009476,-0.004424,-0.009543,-0.002085,0.005017,0.009652,0.00431,-0.514384,-0.00969,-1.190383,-258.214839,0.368281,72.915496
8.4174,0.009453,-0.004244,-0.009242,-0.001992,0.005076,0.009751,0.00431,-0.514384,-0.00969,-1.190383,-258.214839,0.368281,72.915496
8.4371,0.008907,-0.00404,-0.009861,-0.00192,0.00512,0.009823,0.004672,-0.514101,-0.009009,-1.265376,-258.217471,0.377697,72.914927
8.4571,0.009138,-0.004567,-0.008459,-0.001898,0.005096,0.009872,0.004342,-0.514052,-0.009327,-1.265376,-258.217471,0.377697,72.914927
8.477,0.008671,-0.003717,-0.008747,-0.001879,0.005076,0.00991,0.004774,-0.514432,-0.008236,-1.340379,-258.220709,0.429135,72.914321
8.497,0.008754,-0.00394,-0.006501,-0.001882,0.005012,0.009888,0.004259,-0.513757,-0.00869,-1.340379,-258.220709,0.429135,72.914321
8.5172,0.008622,-0.003919,-0.008341,-0.001882,0.004962,0.009873,0.004259,-0.513757,-0.00869,-1.340379,-258.220709,0.429135,72.914321
8.537,0.008371,-0.00359,-0.007605,-0.00188,0.004923,0.009864,0.004299,-0.513709,-0.007967,-1.403555,-258.224777,0.479248,72.913558
8.5574,0.008035,-0.003882,-0.007501,-0.001921,0.004847,0.009741,0.004369,-0.513633,-0.007778,-1.403555,-258.224777,0.479248,72.913558
8.577,0.008021,-0.003389,-0.006579,-0.001948,0.004789,0.009656,0.004154,-0.513716,-0.007199,-1.40069,-258.229046,0.529965,72.91272
8.5972,0.008128,-0.003682,-0.005901,-0.002038,0.00468,0.009379,0.004619,-0.5134,-0.006617,-1.40069,-258.229046,0.529965,72.91272
8.6174,0.008083,-0.0036,-0.008087,-0.002103,0.004596,0.009192,0.004619,-0.5134,-0.006617,-1.40069,-258.229046,0.529965,72.91272
8.6373,0.007845,-0.003296,-0.005833,-0.00215,0.004531,0.009067,0.003879,-0.513382,-0.007684,-1.39047,-258.233373,0.517393,72.911827
8.6571,0.007644,-0.003126,-0.005079,-0.002133,0.004483,0.009061,0.00427,-0.513321,-0.00689,-1.39047,-258.233373,0.517393,72.911827
8.6771,0.007614,-0.002946,-0.005482,-0.002117,0.004444,0.009063,0.004993,-0.512991,-0.004822,-1.36047,-258.237041,0.442402,72.910982
8.697,0.00724,-0.003142,-0.006996,-0.002225,0.004306,0.008707,0.004831,-0.512936,-0.005412,-1.36047,-258.237041,0.442402,72.910982
8.717,0.00751,-0.003238,-0.005407,-0.002304,0.004198,0.008468,0.004831,-0.512936,-0.005412,-1.36047,-258.237041,0.442402,72.910982
8.7375,0.007249,-0.002898,-0.005313,-0.00236,0.004114,0.008309,0.004666,-0.513047,-0.005035,-1.361725,-258.24105,0.475709,72.910046
8.7571,0.007122,-0.002992,-0.005237,-0.002378,0.004064,0.008126,0.004605,-0.512962,-0.005105,-1.361725,-258.24105,0.475709,72.910046
8.7766,0.006777,-0.002533,-0.00538,-0.002389,0.004024,0.008006,0.004387,-0.512873,-0.00501,-1.319358,-258.244298,0.400717,72.909173
8.7968,0.006514,-0.002529,-0.005132,-0.002343,0.003919,0.008025,0.004061,-0.512551,-0.005337,-1.319358,-258.244298,0.400717,72.909173
8.8167,0.006924,-0.003071,-0.003886,-0.002304,0.003837,0.008045,0.004061,-0.512551,-0.005337,-1.319358,-258.244298,0.400717,72.909173
8.8366,0.006653,-0.002202,-0.00641,-0.002271,0.003774,0.008063,0.004848,-0.512906,-0.003566,-1.308956,-258.247817,0.347839,72.908204
8.8569,0.006314,-0.002291,-0.004906,-0.002277,0.003729,0.007881,0.004241,-0.512597,-0.004686,-1.308956,-258.247817,0.347839,72.908204
8.8769,0.006204,-0.001921,-0.003158,-0.002277,0.003693,0.007759,0.003754,-0.512189,-0.004706,-1.315405,-258.250658,0.422743,72.9074
8.898,0.006444,-0.002456,-0.005101,-0.00237,0.003508,0.007177,0.004516,-0.511938,-0.003285,-1.315405,-258.250658,0.422743,72.9074
8.9168,0.00618,-0.002577,-0.005115,-0.002434,0.003365,0.006789,0.004516,-0.511938,-0.003285,-1.315405,-258.250658,0.422743,72.9074
8.9374,0.006165,-0.002211,-0.002937,-0.002476,0.003254,0.00653,0.003477,-0.512415,-0.00479,-1.307004,-258.254144,0.430378,72.906399
8.957,0.005633,-0.002388,-0.003187,-0.00239,0.003277,0.006634,0.003934,-0.512316,-0.004023,-1.307004,-258.254144,0.430378,72.906399
8.9769,0.005555,-0.001939,-0.004362,-0.002323,0.003292,0.006713,0.003955,-0.512317,-0.003044,-1.24139,-258.256209,0.355381,72.905703
8.9969,0.006039,-0.002008,-0.003478,-0.002195,0.003233,0.006872,0.003383,-0.511965,-0.004238,-1.24139,-258.256209,0.355381,72.905703
9.0169,0.005623,-0.002034,-0.003886,-0.002095,0.003186,0.006984,0.003383,-0.511965,-0.004238,-1.24139,-258.256209,0.355381,72.905703
9.0373,0.005525,-0.001879,-0.003666,-0.002018,0.00315,0.007062,0.003546,-0.511894,-0.00361,-1.266356,-258.259256,0.334733,72.904736
9.0574,0.005542,-0.002082,-0.002099,-0.002006,0.003097,0.006891,0.003579,-0.511871,-0.003601,-1.266356,-258.259256,0.334733,72.904736
9.0769,0.005071,-0.002084,-0.003406,-0.001993,0.003055,0.006773,0.004435,-0.512024,-0.001978,-1.306712,-258.260963,0.409684,72.904221
9.0968,0.005343,-0.001891,-0.00384,-0.001947,0.003091,0.006563,0.003425,-0.512073,-0.00328,-1.306712,-258.260963,0.409684,72.904221
9.1173,0.005068,-0.001893,-0.003732,-0.001908,0.003116,0.006418,0.003425,-0.512073,-0.00328,-1.306712,-258.260963,0.409684,72.904221
9.1372,0.005242,-0.001742,-0.003431,-0.001877,0.003134,0.006317,0.003091,-0.511775,-0.003482,-1.300507,-258.263596,0.484845,72.903422
9.157,0.005343,-0.001375,-0.003373,-0.001833,0.003066,0.006325,0.003246,-0.511748,-0.003433,-1.300507,-258.263596,0.484845,72.903422
9.1771,0.005164,-0.00155,-0.002905,-0.001798,0.003014,0.006328,0.003575,-0.511293,-0.00321,-1.30858,-258.265925,0.410007,72.902775
9.1973,0.00448,-0.001529,-0.004738,-0.001859,0.002905,0.006122,0.003671,-0.511522,-0.002923,-1.30858,-258.265925,0.410007,72.902775
9.2172,0.004891,-0.001636,-0.002146,-0.001902,0.002822,0.005977,0.003671,-0.511522,-0.002923,-1.30858,-258.265925,0.410007,72.902775
9.2371,0.004931,-0.00134,-0.002344,-0.001933,0.002758,0.005875,0.003722,-0.51151,-0.001886,-1.315166,-258.268716,0.442378,72.901994
9.2571,0.00488,-0.001543,-0.002258,-0.001983,0.002693,0.005403,0.003719,-0.511426,-0.002042,-1.315166,-258.268716,0.442378,72.901994
9.2773,0.004385,-0.000996,-0.002966,-0.002016,0.00264,0.005078,0.003669,-0.511457,-0.002079,-1.275189,-258.271251,0.405636,72.90119
9.2969,0.004005,-0.000866,-0.001209,-0.001899,0.002494,0.005269,0.002949,-0.511036,-0.002867,-1.275189,-258.271251,0.405636,72.90119
9.3171,0.004636,-0.00117,-0.002267,-0.001809,0.002383,0.005398,0.002949,-0.511036,-0.002867,-1.275189,-258.271251,0.405636,72.90119
9.3377,0.004384,-0.001104,-0.002229,-0.001739,0.002299,0.005484,0.003433,-0.511108,-0.002141,-1.233132,-258.272645,0.330533,72.900716
9.3574,0.004446,-0.001357,-0.001516,-0.001769,0.002257,0.00521,0.003352,-0.511099,-0.002162,-1.233132,-258.272645,0.330533,72.900716
9.3769,0.003965,-0.000898,-0.002009,-0.001788,0.002224,0.005019,0.003646,-0.51132,-0.001437,-1.272156,-258.273758,0.405436,72.900334
9.397,0.004297,-0.000759,-0.001635,-0.001748,0.002158,0.004807,0.003002,-0.510932,-0.001954,-1.272156,-258.273758,0.405436,72.900334
9.4168,0.004056,-0.001119,5.1e-05,-0.001713,0.002107,0.004657,0.003002,-0.510932,-0.001954,-1.272156,-258.273758,0.405436,72.900334
9.4372,0.004041,-0.000926,-0.000783,-0.001683,0.002067,0.004549,0.004009,-0.511029,0.000255,-1.244784,-258.275922,0.439982,72.899567
9.4572,0.003876,-0.000976,-0.001684,-0.001827,0.002056,0.003414,0.003854,-0.510977,-0.000136,-1.244784,-258.275922,0.439982,72.899567
9.4767,0.003591,-0.000866,0.00012,-0.001928,0.002045,0.002623,0.002965,-0.510911,-0.001543,-1.236489,-258.277924,0.399927,72.898854
9.4974,0.00371,-0.000818,-0.000733,-0.001965,0.002009,0.002019,0.003591,-0.510866,-1.5e-05,-1.236489,-258.277924,0.399927,72.898854
9.5174,0.003739,-0.001243,-0.000599,-0.001987,0.001979,0.001598,0.003591,-0.510866,-1.5e-05,-1.236489,-258.277924,0.399927,72.898854
9.5369,0.003328,-0.001186,-0.002857,-0.001999,0.001955,0.001306,0.003434,-0.511243,-0.000599,-1.161341,-258.277926,0.324778,72.898854
9.557,0.003813,-0.000629,-0.000765,-0.001821,0.002046,0.001948,0.002811,-0.511219,-0.001498,-1.161341,-258.277926,0.324778,72.898854
9.5767,0.003693,-0.000831,-0.000502,-0.00169,0.002115,0.002404,0.003423,-0.510628,-0.000765,-1.086445,-258.277926,0.249883,72.898854
9.5967,0.003785,-0.000691,-0.000585,-0.001742,0.002046,0.002189,0.003436,-0.510813,-0.000525,-1.086445,-258.277926,0.249883,72.898854
9.6167,0.003725,-0.001269,-0.002113,-0.001779,0.001994,0.002038,0.003436,-0.510813,-0.000525,-1.086445,-258.277926,0.249883,72.898854
9.6365,0.003768,-0.000974,-0.001447,-0.001806,0.001954,0.001933,0.002647,-0.511268,-0.002113,-1.129999,-258.277928,0.174878,72.898852
9.6573,0.003583,-0.000551,-0.001272,-0.00167,0.002027,0.002563,0.002803,-0.511148,-0.001841,-1.129999,-258.277928,0.174878,72.898852
9.6766,0.003903,-0.000725,-0.001071,-0.001572,0.002084,0.003011,0.002934,-0.510551,-0.001272,-1.055041,-258.277933,0.09992,72.89885
9.697,0.003733,-0.000689,-0.003699,-0.001635,0.001997,0.002949,0.003319,-0.510709,-0.001089,-1.055041,-258.277933,0.09992,72.89885
9.7171,0.003774,-0.000737,-0.000986,-0.001682,0.001931,0.002905,0.003319,-0.510709,-0.001089,-1.055041,-258.277933,0.09992,72.89885
9.7375,0.004248,-0.000953,-0.0019,-0.001718,0.001882,0.002873,0.003253,-0.510716,-0.000951,-1.130129,-258.278378,0.024833,72.898683
9.7569,0.003932,-0.00104,0.000313,-0.001726,0.00189,0.002982,0.003261,-0.510809,-0.00133,-1.130129,-258.278378,0.024833,72.898683
9.7766,0.003547,-0.000799,-0.002373,-0.001733,0.001896,0.003057,0.004045,-0.51099,0.000392,-1.12946,-258.279752,-0.05028,72.898094
9.7966,0.003536,-0.000965,-0.00159,-0.00157,0.001909,0.003519,0.002482,-0.510811,-0.002131,-1.12946,-258.279752,-0.05028,72.898094
9.8169,0.003266,-0.000583,0.000605,-0.001451,0.001918,0.003843,0.002482,-0.510811,-0.002131,-1.12946,-258.279752,-0.05028,72.898094
9.8369,0.003593,-0.000426,-0.002489,-0.001364,0.001925,0.004067,0.003503,-0.510505,0.00073,-1.139251,-258.281375,-0.016745,72.897415
9.8568,0.003726,-0.000917,-0.000669,-0.001444,0.001833,0.003392,0.003014,-0.510463,-0.000568,-1.139251,-258.281375,-0.016745,72.897415
9.8765,0.003477,-0.000964,-0.002343,-0.001498,0.001761,0.002922,0.003382,-0.510914,-0.000663,-1.214146,-258.281468,0.058149,72.897385
9.8967,0.003674,-0.000402,-0.001786,-0.001357,0.001854,0.003421,0.002381,-0.510958,-0.002191,-1.214146,-258.281468,0.058149,72.897385
9.9168,0.003122,-0.000656,9e-06,-0.001256,0.001924,0.003775,0.002381,-0.510958,-0.002191,-1.214146,-258.281468,0.058149,72.897385
9.9379,0.003106,-0.000573,-0.001608,-0.001183,0.001977,0.004023,0.003067,-0.510587,0.000125,-1.171038,-258.282931,0.016119,72.896816
9.9571,0.003309,-0.001026,-0.002513,-0.001248,0.001906,0.003363,0.002736,-0.510572,-0.00058,-1.171038,-258.282931,0.016119,72.896816
9.9769,0.003214,-0.000528,-0.001216,-0.001292,0.00185,0.002905,0.002025,-0.51102,-0.002504,-1.246597,-258.283074,0.091678,72.896776
9.9969,0.003439,-0.000365,-0.001024,-0.001266,0.001798,0.003024,0.002546,-0.510569,-0.001325,-1.246597,-258.283074,0.091678,72.896776
10.0168,0.003054,-0.001085,-0.001297,-0.001246,0.001759,0.003106,0.002546,-0.510569,-0.001325,-1.246597,-258.283074,0.091678,72.896776
10.0367,0.003321,-0.000339,-0.000911,-0.001231,0.001729,0.003161,0.002355,-0.511032,-0.001211,-1.228413,-258.284138,0.017116,72.896418
10.0568,0.003403,-0.000234,-0.001336,-0.001223,0.001765,0.003042,0.002557,-0.510742,-0.001078,-1.228413,-258.284138,0.017116,72.896418
10.0768,0.003008,-0.000659,-0.000633,-0.001215,0.001792,0.002961,0.002694,-0.510193,-0.001266,-1.246263,-258.285236,0.092077,72.896063
10.0967,0.002788,-0.000498,-0.001024,-0.001246,0.001775,0.002681,0.002685,-0.510617,-0.000684,-1.246263,-258.285236,0.092077,72.896063
10.117,0.003508,-0.000408,-0.000157,-0.001266,0.001761,0.002487,0.002685,-0.510617,-0.000684,-1.246263,-258.285236,0.092077,72.896063
10.1369,0.002893,-0.000664,-0.001435,-0.00128,0.001749,0.002352,0.003382,-0.51034,-4.4e-05,-1.245309,-258.286611,0.017064,72.895624
10.1567,0.003002,-0.000448,-0.000318,-0.001332,0.001678,0.002209,0.002878,-0.510464,-0.000599,-1.245309,-258.286611,0.017064,72.895624
10.1765,0.002815,-0.000518,-0.00052,-0.001369,0.001623,0.00211,0.002827,-0.510431,-0.000292,-1.188848,-258.28706,-0.057838,72.895451
10.1969,0.002788,-0.000481,-0.001159,-0.001339,0.001597,0.001989,0.002574,-0.510509,-0.000498,-1.188848,-258.28706,-0.057838,72.895451
10.2167,0.002985,-0.00013,-0.001336,-0.001313,0.001576,0.001904,0.002574,-0.510509,-0.000498,-1.188848,-258.28706,-0.057838,72.895451
10.2365,0.002579,-0.000209,0.000454,-0.001293,0.001559,0.001844,0.002271,-0.510094,-0.001284,-1.13122,-258.287776,-0.132837,72.895138
10.2566,0.002917,0.0001,-0.001595,-0.001262,0.001425,0.001871,0.002486,-0.510136,-0.000575,-1.13122,-258.287776,-0.132837,72.895138
10.2765,0.002719,-0.000321,-0.001746,-0.001238,0.001323,0.001887,0.00208,-0.509873,-0.00156,-1.122137,-258.288439,-0.207826,72.894834
10.2967,0.002814,-0.000564,-0.000736,-0.001042,0.00128,0.002514,0.00185,-0.510279,-0.001727,-1.122137,-258.288439,-0.207826,72.894834
10.3168,0.002655,-0.000473,0.001075,-0.000899,0.001248,0.002958,0.00185,-0.510279,-0.001727,-1.122137,-258.288439,-0.207826,72.894834
10.3369,0.002661,5.1e-05,0.000283,-0.000794,0.001225,0.003268,0.003156,-0.510422,0.001147,-1.107145,-258.289457,-0.137021,72.894375
10.357,0.002535,3.1e-05,0.000207,-0.001003,0.001235,0.002023,0.003008,-0.510224,0.000804,-1.107145,-258.289457,-0.137021,72.894375
10.3771,0.00288,-0.000277,-0.000892,-0.001153,0.001239,0.001143,0.002641,-0.509969,0.000207,-1.182138,-258.289457,-0.062029,72.894375
10.3969,0.002693,4e-05,0.001767,-0.001125,0.001229,0.001469,0.002445,-0.510248,-0.000791,-1.182138,-258.289457,-0.062029,72.894375
10.4169,0.002847,-0.000476,-0.001633,-0.001106,0.001223,0.0017,0.002445,-0.510248,-0.000791,-1.182138,-258.289457,-0.062029,72.894375
10.4375,0.002652,-0.000426,0.000451,-0.001093,0.001219,0.001864,0.002011,-0.510473,-0.001629,-1.107124,-258.289519,-0.137042,72.89434
10.4573,0.00266,-6e-06,-0.000708,-0.001062,0.001284,0.001977,0.002361,-0.510453,-0.000791,-1.107124,-258.289519,-0.137042,72.89434
10.4767,0.002604,-0.000184,-0.001665,-0.001039,0.001332,0.002057,0.002267,-0.50997,-0.000653,-1.136674,-258.290484,-0.073415,72.893933
10.4967,0.002674,-5.3e-05,0.000104,-0.000879,0.001264,0.002568,0.001793,-0.510165,-0.001585,-1.136674,-258.290484,-0.073415,72.893933
10.5169,0.00278,0.000168,0.000443,-0.000761,0.001213,0.002927,0.001793,-0.510165,-0.001585,-1.136674,-258.290484,-0.073415,72.893933
10.5368,0.002647,0.000107,0.000675,-0.000674,0.001176,0.003177,0.002964,-0.509779,0.000525,-1.189036,-258.291547,-0.072852,72.893536
10.557,0.002645,-0.000117,0.001078,-0.000897,0.001076,0.002082,0.00297,-0.509819,0.000595,-1.189036,-258.291547,-0.072852,72.893536
10.5767,0.002373,0.000195,-0.000759,-0.001058,0.000997,0.001312,0.003194,-0.510117,0.001078,-1.263634,-258.291547,0.001746,72.893536
10.597,0.002336,-0.000267,2.3e-05,-0.000978,0.000907,0.001509,0.002095,-0.509833,-0.000594,-1.263634,-258.291547,0.001746,72.893536
10.6169,0.002338,-0.000271,-0.000587,-0.000917,0.000838,0.001646,0.002095,-0.509833,-0.000594,-1.263634,-258.291547,0.001746,72.893536
10.6369,0.002625,-0.000384,0.000728,-0.000871,0.000786,0.001741,0.002029,-0.51026,-0.00057,-1.188633,-258.291761,-0.073255,72.893426
10.6571,0.002656,0.000134,0.000557,-0.000909,0.000913,0.001449,0.002427,-0.51031,-3.3e-05,-1.188633,-258.291761,-0.073255,72.893426
