mach0312/omni-docking-bench/src/icros_test_setup/results/MPPI_sample/timeseries/trial_009.csv
t,x,y,yaw,vx,vy,wz,bl_x,bl_y,bl_yaw,front_steering_joint,front_wheel_joint,rear_steering_joint,rear_wheel_joint
0.0,-0.022037,-0.003464,0.034025,-0.008327,0.0012,0.069851,-0.003409,-0.512866,0.024936,-1.383191,-264.467479,1.372603,61.906955
0.0004,-0.024668,-0.003051,0.037255,-0.007366,0.001062,0.061795,-0.003409,-0.512866,0.024936,-1.383191,-264.490692,1.372603,61.884967
0.0006,-0.024588,-0.003199,0.03624,-0.006316,0.00091,0.052983,-0.003681,-0.51298,0.025335,-1.383191,-264.510535,1.372603,61.866172
0.0009,-0.024653,-0.00303,0.037625,-0.005204,0.00075,0.043652,-0.003681,-0.51298,0.025335,-1.383191,-264.524063,1.372603,61.853357
0.0011,-0.026192,-0.003326,0.040304,-0.003968,0.000572,0.03329,-0.003279,-0.512991,0.0296,-1.383191,-264.532645,1.372603,61.845228
0.0013,-0.026332,-0.003616,0.039783,-0.002719,0.000392,0.022808,-0.003279,-0.512991,0.0296,-1.383191,-264.532645,1.372603,61.845228
0.0015,-0.027648,-0.003523,0.042813,-0.001421,0.000205,0.011919,-0.004226,-0.512932,0.03,-1.383191,-264.532645,1.372603,61.845228
0.0018,-0.02714,-0.003351,0.040845,-7e-06,1e-06,5.7e-05,-0.004226,-0.512932,0.03,-1.383191,-264.532645,1.372603,61.845228
0.0175,-0.027323,-0.003181,0.041776,0.0,0.0,0.0,-0.00585,-0.513066,0.042716,-1.383191,-264.532645,1.372603,61.845228
0.0372,-0.027501,-0.003027,0.041936,0.0,0.0,0.0,-0.006024,-0.512736,0.041779,-1.383191,-264.532659,1.372603,61.845215
0.0573,-0.027495,-0.003262,0.042437,0.0,0.0,0.0,-0.006063,-0.512672,0.041843,-1.383191,-264.532659,1.372603,61.845215
0.0771,-0.027342,-0.003492,0.042172,0.0,0.0,0.0,-0.005859,-0.512803,0.042437,-1.383191,-264.532659,1.372603,61.845215
0.0974,-0.027651,-0.003266,0.042665,0.0,0.0,0.0,-0.005842,-0.513018,0.042195,-1.383191,-264.532659,1.372603,61.845215
0.117,-0.027518,-0.003192,0.041459,0.00504,0.004186,0.024076,-0.005842,-0.513018,0.042195,-1.383191,-264.532659,1.372603,61.845215
0.1373,-0.027699,-0.003022,0.041527,0.005478,0.00461,0.023602,-0.00638,-0.512754,0.041459,-1.383191,-264.532659,1.372603,61.845215
0.1571,-0.027502,-0.003439,0.041375,0.005881,0.004892,0.021498,-0.006439,-0.512684,0.041487,-1.383191,-264.532659,1.372603,61.845215
0.1771,-0.027336,-0.003236,0.042464,0.006227,0.005139,0.020276,-0.006407,-0.513002,0.041375,-1.308213,-264.532659,1.297626,61.845215
0.1968,-0.027792,-0.003207,0.040331,0.006471,0.005412,0.017735,-0.005753,-0.512797,0.042364,-1.308213,-264.532659,1.297626,61.845215
0.2168,-0.027002,-0.003119,0.04149,0.006685,0.005643,0.016118,-0.005753,-0.512797,0.042364,-1.308213,-264.532659,1.297626,61.845215
0.2368,-0.027526,-0.003173,0.041122,0.006869,0.005837,0.015123,-0.005849,-0.51268,0.04149,-1.23331,-264.532659,1.222723,61.845215
0.2573,-0.027198,-0.003146,0.041613,0.007045,0.005967,0.012744,-0.006139,-0.512706,0.04134,-1.23331,-264.532659,1.222723,61.845215
0.2771,-0.027582,-0.003352,0.042196,0.007199,0.006077,0.011111,-0.005981,-0.512705,0.041613,-1.158307,-264.532659,1.14772,61.845215
0.2968,-0.02747,-0.00355,0.041866,0.00731,0.006208,0.00861,-0.006061,-0.51288,0.042143,-1.158307,-264.532659,1.14772,61.845215
0.3171,-0.027448,-0.003346,0.041321,0.007409,0.006315,0.006749,-0.006061,-0.51288,0.042143,-1.158307,-264.532659,1.14772,61.845215
0.3371,-0.027599,-0.003324,0.042698,0.007498,0.006401,0.005402,-0.00638,-0.512911,0.041321,-1.083312,-264.532659,1.072725,61.845215
0.3572,-0.027509,-0.003324,0.042871,0.007573,0.006472,0.003379,-0.006156,-0.51289,0.041882,-1.083312,-264.532659,1.072725,61.845215
0.3774,-0.02721,-0.003328,0.041847,0.007642,0.006528,0.001804,-0.005652,-0.512856,0.042871,-1.008307,-264.532659,0.99772,61.845215
0.3971,-0.027429,-0.003097,0.043516,0.007678,0.006592,4.2e-05,-0.005854,-0.512879,0.04194,-1.008307,-264.532659,0.99772,61.845215
0.4167,-0.027229,-0.003459,0.042222,0.007713,0.006641,-0.00137,-0.005854,-0.512879,0.04194,-1.008307,-264.532659,0.99772,61.845215
0.4369,-0.027116,-0.003143,0.042345,0.007747,0.006677,-0.002499,-0.005702,-0.513004,0.042222,-0.9333,-264.532659,0.922713,61.845215
0.4572,-0.027616,-0.003631,0.041938,0.007756,0.006721,-0.003683,-0.005631,-0.512874,0.042272,-0.9333,-264.532659,0.922713,61.845215
0.4769,-0.027457,-0.002943,0.042598,0.007769,0.006753,-0.004636,-0.006234,-0.513183,0.041938,-0.858302,-264.532659,0.847715,61.845215
0.4969,-0.027402,-0.00336,0.042752,0.007811,0.006707,-0.005555,-0.005783,-0.512544,0.042539,-0.858302,-264.532659,0.847715,61.845215
0.5171,-0.027677,-0.003428,0.042675,0.007848,0.006669,-0.0063,-0.005783,-0.512544,0.042539,-0.858302,-264.532659,0.847715,61.845215
0.537,-0.027294,-0.003001,0.042232,0.007879,0.006636,-0.006901,-0.005919,-0.512963,0.042675,-0.783303,-264.532659,0.889673,61.845216
0.5575,-0.027282,-0.003351,0.042036,0.007897,0.006648,-0.007381,-0.005854,-0.512792,0.042492,-0.783303,-264.532659,0.889673,61.845216
0.5766,-0.027779,-0.003424,0.041478,0.007913,0.006656,-0.007767,-0.00585,-0.5129,0.042036,-0.708209,-264.532658,0.942794,61.845216
0.5977,-0.027549,-0.003576,0.040746,0.007962,0.006649,-0.008072,-0.00656,-0.512978,0.041528,-0.708209,-264.532658,0.942794,61.845216
0.6174,-0.027321,-0.003222,0.04032,0.008003,0.006642,-0.008316,-0.00656,-0.512978,0.041528,-0.708209,-264.532658,0.942794,61.845216
0.637,-0.027524,-0.003265,0.042814,0.008038,0.006636,-0.008512,-0.006764,-0.512808,0.04032,-0.633307,-264.532658,0.963996,61.845217
0.657,-0.027398,-0.003361,0.041948,0.008063,0.006616,-0.008673,-0.006329,-0.512804,0.041335,-0.633307,-264.532658,0.963996,61.845217
0.6769,-0.027444,-0.00316,0.042225,0.008085,0.006599,-0.008802,-0.006011,-0.512913,0.041948,-0.558308,-264.532658,0.974185,61.845217
0.697,-0.027793,-0.00299,0.042723,0.008082,0.006595,-0.008908,-0.005924,-0.512723,0.042201,-0.558308,-264.532658,0.974185,61.845217
0.7171,-0.027381,-0.00308,0.040909,0.008081,0.00659,-0.008994,-0.005924,-0.512723,0.042201,-0.558308,-264.532658,0.974185,61.845217
0.7371,-0.027374,-0.003153,0.041033,0.00808,0.006585,-0.009063,-0.006523,-0.512654,0.040909,-0.48317,-264.532657,0.976939,61.845219
0.7575,-0.02747,-0.003427,0.041005,0.008116,0.006542,-0.009117,-0.006494,-0.512682,0.04096,-0.48317,-264.532657,0.976939,61.845219
0.777,-0.027401,-0.003066,0.042551,0.008145,0.006508,-0.00916,-0.006563,-0.512998,0.041004,-0.40819,-264.532651,0.982785,61.845229
0.7969,-0.027486,-0.003219,0.042153,0.008127,0.006514,-0.009197,-0.005784,-0.51264,0.042412,-0.40819,-264.532651,0.982785,61.845229
0.8175,-0.027485,-0.003046,0.042662,0.008114,0.006517,-0.009228,-0.005784,-0.51264,0.042412,-0.40819,-264.532651,0.982785,61.845229
0.8368,-0.027486,-0.003446,0.041764,0.008103,0.006518,-0.009252,-0.00573,-0.51258,0.042657,-0.33317,-264.532616,0.978394,61.845292
0.8568,-0.027409,-0.003019,0.039965,0.008097,0.00653,-0.00927,-0.005917,-0.512751,0.042294,-0.33317,-264.532616,0.978394,61.845292
0.8766,-0.02718,-0.003444,0.042641,0.008094,0.006538,-0.009284,-0.007022,-0.512605,0.03995,-0.258304,-264.532483,0.983363,61.845531
0.8968,-0.027357,-0.003219,0.04102,0.008053,0.006601,-0.009294,-0.005568,-0.512949,0.042421,-0.258304,-264.532483,0.983363,61.845531
0.9167,-0.027538,-0.003492,0.04203,0.008023,0.00665,-0.009303,-0.005568,-0.512949,0.042421,-0.258304,-264.532483,0.983363,61.845531
0.9368,-0.027198,-0.003529,0.041502,0.007999,0.006686,-0.00931,-0.006072,-0.513014,0.041977,-0.183082,-264.532116,0.985356,61.84619
0.9569,-0.027099,-0.00344,0.042131,0.008011,0.006698,-0.009314,-0.006054,-0.513042,0.041777,-0.183082,-264.532116,0.985356,61.84619
0.9768,-0.027248,-0.003158,0.042669,0.008022,0.006708,-0.009316,-0.005565,-0.512946,0.042057,-0.108306,-264.531421,0.996859,61.847461
0.9972,-0.026738,-0.003159,0.040109,0.008009,0.006693,-0.009327,-0.005496,-0.512711,0.04262,-0.108306,-264.531421,0.996859,61.847461
1.017,-0.027542,-0.003341,0.04192,0.007999,0.006681,-0.009336,-0.005496,-0.512711,0.04262,-0.108306,-264.531421,0.996859,61.847461
1.0369,-0.027035,-0.003048,0.042803,0.00799,0.006671,-0.009342,-0.006035,-0.512783,0.041743,-0.032879,-264.530097,0.99651,61.849878
1.0569,-0.026969,-0.003221,0.042277,0.007999,0.006648,-0.009347,-0.005685,-0.512688,0.042153,-0.032879,-264.530097,0.99651,61.849878
1.0766,-0.026377,-0.002709,0.040475,0.008005,0.006629,-0.009351,-0.005245,-0.512619,0.042062,0.041702,-264.527886,0.997548,61.853926
1.0968,-0.026593,-0.002979,0.040748,0.008025,0.00655,-0.009433,-0.00569,-0.512312,0.0406,0.041702,-264.527886,0.997548,61.853926
1.1167,-0.02625,-0.003089,0.041874,0.008039,0.006489,-0.009498,-0.00569,-0.512312,0.0406,0.041702,-264.527886,0.997548,61.853926
1.1368,-0.02582,-0.002566,0.03966,0.008049,0.006441,-0.00955,-0.004605,-0.512375,0.041515,0.114196,-264.524927,0.995344,61.859327
1.1574,-0.025734,-0.002568,0.039558,0.007998,0.006424,-0.009639,-0.004976,-0.512258,0.040717,0.114196,-264.524927,0.995344,61.859327
1.1772,-0.024979,-0.002356,0.041754,0.007956,0.006409,-0.009709,-0.005323,-0.511959,0.03926,0.075419,-264.521762,0.990359,61.865082
1.1969,-0.025373,-0.001975,0.040185,0.007783,0.006396,-0.00982,-0.003807,-0.511905,0.041547,0.075419,-264.521762,0.990359,61.865082
1.2169,-0.025288,-0.002057,0.038178,0.007648,0.006381,-0.00991,-0.003807,-0.511905,0.041547,0.075419,-264.521762,0.990359,61.865082
1.2374,-0.024304,-0.001764,0.040044,0.007543,0.006366,-0.009983,-0.005502,-0.511407,0.037776,0.060161,-264.518412,0.998094,61.871254
1.2576,-0.024386,-0.001699,0.040012,0.007587,0.006161,-0.010083,-0.004566,-0.511345,0.03899,0.060161,-264.518412,0.998094,61.871254
1.277,-0.023917,-0.001564,0.039117,0.007618,0.006004,-0.010163,-0.003779,-0.511103,0.03973,0.035662,-264.515633,1.026525,61.876616
1.297,-0.024102,-0.00138,0.039355,0.007562,0.005857,-0.010267,-0.003944,-0.511157,0.039155,0.035662,-264.515633,1.026525,61.876616
1.3172,-0.024072,-0.001681,0.03891,0.007515,0.005744,-0.01035,-0.003944,-0.511157,0.039155,0.035662,-264.515633,1.026525,61.876616
1.3372,-0.023426,-0.001287,0.039288,0.007476,0.005655,-0.010417,-0.003944,-0.511049,0.038512,-0.026623,-264.512776,1.013032,61.882013
1.3574,-0.023742,-0.001072,0.038283,0.007406,0.005537,-0.010507,-0.003685,-0.510956,0.038785,-0.026623,-264.512776,1.013032,61.882013
1.3766,-0.02287,-0.001069,0.038555,0.00735,0.005444,-0.010579,-0.004008,-0.510524,0.037976,-0.094267,-264.50999,1.014303,61.887263
1.397,-0.023128,-0.000603,0.03859,0.007234,0.005296,-0.010671,-0.003273,-0.510666,0.038486,-0.094267,-264.50999,1.014303,61.887263
1.4167,-0.022775,-0.000728,0.038708,0.007143,0.005181,-0.010745,-0.003273,-0.510666,0.038486,-0.094267,-264.50999,1.014303,61.887263
1.437,-0.022374,-0.000536,0.039906,0.00707,0.00509,-0.010805,-0.002749,-0.510114,0.038279,-0.137533,-264.507111,1.017736,61.892693
1.4574,-0.022288,-0.000299,0.035823,0.006815,0.004847,-0.01089,-0.00242,-0.510094,0.038894,-0.137533,-264.507111,1.017736,61.892693
1.4766,-0.021769,-0.000266,0.037406,0.006619,0.004657,-0.010961,-0.003821,-0.509816,0.035508,-0.210213,-264.504457,1.026828,61.897709
1.4968,-0.021929,-0.000163,0.035806,0.006553,0.004431,-0.01103,-0.002785,-0.509894,0.037224,-0.210213,-264.504457,1.026828,61.897709
1.5175,-0.021735,-0.00067,0.036608,0.006499,0.004257,-0.011087,-0.002785,-0.509894,0.037224,-0.210213,-264.504457,1.026828,61.897709
1.537,-0.021305,5.7e-05,0.036201,0.006454,0.004123,-0.011132,-0.002832,-0.510147,0.036208,-0.285281,-264.502023,1.042925,61.902326
1.5568,-0.021048,9.7e-05,0.036222,0.00642,0.004021,-0.011177,-0.00281,-0.509906,0.036159,-0.285281,-264.502023,1.042925,61.902326
1.5772,-0.020522,0.00013,0.034907,0.006392,0.003942,-0.011213,-0.002411,-0.509451,0.035933,-0.360265,-264.499704,1.037053,61.906537
1.597,-0.020407,0.000291,0.037858,0.006337,0.003765,-0.01125,-0.002686,-0.509544,0.034985,-0.360265,-264.499704,1.037053,61.906537
1.6168,-0.020866,-2.9e-05,0.03599,0.006291,0.00363,-0.01128,-0.002686,-0.509544,0.034985,-0.360265,-264.499704,1.037053,61.906537
1.6371,-0.019993,0.000328,0.036724,0.006254,0.003525,-0.011303,-0.002272,-0.509536,0.035553,-0.426785,-264.497088,1.036002,61.91121
1.6572,-0.020205,0.000398,0.036003,0.005978,0.003414,-0.011334,-0.001834,-0.509433,0.03598,-0.426785,-264.497088,1.036002,61.91121
1.6768,-0.019774,0.000553,0.036081,0.005767,0.003324,-0.01136,-0.001667,-0.509161,0.035669,-0.495319,-264.494452,1.030604,61.915719
1.6968,-0.019251,0.000859,0.03613,0.005453,0.003153,-0.011386,-0.001393,-0.509113,0.036027,-0.495319,-264.494452,1.030604,61.915719
1.717,-0.019632,0.000148,0.03497,0.005212,0.003017,-0.011408,-0.001393,-0.509113,0.036027,-0.495319,-264.494452,1.030604,61.915719
1.7369,-0.019281,0.000632,0.035346,0.005026,0.002908,-0.011425,-0.001582,-0.509404,0.034531,-0.559856,-264.491937,1.058772,61.920068
1.7571,-0.019392,0.000608,0.034173,0.0049,0.00287,-0.01144,-0.001425,-0.509244,0.034813,-0.559856,-264.491937,1.058772,61.920068
1.7769,-0.018636,0.000658,0.033779,0.004803,0.002837,-0.011451,-0.001843,-0.509015,0.033896,-0.634856,-264.489946,1.100451,61.923482
1.797,-0.018646,0.000666,0.034913,0.004739,0.002747,-0.011456,-0.001445,-0.509044,0.033776,-0.634856,-264.489946,1.100451,61.923482
1.8172,-0.018609,0.001054,0.035781,0.004688,0.002677,-0.011459,-0.001445,-0.509044,0.033776,-0.634856,-264.489946,1.100451,61.923482
1.8371,-0.018328,0.000943,0.033686,0.004647,0.002622,-0.011461,-0.000186,-0.508506,0.035348,-0.709856,-264.487654,1.116305,61.927431
1.8573,-0.018132,0.001176,0.035142,0.004294,0.002468,-0.011467,-0.000555,-0.508598,0.034628,-0.709856,-264.487654,1.116305,61.927431
1.8773,-0.017494,0.000837,0.033416,0.004023,0.002344,-0.011473,-7.3e-05,-0.508424,0.034789,-0.755639,-264.485185,1.120882,61.931562
1.8971,-0.017571,0.001008,0.032884,0.00376,0.002327,-0.011486,-0.000414,-0.508833,0.033521,-0.755639,-264.485185,1.120882,61.931562
1.9172,-0.017393,0.000928,0.033241,0.003559,0.002307,-0.011496,-0.000414,-0.508833,0.033521,-0.755639,-264.485185,1.120882,61.931562
1.9373,-0.017311,0.001144,0.032745,0.003405,0.002286,-0.011504,-0.000306,-0.508704,0.032851,-0.830638,-264.483171,1.164497,61.934892
1.9573,-0.017465,0.001268,0.033039,0.003299,0.00221,-0.011507,-0.000416,-0.508644,0.032763,-0.830638,-264.483171,1.164497,61.934892
1.9774,-0.017095,0.001299,0.032173,0.003215,0.002149,-0.011508,-0.000535,-0.508394,0.032763,-0.905646,-264.48139,1.220258,61.937917
1.9971,-0.017043,0.001449,0.032295,0.003255,0.002032,-0.011502,-0.000671,-0.50843,0.032212,-0.905646,-264.48139,1.220258,61.937917
2.0174,-0.016902,0.001717,0.032888,0.003281,0.001943,-0.011497,-0.000671,-0.50843,0.032212,-0.905646,-264.48139,1.220258,61.937917
2.0374,-0.016366,0.000952,0.031363,0.003298,0.001874,-0.011491,-1.4e-05,-0.507922,0.032458,-0.980638,-264.4793,1.233825,61.941395
2.057,-0.01665,0.001525,0.031642,0.003126,0.001802,-0.011489,-0.000147,-0.508268,0.031963,-0.980638,-264.4793,1.233825,61.941395
2.0766,-0.015927,0.001911,0.029399,0.002994,0.001743,-0.011489,-0.000413,-0.508157,0.031281,-1.000711,-264.476885,1.215671,61.945144
2.0971,-0.016185,0.001032,0.029435,0.003158,0.00158,-0.011488,-0.000883,-0.507891,0.02955,-1.000711,-264.476885,1.215671,61.945144
2.1171,-0.016231,0.001254,0.033155,0.003281,0.001456,-0.011485,-0.000883,-0.507891,0.02955,-1.000711,-264.476885,1.215671,61.945144
2.1371,-0.015782,0.001505,0.031441,0.003371,0.001363,-0.011482,0.000791,-0.508393,0.0327,-1.054431,-264.474593,1.241473,61.948643
2.157,-0.015432,0.00193,0.030681,0.002919,0.001492,-0.011488,0.000586,-0.508324,0.032139,-1.054431,-264.474593,1.241473,61.948643
2.1768,-0.015473,0.001615,0.029434,0.002577,0.001578,-0.011495,0.000313,-0.507785,0.030333,-1.032826,-264.472097,1.188129,61.952068
2.197,-0.015033,0.001558,0.030857,0.002674,0.001521,-0.011494,-0.000388,-0.508127,0.029498,-1.032826,-264.472097,1.188129,61.952068
2.2174,-0.015114,0.001529,0.031136,0.002745,0.001478,-0.011493,-0.000388,-0.508127,0.029498,-1.032826,-264.472097,1.188129,61.952068
2.2372,-0.015011,0.00175,0.029145,0.002798,0.001446,-0.011491,0.000847,-0.508172,0.030774,-1.107827,-264.47028,1.26313,61.954777
2.2571,-0.014998,0.002052,0.030652,0.002546,0.001467,-0.01149,0.000452,-0.508109,0.030071,-1.107827,-264.47028,1.26313,61.954777
2.277,-0.014264,0.001703,0.030288,0.002354,0.001478,-0.011489,0.00072,-0.507659,0.030286,-1.105538,-264.467787,1.251565,61.95834
2.2971,-0.014229,0.001666,0.030547,0.002,0.001518,-0.011489,0.001145,-0.508026,0.03027,-1.105538,-264.467787,1.251565,61.95834
2.3169,-0.014016,0.001996,0.029213,0.001728,0.00154,-0.011491,0.001145,-0.508026,0.03027,-1.105538,-264.467787,1.251565,61.95834
2.3373,-0.013698,0.00179,0.030391,0.001519,0.00155,-0.011493,0.000967,-0.507728,0.02878,-1.168928,-264.465618,1.300464,61.961518
2.3568,-0.013854,0.001992,0.029962,0.001328,0.001514,-0.01149,0.001315,-0.507821,0.029383,-1.168928,-264.465618,1.300464,61.961518
2.3766,-0.013868,0.002034,0.029183,0.001178,0.001482,-0.011489,0.00146,-0.507745,0.029723,-1.243827,-264.464125,1.375363,61.963806
2.3972,-0.013724,0.002021,0.028312,0.001148,0.001413,-0.01148,0.001054,-0.507747,0.029218,-1.243827,-264.464125,1.375363,61.963806
2.4168,-0.013877,0.001858,0.027436,0.001122,0.001359,-0.011473,0.001054,-0.507747,0.029218,-1.243827,-264.464125,1.375363,61.963806
2.4371,-0.013513,0.002332,0.028664,0.001099,0.001317,-0.011466,0.000153,-0.5079,0.027071,-1.318888,-264.462404,1.433041,61.966416
2.4576,-0.013758,0.002044,0.02805,0.00125,0.001238,-0.011459,0.000545,-0.507715,0.027678,-1.318888,-264.462404,1.433041,61.966416
2.4767,-0.013202,0.002087,0.027643,0.001361,0.001181,-0.011451,0.000578,-0.507715,0.027705,-1.37991,-264.460223,1.439488,61.969576
2.4971,-0.013441,0.002198,0.026112,0.001341,0.001161,-0.011449,0.000867,-0.507715,0.027631,-1.37991,-264.460223,1.439488,61.969576
2.5174,-0.013086,0.002153,0.027655,0.001325,0.001146,-0.011446,0.000867,-0.507715,0.027631,-1.37991,-264.460223,1.439488,61.969576
2.5376,-0.01292,0.001987,0.024943,0.001312,0.001133,-0.011444,0.001069,-0.507603,0.027196,-1.340754,-264.457935,1.405767,61.972752
2.5573,-0.013017,0.002306,0.02542,0.001404,0.001097,-0.011443,0.000565,-0.507698,0.026237,-1.340754,-264.457935,1.405767,61.972752
2.5771,-0.012584,0.00208,0.026467,0.001473,0.001072,-0.011442,-1.4e-05,-0.507492,0.025055,-1.350421,-264.455539,1.410664,61.976037
2.5975,-0.01244,0.001984,0.027744,0.001439,0.001077,-0.011441,0.000831,-0.507717,0.026322,-1.350421,-264.455539,1.410664,61.976037
2.6176,-0.012203,0.002446,0.026112,0.001414,0.00108,-0.01144,0.000831,-0.507717,0.026322,-1.350421,-264.455539,1.410664,61.976037
2.6376,-0.01213,0.002098,0.026459,0.001394,0.001082,-0.01144,0.001172,-0.507334,0.02564,-1.326792,-264.453138,1.390037,61.979263
2.6573,-0.012144,0.002047,0.026233,0.001269,0.001059,-0.011435,0.001255,-0.507485,0.025914,-1.326792,-264.453138,1.390037,61.979263
2.6771,-0.011953,0.00231,0.024565,0.001173,0.00104,-0.011432,0.001276,-0.507742,0.025869,-1.338954,-264.450721,1.3997,61.982526
2.6971,-0.01174,0.002165,0.024076,0.001289,0.000993,-0.011432,0.000639,-0.507553,0.024664,-1.338954,-264.450721,1.3997,61.982526
2.7172,-0.011564,0.002512,0.025243,0.001376,0.000959,-0.011432,0.000639,-0.507553,0.024664,-1.338954,-264.450721,1.3997,61.982526
2.7374,-0.011883,0.002306,0.025277,0.00144,0.000934,-0.011431,0.001355,-0.507282,0.024779,-1.375868,-264.448375,1.425569,61.985665
2.7568,-0.011407,0.002407,0.025177,0.001323,0.000918,-0.01143,0.00122,-0.507378,0.024927,-1.375868,-264.448375,1.425569,61.985665
2.7768,-0.010959,0.002267,0.024395,0.001233,0.000904,-0.01143,0.001475,-0.507402,0.024828,-1.336969,-264.445995,1.390797,61.988746
2.7969,-0.011419,0.002389,0.025885,0.001078,0.000958,-0.011433,0.001483,-0.507564,0.024416,-1.336969,-264.445995,1.390797,61.988746
2.8168,-0.011253,0.00264,0.024641,0.000961,0.000996,-0.011437,0.001483,-0.507564,0.024416,-1.336969,-264.445995,1.390797,61.988746
2.8371,-0.010796,0.002536,0.022482,0.000871,0.001022,-0.01144,0.001362,-0.507167,0.024175,-1.370589,-264.443583,1.415658,61.99185
2.8571,-0.010842,0.00233,0.024382,0.000944,0.000932,-0.011437,0.001085,-0.507231,0.023433,-1.370589,-264.443583,1.415658,61.99185
2.877,-0.010359,0.002606,0.024467,0.000997,0.000863,-0.011435,0.001616,-0.507488,0.024047,-1.425755,-264.441365,1.462441,61.994814
2.8969,-0.010128,0.00271,0.022198,0.000774,0.000904,-0.011435,0.002075,-0.507262,0.024413,-1.425755,-264.441365,1.462441,61.994814
2.9171,-0.010498,0.002648,0.02133,0.000601,0.00093,-0.011437,0.002075,-0.507262,0.024413,-1.425755,-264.441365,1.462441,61.994814
2.9371,-0.010184,0.002745,0.021895,0.000468,0.000946,-0.01144,0.00042,-0.5072,0.020855,-1.409294,-264.438909,1.444402,61.997948
2.9574,-0.010028,0.002417,0.02228,0.000776,0.000826,-0.011449,0.000652,-0.507168,0.021222,-1.409294,-264.438909,1.444402,61.997948
2.9766,-0.009553,0.002818,0.021996,0.001007,0.000739,-0.011455,0.001346,-0.507431,0.021974,-1.484287,-264.436895,1.511911,62.000588
2.9969,-0.009495,0.002527,0.020975,0.000895,0.00074,-0.011453,0.001636,-0.50709,0.021979,-1.484287,-264.436895,1.511911,62.000588
3.0172,-0.009897,0.002478,0.022257,0.000809,0.000739,-0.011453,0.001636,-0.50709,0.021979,-1.484287,-264.436895,1.511911,62.000588
3.0371,-0.009546,0.00245,0.023266,0.000742,0.000736,-0.011453,0.001488,-0.507369,0.02185,-1.41124,-264.434749,1.441337,62.003229
3.0572,-0.009389,0.002588,0.021595,0.000617,0.000818,-0.011456,0.00183,-0.507383,0.02238,-1.41124,-264.434749,1.441337,62.003229
3.0771,-0.009494,0.002826,0.02095,0.000523,0.000877,-0.011459,0.001646,-0.50727,0.021247,-1.452745,-264.432341,1.475072,62.006197
3.0969,-0.009001,0.002803,0.020852,0.000643,0.000801,-0.011456,0.001232,-0.507079,0.020958,-1.452745,-264.432341,1.475072,62.006197
3.1169,-0.009415,0.002574,0.021095,0.000731,0.000745,-0.011452,0.001232,-0.507079,0.020958,-1.452745,-264.432341,1.475072,62.006197
3.1368,-0.008994,0.002859,0.021605,0.000797,0.000704,-0.011449,0.001363,-0.507276,0.020629,-1.485568,-264.429955,1.504488,62.009263
3.1568,-0.008631,0.003008,0.020361,0.00074,0.000721,-0.011447,0.001637,-0.507168,0.020977,-1.485568,-264.429955,1.504488,62.009263
3.177,-0.008885,0.002482,0.020797,0.000697,0.000732,-0.011445,0.001777,-0.506864,0.020015,-1.444735,-264.427543,1.467602,62.012206
3.1969,-0.008564,0.002669,0.018093,0.000625,0.000792,-0.011447,0.001728,-0.507354,0.020703,-1.444735,-264.427543,1.467602,62.012206
3.2171,-0.008624,0.00292,0.019282,0.000572,0.000835,-0.011448,0.001728,-0.507354,0.020703,-1.444735,-264.427543,1.467602,62.012206
3.2371,-0.008105,0.002796,0.019404,0.000531,0.000867,-0.01145,0.001238,-0.506954,0.018805,-1.459881,-264.425041,1.480789,62.015288
3.257,-0.008417,0.00323,0.018434,0.000601,0.000792,-0.011443,0.001465,-0.507013,0.018993,-1.459881,-264.425041,1.480789,62.015288
3.277,-0.00825,0.002793,0.020007,0.000652,0.000736,-0.011437,0.001,-0.506656,0.018076,-1.484277,-264.422624,1.503297,62.018383
3.297,-0.007943,0.002751,0.018429,0.000578,0.000738,-0.011435,0.001867,-0.507063,0.019813,-1.484277,-264.422624,1.503297,62.018383
3.3169,-0.00776,0.00294,0.019881,0.000522,0.000738,-0.011433,0.001867,-0.507063,0.019813,-1.484277,-264.422624,1.503297,62.018383
3.337,-0.007758,0.003106,0.018041,0.000478,0.000736,-0.011432,0.002406,-0.506928,0.019406,-1.466772,-264.420126,1.486498,62.021464
3.3572,-0.007734,0.002834,0.017555,0.000425,0.000707,-0.011427,0.00201,-0.506876,0.018787,-1.466772,-264.420126,1.486498,62.021464
3.3769,-0.007432,0.00308,0.016935,0.000384,0.000683,-0.011422,0.001233,-0.507064,0.017199,-1.494409,-264.417674,1.508939,62.024491
3.397,-0.007487,0.002956,0.015981,0.000569,0.000601,-0.011412,0.001208,-0.506866,0.01694,-1.494409,-264.417674,1.508939,62.024491
3.4169,-0.007353,0.003145,0.017892,0.000708,0.000542,-0.011402,0.001208,-0.506866,0.01694,-1.494409,-264.417674,1.508939,62.024491
3.4374,-0.007036,0.002946,0.016891,0.000811,0.000499,-0.011393,0.001787,-0.506745,0.017418,-1.509849,-264.415169,1.520701,62.027538
3.4576,-0.006956,0.003136,0.016616,0.000755,0.0005,-0.011386,0.001703,-0.506839,0.017147,-1.509849,-264.415169,1.520701,62.027538
3.4773,-0.00679,0.00284,0.01699,0.000712,0.000499,-0.011381,0.00154,-0.506779,0.016294,-1.445824,-264.412858,1.462411,62.030201
3.4973,-0.006663,0.002917,0.017826,0.000624,0.000557,-0.01138,0.001847,-0.507058,0.016913,-1.445824,-264.412858,1.462411,62.030201
3.5175,-0.006486,0.003187,0.017299,0.000558,0.000599,-0.011379,0.001847,-0.507058,0.016913,-1.445824,-264.412858,1.462411,62.030201
3.5376,-0.006477,0.003292,0.016633,0.000508,0.00063,-0.011379,0.002365,-0.506716,0.016826,-1.460837,-264.41028,1.475475,62.033174
3.5577,-0.006961,0.00315,0.015254,0.000413,0.000609,-0.011371,0.002222,-0.506681,0.016693,-1.460837,-264.41028,1.475475,62.033174
3.5767,-0.006252,0.003116,0.015269,0.000339,0.00059,-0.011366,0.000834,-0.506771,0.0149,-1.490512,-264.407814,1.503819,62.036128
3.5971,-0.00604,0.003074,0.015889,0.000459,0.000541,-0.011353,0.001472,-0.506818,0.015218,-1.490512,-264.407814,1.503819,62.036128
3.617,-0.00601,0.002981,0.015225,0.000549,0.000507,-0.011341,0.001472,-0.506818,0.015218,-1.490512,-264.407814,1.503819,62.036128
3.6369,-0.005798,0.00309,0.014157,0.000616,0.000482,-0.011331,0.001768,-0.506936,0.014759,-1.517523,-264.405319,1.525858,62.039086
3.6573,-0.006159,0.003242,0.012671,0.000616,0.000493,-0.011313,0.001628,-0.506901,0.014459,-1.517523,-264.405319,1.525858,62.039086
3.6772,-0.005512,0.003457,0.013503,0.000616,0.000503,-0.011299,0.000321,-0.506702,0.012328,-1.475469,-264.402858,1.487819,62.041912
3.6968,-0.005176,0.003285,0.014042,0.000736,0.000411,-0.011257,0.001285,-0.506513,0.013385,-1.475469,-264.402858,1.487819,62.041912
3.7172,-0.005526,0.003379,0.0136,0.000826,0.000343,-0.011224,0.001285,-0.506513,0.013385,-1.475469,-264.402858,1.487819,62.041912
3.7372,-0.005027,0.003292,0.013039,0.000892,0.000293,-0.011198,0.001435,-0.506553,0.013128,-1.474853,-264.400291,1.487817,62.044879
3.7567,-0.005038,0.003364,0.014655,0.000874,0.000285,-0.011166,0.001514,-0.506596,0.013037,-1.474853,-264.400291,1.487817,62.044879
3.777,-0.005011,0.003428,0.013224,0.00086,0.000279,-0.011142,0.002462,-0.506572,0.014316,-1.435308,-264.397779,1.446304,62.047611
3.7971,-0.004939,0.003389,0.012517,0.000781,0.000285,-0.011128,0.001798,-0.506531,0.013302,-1.435308,-264.397779,1.446304,62.047611
3.8172,-0.005102,0.002849,0.013861,0.000721,0.000289,-0.011118,0.001798,-0.506531,0.013302,-1.435308,-264.397779,1.446304,62.047611
3.8372,-0.004467,0.002993,0.012143,0.000674,0.00029,-0.011111,0.002003,-0.50709,0.013397,-1.439817,-264.395152,1.450031,62.050459
3.8569,-0.004845,0.003481,0.013209,0.000571,0.000402,-0.011098,0.001894,-0.50704,0.012831,-1.439817,-264.395152,1.450031,62.050459
3.877,-0.004341,0.003126,0.011888,0.000495,0.000485,-0.011089,0.001912,-0.506466,0.012863,-1.467407,-264.392594,1.475831,62.053244
3.8972,-0.00412,0.003297,0.011796,0.000495,0.000482,-0.01104,0.001739,-0.506807,0.011953,-1.467407,-264.392594,1.475831,62.053244
3.9173,-0.004328,0.003185,0.011945,0.000495,0.000479,-0.011002,0.001739,-0.506807,0.011953,-1.467407,-264.392594,1.475831,62.053244
3.9368,-0.003664,0.003555,0.01189,0.000494,0.000478,-0.010972,0.001784,-0.506759,0.011491,-1.492303,-264.390129,1.502756,62.056086
3.9571,-0.004013,0.003361,0.012353,0.000435,0.000463,-0.010927,0.002036,-0.506614,0.011601,-1.492303,-264.390129,1.502756,62.056086
3.9772,-0.003678,0.003343,0.010775,0.000389,0.00045,-0.010892,0.002302,-0.506585,0.012003,-1.491515,-264.387633,1.502034,62.058964
3.997,-0.003699,0.00356,0.010673,0.000394,0.000424,-0.010822,0.001862,-0.506623,0.010868,-1.491515,-264.387633,1.502034,62.058964
4.0169,-0.004007,0.003616,0.011848,0.000397,0.000404,-0.010768,0.001862,-0.506623,0.010868,-1.491515,-264.387633,1.502034,62.058964
4.0372,-0.00293,0.00351,0.009844,0.000398,0.00039,-0.010728,0.002052,-0.506329,0.011396,-1.50814,-264.385148,1.51606,62.061808
4.0572,-0.003551,0.003419,0.010305,0.000368,0.000352,-0.010679,0.00207,-0.506385,0.010683,-1.50814,-264.385148,1.51606,62.061808
4.0771,-0.003,0.003245,0.009342,0.000343,0.000322,-0.010642,0.001717,-0.506541,0.009967,-1.506271,-264.382692,1.513497,62.064573
4.0969,-0.003195,0.003145,0.008622,0.000377,0.000328,-0.010498,0.001761,-0.506716,0.009379,-1.506271,-264.382692,1.513497,62.064573
4.1169,-0.002793,0.003539,0.008986,0.000402,0.000335,-0.010392,0.001761,-0.506716,0.009379,-1.506271,-264.382692,1.513497,62.064573
4.137,-0.002741,0.003799,0.009737,0.00042,0.000341,-0.010314,0.001804,-0.506427,0.008542,-1.515279,-264.380226,1.520516,62.067296
4.157,-0.002638,0.003378,0.009225,0.000413,0.00029,-0.010203,0.001977,-0.506323,0.008979,-1.515279,-264.380226,1.520516,62.067296
4.1771,-0.002257,0.003325,0.00888,0.000406,0.000251,-0.010121,0.00208,-0.50659,0.008899,-1.500486,-264.377846,1.507686,62.069947
4.1969,-0.002541,0.00363,0.007882,0.000307,0.000304,-0.010052,0.002256,-0.506648,0.008866,-1.500486,-264.377846,1.507686,62.069947
4.2173,-0.002483,0.003414,0.00938,0.000231,0.000342,-0.010002,0.002256,-0.506648,0.008866,-1.500486,-264.377846,1.507686,62.069947
4.237,-0.002135,0.003172,0.009589,0.000173,0.000371,-0.009967,0.002318,-0.506553,0.008957,-1.502381,-264.37547,1.507712,62.072523
4.2574,-0.002212,0.00346,0.008675,7.2e-05,0.000416,-0.009973,0.002498,-0.506655,0.009166,-1.502381,-264.37547,1.507712,62.072523
4.2768,-0.002324,0.003457,0.008252,-5e-06,0.000449,-0.009979,0.002218,-0.506509,0.008369,-1.540624,-264.373282,1.544085,62.074994
4.297,-0.001786,0.003362,0.008646,8.8e-05,0.000394,-0.009867,0.001914,-0.506524,0.008248,-1.540624,-264.373282,1.544085,62.074994
4.3171,-0.00218,0.003977,0.00978,0.000158,0.000353,-0.009785,0.001914,-0.506524,0.008248,-1.540624,-264.373282,1.544085,62.074994
4.3373,-0.001959,0.003459,0.007116,0.000209,0.000325,-0.009725,0.002807,-0.50598,0.009374,-1.571739,-264.371089,1.571609,62.077537
4.3574,-0.001869,0.003426,0.008379,0.000172,0.000286,-0.009695,0.002347,-0.5062,0.008413,-1.571739,-264.371089,1.571609,62.077537
4.3778,-0.001546,0.003607,0.006904,0.000143,0.000255,-0.009673,0.002411,-0.506546,0.008082,-1.533637,-264.368931,1.537487,62.079944
4.3973,-0.001281,0.00362,0.006152,0.000184,0.000224,-0.009433,0.002021,-0.506398,0.00701,-1.533637,-264.368931,1.537487,62.079944
4.4179,-0.001757,0.00341,0.005611,0.000214,0.000202,-0.009259,0.002021,-0.506398,0.00701,-1.533637,-264.368931,1.537487,62.079944
4.4367,-0.001052,0.003511,0.0074,0.000235,0.000188,-0.009135,0.001111,-0.506572,0.005205,-1.545542,-264.366681,1.547627,62.082397
4.4567,-0.001089,0.003189,0.005429,0.000311,0.000171,-0.008845,0.00175,-0.506532,0.00603,-1.545542,-264.366681,1.547627,62.082397
4.4773,-0.001055,0.003575,0.004893,0.000368,0.000162,-0.008641,0.001687,-0.506797,0.005141,-1.527274,-264.364544,1.530104,62.084682
4.4972,-0.000752,0.003353,0.007479,0.000496,0.000109,-0.008208,0.001463,-0.506452,0.004901,-1.527274,-264.364544,1.530104,62.084682
4.517,-0.001005,0.003819,0.005869,0.000591,7.4e-05,-0.007908,0.001463,-0.506452,0.004901,-1.527274,-264.364544,1.530104,62.084682
4.5372,-0.000763,0.00365,0.004345,0.000662,5.3e-05,-0.007703,0.002003,-0.506165,0.005516,-1.49907,-264.362542,1.503333,62.086811
4.5572,-0.000666,0.003654,0.00478,0.000648,2.8e-05,-0.007584,0.001781,-0.506237,0.004999,-1.49907,-264.362542,1.503333,62.086811
4.5772,-0.000395,0.003584,0.004356,0.000636,1.1e-05,-0.007505,0.00179,-0.506339,0.00457,-1.429501,-264.360937,1.432613,62.088452
4.597,-9.7e-05,0.00352,0.004461,0.000603,2.3e-05,-0.007275,0.001824,-0.506405,0.004364,-1.429501,-264.360937,1.432613,62.088452
4.6168,-0.000355,0.003589,0.005713,0.000578,3.4e-05,-0.007116,0.001824,-0.506405,0.004364,-1.429501,-264.360937,1.432613,62.088452
4.6367,-0.000397,0.003418,0.004914,0.000557,4.4e-05,-0.007008,0.002585,-0.506402,0.005399,-1.432644,-264.359091,1.43332,62.090307
4.657,-0.000372,0.003437,0.005496,0.000402,0.000126,-0.007142,0.002394,-0.506473,0.005165,-1.432644,-264.359091,1.43332,62.090307
4.6769,-0.000378,0.003854,0.005226,0.000283,0.000185,-0.007241,0.002449,-0.506553,0.005273,-1.440002,-264.357385,1.442661,62.092047
4.6969,-0.000413,0.00389,0.003677,0.000237,0.000171,-0.00732,0.002305,-0.506181,0.005217,-1.440002,-264.357385,1.442661,62.092047
4.7171,-6.3e-05,0.003481,0.005373,0.000201,0.000158,-0.007378,0.002305,-0.506181,0.005217,-1.440002,-264.357385,1.442661,62.092047
4.7368,-0.000139,0.003568,0.002005,0.000172,0.000148,-0.007419,0.002688,-0.506505,0.00511,-1.504192,-264.355905,1.509526,62.093657
4.7571,-3.7e-05,0.003801,0.002727,0.000212,0.000139,-0.007052,0.001948,-0.506474,0.003805,-1.504192,-264.355905,1.509526,62.093657
4.7767,0.000539,0.003657,0.003671,0.000242,0.000137,-0.006795,0.001359,-0.506193,0.002496,-1.531502,-264.354185,1.533982,62.095492
4.797,-4.9e-05,0.003745,0.004368,0.000189,0.000137,-0.00653,0.002322,-0.506327,0.00356,-1.531502,-264.354185,1.533982,62.095492
4.8169,6e-06,0.003642,0.003368,0.000148,0.000138,-0.006345,0.002322,-0.506327,0.00356,-1.531502,-264.354185,1.533982,62.095492
4.8371,0.000861,0.003108,0.004073,0.000115,0.00014,-0.006218,0.001734,-0.506349,0.003088,-1.510693,-264.352588,1.514519,62.097197
4.8568,0.0005,0.003601,0.004028,8.5e-05,0.00018,-0.006106,0.002246,-0.506577,0.003473,-1.510693,-264.352588,1.514519,62.097197
4.8767,0.000773,0.003665,0.002235,6.1e-05,0.000212,-0.006029,0.002557,-0.506391,0.003837,-1.539235,-264.351167,1.541476,62.098727
4.897,0.000705,0.003623,0.003595,0.000132,0.000151,-0.005538,0.001967,-0.506338,0.002359,-1.539235,-264.351167,1.541476,62.098727
4.9171,0.000722,0.003613,0.002968,0.000184,0.000108,-0.0052,0.001967,-0.506338,0.002359,-1.539235,-264.351167,1.541476,62.098727
4.9371,0.00068,0.003585,0.002261,0.000223,7.9e-05,-0.004967,0.002238,-0.506376,0.002718,-1.553098,-264.349786,1.555027,62.100277
4.9569,0.000431,0.003695,0.002609,0.000222,7.9e-05,-0.00487,0.002071,-0.506391,0.0025,-1.553098,-264.349786,1.555027,62.100277
4.9771,0.000561,0.003457,0.002269,0.000221,8.1e-05,-0.004805,0.001767,-0.506301,0.002467,-1.49554,-264.348715,1.499325,62.101404
4.9972,0.000858,0.003496,0.002857,0.000296,7.8e-05,-0.004672,0.001722,-0.506523,0.002278,-1.49554,-264.348715,1.499325,62.101404
5.0169,0.000864,0.003697,0.003254,0.000353,7.9e-05,-0.004581,0.001722,-0.506523,0.002278,-1.49554,-264.348715,1.499325,62.101404
5.0374,0.00087,0.003653,0.002726,0.000396,8.2e-05,-0.004518,0.002533,-0.506297,0.003054,-1.49368,-264.347575,1.497811,62.102609
5.0572,0.000829,0.003547,0.002165,0.00028,0.000119,-0.004715,0.002425,-0.506316,0.002899,-1.49368,-264.347575,1.497811,62.102609
5.0771,0.000938,0.003626,0.00407,0.000191,0.000145,-0.004856,0.001943,-0.506449,0.00204,-1.423811,-264.346639,1.432182,62.103601
5.0972,0.00081,0.003374,0.002447,1.7e-05,0.000234,-0.005259,0.002915,-0.506377,0.003876,-1.423811,-264.346639,1.432182,62.103601
5.1172,0.001572,0.003547,0.00163,-0.000117,0.000297,-0.005552,0.002915,-0.506377,0.003876,-1.423811,-264.346639,1.432182,62.103601
5.1371,0.001157,0.003489,0.002223,-0.00022,0.00034,-0.005761,0.00241,-0.506447,0.001463,-1.498922,-264.345711,1.507294,62.104625
5.1571,0.001227,0.003466,0.002138,-0.000189,0.000299,-0.005086,0.002363,-0.506472,0.001752,-1.498922,-264.345711,1.507294,62.104625
5.1771,0.001306,0.003574,0.001426,-0.000168,0.00027,-0.004616,0.002317,-0.506527,0.002032,-1.573896,-264.344978,1.582268,62.105513
5.197,0.001361,0.003632,0.0017,-7.6e-05,0.000214,-0.004151,0.002058,-0.506434,0.001475,-1.573896,-264.344978,1.582268,62.105513
5.217,0.001777,0.003495,0.002198,-7e-06,0.000176,-0.003828,0.002058,-0.506434,0.001475,-1.573896,-264.344978,1.582268,62.105513
5.237,0.001803,0.003642,0.002784,4.4e-05,0.000149,-0.003604,0.002892,-0.506494,0.002021,-1.636449,-264.344045,1.62499,62.106643
5.2573,0.001818,0.003561,0.00232,-0.000122,0.000234,-0.003828,0.003026,-0.506436,0.002313,-1.636449,-264.344045,1.62499,62.106643
5.2769,0.001402,0.003219,0.002187,-0.000249,0.000294,-0.003991,0.003002,-0.506434,0.002227,-1.561359,-264.343377,1.552215,62.107409
5.297,0.001112,0.003394,0.003012,-0.000284,0.000354,-0.004068,0.002559,-0.50675,0.002186,-1.561359,-264.343377,1.552215,62.107409
5.3168,0.001678,0.003918,0.001524,-0.000309,0.0004,-0.004123,0.002559,-0.50675,0.002186,-1.561359,-264.343377,1.552215,62.107409
5.3368,0.001351,0.003456,-0.00031,-0.000328,0.000434,-0.004164,0.002451,-0.506073,0.001417,-1.636367,-264.342824,1.627223,62.108112
5.357,0.001331,0.003699,0.002443,-0.000151,0.000293,-0.003425,0.001934,-0.506265,0.000695,-1.636367,-264.342824,1.627223,62.108112
5.3767,0.001724,0.003915,0.001261,-1.9e-05,0.00019,-0.002906,0.002569,-0.506288,0.002331,-1.711349,-264.342105,1.680685,62.109121
5.3968,0.001535,0.00377,0.001604,-1.3e-05,0.000137,-0.002898,0.002384,-0.506102,0.001348,-1.711349,-264.342105,1.680685,62.109121
5.4175,0.00158,0.003479,0.001349,-9e-06,9.7e-05,-0.002894,0.002384,-0.506102,0.001348,-1.711349,-264.342105,1.680685,62.109121
5.4368,0.001658,0.003623,0.000657,-8e-06,6.6e-05,-0.002892,0.002266,-0.506515,0.001269,-1.636313,-264.341691,1.605649,62.109633
5.4569,0.002006,0.003641,0.000295,1.1e-05,8e-05,-0.002733,0.002159,-0.506461,0.001023,-1.636313,-264.341691,1.605649,62.109633
5.477,0.001979,0.003515,0.001765,2.6e-05,9.2e-05,-0.002621,0.002156,-0.506357,0.00021,-1.575529,-264.341057,1.575186,62.110317
5.4969,0.0016,0.003828,0.000399,-0.000106,0.000176,-0.002851,0.002822,-0.506474,0.001638,-1.575529,-264.341057,1.575186,62.110317
5.5168,0.001724,0.003331,0.00038,-0.000206,0.000236,-0.003016,0.002822,-0.506474,0.001638,-1.575529,-264.341057,1.575186,62.110317
5.5369,0.001872,0.003755,0.001236,-0.000283,0.00028,-0.003134,0.001918,-0.506665,0.000272,-1.553659,-264.340463,1.555514,62.110983
5.5572,0.0017,0.003731,-0.001047,-0.000197,0.000238,-0.002707,0.002161,-0.50649,0.000659,-1.553659,-264.340463,1.555514,62.110983
5.5769,0.001489,0.003633,0.000514,-0.000134,0.00021,-0.002406,0.001164,-0.506265,-0.001088,-1.628496,-264.340194,1.630351,62.111342
5.5971,0.00193,0.00362,0.000264,4.1e-05,0.000128,-0.002029,0.001699,-0.506358,0.000368,-1.628496,-264.340194,1.630351,62.111342
5.6174,0.001519,0.003684,0.001616,0.000172,7.1e-05,-0.001764,0.001699,-0.506358,0.000368,-1.628496,-264.340194,1.630351,62.111342
5.637,0.001733,0.003555,0.000644,0.00027,3.1e-05,-0.001577,0.002338,-0.506306,0.001519,-1.676615,-264.339709,1.650302,62.111987
5.6573,0.00198,0.003524,0.000452,0.000215,6.2e-05,-0.001881,0.002228,-0.50636,0.001161,-1.676615,-264.339709,1.650302,62.111987
5.677,0.001837,0.003865,0.000805,0.000174,8.4e-05,-0.002097,0.00221,-0.506476,0.000451,-1.601611,-264.339704,1.575298,62.111992
5.6971,0.001686,0.004005,0.000823,0.000156,5.8e-05,-0.002047,0.002244,-0.506164,0.000774,-1.601611,-264.339704,1.575298,62.111992
5.7171,0.002004,0.003338,0.000527,0.000142,3.9e-05,-0.002011,0.002244,-0.506164,0.000774,-1.601611,-264.339704,1.575298,62.111992
5.737,0.001963,0.003369,0.000418,0.00013,2.3e-05,-0.001985,0.002274,-0.50666,0.000486,-1.526473,-264.33948,1.50016,62.112247
5.7571,0.002305,0.003667,0.000222,7.9e-05,9.3e-05,-0.001798,0.002234,-0.506648,0.000454,-1.526473,-264.33948,1.50016,62.112247
5.7771,0.001501,0.003954,0.00051,4.1e-05,0.000147,-0.001666,0.002423,-0.506332,0.000164,-1.462242,-264.33904,1.466272,62.112703
5.7973,0.001478,0.003442,0.001895,0.000162,5.6e-05,-0.001583,0.001817,-0.506071,0.000477,-1.462242,-264.33904,1.466272,62.112703
5.8175,0.002051,0.004231,-0.000118,0.000253,-1.2e-05,-0.001523,0.001817,-0.506071,0.000477,-1.462242,-264.33904,1.466272,62.112703
5.8373,0.001788,0.00385,8.6e-05,0.000321,-6.2e-05,-0.00148,0.001992,-0.505764,-0.000178,-1.524105,-264.338737,1.535869,62.113109
5.8569,0.002227,0.003809,0.001307,0.000357,-0.000125,-0.001121,0.001927,-0.505922,-7.7e-05,-1.524105,-264.338737,1.535869,62.113109
5.8775,0.002124,0.003704,0.000321,0.000383,-0.000171,-0.000867,0.002894,-0.50619,0.001305,-1.449117,-264.338716,1.460881,62.113127
5.8975,0.002357,0.004006,-0.000466,0.000277,-0.000104,-0.000977,0.002339,-0.506287,0.000404,-1.449117,-264.338716,1.460881,62.113127
5.9176,0.00209,0.0033,0.000387,0.000196,-5.3e-05,-0.001056,0.002339,-0.506287,0.000404,-1.449117,-264.338716,1.460881,62.113127
5.9373,0.002064,0.003645,0.001082,0.000135,-1.7e-05,-0.001112,0.002288,-0.5067,0.000387,-1.374056,-264.338716,1.385819,62.113127
5.9571,0.001876,0.003695,0.000947,4.6e-05,7.5e-05,-0.001309,0.002421,-0.506559,0.000671,-1.374056,-264.338716,1.385819,62.113127
5.9778,0.001993,0.00348,0.001303,-2.1e-05,0.000142,-0.001449,0.002363,-0.506305,0.000912,-1.379144,-264.338434,1.369768,62.113397
5.9973,0.001931,0.00357,0.000185,-0.000109,0.000211,-0.001854,0.002628,-0.506498,0.001261,-1.379144,-264.338434,1.369768,62.113397
6.0173,0.002025,0.003361,0.000933,-0.000174,0.00026,-0.002143,0.002628,-0.506498,0.001261,-1.379144,-264.338434,1.369768,62.113397
6.0372,0.002122,0.003752,-0.002316,-0.000224,0.000294,-0.00235,0.002501,-0.506637,0.00092,-1.454269,-264.338372,1.444894,62.113482
6.0569,0.00204,0.003691,3.1e-05,-8e-05,0.000222,-0.001572,0.001863,-0.506477,-0.000404,-1.454269,-264.338372,1.444894,62.113482
6.0768,0.001755,0.003641,-0.000172,2.7e-05,0.00017,-0.001021,0.002056,-0.506309,3.1e-05,-1.379405,-264.338372,1.519758,62.113482
6.0973,0.002089,0.003703,0.002072,0.000158,0.000106,-0.000781,0.001702,-0.506355,-0.000154,-1.379405,-264.338372,1.519758,62.113482
6.1169,0.001999,0.003355,0.000366,0.000257,6e-05,-0.000611,0.001702,-0.506355,-0.000154,-1.379405,-264.338372,1.519758,62.113482
6.1368,0.002249,0.003694,-0.000531,0.00033,2.7e-05,-0.00049,0.002187,-0.50664,0.000334,-1.454417,-264.338235,1.536687,62.113722
6.1571,0.002224,0.003443,0.000396,0.000275,6.4e-05,-0.000481,0.002101,-0.506501,-2.7e-05,-1.454417,-264.338235,1.536687,62.113722
6.1771,0.001871,0.003642,0.000881,0.000233,9.2e-05,-0.000474,0.002426,-0.506557,0.000396,-1.379323,-264.338235,1.461592,62.113722
6.197,0.00243,0.00357,0.000383,0.000161,0.000128,-0.000948,0.002329,-0.506375,0.000839,-1.379323,-264.338235,1.461592,62.113722
6.2172,0.002181,0.003396,0.000342,0.000108,0.000153,-0.001286,0.002329,-0.506375,0.000839,-1.379323,-264.338235,1.461592,62.113722
6.2374,0.001751,0.00358,0.001017,6.7e-05,0.000168,-0.001528,0.002355,-0.506604,0.000342,-1.304333,-264.338235,1.386602,62.113722
6.2572,0.001945,0.003524,-7e-05,2.3e-05,0.000201,-0.00158,0.002321,-0.506531,0.000611,-1.304333,-264.338235,1.386602,62.113722
6.2767,0.00203,0.003978,-0.00051,-1e-05,0.000224,-0.001618,0.001911,-0.506474,-9.3e-05,-1.37926,-264.338091,1.46153,62.113928
6.297,0.001999,0.004042,0.001749,0.000133,0.0001,-0.001005,0.001782,-0.50606,-0.000476,-1.37926,-264.338091,1.46153,62.113928
6.3171,0.002477,0.003513,0.000826,0.000239,8e-06,-0.000571,0.001782,-0.50606,-0.000476,-1.37926,-264.338091,1.46153,62.113928
6.3371,0.001981,0.004082,0.001387,0.000318,-6.1e-05,-0.000265,0.002899,-0.506483,0.000798,-1.454418,-264.337967,1.536687,62.114126
6.3571,0.00229,0.003636,0.000216,0.000137,3.8e-05,-0.000889,0.002812,-0.506248,0.00104,-1.454418,-264.337967,1.536687,62.114126
6.3767,0.002084,0.003617,-0.000311,-1e-06,0.000107,-0.001338,0.0024,-0.506364,0.000216,-1.379309,-264.337967,1.461578,62.114126
6.3969,0.001934,0.004,0.000751,6.7e-05,7.9e-05,-0.000931,0.001963,-0.506382,-0.000269,-1.379309,-264.337967,1.461578,62.114126
6.417,0.002075,0.003787,-0.000179,0.000118,6e-05,-0.000645,0.001963,-0.506382,-0.000269,-1.379309,-264.337967,1.461578,62.114126
6.4372,0.002257,0.00317,-0.000186,0.000155,4.7e-05,-0.000444,0.001984,-0.506211,-0.000204,-1.454326,-264.33784,1.536596,62.114291
6.4573,0.002061,0.004064,-0.000274,0.000154,6.3e-05,-0.000344,0.002057,-0.506463,-0.0002,-1.454326,-264.33784,1.536596,62.114291
6.477,0.001992,0.003735,0.002064,0.000153,7.6e-05,-0.000274,0.001921,-0.505936,-0.000274,-1.379643,-264.33784,1.461913,62.114291
6.4975,0.002126,0.003932,-8.9e-05,-1.7e-05,0.000168,-0.001241,0.002944,-0.506234,0.001854,-1.379643,-264.33784,1.461913,62.114291
6.5176,0.001913,0.004119,-0.000866,-0.000145,0.00023,-0.001946,0.002944,-0.506234,0.001854,-1.379643,-264.33784,1.461913,62.114291
6.5371,0.001858,0.003551,-4.2e-05,-0.000242,0.00027,-0.002457,0.001472,-0.505881,-0.000866,-1.304646,-264.33784,1.386916,62.114291
6.5569,0.001868,0.003589,-0.001275,-4e-06,0.000129,-0.00156,0.001624,-0.506119,-0.000521,-1.304646,-264.33784,1.386916,62.114291
6.5766,0.001848,0.003619,0.002624,0.000172,2.5e-05,-0.000927,0.001217,-0.506411,-0.001275,-1.229299,-264.33784,1.462263,62.114291
6.597,0.002181,0.003494,0.002299,-2.9e-05,0.000165,-0.001865,0.003016,-0.506382,0.002287,-1.229299,-264.33784,1.462263,62.114291
6.6173,0.001981,0.003803,0.000109,-0.000182,0.000263,-0.002553,0.003016,-0.506382,0.002287,-1.229299,-264.33784,1.462263,62.114291
6.6372,0.001889,0.003989,0.000979,-0.000298,0.000331,-0.003054,0.00204,-0.506196,8.5e-05,-1.263631,-264.337703,1.387507,62.114439
6.6574,0.001965,0.00385,-0.000188,-0.000183,0.000223,-0.002537,0.002183,-0.50612,0.000449,-1.263631,-264.337703,1.387507,62.114439
6.6767,0.002292,0.003625,0.0001,-9.9e-05,0.000144,-0.002176,0.001869,-0.50615,-0.000188,-1.188607,-264.337703,1.462531,62.114439
6.6971,0.00212,0.004105,-0.000265,-8.4e-05,0.000126,-0.001708,0.002303,-0.506356,7.6e-05,-1.188607,-264.337703,1.462531,62.114439
6.7174,0.001788,0.003691,-0.001096,-7.4e-05,0.000114,-0.001382,0.002303,-0.506356,7.6e-05,-1.188607,-264.337703,1.462531,62.114439
6.737,0.002326,0.003693,0.001005,-6.7e-05,0.000107,-0.001154,0.001229,-0.506309,-0.001098,-1.263634,-264.337695,1.537558,62.114449
6.7573,0.00197,0.003856,0.0003,4.3e-05,5.6e-05,-0.000808,0.001884,-0.506308,-0.000241,-1.263634,-264.337695,1.537558,62.114449
6.7766,0.00198,0.003841,0.001128,0.000125,2e-05,-0.000566,0.002123,-0.506144,0.000298,-1.338512,-264.337684,1.612436,62.114464
6.7969,0.002312,0.003708,-0.000757,5.5e-05,5e-05,-0.00111,0.002519,-0.506157,0.001057,-1.338512,-264.337684,1.612436,62.114464
6.817,0.00193,0.003874,0.000101,2e-06,6.9e-05,-0.0015,0.002519,-0.506157,0.001057,-1.338512,-264.337684,1.612436,62.114464
6.8367,0.002127,0.00367,-0.000356,-3.8e-05,8e-05,-0.001781,0.001981,-0.506126,9.9e-05,-1.263423,-264.337673,1.537347,62.114476
6.8568,0.001883,0.003895,2.8e-05,5.2e-05,2.7e-05,-0.001343,0.001966,-0.50621,-8.9e-05,-1.263423,-264.337673,1.537347,62.114476
6.8767,0.002509,0.003857,-0.001932,0.000119,-1e-05,-0.001035,0.001898,-0.506105,2.1e-05,-1.338469,-264.337619,1.603479,62.114538
6.8969,0.002407,0.003892,0.000557,0.00028,-9.1e-05,9.9e-05,0.001557,-0.506139,-0.001762,-1.338469,-264.337619,1.603479,62.114538
6.917,0.002149,0.003913,-0.000465,0.000398,-0.00015,0.000906,0.001557,-0.506139,-0.001762,-1.338469,-264.337619,1.603479,62.114538
6.9367,0.002261,0.003689,0.000538,0.000486,-0.000193,0.001477,0.001913,-0.506087,-0.000484,-1.387516,-264.337506,1.528529,62.114648
6.9568,0.002009,0.003409,0.002269,0.000402,-0.000143,0.000932,0.002168,-0.506179,-6.7e-05,-1.387516,-264.337506,1.528529,62.114648
6.9769,0.00194,0.003436,0.001041,0.000338,-0.000108,0.000546,0.003166,-0.50659,0.002269,-1.312526,-264.337506,1.453539,62.114648
6.9967,0.002418,0.003771,0.000531,0.000173,4.9e-05,-0.00037,0.00253,-0.506566,0.001145,-1.312526,-264.337506,1.453539,62.114648
7.0171,0.002228,0.003636,-0.000324,5.1e-05,0.00016,-0.001031,0.00253,-0.506566,0.001145,-1.312526,-264.337506,1.453539,62.114648
7.0373,0.002383,0.003718,0.001034,-4e-05,0.000239,-0.001507,0.002063,-0.506364,-0.000324,-1.237484,-264.337506,1.378497,62.114648
7.0572,0.002182,0.003815,-0.00095,-6e-05,0.00022,-0.001349,0.002407,-0.506331,0.000227,-1.237484,-264.337506,1.378497,62.114648
7.077,0.002106,0.003908,-0.000317,-7.6e-05,0.000205,-0.001237,0.001697,-0.506184,-0.000952,-1.312431,-264.337496,1.453444,62.114664
7.0969,0.002098,0.003638,-7.4e-05,4.3e-05,0.000105,-0.0008,0.001922,-0.5061,-0.000374,-1.312431,-264.337496,1.453444,62.114664
7.117,0.00243,0.003751,-0.000887,0.000131,3e-05,-0.00049,0.001922,-0.5061,-0.000374,-1.312431,-264.337496,1.453444,62.114664
7.1368,0.002293,0.004069,0.001642,0.000197,-2.6e-05,-0.000271,0.001978,-0.506249,-0.000889,-1.387335,-264.337487,1.528348,62.11468
7.1572,0.002286,0.004033,-0.000224,0.000127,-1.2e-05,-0.000413,0.002445,-0.50612,0.000137,-1.387335,-264.337487,1.528348,62.11468
7.1766,0.001937,0.004012,0.000771,7.2e-05,-3e-06,-0.000515,0.002171,-0.505967,-0.000224,-1.312359,-264.337487,1.453372,62.11468
7.1968,0.002054,0.003937,0.001506,7.1e-05,-1.8e-05,-0.000889,0.002315,-0.505986,0.000681,-1.312359,-264.337487,1.453372,62.11468
7.217,0.002076,0.003854,0.000594,6.9e-05,-3.1e-05,-0.001155,0.002315,-0.505986,0.000681,-1.312359,-264.337487,1.453372,62.11468
7.2372,0.002405,0.00386,-0.000978,6.8e-05,-4.4e-05,-0.001345,0.002381,-0.506146,0.000577,-1.34704,-264.337382,1.378365,62.114783
7.2569,0.002076,0.004125,-0.000448,8.1e-05,-5.5e-05,-0.001061,0.002189,-0.506144,-5.5e-05,-1.34704,-264.337382,1.378365,62.114783
7.2766,0.002092,0.003658,-0.001131,9e-05,-6.3e-05,-0.000861,0.001849,-0.505876,-0.000474,-1.422048,-264.337175,1.453374,62.114969
7.2971,0.002282,0.003481,-8e-05,0.000245,-0.000102,-0.000131,0.001544,-0.506302,-0.001076,-1.422048,-264.337175,1.453374,62.114969
7.317,0.002326,0.003717,-0.000483,0.00036,-0.000128,0.000385,0.001544,-0.506302,-0.001076,-1.422048,-264.337175,1.453374,62.114969
7.3369,0.002544,0.004062,0.000486,0.000446,-0.000144,0.000748,0.002083,-0.506285,-0.000516,-1.419592,-264.336957,1.379401,62.115142
7.3572,0.002189,0.003606,-0.000638,0.000331,-0.0001,0.000455,0.002367,-0.506147,-0.00012,-1.419592,-264.336957,1.379401,62.115142
7.3767,0.001925,0.003279,6.6e-05,0.000242,-6.9e-05,0.000247,0.001863,-0.506394,-0.000638,-1.344735,-264.336957,1.304544,62.115142
7.3969,0.00217,0.003688,-0.000282,0.000223,2.3e-05,1.8e-05,0.00195,-0.506691,3e-06,-1.344735,-264.336957,1.304544,62.115142
7.4171,0.002193,0.003623,0.000637,0.00021,9.2e-05,-0.000146,0.00195,-0.506691,3e-06,-1.344735,-264.336957,1.304544,62.115142
7.437,0.002019,0.003311,0.000738,0.000202,0.000144,-0.000262,0.002518,-0.506377,0.000637,-1.26973,-264.336957,1.229538,62.115142
7.457,0.002128,0.003609,0.000515,9.5e-05,0.000205,-0.000717,0.002467,-0.506505,0.000678,-1.26973,-264.336957,1.229538,62.115142
7.4769,0.001952,0.003471,-0.000988,1.4e-05,0.000248,-0.001043,0.002391,-0.506391,0.000515,-1.194588,-264.336957,1.154396,62.115142
7.4974,0.002285,0.003715,7.5e-05,0.000182,0.00018,-0.000389,0.00153,-0.506517,-0.000857,-1.194588,-264.336957,1.154396,62.115142
7.5172,0.002079,0.003644,-0.000329,0.000306,0.00013,7.3e-05,0.00153,-0.506517,-0.000857,-1.194588,-264.336957,1.154396,62.115142
7.5369,0.002205,0.004003,-3.8e-05,0.000399,9.5e-05,0.0004,0.001911,-0.506356,-0.000329,-1.269442,-264.336955,1.229251,62.115146
7.5575,0.002393,0.00329,0.000699,0.000372,6.5e-05,0.000257,0.002022,-0.506211,-0.000211,-1.269442,-264.336955,1.229251,62.115146
7.577,0.00211,0.003926,-0.000549,0.00035,4.1e-05,0.000157,0.002749,-0.50671,0.000699,-1.194411,-264.336955,1.15422,62.115146
7.5971,0.002465,0.003654,0.000726,0.000367,-6e-06,0.000226,0.001905,-0.506125,-0.000448,-1.194411,-264.336955,1.15422,62.115146
7.6175,0.002404,0.003132,0.000773,0.000379,-4.2e-05,0.000276,0.001905,-0.506125,-0.000448,-1.194411,-264.336955,1.15422,62.115146
7.6368,0.002091,0.003573,-8.2e-05,0.000388,-6.9e-05,0.000311,0.002798,-0.506868,0.000773,-1.119178,-264.336955,1.078987,62.115146
7.6571,0.002188,0.003716,0.000115,0.000212,8.2e-05,-0.000172,0.002492,-0.506688,0.000423,-1.119178,-264.336955,1.078987,62.115146
7.6769,0.001564,0.003718,-0.000214,7.9e-05,0.000192,-0.000517,0.002246,-0.506284,0.000115,-1.04433,-264.336955,1.004139,62.115146
7.6971,0.002376,0.003836,-0.000456,0.000249,0.000109,-0.000411,0.001523,-0.506282,-0.000186,-1.04433,-264.336955,1.004139,62.115146
7.7172,0.001996,0.003647,0.001139,0.000377,4.8e-05,-0.000335,0.001523,-0.506282,-0.000186,-1.04433,-264.336955,1.004139,62.115146
7.737,0.002245,0.003382,6.5e-05,0.000472,3e-06,-0.00028,0.002578,-0.506352,0.001138,-1.002592,-264.336952,1.079132,62.115158
7.757,0.001971,0.003663,-0.000259,0.000309,9.5e-05,-0.000738,0.002455,-0.506462,0.000697,-1.002592,-264.336952,1.079132,62.115158
7.7768,0.002058,0.003749,0.000332,0.000185,0.000159,-0.001065,0.001839,-0.506337,-0.000259,-0.927587,-264.336952,1.004127,62.115158
7.797,0.0025,0.00357,-0.000848,0.000165,0.000137,-0.001068,0.002196,-0.506258,0.000284,-0.927587,-264.336952,1.004127,62.115158
7.817,0.002279,0.003538,0.00049,0.00015,0.000118,-0.001069,0.002196,-0.506258,0.000284,-0.927587,-264.336952,1.004127,62.115158
7.8374,0.00246,0.003899,-0.001459,0.000137,0.000102,-0.00107,0.002529,-0.506461,0.000488,-1.002751,-264.336943,1.079292,62.115171
7.857,0.002112,0.003352,0.000865,0.00012,8.8e-05,-0.000728,0.002201,-0.506316,-0.000297,-1.002751,-264.336943,1.079292,62.115171
7.8767,0.002477,0.004014,-0.000378,0.000106,7.7e-05,-0.000487,0.002553,-0.506648,0.000863,-1.077472,-264.336935,1.154012,62.115183
7.897,0.002076,0.003636,0.000367,9.5e-05,3.4e-05,-0.000327,0.002307,-0.506043,-0.000271,-1.077472,-264.336935,1.154012,62.115183
7.917,0.002149,0.003192,0.001381,8.5e-05,-0.0,-0.000213,0.002307,-0.506043,-0.000271,-1.077472,-264.336935,1.154012,62.115183
7.9368,0.002256,0.003676,0.000367,7.7e-05,-2.7e-05,-0.000133,0.002856,-0.506805,0.001367,-1.122499,-264.336866,1.229138,62.115292
7.9572,0.002167,0.003874,-0.00094,-6.3e-05,0.000116,-0.000766,0.002689,-0.50661,0.00096,-1.122499,-264.336866,1.229138,62.115292
7.9766,0.002184,0.003579,-7.4e-05,-0.000167,0.000219,-0.001221,0.001687,-0.506126,-0.00094,-1.047617,-264.336866,1.154256,62.115292
7.9968,0.002211,0.003828,0.0008,-9.5e-05,0.00018,-0.000923,0.002105,-0.506395,-0.000152,-1.047617,-264.336866,1.154256,62.115292
8.0169,0.002137,0.003572,-0.00071,-4.1e-05,0.000151,-0.000712,0.002105,-0.506395,-0.000152,-1.047617,-264.336866,1.154256,62.115292
8.0369,0.002295,0.003916,-0.000611,-1e-06,0.000131,-0.000564,0.001775,-0.506428,-0.00071,-0.972616,-264.336866,1.229257,62.115292
8.0577,0.002114,0.003537,0.000497,9.7e-05,7.1e-05,-0.000151,0.00186,-0.506288,-0.00067,-0.972616,-264.336866,1.229257,62.115292
8.0768,0.002033,0.003585,-0.001229,0.000171,2.7e-05,0.00014,0.002367,-0.506463,0.000497,-1.047746,-264.336866,1.304388,62.115292
8.097,0.002131,0.003857,-5e-06,0.000311,-1.1e-05,0.000573,0.001493,-0.506419,-0.001072,-1.047746,-264.336866,1.304388,62.115292
8.117,0.00245,0.003559,-0.001182,0.000416,-3.7e-05,0.000878,0.001493,-0.506419,-0.001072,-1.047746,-264.336866,1.304388,62.115292
8.137,0.002022,0.003516,0.001034,0.000495,-5.4e-05,0.001091,0.001847,-0.50644,-0.001182,-0.972859,-264.336866,1.229501,62.115292
8.1571,0.002295,0.003869,0.00151,0.000394,6e-06,0.000784,0.002132,-0.506458,-0.000281,-0.972859,-264.336866,1.229501,62.115292
8.1769,0.002652,0.004004,0.000299,0.000318,4.9e-05,0.000565,0.003065,-0.50613,0.00151,-0.897891,-264.336866,1.154533,62.115292
8.1972,0.002366,0.003632,0.000498,0.00016,8e-05,3.2e-05,0.002827,-0.506008,0.000403,-0.897891,-264.336866,1.154533,62.115292
8.2174,0.002178,0.004009,0.001057,3.6e-05,9.7e-05,-0.000348,0.002827,-0.506008,0.000403,-0.897891,-264.336866,1.154533,62.115292
8.2371,0.001852,0.003814,0.001815,-6e-05,0.000104,-0.000618,0.002717,-0.505991,0.001057,-0.822764,-264.336866,1.079405,62.115292
8.257,0.002173,0.003606,-0.000287,-0.000127,0.000129,-0.001302,0.002742,-0.506071,0.001371,-0.822764,-264.336866,1.079405,62.115292
8.2774,0.002584,0.003499,0.000355,-0.000178,0.000143,-0.001794,0.002027,-0.506394,-0.000287,-0.747641,-264.336866,1.154528,62.115292
8.2973,0.002249,0.003566,-0.000525,-0.000247,0.000196,-0.001591,0.002702,-0.506492,0.0003,-0.747641,-264.336866,1.154528,62.115292
8.3173,0.002296,0.00356,-8.2e-05,-0.0003,0.000235,-0.001448,0.002702,-0.506492,0.0003,-0.747641,-264.336866,1.154528,62.115292
8.3368,0.002192,0.003493,-0.000312,-0.00034,0.000263,-0.001348,0.002254,-0.50644,-8.2e-05,-0.672744,-264.336866,1.229425,62.115292
8.3569,0.00185,0.003815,0.0009,-0.000247,0.000224,-0.000997,0.002162,-0.506468,-0.000177,-0.672744,-264.336866,1.229425,62.115292
8.3766,0.001985,0.003995,5.1e-05,-0.000177,0.000198,-0.00075,0.002309,-0.506185,0.0009,-0.597673,-264.336866,1.154354,62.115292
8.3968,0.002104,0.003526,-8e-05,-5.7e-05,0.000102,-0.000748,0.002036,-0.50602,0.000123,-0.597673,-264.336866,1.154354,62.115292
8.4171,0.00225,0.003805,-0.000121,3.3e-05,3e-05,-0.000746,0.002036,-0.50602,0.000123,-0.597673,-264.336866,1.154354,62.115292
8.437,0.002359,0.003993,-0.001023,0.000101,-2.5e-05,-0.000743,0.002188,-0.506195,-0.000121,-0.522752,-264.336866,1.079432,62.115292
8.4569,0.002048,0.003898,0.000161,0.000141,-6.2e-05,-0.000379,0.002045,-0.506118,-0.00049,-0.522752,-264.336866,1.079432,62.115292
8.4766,0.002392,0.003672,-0.000814,0.00017,-8.9e-05,-0.000122,0.00213,-0.506102,0.000161,-0.597648,-264.336866,1.154328,62.115292
8.4971,0.002255,0.003907,0.001385,0.000189,-8.4e-05,0.000202,0.001989,-0.50631,-0.000737,-0.597648,-264.336866,1.154328,62.115292
8.5169,0.0019,0.003947,-0.00149,0.000203,-7.8e-05,0.00043,0.001989,-0.50631,-0.000737,-0.597648,-264.336866,1.154328,62.115292
8.537,0.001911,0.003919,-0.000937,0.000214,-7.2e-05,0.000589,0.00114,-0.506052,-0.00149,-0.672943,-264.336866,1.079033,62.115292
8.5573,0.002271,0.00359,0.000944,0.000427,-0.000159,0.000998,0.00126,-0.506064,-0.001264,-0.672943,-264.336866,1.079033,62.115292
8.5769,0.002197,0.003972,0.000285,0.000587,-0.000222,0.001285,0.002752,-0.50641,0.000944,-0.59826,-264.336866,1.00435,62.115292
8.5971,0.002281,0.003758,-0.001187,0.000443,-0.000153,0.000574,0.002379,-0.506062,0.000344,-0.59826,-264.336866,1.00435,62.115292
8.617,0.002032,0.003544,0.001178,0.000334,-0.000107,6.7e-05,0.002379,-0.506062,0.000344,-0.59826,-264.336866,1.00435,62.115292
8.6369,0.002149,0.003589,0.000297,0.00025,-7.6e-05,-0.000295,0.002633,-0.506456,0.001178,-0.523259,-264.336866,0.929349,62.115292
8.6568,0.002281,0.003804,-0.000447,0.000126,3.1e-05,-0.000811,0.002496,-0.506437,0.000815,-0.523259,-264.336866,0.929349,62.115292
8.6772,0.001798,0.003731,-2e-05,3.4e-05,0.000108,-0.001181,0.002053,-0.506196,-0.000447,-0.598359,-264.336866,0.854249,62.115292
8.6969,0.00213,0.004269,0.001835,0.00014,5.8e-05,-0.000954,0.00181,-0.506263,-5.6e-05,-0.598359,-264.336866,0.854249,62.115292
8.717,0.001971,0.003713,0.000687,0.000219,2.2e-05,-0.000793,0.00181,-0.506263,-5.6e-05,-0.598359,-264.336866,0.854249,62.115292
8.7369,0.00255,0.003914,-0.001915,0.000279,-5e-06,-0.000679,0.002321,-0.506287,0.000687,-0.673439,-264.336866,0.929328,62.115292
8.7569,0.002289,0.003794,-0.001352,0.000279,-2.6e-05,-0.000392,0.002009,-0.506203,-0.000398,-0.673439,-264.336866,0.929328,62.115292
8.7768,0.002242,0.003757,0.000491,0.000279,-4.2e-05,-0.000189,0.001602,-0.506205,-0.001356,-0.748567,-264.336826,0.974168,62.115332
8.797,0.002525,0.003419,8.1e-05,0.000187,0.0,-0.00046,0.002408,-0.506239,0.000316,-0.748567,-264.336826,0.974168,62.115332
8.817,0.002309,0.003611,0.000645,0.000116,3e-05,-0.000653,0.002408,-0.506239,0.000316,-0.748567,-264.336826,0.974168,62.115332
8.8374,0.002489,0.003581,0.000413,6.2e-05,4.9e-05,-0.00079,0.002638,-0.506389,0.000645,-0.673883,-264.336826,0.899485,62.115332
8.8574,0.002192,0.003602,0.001568,-4.7e-05,0.000119,-0.00102,0.002663,-0.506401,0.000551,-0.673883,-264.336826,0.899485,62.115332
8.8767,0.002317,0.003564,0.000526,-0.000129,0.000168,-0.001184,0.002992,-0.506397,0.001568,-0.748894,-264.336826,0.974496,62.115332
8.897,0.002449,0.003964,0.000906,-0.000187,0.000207,-0.001341,0.002622,-0.506432,0.000622,-0.748894,-264.336826,0.974496,62.115332
8.917,0.002285,0.00365,0.000655,-0.00023,0.000234,-0.001453,0.002622,-0.506432,0.000622,-0.748894,-264.336826,0.974496,62.115332
8.9372,0.00238,0.003561,0.000103,-0.000263,0.000252,-0.001532,0.002619,-0.506349,0.000655,-0.673894,-264.336826,1.049496,62.115332
8.9572,0.002171,0.004159,-0.000359,-0.000268,0.000246,-0.001482,0.002543,-0.506386,0.000431,-0.673894,-264.336826,1.049496,62.115332
8.9775,0.00261,0.003541,-0.000118,-0.000271,0.00024,-0.001447,0.001988,-0.505841,-0.000359,-0.598879,-264.336826,0.974481,62.115332
8.9975,0.002462,0.003453,0.000416,-0.000262,0.000218,-0.001082,0.002483,-0.506385,-0.000147,-0.598879,-264.336826,0.974481,62.115332
9.017,0.002137,0.00378,-0.000467,-0.000255,0.000203,-0.000825,0.002483,-0.506385,-0.000147,-0.598879,-264.336826,0.974481,62.115332
9.0368,0.002446,0.003995,0.000583,-0.000251,0.000192,-0.000644,0.001899,-0.50622,-0.000467,-0.523898,-264.336826,0.8995,62.115332
9.0573,0.002258,0.003716,0.000447,-0.000171,0.000124,-0.000576,0.002241,-0.506133,-4.2e-05,-0.523898,-264.336826,0.8995,62.115332
9.0767,0.001751,0.00373,-0.001105,-0.000111,7.4e-05,-0.000527,0.002486,-0.506284,0.000447,-0.448891,-264.336826,0.824493,62.115332
9.0969,0.002417,0.003766,-0.00055,0.00016,-1.8e-05,4.2e-05,0.001305,-0.506271,-0.000965,-0.448891,-264.336826,0.824493,62.115332
9.1172,0.002121,0.003602,0.000725,0.000363,-8.3e-05,0.000444,0.001305,-0.506271,-0.000965,-0.448891,-264.336826,0.824493,62.115332
9.137,0.001972,0.003819,0.000102,0.000516,-0.000129,0.000727,0.002491,-0.506398,0.000725,-0.373891,-264.336826,0.749492,62.115332
9.1571,0.002205,0.003503,-0.000338,0.000386,-5e-05,0.000105,0.0023,-0.50631,0.000471,-0.373891,-264.336826,0.749492,62.115332
9.1767,0.001904,0.003639,0.000844,0.000287,5e-06,-0.000339,0.002033,-0.506497,-0.000338,-0.298835,-264.336826,0.674437,62.115332
9.1968,0.002403,0.003844,0.000446,0.000205,6.2e-05,-0.0008,0.002307,-0.506374,0.000737,-0.298835,-264.336826,0.674437,62.115332
9.217,0.002092,0.003441,4.3e-05,0.000143,0.000102,-0.00113,0.002307,-0.506374,0.000737,-0.298835,-264.336826,0.674437,62.115332
9.2368,0.002029,0.003594,-0.000288,9.6e-05,0.000129,-0.001365,0.002116,-0.506559,4e-05,-0.373771,-264.336798,0.636292,62.11536
9.2574,0.002148,0.003278,0.002577,0.000117,0.000129,-0.001059,0.002019,-0.506496,-9.6e-05,-0.373771,-264.336798,0.636292,62.11536
9.2775,0.001966,0.003651,0.00111,0.000133,0.00013,-0.000844,0.003462,-0.506721,0.002577,-0.448961,-264.336798,0.711482,62.11536
9.2974,0.002147,0.004077,0.001013,2.1e-05,0.000191,-0.001409,0.002615,-0.506382,0.001242,-0.448961,-264.336798,0.711482,62.11536
9.3174,0.001993,0.003613,2.6e-05,-6.2e-05,0.000231,-0.001815,0.002615,-0.506382,0.001242,-0.448961,-264.336798,0.711482,62.11536
9.3372,0.002209,0.004192,0.000396,-0.000125,0.000258,-0.002106,0.002006,-0.506387,2.6e-05,-0.523778,-264.336798,0.786299,62.11536
9.3569,0.002115,0.004064,0.000174,-5.5e-05,0.000176,-0.001733,0.002171,-0.506151,0.000177,-0.523778,-264.336798,0.786299,62.11536
9.377,0.002242,0.003762,0.000391,-4e-06,0.000114,-0.00147,0.002204,-0.505936,0.000174,-0.598776,-264.336798,0.861297,62.11536
9.3968,0.002522,0.003701,0.001329,-2.6e-05,0.000102,-0.001396,0.00242,-0.50621,0.000371,-0.598776,-264.336798,0.861297,62.11536
9.4168,0.002231,0.003891,0.000164,-4.4e-05,9.2e-05,-0.001344,0.00242,-0.50621,0.000371,-0.598776,-264.336798,0.861297,62.11536
9.4368,0.002608,0.003712,0.001384,-5.9e-05,8.3e-05,-0.001308,0.002315,-0.506109,0.000164,-0.673774,-264.336798,0.936294,62.11536
9.457,0.002094,0.00369,-1.3e-05,-0.000131,0.000104,-0.001444,0.002726,-0.506183,0.000666,-0.673774,-264.336798,0.936294,62.11536
9.4773,0.002407,0.003595,0.000667,-0.000186,0.000118,-0.00154,0.002088,-0.50631,-1.3e-05,-0.748851,-264.336798,1.011372,62.11536
9.4972,0.002076,0.003537,-0.000288,-0.000242,0.000159,-0.001581,0.002688,-0.506397,0.000607,-0.748851,-264.336798,1.011372,62.11536
9.5174,0.002078,0.003727,0.000422,-0.000284,0.000189,-0.001611,0.002688,-0.506397,0.000607,-0.748851,-264.336798,1.011372,62.11536
9.5372,0.002424,0.003802,0.000123,-0.000316,0.000211,-0.001632,0.002293,-0.506273,0.000422,-0.673927,-264.336798,1.086297,62.11536
9.5575,0.002322,0.003223,-0.000154,-0.000258,0.000166,-0.001474,0.002372,-0.506242,0.000301,-0.673927,-264.336798,1.086297,62.11536
9.5773,0.002336,0.003395,0.001159,-0.000214,0.000134,-0.001362,0.002244,-0.506777,-0.000154,-0.598922,-264.336798,1.011292,62.11536
9.598,0.002305,0.003657,0.000937,-0.00032,0.00024,-0.001688,0.002868,-0.50662,0.001046,-0.598922,-264.336798,1.011292,62.11536
9.6176,0.002219,0.003179,-0.000839,-0.0004,0.000317,-0.001921,0.002868,-0.50662,0.001046,-0.598922,-264.336798,1.011292,62.11536
9.6373,0.001917,0.003644,0.000583,-0.000459,0.000373,-0.002087,0.001791,-0.506821,-0.000839,-0.52379,-264.336798,0.93616,62.11536
9.6573,0.002294,0.003701,0.000256,-0.000297,0.000316,-0.001461,0.001961,-0.506634,-0.000268,-0.52379,-264.336798,0.93616,62.11536
9.6767,0.002478,0.003561,-0.00043,-0.000175,0.000276,-0.001021,0.002424,-0.506299,0.000256,-0.448935,-264.336798,0.861305,62.11536
9.6971,0.00244,0.003517,0.001,-0.000143,0.000233,-0.000647,0.002274,-0.506427,-0.000368,-0.448935,-264.336798,0.861305,62.11536
9.7174,0.00213,0.003773,0.000837,-0.000119,0.000202,-0.000384,0.002274,-0.506427,-0.000368,-0.448935,-264.336798,0.861305,62.11536
9.7373,0.002031,0.003557,-0.001607,-0.000102,0.00018,-0.000199,0.002557,-0.506227,0.000837,-0.373926,-264.336798,0.786296,62.11536
9.7573,0.002177,0.003614,0.000112,-1.6e-05,0.000129,-0.000193,0.002009,-0.506315,-0.000158,-0.373926,-264.336798,0.786296,62.11536
9.7772,0.002254,0.003832,-1.5e-05,4.8e-05,9.2e-05,-0.00019,0.002234,-0.506386,0.000112,-0.448922,-264.336798,0.711299,62.11536
9.7974,0.002527,0.003841,0.000985,5.1e-05,6.5e-05,-0.000275,0.002245,-0.506187,-4e-06,-0.448922,-264.336798,0.711299,62.11536
9.8173,0.002268,0.003583,0.001846,5.4e-05,4.5e-05,-0.000336,0.002245,-0.506187,-4e-06,-0.448922,-264.336798,0.711299,62.11536
9.8372,0.002424,0.003743,-0.00044,5.5e-05,2.9e-05,-0.000379,0.00321,-0.506416,0.001846,-0.471263,-264.336798,0.786345,62.11536
9.8572,0.002088,0.004044,-0.000546,-7.5e-05,0.000113,-0.000912,0.002797,-0.506351,0.000912,-0.471263,-264.336798,0.786345,62.11536
9.877,0.002554,0.003483,0.000372,-0.000173,0.000173,-0.001295,0.001809,-0.505956,-0.000546,-0.546212,-264.336798,0.861294,62.11536
9.8972,0.002473,0.004078,0.00216,-0.000232,0.00021,-0.001234,0.002664,-0.506468,0.000293,-0.546212,-264.336798,0.861294,62.11536
9.9183,0.002355,0.003305,0.000208,-0.000277,0.000237,-0.001191,0.002664,-0.506468,0.000293,-0.546212,-264.336798,0.861294,62.11536
9.9371,0.001983,0.003999,-0.001419,-0.000312,0.000257,-0.001161,0.002461,-0.506695,0.000208,-0.471097,-264.336798,0.786179,62.11536
9.9574,0.002042,0.004068,-0.000255,-0.000176,0.000191,-0.000706,0.001979,-0.506416,-0.000445,-0.471097,-264.336798,0.786179,62.11536
9.9767,0.002529,0.003283,0.001014,-7.4e-05,0.000145,-0.000384,0.001911,-0.505932,-0.000255,-0.396204,-264.336798,0.711286,62.11536
9.9974,0.002243,0.003524,0.000482,-0.000228,0.000268,-0.000913,0.002942,-0.506645,0.000898,-0.396204,-264.336798,0.711286,62.11536
10.0173,0.002341,0.003925,0.000318,-0.000343,0.000356,-0.001293,0.002942,-0.506645,0.000898,-0.396204,-264.336798,0.711286,62.11536
10.037,0.002378,0.003563,0.000224,-0.000431,0.000419,-0.001565,0.002504,-0.506075,0.000318,-0.321205,-264.336798,0.636288,62.11536
10.0569,0.002045,0.003458,0.000625,-0.000368,0.000336,-0.001415,0.002499,-0.506221,0.00028,-0.321205,-264.336798,0.636288,62.11536
10.0767,0.002342,0.003676,-0.000565,-0.000321,0.000272,-0.001309,0.002364,-0.506542,0.000625,-0.246211,-264.336798,0.561293,62.11536
10.0975,0.002363,0.003481,0.000709,-0.000202,0.000197,-0.0008,0.002082,-0.506343,-0.000457,-0.246211,-264.336798,0.561293,62.11536
10.1172,0.002307,0.003627,0.000506,-0.000113,0.000142,-0.000441,0.002082,-0.506343,-0.000457,-0.246211,-264.336798,0.561293,62.11536
10.137,0.002401,0.003809,0.000568,-4.7e-05,0.000103,-0.000188,0.002565,-0.506373,0.000506,-0.171213,-264.336798,0.486296,62.11536
10.157,0.002544,0.003309,-0.000548,-0.000111,0.000134,-0.000576,0.002616,-0.506299,0.000531,-0.171213,-264.336798,0.486296,62.11536
10.1769,0.002221,0.003617,0.000297,-0.000159,0.000154,-0.000853,0.002264,-0.50669,-0.000548,-0.096208,-264.336798,0.41129,62.11536
10.197,0.002474,0.004048,-0.000672,-0.000153,0.000159,-0.000879,0.002363,-0.506411,0.00022,-0.096208,-264.336798,0.41129,62.11536
10.2176,0.002414,0.003946,0.000269,-0.000148,0.000163,-0.000898,0.002363,-0.506411,0.00022,-0.096208,-264.336798,0.41129,62.11536
10.2371,0.001981,0.003615,0.000874,-0.000144,0.000166,-0.000912,0.002551,-0.506054,0.000269,-0.021208,-264.336798,0.33629,62.11536
10.2577,0.00251,0.00397,-0.000805,-0.00015,0.000148,-0.001089,0.002499,-0.506193,0.000524,-0.021208,-264.336798,0.33629,62.11536
10.277,0.002275,0.003541,0.000566,-0.000156,0.000133,-0.001215,0.002099,-0.506029,-0.000805,0.054367,-264.336798,0.260715,62.11536
10.2972,0.002347,0.003361,0.001748,-0.000187,0.000161,-0.001264,0.002523,-0.506421,0.000446,0.054367,-264.336798,0.260715,62.11536
10.3171,0.002271,0.003692,2.6e-05,-0.00021,0.000181,-0.0013,0.002523,-0.506421,0.000446,0.054367,-264.336798,0.260715,62.11536
10.3372,0.00261,0.003218,0.001216,-0.000227,0.000196,-0.001325,0.002284,-0.506308,2.6e-05,0.128908,-264.336798,0.186175,62.11536
10.3575,0.002192,0.00386,0.000812,-0.000277,0.000234,-0.001374,0.002662,-0.506497,0.000501,0.128908,-264.336798,0.186175,62.11536
10.377,0.00194,0.003621,0.000363,-0.000314,0.000262,-0.00141,0.002605,-0.50614,0.000812,0.203799,-264.336798,0.111283,62.11536
10.397,0.002187,0.00381,-0.001086,-0.000218,0.000214,-0.001379,0.002166,-0.506359,0.000401,0.203799,-264.336798,0.111283,62.11536
10.4175,0.002391,0.0035,0.00043,-0.000146,0.000178,-0.001357,0.002166,-0.506359,0.000401,0.203799,-264.336798,0.111283,62.11536
10.4372,0.002433,0.003858,0.000148,-9.2e-05,0.000153,-0.001341,0.00261,-0.5065,0.00043,0.278948,-264.336798,0.036135,62.11536
10.4569,0.002247,0.003765,0.000736,-0.00014,0.000166,-0.001278,0.002569,-0.506356,0.000317,0.278948,-264.336798,0.036135,62.11536
10.4767,0.00188,0.003779,-0.000326,-0.000177,0.000175,-0.001234,0.002623,-0.506235,0.000736,0.353793,-264.336798,-0.03871,62.11536
10.497,0.002433,0.004031,-0.001246,-1.3e-05,8.7e-05,-0.000882,0.001796,-0.506222,-0.00023,0.353793,-264.336798,-0.03871,62.11536
10.5169,0.00194,0.003684,0.000897,0.00011,2.4e-05,-0.000633,0.001796,-0.506222,-0.00023,0.353793,-264.336798,-0.03871,62.11536
10.5374,0.00254,0.003538,0.002139,0.000202,-2.2e-05,-0.000457,0.002398,-0.506316,0.000897,0.428794,-264.336798,-0.113712,62.11536
10.5573,0.002366,0.003922,0.000565,1.8e-05,0.000101,-0.001193,0.00289,-0.506374,0.001393,0.428794,-264.336798,-0.113712,62.11536
10.5771,0.002465,0.003611,-0.0002,-0.000121,0.000187,-0.001724,0.002654,-0.506078,0.000565,0.353789,-264.336798,-0.038707,62.11536
10.5969,0.002289,0.003764,2.1e-05,-0.000122,0.000168,-0.001281,0.002389,-0.506361,-0.000132,0.353789,-264.336798,-0.038707,62.11536
10.617,0.002059,0.003834,3.4e-05,-0.000124,0.000155,-0.000968,0.002389,-0.506361,-0.000132,0.353789,-264.336798,-0.038707,62.11536
10.6372,0.002021,0.004062,0.0007,-0.000126,0.000145,-0.000749,0.002077,-0.506166,3.4e-05,0.428835,-264.336798,-0.113753,62.11536
10.6572,0.002026,0.00372,-0.000342,-6e-05,8.4e-05,-0.000845,0.002197,-0.506075,0.000301,0.428835,-264.336798,-0.113753,62.11536
10.6771,0.002228,0.003765,0.000951,-1e-05,3.8e-05,-0.000913,0.001852,-0.50628,-0.000342,0.503788,-264.336798,-0.188705,62.11536
10.697,0.002379,0.003854,0.000638,-8.4e-05,8e-05,-0.001262,0.002647,-0.506238,0.000852,0.503788,-264.336798,-0.188705,62.11536
10.7176,0.00252,0.003648,0.000321,-0.00014,0.000109,-0.001512,0.002647,-0.506238,0.000852,0.503788,-264.336798,-0.188705,62.11536
10.7372,0.001863,0.003837,-0.001313,-0.000183,0.000129,-0.00169,0.002684,-0.506352,0.000321,0.579199,-264.336798,-0.264117,62.11536
10.7571,0.002228,0.003553,0.001323,-9.1e-05,7.7e-05,-0.001132,0.002077,-0.506275,-0.000345,0.579199,-264.336798,-0.264117,62.11536
10.7773,0.002594,0.003539,0.000292,-2.3e-05,4e-05,-0.000739,0.002903,-0.506447,0.001323,0.653788,-264.336798,-0.338705,62.11536
10.7972,0.002148,0.003627,0.000388,-0.000138,0.00012,-0.000884,0.002757,-0.50646,0.00038,0.653788,-264.336798,-0.338705,62.11536
10.8174,0.002072,0.003601,-0.000155,-0.000224,0.000179,-0.000989,0.002757,-0.50646,0.00038,0.653788,-264.336798,-0.338705,62.11536
10.8374,0.002111,0.003652,-0.001679,-0.00029,0.000221,-0.001065,0.001994,-0.506399,-0.000155,0.728931,-264.336798,-0.413849,62.11536
10.8571,0.002391,0.003601,0.000259,-8.1e-05,0.000134,-0.000435,0.001685,-0.506377,-0.000792,0.728931,-264.336798,-0.413849,62.11536
10.8775,0.002179,0.003611,0.000328,7.5e-05,7.1e-05,1e-05,0.002523,-0.506399,0.000259,0.804162,-264.336798,-0.489079,62.11536
10.8976,0.002457,0.003706,0.002337,2.9e-05,0.000102,-0.000324,0.00236,-0.50639,0.000323,0.804162,-264.336798,-0.489079,62.11536
10.9175,0.002223,0.003816,0.000904,-6e-06,0.000125,-0.000562,0.00236,-0.50639,0.000323,0.804162,-264.336798,-0.489079,62.11536
10.9373,0.002695,0.003754,0.0007,-3.3e-05,0.000141,-0.000732,0.002685,-0.506184,0.000904,0.795491,-264.336798,-0.414049,62.11536
10.9574,0.002107,0.003514,0.000111,-0.000133,0.000173,-0.001117,0.002836,-0.50621,0.00082,0.795491,-264.336798,-0.414049,62.11536
10.9767,0.002327,0.004075,0.001143,-0.000211,0.000194,-0.001392,0.002163,-0.506486,0.000111,0.87018,-264.336798,-0.488738,62.11536
10.9974,0.002096,0.003547,0.001349,-0.00025,0.000174,-0.001702,0.002841,-0.505976,0.001049,0.87018,-264.336798,-0.488738,62.11536
11.0174,0.002186,0.003938,-0.001889,-0.000281,0.000154,-0.001923,0.002841,-0.505976,0.001049,0.87018,-264.336798,-0.488738,62.11536
11.037,0.002198,0.004059,-0.000691,-0.000306,0.000136,-0.002079,0.001223,-0.506061,-0.001889,0.945075,-264.336798,-0.563633,62.11536
11.0571,0.002128,0.003549,-0.001435,-1e-05,-6e-06,-0.000824,0.001475,-0.506012,-0.001403,0.945075,-264.336798,-0.563633,62.11536
11.077,0.002408,0.00421,0.001133,0.000209,-0.000112,7.1e-05,0.001396,-0.506451,-0.001435,1.020079,-264.336798,-0.638637,62.11536
11.0974,0.002456,0.003989,-0.000127,7.8e-05,-6.7e-05,-0.000592,0.00286,-0.505842,0.000929,1.020079,-264.336798,-0.638637,62.11536
11.1172,0.002333,0.003942,-0.000762,-2.3e-05,-3.9e-05,-0.001067,0.00286,-0.505842,0.000929,1.020079,-264.336798,-0.638637,62.11536
11.1371,0.002642,0.003807,-0.000737,-0.0001,-2.3e-05,-0.001406,0.001945,-0.506058,-0.000762,0.94476,-264.336798,-0.638696,62.11536
11.1573,0.002426,0.003919,0.001082,-1.8e-05,-6.8e-05,-0.000694,0.002075,-0.506113,-0.000752,0.94476,-264.336798,-0.638696,62.11536
11.1769,0.002119,0.003699,0.000633,4.2e-05,-0.000101,-0.00019,0.002978,-0.506081,0.001082,1.019443,-264.336798,-0.71338,62.11536
11.1971,0.002308,0.003224,-0.000347,-1.9e-05,-3.1e-05,-0.000654,0.00249,-0.506281,0.000673,1.019443,-264.336798,-0.71338,62.11536
11.2171,0.002401,0.003814,-0.000357,-6.4e-05,1.9e-05,-0.000987,0.00249,-0.506281,0.000673,1.019443,-264.336798,-0.71338,62.11536
11.2369,0.002292,0.003781,0.001105,-9.9e-05,5.5e-05,-0.001225,0.002219,-0.506186,-0.000357,0.944397,-264.336798,-0.638334,62.11536
11.2573,0.002333,0.003341,-0.000539,-0.000117,5.8e-05,-0.001166,0.00249,-0.5062,0.000266,0.944397,-264.336798,-0.638334,62.11536
11.2766,0.002447,0.003682,-0.001888,-0.000132,5.9e-05,-0.001124,0.002059,-0.506659,-0.000539,1.019947,-264.336798,-0.713884,62.11536
11.2974,0.00202,0.00392,-0.000671,8.1e-05,-7e-06,3.1e-05,0.001534,-0.506346,-0.001771,1.019947,-264.336798,-0.713884,62.11536
11.317,0.002327,0.003833,0.000382,0.000239,-5.4e-05,0.000854,0.001534,-0.506346,-0.001771,1.019947,-264.336798,-0.713884,62.11536
11.3369,0.00218,0.003667,-0.000581,0.000355,-8.7e-05,0.001437,0.002521,-0.506167,0.000382,1.094444,-264.336798,-0.788381,62.11536
11.3572,0.002365,0.003726,0.000119,0.000277,-4.4e-05,0.000868,0.002259,-0.506235,-1.4e-05,1.094444,-264.336798,-0.788381,62.11536
11.3773,0.002243,0.003895,-0.000855,0.000218,-1.5e-05,0.000466,0.002426,-0.506274,0.00012,1.148201,-264.336782,-0.86337,62.115379
11.3974,0.002805,0.003619,0.000415,0.000274,-6.1e-05,0.000625,0.00186,-0.506119,-0.000772,1.148201,-264.336782,-0.86337,62.115379
11.4175,0.002187,0.00368,-0.000331,0.000315,-9.5e-05,0.00074,0.00186,-0.506119,-0.000772,1.148201,-264.336782,-0.86337,62.115379
11.4372,0.002087,0.004203,-0.001276,0.000346,-0.00012,0.000821,0.002021,-0.506319,-0.000324,1.073148,-264.336739,-0.938423,62.115425
11.4572,0.001989,0.003851,-0.000408,0.000391,-0.000146,0.000847,0.00178,-0.506103,-0.000717,1.073148,-264.336739,-0.938423,62.115425
11.4769,0.002382,0.003787,0.000486,0.000424,-0.000164,0.000866,0.001784,-0.506149,-0.0004,0.998142,-264.336676,-1.013429,62.115513
11.4974,0.002416,0.003621,6.6e-05,0.000268,-7.2e-05,0.000236,0.002556,-0.506207,0.000409,0.998142,-264.336676,-1.013429,62.115513
11.5171,0.002169,0.003693,0.000425,0.000149,-8e-06,-0.000213,0.002556,-0.506207,0.000409,0.998142,-264.336676,-1.013429,62.115513
11.5368,0.002227,0.003703,-0.00052,5.8e-05,3.6e-05,-0.000533,0.00239,-0.506308,0.000435,0.923162,-264.336618,-1.021975,62.115597
11.5571,0.002398,0.00369,0.001733,5.4e-05,4.6e-05,-0.000557,0.002216,-0.506304,4.6e-05,0.923162,-264.336618,-1.021975,62.115597
11.5769,0.002197,0.004051,-0.001199,5e-05,5.3e-05,-0.000574,0.003282,-0.506309,0.001733,0.84828,-264.336618,-1.096857,62.115597
11.597,0.002274,0.003815,-0.000732,0.000187,-4.5e-05,-7e-06,0.001737,-0.505981,-0.000938,0.84828,-264.336618,-1.096857,62.115597
11.617,0.002397,0.003519,2e-05,0.00029,-0.000118,0.000395,0.001737,-0.505981,-0.000938,0.84828,-264.336618,-1.096857,62.115597
11.6374,0.002338,0.003636,-0.00085,0.000367,-0.000173,0.000679,0.002407,-0.506481,2e-05,0.923282,-264.336618,-1.171859,62.115597
11.6572,0.002291,0.00367,0.000368,0.000276,-8.9e-05,0.000522,0.002203,-0.506434,-0.000333,0.923282,-264.336618,-1.171859,62.115597
11.6771,0.002661,0.003958,-0.000612,0.000209,-2.8e-05,0.000411,0.00248,-0.506331,0.00037,0.848286,-264.3366,-1.096863,62.115625
11.697,0.001989,0.0036,-0.000145,0.000156,-3.6e-05,0.000454,0.00236,-0.506067,-0.000527,0.848286,-264.3366,-1.096863,62.115625
11.7169,0.002228,0.003876,0.000941,0.000115,-4.3e-05,0.000485,0.00236,-0.506067,-0.000527,0.848286,-264.3366,-1.096863,62.115625
11.7369,0.002198,0.003463,-0.000858,8.3e-05,-5e-05,0.000506,0.002713,-0.506125,0.000952,0.819003,-264.336524,-1.021709,62.115712
11.757,0.001801,0.003827,0.001095,4.7e-05,-6e-06,9e-05,0.002322,-0.506295,0.000209,0.819003,-264.336524,-1.021709,62.115712
11.7768,0.002162,0.003802,0.001187,2e-05,2.6e-05,-0.000207,0.002359,-0.506173,0.001095,0.894046,-264.336523,-1.096752,62.115713
11.7973,0.002299,0.003734,0.000554,-7.8e-05,9e-05,-0.00092,0.002733,-0.506195,0.001179,0.894046,-264.336523,-1.096752,62.115713
11.817,0.002236,0.003633,-0.000491,-0.000152,0.000132,-0.001433,0.002733,-0.506195,0.001179,0.894046,-264.336523,-1.096752,62.115713
11.8369,0.002274,0.003565,-0.000951,-0.000207,0.00016,-0.001801,0.001986,-0.506367,-0.000491,0.819106,-264.336523,-1.171692,62.115713
11.8569,0.002503,0.003534,-0.001245,-7.8e-05,0.00011,-0.001021,0.001905,-0.506395,-0.000678,0.819106,-264.336523,-1.171692,62.115713
11.8767,0.002377,0.003565,0.000235,1.8e-05,7.5e-05,-0.000469,0.001868,-0.506465,-0.001245,0.893964,-264.336524,-1.246551,62.115711
11.8972,0.002324,0.003557,0.001713,-3.9e-05,0.000116,-0.00054,0.00244,-0.506438,0.000103,0.893964,-264.336524,-1.246551,62.115711
11.9177,0.002264,0.003661,0.000381,-8.2e-05,0.000145,-0.00059,0.00244,-0.506438,0.000103,0.893964,-264.336524,-1.246551,62.115711
11.9372,0.002048,0.00371,0.000496,-0.000114,0.000167,-0.000627,0.002458,-0.506339,0.000381,0.968961,-264.336524,-1.321548,62.115711
11.9573,0.002126,0.003829,-0.000346,-0.000117,0.000164,-0.000837,0.002394,-0.506319,0.000428,0.968961,-264.336524,-1.321548,62.115711
11.9768,0.002024,0.003509,-9.5e-05,-0.00012,0.000161,-0.000986,0.001947,-0.506167,-0.000361,1.044111,-264.336601,-1.365521,62.115535
11.9971,0.00202,0.003448,0.00072,-3.5e-05,0.000138,-0.000778,0.001973,-0.506462,-0.00012,1.044111,-264.336601,-1.365521,62.115535
12.0172,0.002834,0.003464,0.000771,2.9e-05,0.000124,-0.000631,0.001973,-0.506462,-0.00012,1.044111,-264.336601,-1.365521,62.115535
12.0371,0.002217,0.003643,-0.000247,7.8e-05,0.000114,-0.000527,0.003225,-0.506534,0.000758,1.118954,-264.336659,-1.415342,62.115437
12.057,0.002309,0.003655,-0.00079,-5.9e-05,0.000184,-0.000718,0.00276,-0.506461,0.000345,1.118954,-264.336659,-1.415342,62.115437
12.0774,0.002508,0.003888,-0.00056,-0.000163,0.000233,-0.000854,0.001906,-0.506345,-0.00079,1.043853,-264.336659,-1.340241,62.115437
12.0973,0.002383,0.003327,-5e-05,-9.1e-05,0.000147,-0.000405,0.002194,-0.506133,-0.000581,1.043853,-264.336659,-1.340241,62.115437
12.1173,0.002338,0.003515,7.2e-05,-3.9e-05,8.1e-05,-8.8e-05,0.002194,-0.506133,-0.000581,1.043853,-264.336659,-1.340241,62.115437
12.137,0.00227,0.003996,0.000504,-1e-06,3.2e-05,0.000137,0.002368,-0.506476,3.6e-05,1.05678,-264.336791,-1.358508,62.115128
12.1573,0.002382,0.003981,0.000297,-3.7e-05,5.7e-05,-0.00018,0.002434,-0.506275,0.00023,1.05678,-264.336791,-1.358508,62.115128
12.177,0.002191,0.003963,0.000864,-6.5e-05,7.3e-05,-0.000405,0.002534,-0.506019,0.000297,1.132268,-264.336791,-1.433996,62.115128
12.1973,0.002671,0.003412,-0.001252,-0.000104,7.5e-05,-0.000878,0.002623,-0.506035,0.000812,1.132268,-264.336791,-1.433996,62.115128
12.2171,0.001974,0.003924,0.000759,-0.000133,7.3e-05,-0.001217,0.002623,-0.506035,0.000812,1.132268,-264.336791,-1.433996,62.115128
12.237,0.002195,0.003671,0.000927,-0.000156,6.8e-05,-0.001458,0.002359,-0.506074,0.000744,1.206775,-264.336854,-1.36973,62.115017
12.2571,0.002107,0.003879,-9.3e-05,-0.000159,7.4e-05,-0.001637,0.002488,-0.50618,0.000819,1.206775,-264.336854,-1.36973,62.115017
12.277,0.002354,0.003726,-0.00183,-0.000161,7.7e-05,-0.001764,0.002056,-0.506119,-0.00012,1.282197,-264.337051,-1.408956,62.114788
12.2971,0.00231,0.003765,0.000953,8.2e-05,-1.2e-05,-0.000472,0.001478,-0.506259,-0.001675,1.282197,-264.337051,-1.408956,62.114788
12.317,0.002501,0.003658,-0.000375,0.000261,-7.6e-05,0.000451,0.001478,-0.506259,-0.001675,1.282197,-264.337051,-1.408956,62.114788
12.3371,0.002058,0.003597,-0.00045,0.000393,-0.000122,0.001106,0.002304,-0.50634,-0.000431,1.356779,-264.337359,-1.431935,62.114434
12.3573,0.002329,0.003835,-0.000806,0.000327,-7.3e-05,0.000883,0.002109,-0.506365,-0.000445,1.356779,-264.337359,-1.431935,62.114434
12.3769,0.002418,0.00403,0.00024,0.000278,-3.7e-05,0.000727,0.001918,-0.506165,-0.000806,1.281775,-264.337356,-1.356931,62.114438
12.3971,0.002226,0.003949,-0.000679,0.000192,-2.7e-05,0.00028,0.002489,-0.505986,0.000153,1.281775,-264.337356,-1.356931,62.114438
12.4173,0.001981,0.004129,-0.002158,0.000126,-2.4e-05,-3.6e-05,0.002489,-0.505986,0.000153,1.281775,-264.337356,-1.356931,62.114438
12.437,0.0023,0.003916,-0.000755,7.4e-05,-2.6e-05,-0.00026,0.000881,-0.50587,-0.002156,1.206562,-264.337347,-1.281718,62.114448
12.4572,0.002392,0.003636,-0.000245,0.000317,-0.000138,0.000554,0.001308,-0.505958,-0.001577,1.206562,-264.337347,-1.281718,62.114448
12.4774,0.002178,0.003675,-0.001108,0.000499,-0.000222,0.001132,0.002267,-0.506364,-0.000245,1.131635,-264.337347,-1.206791,62.114448
12.497,0.002267,0.003374,-7.6e-05,0.000511,-0.000194,0.001233,0.001681,-0.506329,-0.001019,1.131635,-264.337347,-1.206791,62.114448
12.517,0.002406,0.003876,-0.00057,0.000521,-0.000171,0.001305,0.001681,-0.506329,-0.001019,1.131635,-264.337347,-1.206791,62.114448
12.5371,0.002191,0.003942,-0.000645,0.000529,-0.000152,0.001356,0.002116,-0.506124,-0.000567,1.056671,-264.337327,-1.131827,62.114478
12.557,0.002052,0.004095,0.000608,0.000475,-0.000144,0.001154,0.002013,-0.506097,-0.000598,1.056671,-264.337327,-1.131827,62.114478
12.5769,0.002341,0.003617,-0.001407,0.000434,-0.000139,0.001011,0.002373,-0.505908,0.000637,0.981751,-264.3371,-1.076116,62.114774
12.5968,0.002639,0.003651,-0.000817,0.000459,-0.000129,0.001267,0.001689,-0.506341,-0.001227,0.981751,-264.3371,-1.076116,62.114774
12.6171,0.002464,0.003616,0.000482,0.000478,-0.00012,0.001446,0.001689,-0.506341,-0.001227,0.981751,-264.3371,-1.076116,62.114774
12.6371,0.002125,0.003901,-0.000683,0.000492,-0.000112,0.001571,0.002722,-0.506388,0.000513,0.906648,-264.336919,-1.05055,62.115018
12.6568,0.002277,0.003363,-7.2e-05,0.000362,-4.1e-05,0.000944,0.002334,-0.506269,2.3e-05,0.906648,-264.336919,-1.05055,62.115018
12.6769,0.002359,0.003463,0.000597,0.000263,8e-06,0.0005,0.002251,-0.50664,-4e-05,0.981696,-264.336665,-1.125599,62.115324
12.6968,0.002383,0.003443,-0.00043,0.000101,0.000131,-0.000106,0.002627,-0.506546,0.000542,0.981696,-264.336665,-1.125599,62.115324
12.7174,0.002455,0.003699,-0.000737,-2.2e-05,0.000218,-0.000539,0.002627,-0.506546,0.000542,0.981696,-264.336665,-1.125599,62.115324
12.7372,0.002525,0.003731,0.001336,-0.000115,0.000278,-0.000847,0.002081,-0.506301,-0.000731,0.906869,-264.336627,-1.050772,62.115361
12.7567,0.002045,0.003512,-0.001038,-0.000143,0.000256,-0.000814,0.002536,-0.506288,0.000103,0.906869,-264.336627,-1.050772,62.115361
12.7767,0.002401,0.003929,-0.001084,-0.000166,0.000236,-0.00079,0.001516,-0.506487,-0.001039,0.981854,-264.336632,-1.125756,62.115346
12.7969,0.002685,0.003528,0.001373,-3e-06,0.000117,-8.4e-05,0.001819,-0.506108,-0.00108,0.981854,-264.336632,-1.125756,62.115346
12.8171,0.002199,0.003696,-1.3e-05,0.000118,2.8e-05,0.000417,0.001819,-0.506108,-0.00108,0.981854,-264.336632,-1.125756,62.115346
12.8368,0.002435,0.003819,-0.000855,0.000208,-3.8e-05,0.000771,0.002188,-0.5063,-2.8e-05,0.977831,-264.336687,-1.200756,62.115209
12.8569,0.002239,0.003602,0.000902,0.000195,-3e-05,0.000606,0.002111,-0.506251,-0.000364,0.977831,-264.336687,-1.200756,62.115209
12.8767,0.002508,0.003946,-0.000505,0.000185,-2.4e-05,0.000489,0.002705,-0.506399,0.000919,1.052864,-264.33655,-1.182951,62.115365
12.8971,0.002194,0.003844,0.002689,0.000151,-3.3e-05,0.000418,0.002292,-0.506085,-0.000375,1.052864,-264.33655,-1.182951,62.115365
12.9169,0.002525,0.003974,0.000621,0.000124,-4.1e-05,0.000368,0.002292,-0.506085,-0.000375,1.052864,-264.33655,-1.182951,62.115365
12.9368,0.002422,0.003746,0.000215,0.000104,-4.8e-05,0.000333,0.002847,-0.506027,0.000635,0.977894,-264.336459,-1.107982,62.115467
12.9571,0.00219,0.003689,0.001193,-3e-06,6e-06,-0.00017,0.002718,-0.506121,0.000463,0.977894,-264.336459,-1.107982,62.115467
12.9766,0.002378,0.003603,0.000886,-8.5e-05,4.3e-05,-0.000528,0.002802,-0.506312,0.001202,0.98137,-264.33639,-1.180596,62.115568
12.9969,0.002205,0.003841,-0.001504,-0.000194,0.000134,-0.001024,0.002827,-0.506391,0.00091,0.98137,-264.33639,-1.180596,62.115568
13.0172,0.00256,0.003755,0.000367,-0.000277,0.000199,-0.001379,0.002827,-0.506391,0.00091,0.98137,-264.33639,-1.180596,62.115568
13.0368,0.002258,0.003475,-0.000897,-0.000339,0.000245,-0.001633,0.002746,-0.506245,0.000363,1.056726,-264.336409,-1.255953,62.115544
13.0568,0.002557,0.003567,-0.002839,-0.000284,0.000208,-0.001211,0.002357,-0.50636,-0.000156,1.056726,-264.336409,-1.255953,62.115544
13.0768,0.002115,0.004056,0.000786,-0.000243,0.000182,-0.000912,0.001099,-0.506424,-0.002883,1.131406,-264.336688,-1.304286,62.115109
13.0974,0.002312,0.00385,-0.000711,-0.000187,0.000117,-0.001057,0.002394,-0.505985,0.000468,1.131406,-264.336688,-1.304286,62.115109
13.1172,0.002558,0.003696,-0.000154,-0.000145,6.7e-05,-0.001159,0.002394,-0.505985,0.000468,1.131406,-264.336688,-1.304286,62.115109
13.1368,0.002368,0.003429,1.5e-05,-0.000114,2.8e-05,-0.001231,0.002473,-0.506299,-0.000182,1.056451,-264.336815,-1.25291,62.114887
13.1569,0.00233,0.003749,-4.8e-05,-0.000138,6.1e-05,-0.000955,0.002432,-0.506409,-0.000105,1.056451,-264.336815,-1.25291,62.114887
13.177,0.00226,0.003821,-0.001659,-0.000156,8.6e-05,-0.000761,0.002305,-0.506251,-5.1e-05,1.131362,-264.336837,-1.327821,62.114864
13.1973,0.001866,0.003445,-0.001483,8.2e-05,-1.5e-05,0.000168,0.001495,-0.506185,-0.001513,1.131362,-264.336837,-1.327821,62.114864
13.217,0.002283,0.003863,3e-06,0.000258,-8.9e-05,0.000828,0.001495,-0.506185,-0.001513,1.131362,-264.336837,-1.327821,62.114864
13.2368,0.002207,0.003848,0.001866,0.00039,-0.000142,0.001294,0.002279,-0.506134,-2.7e-05,1.18037,-264.336992,-1.295587,62.114646
13.2578,0.002228,0.00363,0.00024,0.000231,-5.1e-05,0.000366,0.002639,-0.50614,0.000747,1.18037,-264.336992,-1.295587,62.114646
13.2769,0.002681,0.003775,0.000651,0.00011,1.1e-05,-0.000299,0.002357,-0.506372,0.000263,1.105199,-264.336827,-1.220416,62.114868
13.2976,0.002247,0.003828,-0.000858,-5.1e-05,9.4e-05,-0.000706,0.002956,-0.506238,0.000619,1.105199,-264.336827,-1.220416,62.114868
13.3175,0.002247,0.003988,0.000602,-0.000175,0.000151,-0.000997,0.002956,-0.506238,0.000619,1.105199,-264.336827,-1.220416,62.114868
13.3371,0.002069,0.003305,-6.6e-05,-0.00027,0.000189,-0.001204,0.002554,-0.506012,0.000602,1.030232,-264.336827,-1.145449,62.114868
13.3574,0.002873,0.003589,-0.000307,-0.000222,0.000165,-0.001196,0.002344,-0.506288,0.000332,1.030232,-264.336827,-1.145449,62.114868
13.3772,0.00249,0.00397,1.5e-05,-0.000186,0.000146,-0.00119,0.00271,-0.506407,-0.000332,1.105119,-264.336986,-1.220336,62.114615
13.3971,0.002189,0.003833,-0.000457,-0.000177,0.000102,-0.000977,0.002516,-0.506062,-1.6e-05,1.105119,-264.336986,-1.220336,62.114615
13.4173,0.002154,0.004039,0.000404,-0.000171,6.8e-05,-0.000826,0.002516,-0.506062,-1.6e-05,1.105119,-264.336986,-1.220336,62.114615
13.4369,0.002388,0.004003,0.000736,-0.000167,4.2e-05,-0.000718,0.002355,-0.505958,0.00038,1.180198,-264.337107,-1.295415,62.114439
13.4569,0.002035,0.003681,-0.001654,-0.000157,1.9e-05,-0.000947,0.00252,-0.505973,0.000521,1.180198,-264.337107,-1.295415,62.114439
13.4769,0.002649,0.003605,-0.000646,-0.00015,1e-06,-0.001109,0.001186,-0.506317,-0.001676,1.171958,-264.337269,-1.235905,62.114247
13.4971,0.002772,0.00333,-0.000262,-0.000118,9e-06,-0.000499,0.002225,-0.506388,-0.000732,1.171958,-264.337269,-1.235905,62.114247
13.5171,0.002376,0.00374,0.001241,-9.4e-05,1.6e-05,-6.9e-05,0.002225,-0.506388,-0.000732,1.171958,-264.337269,-1.235905,62.114247
13.5369,0.002769,0.003627,0.000715,-7.6e-05,2.3e-05,0.000234,0.003004,-0.506259,0.001219,1.247088,-264.337401,-1.311036,62.114115
13.5573,0.002508,0.003667,-0.000377,-0.000223,0.000128,-0.000519,0.003057,-0.506306,0.001011,1.247088,-264.337401,-1.311036,62.114115
13.5771,0.002434,0.003734,0.000921,-0.000334,0.0002,-0.001061,0.002316,-0.506333,-0.000377,1.172313,-264.337401,-1.236261,62.114115
13.5967,0.002269,0.003789,0.001218,-0.000377,0.000222,-0.001346,0.002851,-0.506272,0.000804,1.172313,-264.337401,-1.236261,62.114115
13.6168,0.002487,0.003736,-0.001111,-0.00041,0.000235,-0.001549,0.002851,-0.506272,0.000804,1.172313,-264.337401,-1.236261,62.114115
13.637,0.002355,0.003572,-0.001155,-0.000435,0.000243,-0.001693,0.001916,-0.506261,-0.001128,1.097334,-264.337485,-1.195285,62.113979
13.6571,0.002212,0.003868,-0.000634,-0.000231,0.000148,-0.000687,0.001855,-0.506328,-0.001141,1.097334,-264.337485,-1.195285,62.113979
13.6769,0.002376,0.003586,-0.001914,-7.9e-05,7.9e-05,2.7e-05,0.001875,-0.506125,-0.000685,1.067949,-264.337829,-1.242198,62.113465
13.6968,0.002323,0.003521,-0.000179,0.000139,9e-06,0.000864,0.001447,-0.506384,-0.001792,1.067949,-264.337829,-1.242198,62.113465
13.7171,0.002364,0.003529,0.000172,0.000301,-4e-05,0.001457,0.001447,-0.506384,-0.001792,1.067949,-264.337829,-1.242198,62.113465
13.7372,0.002173,0.004045,-0.000967,0.000422,-7.3e-05,0.001874,0.002452,-0.506471,0.000172,0.992953,-264.337829,-1.167202,62.113465
13.7575,0.002774,0.003486,-0.000961,0.000353,-4e-05,0.001334,0.002139,-0.506262,-0.00029,0.992953,-264.337829,-1.167202,62.113465
13.7767,0.002462,0.003968,0.000308,0.0003,-1.9e-05,0.000954,0.002291,-0.506515,-0.000933,1.06796,-264.337609,-1.237175,62.113711
13.7972,0.002425,0.003712,0.00273,0.000181,1.4e-05,0.00041,0.002591,-0.506074,0.000201,1.06796,-264.337609,-1.237175,62.113711
13.817,0.001998,0.003725,9e-06,9e-05,3.4e-05,2.6e-05,0.002591,-0.506074,0.000201,1.06796,-264.337609,-1.237175,62.113711
13.8368,0.0022,0.003787,-0.000832,1.8e-05,4.4e-05,-0.000247,0.002011,-0.506276,3.9e-05,1.081648,-264.337413,-1.162083,62.113916
13.8572,0.002542,0.003727,0.001789,0.0001,1.2e-05,-0.000142,0.001914,-0.50625,-0.00032,1.081648,-264.337413,-1.162083,62.113916
13.8772,0.002342,0.004317,-0.000812,0.000161,-1.1e-05,-6.7e-05,0.003455,-0.506272,0.001789,1.156883,-264.337413,-1.237318,62.113916
13.8972,0.002298,0.003686,0.000484,0.000213,-9.8e-05,0.00015,0.002065,-0.505735,-0.000579,1.156883,-264.337413,-1.237318,62.113916
13.9174,0.002418,0.003901,0.000296,0.00025,-0.000166,0.000304,0.002065,-0.505735,-0.000579,1.156883,-264.337413,-1.237318,62.113916
13.9374,0.002243,0.003693,-0.001181,0.000278,-0.000217,0.000413,0.002569,-0.506099,0.000296,1.082212,-264.337413,-1.162647,62.113916
13.9574,0.002252,0.003923,-0.000537,0.000231,-0.000173,0.000321,0.002194,-0.506183,-0.000302,1.082212,-264.337413,-1.162647,62.113916
13.977,0.002282,0.003796,-3.4e-05,0.000196,-0.00014,0.000256,0.001978,-0.506077,-0.000537,1.007208,-264.337413,-1.087643,62.113916
13.9972,0.001937,0.003663,-0.000237,0.000159,-0.000105,7.9e-05,0.00224,-0.506193,-7.9e-05,1.007208,-264.337413,-1.087643,62.113916
14.0172,0.00242,0.003785,0.000721,0.000131,-7.9e-05,-4.7e-05,0.00224,-0.506193,-7.9e-05,1.007208,-264.337413,-1.087643,62.113916
14.037,0.002356,0.00391,-0.001459,0.00011,-6.1e-05,-0.000136,0.002788,-0.506215,0.000721,0.932108,-264.337413,-1.012543,62.113916
14.0572,0.002227,0.003574,-0.00082,8.1e-05,-4.8e-05,-0.000148,0.002311,-0.506164,-0.000163,0.932108,-264.337413,-1.012543,62.113916
14.0767,0.002234,0.003436,-0.001034,5.8e-05,-4e-05,-0.000157,0.001809,-0.506426,-0.00082,0.857209,-264.337413,-0.937644,62.113916
14.097,0.002394,0.00357,0.00024,0.000152,-2.3e-05,0.000328,0.001716,-0.506551,-0.001015,0.857209,-264.337413,-0.937644,62.113916
14.117,0.002258,0.003604,-0.000172,0.000224,-7e-06,0.000669,0.001716,-0.506551,-0.001015,0.857209,-264.337413,-0.937644,62.113916
14.1371,0.002116,0.003826,0.002406,0.000279,7e-06,0.000908,0.002171,-0.506396,-0.000172,0.782204,-264.337413,-0.862638,62.113916
14.1569,0.002084,0.003699,9.8e-05,0.000131,9.3e-05,2.8e-05,0.002644,-0.506305,0.000869,0.782204,-264.337413,-0.862638,62.113916
14.1772,0.002111,0.003945,0.000181,1.9e-05,0.000151,-0.000604,0.002134,-0.506301,0.0001,0.857201,-264.337396,-0.937635,62.113933
14.1971,0.002164,0.003753,-0.00102,5e-05,9.8e-05,-0.000677,0.002197,-0.506077,0.000174,0.857201,-264.337396,-0.937635,62.113933
14.2173,0.002772,0.003768,6.4e-05,7.2e-05,5.6e-05,-0.000729,0.002197,-0.506077,0.000174,0.857201,-264.337396,-0.937635,62.113933
14.2369,0.002794,0.00366,0.000387,8.9e-05,2.3e-05,-0.000764,0.002804,-0.506232,6.4e-05,0.932201,-264.337396,-1.012636,62.113933
14.2575,0.002307,0.003678,-0.000158,-5.9e-05,8.9e-05,-0.000799,0.00288,-0.506275,0.000194,0.932201,-264.337396,-1.012636,62.113933
14.277,0.002764,0.004084,0.000415,-0.000172,0.000135,-0.000824,0.002226,-0.506322,-0.000158,0.857109,-264.337396,-0.937544,62.113933
14.297,0.002278,0.003882,0.000375,-0.000233,0.000121,-0.000933,0.002908,-0.505953,0.000363,0.857109,-264.337396,-0.937544,62.113933
14.3176,0.002672,0.003699,-0.001759,-0.000282,0.000106,-0.00101,0.002908,-0.505953,0.000363,0.857109,-264.337396,-0.937544,62.113933
14.3374,0.002164,0.003579,0.000587,-0.000321,9.2e-05,-0.001064,0.001774,-0.5063,-0.00176,0.932023,-264.337401,-1.012458,62.113925
14.3574,0.002195,0.004087,0.001987,-0.000201,5.5e-05,-0.000424,0.002052,-0.506349,-0.000812,0.932023,-264.337401,-1.012458,62.113925
14.3767,0.002385,0.003744,0.000125,-0.000111,3e-05,2.9e-05,0.003201,-0.50591,0.001969,1.007004,-264.337545,-1.087439,62.113745
14.3969,0.002441,0.003889,-7e-06,-0.000137,5.1e-05,-0.000291,0.002516,-0.506225,0.00029,1.007004,-264.337545,-1.087439,62.113745
14.4172,0.002352,0.003697,0.000343,-0.000156,6.5e-05,-0.000519,0.002516,-0.506225,0.00029,1.007004,-264.337545,-1.087439,62.113745
14.4371,0.002685,0.003707,0.000328,-0.000171,7.5e-05,-0.000681,0.002527,-0.506303,0.000343,0.931969,-264.337545,-1.012404,62.113745
14.4572,0.002569,0.003648,-0.000512,-0.000219,0.000107,-0.000822,0.00266,-0.506299,0.000337,0.931969,-264.337545,-1.012404,62.113745
14.4769,0.002524,0.003985,-0.000763,-0.000256,0.00013,-0.000923,0.002306,-0.506351,-0.000517,1.006987,-264.337587,-1.087422,62.113688
14.4971,0.002323,0.003928,-0.000335,-0.00015,4.4e-05,-0.00036,0.00215,-0.506045,-0.000742,1.006987,-264.337587,-1.087422,62.113688
14.5171,0.002504,0.004049,-0.001519,-7.1e-05,-2e-05,3.9e-05,0.00215,-0.506045,-0.000742,1.006987,-264.337587,-1.087422,62.113688
14.5372,0.002514,0.00369,0.000241,-1.2e-05,-6.7e-05,0.00032,0.00172,-0.505946,-0.001548,1.038106,-264.337737,-1.162404,62.113466
14.5572,0.002066,0.003874,0.001029,4.2e-05,-9.9e-05,0.000566,0.002091,-0.506094,-0.000825,1.038106,-264.337737,-1.162404,62.113466
14.5772,0.002455,0.004187,-0.000802,8.2e-05,-0.000122,0.000739,0.002591,-0.506126,0.001029,1.113102,-264.337737,-1.2374,62.113466
14.5971,0.002473,0.003757,-0.000166,0.000133,-0.000172,0.000754,0.002095,-0.505841,-0.000637,1.113102,-264.337737,-1.2374,62.113466
14.6176,0.002375,0.00362,-0.000203,0.00017,-0.000209,0.000765,0.002095,-0.505841,-0.000637,1.113102,-264.337737,-1.2374,62.113466
14.637,0.00237,0.003872,0.001632,0.000199,-0.000237,0.000773,0.002273,-0.506382,-0.000195,1.188079,-264.337702,-1.312376,62.113527
14.6571,0.002585,0.003672,2.2e-05,6.4e-05,-0.000114,0.000102,0.002648,-0.506279,0.000542,1.188079,-264.337702,-1.312376,62.113527
14.6767,0.002269,0.003439,-0.001165,-3.7e-05,-2.5e-05,-0.000379,0.002597,-0.506329,2.7e-05,1.112966,-264.337678,-1.297596,62.113583
14.6972,0.00255,0.003985,-0.000484,7.1e-05,-1.3e-05,0.000195,0.001758,-0.50654,-0.001057,1.112966,-264.337678,-1.297596,62.113583
14.7174,0.002205,0.003704,-0.001291,0.000152,-1e-06,0.000599,0.001758,-0.50654,-0.001057,1.112966,-264.337678,-1.297596,62.113583
14.7372,0.002289,0.003913,0.001069,0.000214,1.1e-05,0.000883,0.001546,-0.506296,-0.001293,1.187852,-264.337696,-1.372482,62.113568
14.7571,0.00219,0.00405,-0.000122,0.000213,-0.0,0.000666,0.00207,-0.506211,-0.000332,1.187852,-264.337696,-1.372482,62.113568
14.7771,0.002306,0.003862,-0.001314,0.000212,-1e-05,0.000513,0.002131,-0.50595,-0.000106,1.200287,-264.337561,-1.297472,62.113699
14.7971,0.002255,0.004014,-0.001033,0.000312,-7.4e-05,0.000909,0.00168,-0.506121,-0.001204,1.200287,-264.337561,-1.297472,62.113699
14.8173,0.002297,0.004093,-0.000133,0.000386,-0.000121,0.001188,0.00168,-0.506121,-0.001204,1.200287,-264.337561,-1.297472,62.113699
14.837,0.002731,0.003801,-0.00051,0.000442,-0.000155,0.001383,0.00223,-0.505908,-0.000131,1.125303,-264.337549,-1.222487,62.113712
14.8569,0.00201,0.003667,-0.000688,0.000344,-0.000127,0.000997,0.002328,-0.506026,-0.000285,1.125303,-264.337549,-1.222487,62.113712
14.8773,0.002502,0.003644,-0.001254,0.000268,-0.00011,0.000723,0.001669,-0.506336,-0.000656,1.050295,-264.337311,-1.154746,62.114029
14.8975,0.002447,0.003865,-0.001153,0.000293,-9.8e-05,0.001047,0.001844,-0.506354,-0.001192,1.050295,-264.337311,-1.154746,62.114029
14.9174,0.002562,0.003839,-0.001343,0.000311,-8.7e-05,0.001274,0.001844,-0.506354,-0.001192,1.050295,-264.337311,-1.154746,62.114029
14.9376,0.002205,0.003817,3.1e-05,0.000325,-7.8e-05,0.001432,0.001884,-0.506164,-0.001323,0.975297,-264.3372,-1.118221,62.114189
14.9576,0.00224,0.004007,0.001209,0.00031,-8.1e-05,0.001309,0.002021,-0.506172,-0.000775,0.975297,-264.3372,-1.118221,62.114189
14.9769,0.002584,0.00385,-0.000472,0.000298,-8.4e-05,0.001222,0.002862,-0.505994,0.001227,1.050299,-264.337066,-1.193224,62.114345
14.9972,0.002388,0.003773,0.001422,0.00021,-5.3e-05,0.000898,0.00239,-0.506136,-0.000319,1.050299,-264.337066,-1.193224,62.114345
15.0176,0.002274,0.004092,-0.000115,0.000143,-3.2e-05,0.00067,0.00239,-0.506136,-0.000319,1.050299,-264.337066,-1.193224,62.114345
15.0371,0.002288,0.0037,0.001944,9.1e-05,-2e-05,0.000509,0.002227,-0.505911,-7.2e-05,1.125299,-264.336822,-1.226558,62.114642
15.0572,0.00226,0.003644,0.001051,4e-06,2.5e-05,-0.000199,0.002655,-0.506069,0.000751,1.125299,-264.336822,-1.226558,62.114642
15.0768,0.002181,0.003796,0.001487,-6.3e-05,5.3e-05,-0.000705,0.002798,-0.506356,0.001061,1.200298,-264.33674,-1.301215,62.114733
15.0971,0.0021,0.003612,0.000687,-0.000182,0.000134,-0.001404,0.002928,-0.506216,0.001452,1.200298,-264.33674,-1.301215,62.114733
15.1172,0.002299,0.00398,-0.000326,-0.000272,0.000189,-0.001907,0.002928,-0.506216,0.001452,1.200298,-264.33674,-1.301215,62.114733
15.1373,0.002549,0.003879,-0.000247,-0.00034,0.000225,-0.002268,0.002131,-0.506019,-0.000337,1.275448,-264.336797,-1.376366,62.114662
15.1573,0.002192,0.003395,0.001366,-0.000234,0.000131,-0.001562,0.00225,-0.506061,-0.000302,1.275448,-264.336797,-1.376366,62.114662
15.1769,0.00239,0.003795,0.000226,-0.000155,6e-05,-0.001064,0.002878,-0.506597,0.001294,1.285804,-264.337279,-1.362846,62.114005
