mach0312/omni-docking-bench/src/icros_test_setup/results/MPPI_sample/timeseries/trial_030.csv
t,x,y,yaw,vx,vy,wz,bl_x,bl_y,bl_yaw,front_steering_joint,front_wheel_joint,rear_steering_joint,rear_wheel_joint
0.0,-0.042098,0.018667,0.029558,-0.005361,0.005721,0.010888,-0.024982,-0.491994,0.029081,-1.161876,-263.166043,0.171547,69.640745
0.0004,-0.042482,0.018789,0.030403,-0.0046,0.00491,0.009343,-0.024982,-0.491994,0.029081,-1.161876,-263.174926,0.171547,69.63716
0.0009,-0.042447,0.018871,0.032263,-0.003784,0.004038,0.007685,-0.024982,-0.491994,0.029081,-1.161876,-263.182857,0.171547,69.633959
0.0012,-0.043099,0.018902,0.031564,-0.002914,0.00311,0.005918,-0.025448,-0.491819,0.030277,-1.161876,-263.188964,0.171547,69.631495
0.0016,-0.0427,0.019232,0.030415,-0.001994,0.002128,0.004049,-0.025448,-0.491819,0.030277,-1.161876,-263.193594,0.171547,69.629627
0.0021,-0.043009,0.019022,0.031254,-0.001022,0.001091,0.002076,-0.025428,-0.49175,0.030348,-1.161876,-263.195601,0.171547,69.628817
0.0024,-0.043256,0.019382,0.030648,0.0,0.0,0.0,-0.025428,-0.49175,0.030348,-1.161876,-263.195601,0.171547,69.628817
0.0028,-0.04303,0.019249,0.03188,0.0,0.0,0.0,-0.026118,-0.491524,0.02985,-1.161876,-263.195601,0.171547,69.628817
0.0031,-0.043382,0.019287,0.030981,0.0,0.0,0.0,-0.026118,-0.491524,0.02985,-1.161876,-263.195601,0.171547,69.628817
0.0185,-0.043385,0.019113,0.032637,0.0,0.0,0.0,-0.027514,-0.49047,0.031059,-1.161876,-263.195601,0.171547,69.628817
0.0389,-0.042837,0.019146,0.032232,0.0,0.0,0.0,-0.027514,-0.49047,0.031059,-1.161876,-263.195601,0.171547,69.628817
0.0584,-0.043034,0.018914,0.032129,0.0,0.0,0.0,-0.026402,-0.490589,0.032232,-1.161876,-263.195601,0.171547,69.628817
0.0785,-0.043032,0.019141,0.03247,0.0,0.0,0.0,-0.026504,-0.490685,0.03219,-1.161876,-263.195601,0.171547,69.628817
0.0982,-0.043489,0.019003,0.033142,0.0,0.0,0.0,-0.026476,-0.49059,0.03247,-1.161876,-263.195601,0.171547,69.628817
0.1184,-0.043205,0.01887,0.031982,0.002056,-0.001429,-0.002258,-0.02658,-0.490706,0.033084,-1.161876,-263.195601,0.171547,69.628817
0.1384,-0.043403,0.019444,0.031525,0.002225,-0.001598,-0.00255,-0.02658,-0.490706,0.033084,-1.161876,-263.195601,0.171547,69.628817
0.1581,-0.04318,0.019518,0.03311,0.002367,-0.001749,-0.002776,-0.027328,-0.490302,0.031525,-1.161876,-263.195601,0.171547,69.628817
0.1783,-0.043196,0.019262,0.031136,0.002483,-0.001887,-0.003085,-0.02691,-0.490262,0.032168,-1.161876,-263.195601,0.171547,69.628817
0.1981,-0.042973,0.019533,0.031034,0.002581,-0.002011,-0.003331,-0.027298,-0.490506,0.031105,-1.086974,-263.195101,0.096644,69.6291
0.2181,-0.043077,0.019079,0.031874,0.002665,-0.002117,-0.003639,-0.02716,-0.490248,0.031039,-1.086974,-263.195101,0.096644,69.6291
0.2384,-0.043505,0.018822,0.031839,0.002736,-0.002212,-0.003885,-0.02716,-0.490248,0.031039,-1.086974,-263.195101,0.096644,69.6291
0.2583,-0.04299,0.01947,0.032443,0.002795,-0.002297,-0.004082,-0.027183,-0.490983,0.031728,-1.011879,-263.193586,0.02155,69.629915
0.2781,-0.042925,0.018973,0.03012,0.002846,-0.002368,-0.004331,-0.026871,-0.490694,0.032009,-1.011879,-263.193586,0.02155,69.629915
0.298,-0.04313,0.018695,0.03221,0.002889,-0.002432,-0.004534,-0.02748,-0.490863,0.029997,-1.042664,-263.191482,0.070145,69.630978
0.3182,-0.042588,0.01917,0.031211,0.002929,-0.002483,-0.004776,-0.026769,-0.491028,0.032013,-1.042664,-263.191482,0.070145,69.630978
0.3386,-0.042916,0.019023,0.031678,0.002962,-0.002528,-0.004972,-0.026769,-0.491028,0.032013,-1.042664,-263.191482,0.070145,69.630978
0.3583,-0.042622,0.018743,0.031924,0.002989,-0.002569,-0.005132,-0.026644,-0.490815,0.031496,-1.063716,-263.189198,0.116255,69.632094
0.3783,-0.042622,0.019063,0.032699,0.003008,-0.002611,-0.005333,-0.026506,-0.4909,0.031651,-1.063716,-263.189198,0.116255,69.632094
0.3982,-0.042197,0.018551,0.031142,0.003023,-0.002649,-0.005496,-0.025859,-0.490736,0.03255,-1.08809,-263.186842,0.18693,69.633207
0.4184,-0.042071,0.018583,0.029793,0.003037,-0.00268,-0.005674,-0.026273,-0.491165,0.031256,-1.08809,-263.186842,0.18693,69.633207
0.4382,-0.042433,0.018987,0.031813,0.003048,-0.002708,-0.00582,-0.026273,-0.491165,0.031256,-1.08809,-263.186842,0.18693,69.633207
0.4583,-0.041648,0.018745,0.030553,0.003058,-0.002732,-0.005939,-0.026085,-0.490858,0.031591,-1.104483,-263.184242,0.230046,69.634408
0.4781,-0.041814,0.018507,0.028871,0.00306,-0.002762,-0.006069,-0.026064,-0.490935,0.031138,-1.104483,-263.184242,0.230046,69.634408
0.498,-0.041215,0.018763,0.031211,0.003062,-0.002787,-0.006175,-0.026998,-0.49136,0.028692,-1.122588,-263.181567,0.284635,69.635616
0.5184,-0.041332,0.018698,0.030914,0.003058,-0.002817,-0.006282,-0.025443,-0.491025,0.030984,-1.122588,-263.181567,0.284635,69.635616
0.538,-0.041711,0.018557,0.03136,0.003055,-0.002843,-0.006369,-0.025443,-0.491025,0.030984,-1.122588,-263.181567,0.284635,69.635616
0.5582,-0.041454,0.018473,0.029395,0.003052,-0.002866,-0.00644,-0.025591,-0.491303,0.031105,-1.133984,-263.178709,0.31097,69.636886
0.5783,-0.041091,0.018472,0.030084,0.003058,-0.002872,-0.006519,-0.025936,-0.491317,0.030371,-1.133984,-263.178709,0.31097,69.636886
0.5985,-0.040635,0.018141,0.029378,0.003064,-0.002878,-0.006583,-0.025652,-0.491384,0.029881,-1.1489,-263.175769,0.336605,69.638161
0.619,-0.041319,0.018116,0.030936,0.00307,-0.002881,-0.006656,-0.025649,-0.491621,0.029411,-1.1489,-263.175769,0.336605,69.638161
0.6386,-0.040748,0.01862,0.029556,0.003075,-0.002883,-0.006717,-0.025649,-0.491621,0.029411,-1.1489,-263.175769,0.336605,69.638161
0.6585,-0.040725,0.018004,0.028796,0.003079,-0.002886,-0.006766,-0.025546,-0.491273,0.029283,-1.152846,-263.172772,0.357004,69.63946
0.6786,-0.040536,0.018654,0.029433,0.003082,-0.00289,-0.006828,-0.025733,-0.491495,0.029052,-1.152846,-263.172772,0.357004,69.63946
0.6985,-0.040359,0.017957,0.029513,0.003085,-0.002894,-0.006878,-0.025428,-0.491213,0.029221,-1.15735,-263.169741,0.384572,69.640773
0.7187,-0.040768,0.01795,0.03039,0.003086,-0.002898,-0.006937,-0.025314,-0.491775,0.029478,-1.15735,-263.169741,0.384572,69.640773
0.7386,-0.040757,0.01824,0.029028,0.003087,-0.002901,-0.006986,-0.025314,-0.491775,0.029478,-1.15735,-263.169741,0.384572,69.640773
0.7587,-0.040066,0.017663,0.029643,0.003088,-0.002904,-0.007026,-0.025824,-0.491662,0.028742,-1.160668,-263.166667,0.400901,69.642104
0.7784,-0.040037,0.017944,0.029368,0.003091,-0.002903,-0.007071,-0.025454,-0.491859,0.029074,-1.160668,-263.166667,0.400901,69.642104
0.7984,-0.039691,0.017919,0.029681,0.003094,-0.002903,-0.007108,-0.024962,-0.491925,0.029146,-1.165466,-263.163559,0.42211,69.643448
0.8185,-0.039793,0.017953,0.029042,0.003087,-0.002915,-0.007148,-0.024587,-0.491867,0.029622,-1.165466,-263.163559,0.42211,69.643448
0.8385,-0.039649,0.017557,0.029709,0.003081,-0.002926,-0.007181,-0.024587,-0.491867,0.029622,-1.165466,-263.163559,0.42211,69.643448
0.8588,-0.039428,0.017632,0.027335,0.003076,-0.002935,-0.007208,-0.024367,-0.492335,0.029412,-1.167148,-263.160417,0.435279,69.644809
0.8789,-0.038993,0.017864,0.029038,0.00308,-0.00293,-0.007238,-0.024808,-0.492284,0.028533,-1.167148,-263.160417,0.435279,69.644809
0.8985,-0.038941,0.017259,0.028037,0.003084,-0.002926,-0.007262,-0.024085,-0.492011,0.028809,-1.173896,-263.157242,0.445179,69.646169
0.9183,-0.039073,0.017351,0.027166,0.003088,-0.002921,-0.007289,-0.024589,-0.492497,0.028094,-1.173896,-263.157242,0.445179,69.646169
0.9383,-0.038872,0.017429,0.028585,0.003091,-0.002917,-0.007312,-0.024589,-0.492497,0.028094,-1.173896,-263.157242,0.445179,69.646169
0.9582,-0.038349,0.017337,0.026674,0.003094,-0.002913,-0.00733,-0.024163,-0.492481,0.028282,-1.174088,-263.154055,0.455261,69.64754
0.9783,-0.038803,0.017393,0.028113,0.003095,-0.002913,-0.007351,-0.024387,-0.492495,0.027589,-1.174088,-263.154055,0.455261,69.64754
0.9982,-0.038236,0.017364,0.027678,0.003095,-0.002913,-0.007368,-0.024366,-0.492495,0.02788,-1.174256,-263.150854,0.467909,69.648925
1.0181,-0.038553,0.017442,0.027257,0.003092,-0.002918,-0.007387,-0.024138,-0.49245,0.027684,-1.174256,-263.150854,0.467909,69.648925
1.0382,-0.038498,0.017249,0.028698,0.00309,-0.002922,-0.007402,-0.024138,-0.49245,0.027684,-1.174256,-263.150854,0.467909,69.648925
1.0583,-0.037866,0.017022,0.026422,0.003087,-0.002926,-0.007415,-0.023731,-0.492659,0.02839,-1.175242,-263.147646,0.473727,69.650314
1.0782,-0.037758,0.016955,0.027335,0.003088,-0.002925,-0.007429,-0.023984,-0.49273,0.027555,-1.175242,-263.147646,0.473727,69.650314
1.098,-0.037512,0.016969,0.026109,0.003088,-0.002924,-0.00744,-0.023718,-0.492945,0.027099,-1.17813,-263.144415,0.478977,69.651707
1.1185,-0.037482,0.017043,0.02474,0.003093,-0.002917,-0.007452,-0.024152,-0.492869,0.026182,-1.17813,-263.144415,0.478977,69.651707
1.1384,-0.037351,0.017005,0.02733,0.003098,-0.002911,-0.007462,-0.024152,-0.492869,0.026182,-1.17813,-263.144415,0.478977,69.651707
1.1581,-0.036925,0.016699,0.02727,0.003101,-0.002906,-0.00747,-0.023282,-0.492923,0.027019,-1.178673,-263.141184,0.483109,69.653102
1.1782,-0.037429,0.016738,0.026785,0.003095,-0.002915,-0.00748,-0.023159,-0.493014,0.027086,-1.178673,-263.141184,0.483109,69.653102
1.1982,-0.036753,0.016777,0.026034,0.00309,-0.002922,-0.007488,-0.023669,-0.493169,0.026548,-1.177209,-263.137958,0.490654,69.654505
1.2182,-0.037217,0.016413,0.025178,0.00309,-0.002921,-0.007496,-0.02349,-0.493065,0.026068,-1.177209,-263.137958,0.490654,69.654505
1.2385,-0.037023,0.016821,0.026235,0.00309,-0.002921,-0.007503,-0.02349,-0.493065,0.026068,-1.177209,-263.137958,0.490654,69.654505
1.2583,-0.036443,0.016863,0.025715,0.003091,-0.00292,-0.007509,-0.023513,-0.493123,0.025921,-1.179839,-263.134711,0.490776,69.655907
1.2785,-0.036731,0.016649,0.024997,0.003091,-0.00292,-0.007515,-0.023422,-0.493073,0.025801,-1.179839,-263.134711,0.490776,69.655907
1.2984,-0.036067,0.016239,0.02609,0.00309,-0.00292,-0.007521,-0.023883,-0.493282,0.024758,-1.180193,-263.131463,0.494384,69.657312
1.3184,-0.036278,0.016523,0.025144,0.003091,-0.002919,-0.007526,-0.022853,-0.493565,0.025964,-1.180193,-263.131463,0.494384,69.657312
1.3385,-0.036063,0.016504,0.025436,0.003092,-0.002918,-0.007531,-0.022853,-0.493565,0.025964,-1.180193,-263.131463,0.494384,69.657312
1.3584,-0.035477,0.016045,0.023952,0.003093,-0.002917,-0.007535,-0.02296,-0.49345,0.025121,-1.180595,-263.128215,0.49615,69.658717
1.3785,-0.035675,0.016353,0.025363,0.003097,-0.00291,-0.007539,-0.023068,-0.49361,0.024607,-1.180595,-263.128215,0.49615,69.658717
1.3985,-0.035323,0.01617,0.023769,0.003101,-0.002904,-0.007543,-0.02264,-0.493574,0.025123,-1.180561,-263.124963,0.499028,69.660126
1.4186,-0.035439,0.016432,0.022755,0.003106,-0.002896,-0.007547,-0.023148,-0.493681,0.023874,-1.180561,-263.124963,0.499028,69.660126
1.4384,-0.035429,0.016384,0.024431,0.003111,-0.002889,-0.00755,-0.023148,-0.493681,0.023874,-1.180561,-263.124963,0.499028,69.660126
1.4584,-0.0352,0.015914,0.023262,0.003115,-0.002884,-0.007552,-0.022837,-0.493582,0.024116,-1.179287,-263.121718,0.502077,69.661539
1.4786,-0.035056,0.015761,0.024525,0.003118,-0.002879,-0.007555,-0.023026,-0.493745,0.023732,-1.179287,-263.121718,0.502077,69.661539
1.4984,-0.03468,0.016065,0.024533,0.003121,-0.002876,-0.007558,-0.022448,-0.494175,0.024284,-1.176945,-263.118472,0.506638,69.662963
1.5184,-0.034628,0.015824,0.023675,0.003115,-0.002885,-0.007561,-0.022189,-0.493822,0.024499,-1.176945,-263.118472,0.506638,69.662963
1.5387,-0.035105,0.015971,0.02258,0.003109,-0.002894,-0.007564,-0.022189,-0.493822,0.024499,-1.176945,-263.118472,0.506638,69.662963
1.5581,-0.034435,0.015526,0.024377,0.003104,-0.0029,-0.007566,-0.023457,-0.494017,0.022263,-1.17605,-263.115221,0.508655,69.664395
1.5782,-0.034443,0.015949,0.022923,0.003114,-0.002886,-0.007567,-0.022847,-0.494155,0.023093,-1.17605,-263.115221,0.508655,69.664395
1.598,-0.034048,0.015437,0.023671,0.003122,-0.002874,-0.007569,-0.022653,-0.494007,0.022682,-1.179373,-263.111972,0.506155,69.665812
1.6183,-0.03378,0.015632,0.023406,0.003123,-0.002872,-0.007571,-0.022033,-0.494388,0.023569,-1.179373,-263.111972,0.506155,69.665812
1.6385,-0.034045,0.015373,0.021947,0.003124,-0.002871,-0.007572,-0.022033,-0.494388,0.023569,-1.179373,-263.111972,0.506155,69.665812
1.6584,-0.033798,0.01548,0.023727,0.003125,-0.00287,-0.007574,-0.02272,-0.494621,0.02163,-1.176184,-263.108726,0.510583,69.667242
1.6785,-0.033776,0.01509,0.020718,0.003132,-0.00286,-0.007575,-0.02229,-0.494535,0.022444,-1.176184,-263.108726,0.510583,69.667242
1.698,-0.033729,0.015148,0.022209,0.003137,-0.002852,-0.007576,-0.023109,-0.49489,0.020476,-1.175791,-263.105477,0.511857,69.668676
1.7187,-0.033117,0.015509,0.022475,0.003148,-0.002836,-0.007576,-0.022463,-0.494746,0.022039,-1.175791,-263.105477,0.511857,69.668676
1.7387,-0.033298,0.015418,0.021435,0.003157,-0.002823,-0.007577,-0.022463,-0.494746,0.022039,-1.175791,-263.105477,0.511857,69.668676
1.7586,-0.032788,0.014858,0.02066,0.003164,-0.002813,-0.007578,-0.022233,-0.494581,0.021117,-1.173576,-263.10223,0.514849,69.670119
1.7785,-0.033019,0.015139,0.022838,0.003169,-0.002806,-0.007579,-0.022225,-0.494779,0.020894,-1.173576,-263.10223,0.514849,69.670119
1.7985,-0.032581,0.014807,0.021476,0.003173,-0.0028,-0.00758,-0.02127,-0.494816,0.022596,-1.168709,-263.098997,0.520906,69.671578
1.8184,-0.03286,0.015099,0.022234,0.003174,-0.0028,-0.007581,-0.021593,-0.495057,0.021561,-1.168709,-263.098997,0.520906,69.671578
1.8386,-0.032927,0.01539,0.021618,0.003175,-0.002799,-0.007582,-0.021593,-0.495057,0.021561,-1.168709,-263.098997,0.520906,69.671578
1.8582,-0.03223,0.014719,0.020403,0.003175,-0.002799,-0.007583,-0.021768,-0.494605,0.0213,-1.167107,-263.095772,0.522913,69.67304
1.8782,-0.032356,0.014822,0.022004,0.003175,-0.0028,-0.007584,-0.021775,-0.494849,0.0209,-1.167107,-263.095772,0.522913,69.67304
1.8982,-0.03193,0.01455,0.020093,0.003174,-0.002801,-0.007584,-0.021031,-0.495142,0.021763,-1.166968,-263.092535,0.523331,69.674509
1.9181,-0.031964,0.014835,0.021028,0.00318,-0.002792,-0.007585,-0.021621,-0.495334,0.020227,-1.166968,-263.092535,0.523331,69.674509
1.9387,-0.032069,0.014861,0.020527,0.003186,-0.002784,-0.007585,-0.021621,-0.495334,0.020227,-1.166968,-263.092535,0.523331,69.674509
1.9582,-0.031629,0.014575,0.020925,0.00319,-0.002778,-0.007585,-0.021466,-0.495146,0.02021,-1.167241,-263.089301,0.523154,69.675975
1.9783,-0.031629,0.014571,0.019924,0.003188,-0.002782,-0.007586,-0.021241,-0.495228,0.020467,-1.167241,-263.089301,0.523154,69.675975
1.9982,-0.031371,0.014274,0.019726,0.003185,-0.002785,-0.007587,-0.021366,-0.495414,0.019683,-1.164281,-263.086074,0.526673,69.677451
2.0182,-0.031308,0.014316,0.018541,0.003191,-0.002776,-0.007587,-0.021311,-0.495613,0.019711,-1.164281,-263.086074,0.526673,69.677451
2.0385,-0.031105,0.014684,0.019845,0.003196,-0.002769,-0.007587,-0.021311,-0.495613,0.019711,-1.164281,-263.086074,0.526673,69.677451
2.0581,-0.031221,0.014432,0.019763,0.003201,-0.002762,-0.007587,-0.020849,-0.49533,0.019528,-1.165224,-263.082851,0.525717,69.678921
2.0785,-0.031046,0.014118,0.0203,0.003197,-0.002769,-0.007588,-0.020953,-0.495399,0.019587,-1.165224,-263.082851,0.525717,69.678921
2.098,-0.030195,0.014007,0.019333,0.003193,-0.002775,-0.007588,-0.020589,-0.495863,0.020059,-1.162359,-263.079624,0.529045,69.680406
2.1183,-0.029885,0.014004,0.019452,0.003192,-0.002777,-0.007589,-0.020352,-0.495899,0.019383,-1.162359,-263.079624,0.529045,69.680406
2.1383,-0.030429,0.014216,0.018452,0.00319,-0.002779,-0.007589,-0.020352,-0.495899,0.019383,-1.162359,-263.079624,0.529045,69.680406
2.1583,-0.030173,0.014415,0.015379,0.003189,-0.00278,-0.007589,-0.020883,-0.49581,0.018135,-1.163862,-263.076396,0.527419,69.681884
2.1783,-0.029966,0.014027,0.020202,0.0032,-0.002764,-0.007587,-0.021464,-0.495706,0.016963,-1.163862,-263.076396,0.527419,69.681884
2.1983,-0.029668,0.013698,0.017782,0.003208,-0.002751,-0.007585,-0.019561,-0.495955,0.019961,-1.164634,-263.073173,0.526719,69.683357
2.2184,-0.029539,0.014436,0.018069,0.003213,-0.002745,-0.007586,-0.020501,-0.496202,0.017965,-1.164634,-263.073173,0.526719,69.683357
2.2381,-0.029508,0.014419,0.01805,0.003216,-0.002739,-0.007586,-0.020501,-0.496202,0.017965,-1.164634,-263.073173,0.526719,69.683357
2.2583,-0.029152,0.013749,0.01716,0.003219,-0.002735,-0.007586,-0.020167,-0.495611,0.017733,-1.160879,-263.069954,0.530479,69.684845
2.2782,-0.029788,0.013676,0.017886,0.003213,-0.002745,-0.007587,-0.020247,-0.495854,0.017462,-1.160879,-263.069954,0.530479,69.684845
2.2983,-0.029121,0.013782,0.018776,0.003208,-0.002753,-0.007588,-0.020563,-0.496328,0.017645,-1.158893,-263.066731,0.532854,69.686343
2.3183,-0.029051,0.013693,0.018779,0.0032,-0.002766,-0.007589,-0.019625,-0.496149,0.01867,-1.158893,-263.066731,0.532854,69.686343
2.3384,-0.029187,0.013592,0.017672,0.003193,-0.002776,-0.00759,-0.019625,-0.496149,0.01867,-1.158893,-263.066731,0.532854,69.686343
2.3583,-0.028606,0.013428,0.017118,0.003187,-0.002784,-0.00759,-0.020039,-0.496441,0.017356,-1.161168,-263.063513,0.530277,69.687828
2.3782,-0.028459,0.013208,0.017328,0.003193,-0.002774,-0.007589,-0.019956,-0.496477,0.017221,-1.161168,-263.063513,0.530277,69.687828
2.3984,-0.028335,0.013318,0.015629,0.003198,-0.002766,-0.007588,-0.019519,-0.496802,0.017087,-1.165122,-263.060285,0.526256,69.689301
2.4185,-0.028406,0.013583,0.016321,0.00321,-0.002747,-0.007582,-0.020286,-0.49664,0.015743,-1.165122,-263.060285,0.526256,69.689301
2.4385,-0.028653,0.013264,0.01955,0.00322,-0.002731,-0.007578,-0.020286,-0.49664,0.015743,-1.165122,-263.060285,0.526256,69.689301
2.4587,-0.028223,0.013523,0.017863,0.003229,-0.002717,-0.007574,-0.018547,-0.496751,0.019233,-1.162881,-263.057064,0.52866,69.690781
2.4785,-0.028386,0.013369,0.015355,0.003215,-0.00274,-0.007579,-0.018762,-0.49662,0.018639,-1.162881,-263.057064,0.52866,69.690781
2.4984,-0.027607,0.013162,0.015697,0.003203,-0.002758,-0.007582,-0.020451,-0.496655,0.015114,-1.156557,-263.053855,0.533908,69.692282
2.5181,-0.027516,0.013325,0.014667,0.003209,-0.002748,-0.007577,-0.019671,-0.496769,0.015634,-1.156557,-263.053855,0.533908,69.692282
2.5385,-0.027622,0.012962,0.016423,0.003214,-0.00274,-0.007573,-0.019671,-0.496769,0.015634,-1.156557,-263.053855,0.533908,69.692282
2.5586,-0.027377,0.012992,0.015523,0.003218,-0.002733,-0.007571,-0.019111,-0.497082,0.016106,-1.16178,-263.050637,0.529088,69.693764
2.5781,-0.027023,0.012953,0.015331,0.003222,-0.002728,-0.007569,-0.019239,-0.497039,0.015829,-1.16178,-263.050637,0.529088,69.693764
2.5982,-0.027375,0.013288,0.015673,0.003225,-0.002723,-0.007568,-0.019101,-0.497073,0.01509,-1.158387,-263.04743,0.531246,69.695255
2.6186,-0.026946,0.012874,0.014948,0.003222,-0.002728,-0.007567,-0.019351,-0.496691,0.015608,-1.158387,-263.04743,0.531246,69.695255
2.6386,-0.026864,0.012854,0.014149,0.00322,-0.002731,-0.007566,-0.019351,-0.496691,0.015608,-1.158387,-263.04743,0.531246,69.695255
2.6583,-0.026687,0.012837,0.015694,0.003218,-0.002734,-0.007565,-0.019512,-0.497207,0.013832,-1.157145,-263.044221,0.532231,69.696752
2.6782,-0.026683,0.01255,0.013759,0.003222,-0.002725,-0.007555,-0.019158,-0.497176,0.014556,-1.157145,-263.044221,0.532231,69.696752
2.6981,-0.025871,0.012822,0.015294,0.003226,-0.002718,-0.007547,-0.019562,-0.497487,0.013517,-1.158312,-263.041008,0.530119,69.698245
2.7182,-0.026241,0.012217,0.015147,0.003216,-0.002733,-0.007547,-0.018197,-0.497155,0.015125,-1.158312,-263.041008,0.530119,69.698245
2.7387,-0.026551,0.012674,0.01223,0.003208,-0.002746,-0.007547,-0.018197,-0.497155,0.015125,-1.158312,-263.041008,0.530119,69.698245
2.7586,-0.025763,0.0128,0.01407,0.003201,-0.002756,-0.007547,-0.020177,-0.4974,0.011914,-1.156119,-263.037808,0.530341,69.69974
2.7782,-0.026477,0.012806,0.01498,0.00321,-0.002731,-0.00751,-0.019517,-0.497311,0.012752,-1.156119,-263.037808,0.530341,69.69974
2.7982,-0.025192,0.012047,0.013614,0.003217,-0.00271,-0.00748,-0.018734,-0.497223,0.01474,-1.160847,-263.034593,0.524891,69.70122
2.8184,-0.02567,0.012604,0.012952,0.003222,-0.002702,-0.007475,-0.018286,-0.497851,0.013701,-1.160847,-263.034593,0.524891,69.70122
2.8385,-0.025024,0.01236,0.013697,0.003225,-0.002695,-0.007472,-0.018286,-0.497851,0.013701,-1.160847,-263.034593,0.524891,69.70122
2.8585,-0.025044,0.012299,0.013358,0.003228,-0.002689,-0.00747,-0.017903,-0.497704,0.013385,-1.154534,-263.031417,0.523799,69.702703
2.8785,-0.025172,0.012384,0.014206,0.003223,-0.002695,-0.007461,-0.018021,-0.497697,0.013338,-1.154534,-263.031417,0.523799,69.702703
2.8983,-0.024975,0.012051,0.014208,0.003219,-0.002699,-0.007455,-0.017823,-0.497649,0.013968,-1.151956,-263.028241,0.525709,69.704197
2.9185,-0.024908,0.012059,0.013151,0.003217,-0.002704,-0.007463,-0.017732,-0.49788,0.014175,-1.151956,-263.028241,0.525709,69.704197
2.9386,-0.024812,0.012334,0.013018,0.003215,-0.002708,-0.007469,-0.017732,-0.49788,0.014175,-1.151956,-263.028241,0.525709,69.704197
2.9586,-0.024639,0.012187,0.014193,0.003214,-0.002711,-0.007474,-0.018036,-0.497734,0.012707,-1.153081,-263.025066,0.522622,69.705683
2.9785,-0.024172,0.011901,0.013139,0.003209,-0.002717,-0.007464,-0.01776,-0.497758,0.01328,-1.153081,-263.025066,0.522622,69.705683
2.9979,-0.024146,0.01176,0.012949,0.003204,-0.002721,-0.007455,-0.017368,-0.49814,0.012902,-1.154847,-263.021884,0.523127,69.707167
3.0184,-0.023888,0.011849,0.011987,0.003204,-0.002716,-0.007441,-0.017522,-0.498196,0.012933,-1.154847,-263.021884,0.523127,69.707167
3.0385,-0.024164,0.011803,0.01276,0.003205,-0.002711,-0.007429,-0.017522,-0.498196,0.012933,-1.154847,-263.021884,0.523127,69.707167
3.0585,-0.024007,0.0118,0.012298,0.003206,-0.002707,-0.007419,-0.017521,-0.498268,0.012449,-1.155931,-263.018709,0.519478,69.708641
3.0785,-0.023947,0.011872,0.010597,0.003206,-0.0027,-0.007397,-0.017593,-0.498237,0.012351,-1.155931,-263.018709,0.519478,69.708641
3.0984,-0.023265,0.01115,0.010834,0.003206,-0.002695,-0.00738,-0.01844,-0.498185,0.010361,-1.153912,-263.015543,0.51738,69.710116
3.1184,-0.023486,0.011772,0.011366,0.003216,-0.002666,-0.007299,-0.017799,-0.498766,0.010778,-1.153912,-263.015543,0.51738,69.710116
3.1384,-0.023414,0.011299,0.011901,0.003224,-0.002643,-0.007236,-0.017799,-0.498766,0.010778,-1.153912,-263.015543,0.51738,69.710116
3.1582,-0.023137,0.011245,0.011889,0.003231,-0.002623,-0.007187,-0.017209,-0.498776,0.011593,-1.151915,-263.01239,0.514539,69.71159
3.1784,-0.023155,0.011767,0.011989,0.003231,-0.002622,-0.007191,-0.017138,-0.498765,0.011678,-1.151915,-263.01239,0.514539,69.71159
3.1984,-0.02249,0.011053,0.011885,0.003231,-0.002621,-0.007195,-0.016937,-0.498278,0.011762,-1.139089,-263.00932,0.500272,69.713054
3.2188,-0.022769,0.011441,0.011755,0.003224,-0.002633,-0.007203,-0.016469,-0.498858,0.011863,-1.139089,-263.00932,0.500272,69.713054
3.2389,-0.022934,0.011319,0.011412,0.003218,-0.002642,-0.00721,-0.016469,-0.498858,0.011863,-1.139089,-263.00932,0.500272,69.713054
3.2584,-0.022314,0.010738,0.010552,0.003212,-0.00265,-0.007216,-0.016977,-0.498756,0.011111,-1.13916,-263.006231,0.50188,69.714528
3.2785,-0.022096,0.011003,0.011276,0.003214,-0.002641,-0.007174,-0.016943,-0.498963,0.010848,-1.13916,-263.006231,0.50188,69.714528
3.2987,-0.022101,0.011173,0.008909,0.003216,-0.002634,-0.007142,-0.016242,-0.499047,0.011046,-1.143609,-263.003125,0.500523,69.715995
3.3187,-0.021866,0.011083,0.009054,0.003212,-0.00262,-0.006978,-0.017438,-0.498832,0.009082,-1.143609,-263.003125,0.500523,69.715995
3.3385,-0.021578,0.0109,0.008813,0.003209,-0.002609,-0.006854,-0.017438,-0.498832,0.009082,-1.143609,-263.003125,0.500523,69.715995
3.3588,-0.021697,0.010188,0.010304,0.003207,-0.0026,-0.00676,-0.016949,-0.499189,0.008515,-1.139903,-263.000049,0.493155,69.717453
3.3785,-0.021767,0.010824,0.009325,0.00321,-0.002586,-0.006702,-0.016724,-0.499448,0.009219,-1.139903,-263.000049,0.493155,69.717453
3.3984,-0.021657,0.010794,0.009587,0.003213,-0.002575,-0.006659,-0.016912,-0.499232,0.009119,-1.126016,-262.997185,0.444958,69.718818
3.4184,-0.021707,0.01057,0.009978,0.003213,-0.002573,-0.006653,-0.016775,-0.499191,0.009536,-1.126016,-262.997185,0.444958,69.718818
3.4384,-0.021537,0.010973,0.010279,0.003213,-0.002572,-0.006649,-0.016775,-0.499191,0.009536,-1.126016,-262.997185,0.444958,69.718818
3.4581,-0.020907,0.010603,0.010049,0.003214,-0.002571,-0.006646,-0.01616,-0.499106,0.010001,-1.120243,-262.994245,0.434843,69.72023
3.4781,-0.021081,0.011058,0.009293,0.003206,-0.002588,-0.006677,-0.015991,-0.499226,0.009989,-1.120243,-262.994245,0.434843,69.72023
3.4982,-0.020957,0.010513,0.007923,0.003199,-0.002602,-0.006701,-0.016239,-0.499001,0.009081,-1.11945,-262.991293,0.433619,69.721649
3.5183,-0.020745,0.010749,0.008859,0.003197,-0.002585,-0.006514,-0.016853,-0.499434,0.008012,-1.11945,-262.991293,0.433619,69.721649
3.5385,-0.020842,0.010493,0.009237,0.003196,-0.002571,-0.006374,-0.016853,-0.499434,0.008012,-1.11945,-262.991293,0.433619,69.721649
3.5584,-0.020307,0.01083,0.007965,0.003196,-0.002559,-0.00627,-0.015997,-0.499593,0.008957,-1.125036,-262.988332,0.436051,69.723057
3.5784,-0.020655,0.010189,0.007032,0.003189,-0.002568,-0.006255,-0.016082,-0.499428,0.008523,-1.125036,-262.988332,0.436051,69.723057
3.598,-0.020214,0.01027,0.006943,0.003183,-0.002576,-0.006244,-0.016973,-0.499874,0.006843,-1.107001,-262.985638,0.378245,69.724354
3.6191,-0.020137,0.010387,0.006773,0.003181,-0.002555,-0.005999,-0.016695,-0.499736,0.006925,-1.107001,-262.985638,0.378245,69.724354
3.6386,-0.020182,0.010411,0.008368,0.003181,-0.002538,-0.005821,-0.016695,-0.499736,0.006925,-1.107001,-262.985638,0.378245,69.724354
3.6585,-0.019696,0.010449,0.00761,0.003182,-0.002524,-0.005691,-0.01578,-0.499678,0.008107,-1.108594,-262.982785,0.370855,69.725719
3.6782,-0.019772,0.009816,0.007868,0.003177,-0.002539,-0.005738,-0.015779,-0.499633,0.007876,-1.108594,-262.982785,0.370855,69.725719
3.6986,-0.019306,0.009888,0.008723,0.003173,-0.002551,-0.005775,-0.015668,-0.500239,0.007706,-1.083163,-262.98036,0.295848,69.726905
3.7187,-0.019682,0.01029,0.008374,0.003172,-0.002564,-0.005886,-0.014922,-0.500108,0.008628,-1.083163,-262.98036,0.295848,69.726905
3.7384,-0.019598,0.010082,0.007176,0.00317,-0.002575,-0.00597,-0.014922,-0.500108,0.008628,-1.083163,-262.98036,0.295848,69.726905
3.7582,-0.019138,0.009914,0.006894,0.003168,-0.002584,-0.006034,-0.015805,-0.50001,0.006935,-1.089691,-262.97762,0.298594,69.728232
3.7783,-0.019345,0.010179,0.00716,0.003163,-0.002573,-0.005838,-0.015715,-0.500049,0.00689,-1.089691,-262.97762,0.298594,69.728232
3.7982,-0.018931,0.01004,0.00649,0.003161,-0.002565,-0.005694,-0.015595,-0.499887,0.006972,-1.102883,-262.974872,0.334444,69.729544
3.8181,-0.019108,0.009761,0.008855,0.003152,-0.002563,-0.005518,-0.015614,-0.499948,0.006523,-1.102883,-262.974872,0.334444,69.729544
3.8384,-0.018651,0.009543,0.005759,0.003146,-0.002563,-0.00539,-0.015614,-0.499948,0.006523,-1.102883,-262.974872,0.334444,69.729544
3.8582,-0.018995,0.010046,0.006876,0.003143,-0.002562,-0.005297,-0.015588,-0.50055,0.005532,-1.088842,-262.972273,0.281187,69.730798
3.8791,-0.018609,0.009761,0.006943,0.003142,-0.002549,-0.005133,-0.015532,-0.500312,0.006056,-1.088842,-262.972273,0.281187,69.730798
3.8979,-0.018547,0.009944,0.005611,0.003144,-0.002538,-0.005016,-0.014975,-0.500302,0.006787,-1.074073,-262.969848,0.210887,69.73198
3.9183,-0.018344,0.009403,0.008845,0.003138,-0.002535,-0.004853,-0.015617,-0.500075,0.005709,-1.074073,-262.969848,0.210887,69.73198
3.9383,-0.018472,0.009607,0.005774,0.003134,-0.002534,-0.004737,-0.015617,-0.500075,0.005709,-1.074073,-262.969848,0.210887,69.73198
3.9587,-0.018235,0.009833,0.006728,0.003132,-0.002533,-0.004655,-0.015399,-0.500486,0.00557,-1.059378,-262.967365,0.165758,69.733212
3.9788,-0.018465,0.009384,0.006801,0.003134,-0.002534,-0.00466,-0.015144,-0.500364,0.006016,-1.059378,-262.967365,0.165758,69.733212
3.9989,-0.017848,0.009558,0.005257,0.003136,-0.002534,-0.004664,-0.014904,-0.500678,0.006663,-1.043248,-262.965058,0.098776,69.734379
4.0187,-0.017714,0.009172,0.006681,0.003133,-0.002529,-0.004521,-0.01514,-0.500459,0.005371,-1.043248,-262.965058,0.098776,69.734379
4.0387,-0.017551,0.009386,0.006005,0.003131,-0.002525,-0.004419,-0.01514,-0.500459,0.005371,-1.043248,-262.965058,0.098776,69.734379
4.0585,-0.017544,0.009364,0.006703,0.003131,-0.002522,-0.004346,-0.014357,-0.500709,0.00581,-1.043203,-262.962566,0.09981,69.735639
4.0788,-0.017893,0.009174,0.005039,0.003131,-0.002536,-0.004456,-0.014247,-0.500687,0.006153,-1.043203,-262.962566,0.09981,69.735639
4.0982,-0.016976,0.009044,0.005143,0.00313,-0.002547,-0.004537,-0.015229,-0.500895,0.004908,-1.02681,-262.960286,0.04235,69.736821
4.1187,-0.017292,0.009374,0.006436,0.003126,-0.002537,-0.004364,-0.014427,-0.500948,0.005115,-1.02681,-262.960286,0.04235,69.736821
4.1388,-0.017591,0.009334,0.005568,0.003124,-0.002528,-0.004239,-0.014427,-0.500948,0.005115,-1.02681,-262.960286,0.04235,69.736821
4.1586,-0.017134,0.009161,0.004915,0.003124,-0.002522,-0.00415,-0.014621,-0.500762,0.00538,-1.038867,-262.957856,0.071428,69.738056
4.1785,-0.017192,0.008994,0.005827,0.003125,-0.002519,-0.004099,-0.014609,-0.500803,0.005172,-1.038867,-262.957856,0.071428,69.738056
4.198,-0.016581,0.00868,0.005297,0.003126,-0.002516,-0.004063,-0.014127,-0.501071,0.005705,-1.017438,-262.955658,0.004073,69.739211
4.2184,-0.016873,0.008858,0.004806,0.00313,-0.002513,-0.004072,-0.013896,-0.501296,0.005326,-1.017438,-262.955658,0.004073,69.739211
4.238,-0.016334,0.008911,0.00677,0.003134,-0.00251,-0.004079,-0.013896,-0.501296,0.005326,-1.017438,-262.955658,0.004073,69.739211
4.2585,-0.016745,0.008831,0.004947,0.003137,-0.002508,-0.004085,-0.01275,-0.501181,0.006601,-1.011848,-262.953313,-0.011165,69.740455
4.2783,-0.016264,0.009041,0.005119,0.003133,-0.002528,-0.004208,-0.013336,-0.501185,0.005906,-1.011848,-262.953313,-0.011165,69.740455
4.2982,-0.016071,0.008425,0.004109,0.003128,-0.002545,-0.004299,-0.013553,-0.501032,0.004989,-1.010731,-262.950953,-0.004079,69.741709
4.3182,-0.016207,0.008815,0.004596,0.003121,-0.002519,-0.003915,-0.013933,-0.501526,0.004181,-1.010731,-262.950953,-0.004079,69.741709
4.3384,-0.016342,0.008734,0.004497,0.003118,-0.002498,-0.003647,-0.013933,-0.501526,0.004181,-1.010731,-262.950953,-0.004079,69.741709
4.3581,-0.015438,0.008254,0.004666,0.003117,-0.002482,-0.00346,-0.01392,-0.501365,0.00432,-1.026682,-262.948579,0.025634,69.742938
4.3786,-0.016254,0.008463,0.006195,0.003116,-0.00248,-0.003405,-0.013555,-0.501529,0.00444,-1.026682,-262.948579,0.025634,69.742938
4.398,-0.016089,0.008496,0.005712,0.003116,-0.002479,-0.003368,-0.013026,-0.501579,0.006115,-0.974699,-262.94705,-0.049364,69.743803
4.4181,-0.015759,0.008451,0.004417,0.003124,-0.002496,-0.00364,-0.013159,-0.501506,0.005744,-0.974699,-262.94705,-0.049364,69.743803
4.4381,-0.016064,0.008405,0.004489,0.003129,-0.002509,-0.00384,-0.013159,-0.501506,0.005744,-0.974699,-262.94705,-0.049364,69.743803
4.4584,-0.015606,0.00849,0.003986,0.003133,-0.00252,-0.003988,-0.013659,-0.501681,0.004362,-0.968937,-262.945092,-0.124371,69.744921
4.4784,-0.015998,0.008312,0.003859,0.003125,-0.002504,-0.0037,-0.01361,-0.50162,0.004194,-0.968937,-262.945092,-0.124371,69.744921
4.4982,-0.015405,0.008164,0.00469,0.003121,-0.002491,-0.003497,-0.013946,-0.501752,0.003754,-1.007066,-262.943124,-0.049374,69.745973
4.5183,-0.015588,0.007906,0.004643,0.003122,-0.002488,-0.003469,-0.013093,-0.501827,0.0046,-1.007066,-262.943124,-0.049374,69.745973
4.5382,-0.015172,0.007952,0.004658,0.003123,-0.002486,-0.00345,-0.013093,-0.501827,0.0046,-1.007066,-262.943124,-0.049374,69.745973
4.5581,-0.015155,0.008466,0.003871,0.003124,-0.002484,-0.003436,-0.012675,-0.502138,0.004523,-0.977328,-262.941062,-0.113148,69.747134
4.5781,-0.015166,0.008256,0.003853,0.003117,-0.002484,-0.003325,-0.012867,-0.501902,0.004242,-0.977328,-262.941062,-0.113148,69.747134
4.5981,-0.014618,0.007807,0.005442,0.003113,-0.002484,-0.003247,-0.013101,-0.501819,0.003744,-0.972498,-262.938848,-0.122821,69.74839
4.6184,-0.014764,0.007948,0.003784,0.003113,-0.002506,-0.00345,-0.01195,-0.502156,0.005284,-0.972498,-262.938848,-0.122821,69.74839
4.6385,-0.014822,0.008168,0.004371,0.003112,-0.002524,-0.003599,-0.01195,-0.502156,0.005284,-0.972498,-262.938848,-0.122821,69.74839
4.6586,-0.014735,0.007969,0.004089,0.00311,-0.002539,-0.003707,-0.012466,-0.501928,0.004238,-0.962124,-262.93672,-0.159591,69.749623
4.6786,-0.014571,0.007855,0.00302,0.003098,-0.002535,-0.003489,-0.012526,-0.50198,0.004162,-0.962124,-262.93672,-0.159591,69.749623
4.6988,-0.014422,0.00787,0.004936,0.00309,-0.002532,-0.003334,-0.012941,-0.502215,0.002913,-0.996171,-262.934651,-0.088013,69.750752
4.7185,-0.014395,0.007451,0.002938,0.003087,-0.002543,-0.003386,-0.011993,-0.502136,0.004749,-0.996171,-262.934651,-0.088013,69.750752
4.7385,-0.014396,0.007441,0.005213,0.003084,-0.002552,-0.003423,-0.011993,-0.502136,0.004749,-0.996171,-262.934651,-0.088013,69.750752
4.7581,-0.014484,0.007344,0.002395,0.003081,-0.00256,-0.00345,-0.011618,-0.502649,0.005086,-0.976082,-262.932625,-0.159067,69.751901
4.7782,-0.014404,0.007569,0.0028,0.003089,-0.002524,-0.003242,-0.012282,-0.502662,0.003963,-0.976082,-262.932625,-0.159067,69.751901
4.798,-0.013827,0.007357,0.003809,0.003096,-0.002495,-0.003096,-0.012878,-0.502509,0.002691,-0.987227,-262.9304,-0.14591,69.75314
4.8181,-0.013921,0.007336,0.001926,0.003094,-0.002482,-0.002911,-0.011965,-0.502632,0.003707,-0.987227,-262.9304,-0.14591,69.75314
4.8381,-0.014092,0.00726,0.003579,0.003093,-0.002472,-0.002782,-0.011965,-0.502632,0.003707,-0.987227,-262.9304,-0.14591,69.75314
4.8584,-0.014114,0.007361,0.002301,0.003094,-0.002464,-0.002693,-0.012143,-0.502835,0.003456,-0.956053,-262.928361,-0.192673,69.754338
4.8782,-0.013311,0.007207,0.002441,0.003099,-0.002431,-0.002365,-0.012455,-0.502766,0.00297,-0.956053,-262.928361,-0.192673,69.754338
4.8979,-0.013726,0.00717,0.002728,0.003105,-0.002404,-0.002139,-0.011976,-0.502863,0.002362,-0.925286,-262.926471,-0.258684,69.755514
4.9183,-0.013364,0.007576,0.001258,0.003108,-0.002383,-0.001874,-0.012298,-0.502835,0.002691,-0.925286,-262.926471,-0.258684,69.755514
4.9381,-0.013681,0.007372,0.004015,0.003113,-0.002365,-0.001694,-0.012298,-0.502835,0.002691,-0.925286,-262.926471,-0.258684,69.755514
4.9583,-0.013749,0.007178,0.002536,0.003118,-0.002351,-0.001572,-0.011521,-0.50271,0.003937,-0.873915,-262.924802,-0.333698,69.756651
4.9785,-0.013323,0.00734,0.00172,0.003124,-0.00236,-0.001733,-0.01189,-0.502765,0.003356,-0.873915,-262.924802,-0.333698,69.756651
4.9983,-0.013243,0.00686,0.003456,0.003128,-0.002367,-0.00185,-0.012362,-0.502722,0.001677,-0.815394,-262.923268,-0.408729,69.757802
5.0184,-0.013152,0.007377,0.003812,0.003133,-0.002364,-0.001917,-0.01155,-0.503106,0.003306,-0.815394,-262.923268,-0.408729,69.757802
5.0383,-0.013119,0.006929,0.002759,0.003137,-0.002361,-0.001965,-0.01155,-0.503106,0.003306,-0.815394,-262.923268,-0.408729,69.757802
5.0586,-0.013272,0.006711,0.002714,0.003141,-0.002359,-0.002,-0.011585,-0.503165,0.002684,-0.84105,-262.921442,-0.376545,69.759112
5.0786,-0.013167,0.007006,0.001627,0.003141,-0.002343,-0.001793,-0.011695,-0.503226,0.002688,-0.84105,-262.921442,-0.376545,69.759112
5.0986,-0.012953,0.006919,0.001289,0.003143,-0.002329,-0.001649,-0.012239,-0.503067,0.001564,-0.850742,-262.919565,-0.347528,69.760428
5.1185,-0.012857,0.006645,0.002607,0.003139,-0.002302,-0.000908,-0.012287,-0.503083,0.001309,-0.850742,-262.919565,-0.347528,69.760428
5.1384,-0.013043,0.006765,0.002796,0.003139,-0.002281,-0.000399,-0.012287,-0.503083,0.001309,-0.850742,-262.919565,-0.347528,69.760428
5.1582,-0.012618,0.006648,0.001725,0.003142,-0.002264,-5e-05,-0.011494,-0.503324,0.002731,-0.815197,-262.917841,-0.398138,69.76171
5.1782,-0.012679,0.006794,0.002235,0.003153,-0.002263,-0.000272,-0.01158,-0.503346,0.002307,-0.815197,-262.917841,-0.398138,69.76171
5.1981,-0.012747,0.006455,0.001885,0.003162,-0.002261,-0.000434,-0.011513,-0.503223,0.002229,-0.740247,-262.917428,-0.473088,69.762119
5.2182,-0.012519,0.006732,0.003024,0.003172,-0.002241,-0.000383,-0.011762,-0.503518,0.001914,-0.740247,-262.917428,-0.473088,69.762119
5.2386,-0.01265,0.00672,0.002384,0.003182,-0.002225,-0.000349,-0.011762,-0.503518,0.001914,-0.740247,-262.917428,-0.473088,69.762119
5.2582,-0.01255,0.006364,0.001844,0.00319,-0.002211,-0.000327,-0.011325,-0.503355,0.002368,-0.673983,-262.916106,-0.548136,69.763342
5.2785,-0.012403,0.006696,0.002731,0.003193,-0.002215,-0.000417,-0.011428,-0.503478,0.002154,-0.673983,-262.916106,-0.548136,69.763342
5.2981,-0.012122,0.006519,0.002911,0.003195,-0.002218,-0.000481,-0.01091,-0.503371,0.00272,-0.647217,-262.914529,-0.562635,69.764828
5.318,-0.012346,0.00632,0.00353,0.003191,-0.002254,-0.000808,-0.010657,-0.503473,0.002893,-0.647217,-262.914529,-0.562635,69.764828
5.3382,-0.01243,0.006674,0.0031,0.003184,-0.002281,-0.00104,-0.010657,-0.503473,0.002893,-0.647217,-262.914529,-0.562635,69.764828
5.3582,-0.011793,0.006373,0.002211,0.003177,-0.002303,-0.001204,-0.010717,-0.503414,0.00308,-0.66638,-262.912925,-0.542142,69.766301
5.3782,-0.011964,0.006489,0.003828,0.003169,-0.002317,-0.001256,-0.010681,-0.503511,0.002725,-0.66638,-262.912925,-0.542142,69.766301
5.398,-0.011679,0.006438,0.003669,0.003162,-0.002327,-0.001291,-0.009933,-0.503563,0.003801,-0.741358,-262.911572,-0.467163,69.767391
5.4183,-0.012087,0.006443,0.001697,0.00315,-0.002374,-0.00162,-0.009815,-0.503562,0.00368,-0.741358,-262.911572,-0.467163,69.767391
5.4382,-0.01188,0.006195,0.003565,0.003137,-0.002412,-0.001856,-0.009815,-0.503562,0.00368,-0.741358,-262.911572,-0.467163,69.767391
5.458,-0.011899,0.006476,0.002368,0.003124,-0.002442,-0.002023,-0.009932,-0.503896,0.003513,-0.777987,-262.909839,-0.453013,69.768763
5.4782,-0.011681,0.005947,0.002133,0.003119,-0.002432,-0.001929,-0.010227,-0.503755,0.003039,-0.777987,-262.909839,-0.453013,69.768763
5.4983,-0.011457,0.005505,0.002276,0.003115,-0.002425,-0.00186,-0.010515,-0.504113,0.002084,-0.852985,-262.908321,-0.378015,69.769817
5.5185,-0.0117,0.006073,0.002234,0.003128,-0.002363,-0.0015,-0.010312,-0.504463,0.002257,-0.852985,-262.908321,-0.378015,69.769817
5.5381,-0.011629,0.006227,0.002107,0.003141,-0.002313,-0.00125,-0.010312,-0.504463,0.002257,-0.852985,-262.908321,-0.378015,69.769817
5.5581,-0.011435,0.005852,0.003073,0.003154,-0.002273,-0.001076,-0.010425,-0.503872,0.00203,-0.852082,-262.906435,-0.392188,69.771161
5.5781,-0.011287,0.00618,0.002339,0.003149,-0.002278,-0.001036,-0.010182,-0.503996,0.002448,-0.852082,-262.906435,-0.392188,69.771161
5.5983,-0.011115,0.005728,0.003043,0.003146,-0.002283,-0.001009,-0.010019,-0.503874,0.002311,-0.777104,-262.90513,-0.467166,69.772235
5.6185,-0.011263,0.006027,0.004995,0.003146,-0.002296,-0.001183,-0.009599,-0.504238,0.002977,-0.777104,-262.90513,-0.467166,69.772235
5.6383,-0.011438,0.005961,0.002003,0.003144,-0.002307,-0.001304,-0.009599,-0.504238,0.002977,-0.777104,-262.90513,-0.467166,69.772235
5.6585,-0.011188,0.005686,0.00151,0.003142,-0.002315,-0.001388,-0.010287,-0.504131,0.001962,-0.744591,-262.903459,-0.487181,69.773626
5.6783,-0.010913,0.005819,0.002357,0.003142,-0.002289,-0.000954,-0.010325,-0.504216,0.001774,-0.744591,-262.903459,-0.487181,69.773626
5.6981,-0.010594,0.005702,0.001206,0.003144,-0.002268,-0.000652,-0.009618,-0.504248,0.002315,-0.788731,-262.901797,-0.43685,69.774919
5.7183,-0.010805,0.00553,0.001634,0.003137,-0.002259,-0.000214,-0.009943,-0.504297,0.0013,-0.788731,-262.901797,-0.43685,69.774919
5.7386,-0.01119,0.005257,-0.000441,0.003133,-0.002252,9e-05,-0.009943,-0.504297,0.0013,-0.788731,-262.901797,-0.43685,69.774919
5.7582,-0.010313,0.005572,0.002637,0.003132,-0.002247,0.000298,-0.011314,-0.504815,-0.000465,-0.71364,-262.900547,-0.511941,69.776028
5.7785,-0.010852,0.005318,0.001816,0.003147,-0.002198,0.000725,-0.010365,-0.504667,0.000773,-0.71364,-262.900547,-0.511941,69.776028
5.7979,-0.010279,0.005691,0.001489,0.003162,-0.002158,0.001016,-0.009872,-0.504719,0.001815,-0.638735,-262.899744,-0.586845,69.776876
5.8185,-0.0108,0.005678,0.001345,0.003156,-0.002184,0.000828,-0.009549,-0.504348,0.001518,-0.638735,-262.899744,-0.586845,69.776876
5.8384,-0.010631,0.005429,0.001629,0.003151,-0.002206,0.000693,-0.009549,-0.504348,0.001518,-0.638735,-262.899744,-0.586845,69.776876
5.8585,-0.010537,0.005523,0.003055,0.003146,-0.002223,0.000596,-0.009744,-0.50461,0.001639,-0.563745,-262.899141,-0.661836,69.777598
5.8786,-0.010712,0.005345,0.001702,0.003155,-0.00223,0.00023,-0.009425,-0.50456,0.002218,-0.563745,-262.899141,-0.661836,69.777598
5.8979,-0.010118,0.005223,0.002695,0.003161,-0.002234,-3.2e-05,-0.009746,-0.504723,0.00172,-0.533611,-262.897716,-0.688164,69.779186
5.9185,-0.010754,0.005579,0.001195,0.003161,-0.00225,-0.000366,-0.00883,-0.504774,0.002607,-0.533611,-262.897716,-0.688164,69.779186
5.9383,-0.010776,0.005141,0.002764,0.003159,-0.002261,-0.000604,-0.00883,-0.504774,0.002607,-0.533611,-262.897716,-0.688164,69.779186
5.9584,-0.009991,0.005356,0.00215,0.003156,-0.00227,-0.000773,-0.009259,-0.504932,0.002764,-0.60862,-262.896461,-0.613155,69.780434
5.9783,-0.010049,0.005581,0.002584,0.00316,-0.00226,-0.000855,-0.009098,-0.504823,0.002514,-0.60862,-262.896461,-0.613155,69.780434
5.9982,-0.010351,0.005118,0.003747,0.003162,-0.002252,-0.000912,-0.008658,-0.504469,0.00257,-0.683666,-262.895257,-0.53811,69.78148
6.0182,-0.010037,0.005334,0.001811,0.003162,-0.002281,-0.001315,-0.008456,-0.504845,0.003641,-0.683666,-262.895257,-0.53811,69.78148
6.0383,-0.010184,0.005434,0.002458,0.003159,-0.002302,-0.001604,-0.008456,-0.504845,0.003641,-0.683666,-262.895257,-0.53811,69.78148
6.0582,-0.009907,0.00515,0.001714,0.003153,-0.002319,-0.00181,-0.008806,-0.504653,0.002422,-0.72634,-262.893669,-0.491917,69.782827
6.0784,-0.010056,0.004876,0.002221,0.003135,-0.002313,-0.001404,-0.008884,-0.504743,0.002131,-0.72634,-262.893669,-0.491917,69.782827
6.0981,-0.010154,0.004868,0.001527,0.003122,-0.002309,-0.001122,-0.008856,-0.505172,0.002187,-0.801332,-262.892433,-0.416926,69.783724
6.1182,-0.010168,0.004701,0.003469,0.003134,-0.002252,-0.000674,-0.009325,-0.505138,0.001584,-0.801332,-262.892433,-0.416926,69.783724
6.1383,-0.009509,0.004905,0.001177,0.003146,-0.002206,-0.000365,-0.009325,-0.505138,0.001584,-0.801332,-262.892433,-0.416926,69.783724
6.1583,-0.009774,0.004961,0.002105,0.003158,-0.00217,-0.000154,-0.008789,-0.505183,0.001134,-0.76446,-262.890843,-0.479502,69.785018
6.1782,-0.00991,0.00487,0.001057,0.003153,-0.002166,1.6e-05,-0.008739,-0.505134,0.001525,-0.76446,-262.890843,-0.479502,69.785018
6.1982,-0.009622,0.00452,0.002128,0.003151,-0.002163,0.000132,-0.009311,-0.505173,0.00105,-0.689461,-262.889892,-0.554502,69.785943
6.2181,-0.009743,0.004632,0.001154,0.003164,-0.00214,-1.8e-05,-0.0086,-0.505455,0.002036,-0.689461,-262.889892,-0.554502,69.785943
6.2382,-0.009299,0.004842,0.002429,0.003174,-0.002122,-0.000126,-0.0086,-0.505455,0.002036,-0.689461,-262.889892,-0.554502,69.785943
6.2581,-0.0095,0.005081,0.001661,0.003181,-0.002106,-0.000205,-0.007958,-0.505229,0.002431,-0.614328,-262.888711,-0.618713,69.787152
6.2783,-0.009723,0.004688,0.001275,0.003163,-0.002142,-0.000298,-0.008229,-0.505111,0.002119,-0.614328,-262.888711,-0.618713,69.787152
6.2979,-0.009638,0.004691,0.001249,0.003148,-0.002171,-0.000364,-0.008978,-0.505375,0.001268,-0.611627,-262.887247,-0.556946,69.788564
6.3185,-0.008954,0.004854,0.001617,0.003155,-0.002137,-5e-06,-0.008995,-0.505318,0.00125,-0.611627,-262.887247,-0.556946,69.788564
6.3385,-0.00889,0.004341,0.00013,0.003163,-0.002111,0.000245,-0.008995,-0.505318,0.00125,-0.611627,-262.887247,-0.556946,69.788564
6.3585,-0.009446,0.004534,0.003085,0.003171,-0.002089,0.000417,-0.008695,-0.505747,0.000115,-0.65011,-262.885701,-0.554284,69.790011
6.3788,-0.008927,0.004729,0.00028,0.003174,-0.002072,0.000494,-0.008344,-0.505641,0.001326,-0.65011,-262.885701,-0.554284,69.790011
6.3986,-0.009104,0.004656,0.002253,0.003177,-0.002058,0.000546,-0.008715,-0.505319,0.000286,-0.575048,-262.884681,-0.629346,69.79111
6.4182,-0.009071,0.004555,0.002882,0.003167,-0.002094,0.00024,-0.008016,-0.505343,0.002088,-0.575048,-262.884681,-0.629346,69.79111
6.4384,-0.008854,0.004037,0.001937,0.003157,-0.002122,2.2e-05,-0.008016,-0.505343,0.002088,-0.575048,-262.884681,-0.629346,69.79111
6.458,-0.009022,0.004026,0.002847,0.003148,-0.002144,-0.000133,-0.007746,-0.50604,0.001957,-0.500046,-262.883374,-0.645202,69.792547
6.4781,-0.009257,0.004466,0.001474,0.003158,-0.002114,-0.00034,-0.007659,-0.506021,0.002328,-0.500046,-262.883374,-0.645202,69.792547
6.4983,-0.00866,0.004257,0.003659,0.003166,-0.00209,-0.000487,-0.008428,-0.505583,0.001474,-0.575032,-262.88221,-0.580214,69.793683
6.5182,-0.008971,0.004409,0.001659,0.003144,-0.002148,-0.000968,-0.006939,-0.505728,0.00346,-0.575032,-262.88221,-0.580214,69.793683
6.5385,-0.008829,0.004208,0.001277,0.003123,-0.002193,-0.001315,-0.006939,-0.505728,0.00346,-0.575032,-262.88221,-0.580214,69.793683
6.558,-0.008528,0.004018,0.002227,0.003102,-0.002227,-0.001563,-0.008064,-0.505866,0.001259,-0.646131,-262.880844,-0.515134,69.794937
6.5783,-0.008732,0.004209,0.00242,0.003103,-0.00218,-0.001029,-0.007774,-0.505922,0.001656,-0.646131,-262.880844,-0.515134,69.794937
6.5979,-0.008497,0.003888,0.002206,0.003106,-0.002143,-0.000659,-0.007444,-0.505826,0.002399,-0.72113,-262.879892,-0.440135,69.795655
6.6184,-0.008139,0.003913,0.001111,0.003109,-0.002118,-0.000655,-0.007376,-0.506089,0.002221,-0.72113,-262.879892,-0.440135,69.795655
6.6383,-0.008664,0.004345,0.002388,0.003111,-0.002099,-0.000653,-0.007376,-0.506089,0.002221,-0.72113,-262.879892,-0.440135,69.795655
6.6582,-0.008651,0.00393,0.000821,0.003113,-0.002083,-0.000653,-0.007329,-0.505734,0.002364,-0.686524,-262.878438,-0.510647,69.796944
6.6783,-0.008703,0.003964,0.000492,0.003112,-0.002073,-0.000436,-0.007688,-0.505882,0.001724,-0.686524,-262.878438,-0.510647,69.796944
6.6984,-0.008467,0.003604,0.000928,0.003112,-0.002066,-0.000286,-0.008354,-0.506101,0.000471,-0.673094,-262.876854,-0.495817,69.798352
6.7184,-0.008394,0.003545,0.000289,0.003134,-0.001989,0.000243,-0.008019,-0.506374,0.000888,-0.673094,-262.876854,-0.495817,69.798352
6.7384,-0.00845,0.00394,0.001431,0.003154,-0.001928,0.000608,-0.008019,-0.506374,0.000888,-0.673094,-262.876854,-0.495817,69.798352
6.7583,-0.008163,0.004036,0.000851,0.003173,-0.001879,0.000859,-0.0076,-0.506139,0.00142,-0.624008,-262.87544,-0.546134,69.799695
6.7784,-0.008301,0.003772,0.001677,0.003169,-0.001891,0.000871,-0.007638,-0.506077,0.001187,-0.624008,-262.87544,-0.546134,69.799695
6.7981,-0.007931,0.003672,0.000809,0.003167,-0.0019,0.000876,-0.007407,-0.506252,0.001682,-0.549166,-262.874906,-0.620976,69.800312
6.818,-0.007953,0.004027,0.001821,0.003168,-0.001887,0.001037,-0.007508,-0.506323,0.000878,-0.549166,-262.874906,-0.620976,69.800312
6.8382,-0.007821,0.003843,0.00129,0.003169,-0.001876,0.001147,-0.007508,-0.506323,0.000878,-0.549166,-262.874906,-0.620976,69.800312
6.8581,-0.008331,0.003711,0.001396,0.003171,-0.001868,0.001222,-0.007071,-0.506216,0.001311,-0.473866,-262.873932,-0.655492,69.80144
6.8783,-0.008379,0.003767,0.002056,0.003168,-0.001883,0.001033,-0.007283,-0.506252,0.001348,-0.473866,-262.873932,-0.655492,69.80144
6.8983,-0.007882,0.003997,0.002927,0.003165,-0.001894,0.000897,-0.007257,-0.506278,0.002082,-0.399172,-262.872939,-0.689483,69.802652
6.9182,-0.008028,0.003705,0.001052,0.003132,-0.001985,0.000212,-0.00646,-0.506027,0.002855,-0.399172,-262.872939,-0.689483,69.802652
6.9383,-0.007706,0.003589,0.002071,0.003101,-0.002055,-0.000285,-0.00646,-0.506027,0.002855,-0.399172,-262.872939,-0.689483,69.802652
6.958,-0.007721,0.003995,0.003334,0.003072,-0.00211,-0.000644,-0.006519,-0.506488,0.002108,-0.402071,-262.87158,-0.657218,69.804232
6.9783,-0.007509,0.003437,0.002058,0.003046,-0.00213,-0.000825,-0.006293,-0.506291,0.002632,-0.402071,-262.87158,-0.657218,69.804232
6.998,-0.008009,0.003681,0.001339,0.003022,-0.002146,-0.000953,-0.006439,-0.506574,0.002059,-0.477418,-262.871273,-0.581871,69.804505
7.0182,-0.007533,0.003697,0.002665,0.003035,-0.002094,-0.000497,-0.007249,-0.506341,0.001401,-0.477418,-262.871273,-0.581871,69.804505
7.0381,-0.007895,0.003787,0.00133,0.003048,-0.002053,-0.00018,-0.007249,-0.506341,0.001401,-0.477418,-262.871273,-0.581871,69.804505
7.0582,-0.007561,0.003402,0.001919,0.00306,-0.002021,4.1e-05,-0.007178,-0.506236,0.001326,-0.552054,-262.870803,-0.507235,69.804898
7.0782,-0.00778,0.003599,0.001191,0.003062,-0.002008,0.000109,-0.006927,-0.506387,0.00157,-0.552054,-262.870803,-0.507235,69.804898
7.0982,-0.007809,0.003237,0.001488,0.003064,-0.001998,0.000155,-0.007085,-0.506457,0.001192,-0.577939,-262.869507,-0.582263,69.806203
7.1182,-0.007485,0.003216,0.001685,0.003084,-0.001941,0.000238,-0.007049,-0.506738,0.001462,-0.577939,-262.869507,-0.582263,69.806203
7.1384,-0.007475,0.003742,0.001896,0.003101,-0.001895,0.000295,-0.007049,-0.506738,0.001462,-0.577939,-262.869507,-0.582263,69.806203
7.1582,-0.007658,0.003518,0.000692,0.003116,-0.001858,0.000332,-0.006381,-0.50634,0.001902,-0.555873,-262.868081,-0.599289,69.807671
7.1783,-0.007548,0.002928,0.001574,0.003099,-0.001885,0.000379,-0.006743,-0.506407,0.001409,-0.555873,-262.868081,-0.599289,69.807671
7.1981,-0.0072,0.003332,0.002246,0.003085,-0.001906,0.000411,-0.006653,-0.507126,0.001584,-0.488296,-262.86677,-0.584377,69.809059
7.2181,-0.007322,0.002955,0.000581,0.003063,-0.001927,8.6e-05,-0.006098,-0.506706,0.002194,-0.488296,-262.86677,-0.584377,69.809059
7.2386,-0.007217,0.003474,0.002814,0.003042,-0.001942,-0.000146,-0.006098,-0.506706,0.002194,-0.488296,-262.86677,-0.584377,69.809059
7.2581,-0.007103,0.003037,0.003464,0.003024,-0.001953,-0.00031,-0.005654,-0.506602,0.002831,-0.49223,-262.86539,-0.610135,69.810542
7.2782,-0.006972,0.003005,0.002677,0.002983,-0.001997,-0.000745,-0.005511,-0.506756,0.003089,-0.49223,-262.86539,-0.610135,69.810542
7.298,-0.00688,0.003369,0.000453,0.002947,-0.00203,-0.001059,-0.005538,-0.507035,0.002673,-0.566924,-262.864351,-0.535441,69.811524
7.3182,-0.007314,0.003391,0.001102,0.002945,-0.001993,-0.000171,-0.006545,-0.506669,0.000653,-0.566924,-262.864351,-0.535441,69.811524
7.3382,-0.007095,0.003294,0.002273,0.002947,-0.001965,0.000446,-0.006545,-0.506669,0.000653,-0.566924,-262.864351,-0.535441,69.811524
7.358,-0.006969,0.00339,0.002723,0.002952,-0.001944,0.000873,-0.005867,-0.506748,0.002256,-0.641907,-262.863492,-0.460458,69.812227
7.3784,-0.007153,0.003489,0.000699,0.002934,-0.001981,0.000337,-0.005742,-0.506696,0.002445,-0.641907,-262.863492,-0.460458,69.812227
7.3982,-0.007022,0.003462,0.002084,0.002916,-0.002008,-5.1e-05,-0.006776,-0.506523,0.0007,-0.566892,-262.863208,-0.535473,69.81256
7.4186,-0.006936,0.002863,0.001363,0.002904,-0.002029,-0.000134,-0.00603,-0.506536,0.001963,-0.566892,-262.863208,-0.535473,69.81256
7.4382,-0.006782,0.00285,0.002029,0.002894,-0.002046,-0.000195,-0.00603,-0.506536,0.001963,-0.566892,-262.863208,-0.535473,69.81256
7.4585,-0.006867,0.00304,0.000303,0.002885,-0.002059,-0.000238,-0.005636,-0.507226,0.002027,-0.610205,-262.861905,-0.595748,69.813851
7.4785,-0.006947,0.002724,0.002496,0.0029,-0.001985,2.8e-05,-0.006062,-0.507126,0.001324,-0.610205,-262.861905,-0.595748,69.813851
7.4982,-0.006506,0.002899,0.002928,0.002912,-0.001926,0.000212,-0.005585,-0.507338,0.002489,-0.65253,-262.860497,-0.585648,69.815193
7.5184,-0.006841,0.002887,0.00158,0.002871,-0.001948,-0.000303,-0.005058,-0.507122,0.002889,-0.65253,-262.860497,-0.585648,69.815193
7.5384,-0.006456,0.002851,0.001594,0.002834,-0.001963,-0.000676,-0.005058,-0.507122,0.002889,-0.65253,-262.860497,-0.585648,69.815193
7.5584,-0.005988,0.002472,0.000853,0.0028,-0.001972,-0.000943,-0.005542,-0.507218,0.001599,-0.577561,-262.859345,-0.614466,69.816393
7.5781,-0.006446,0.002793,0.001907,0.0028,-0.001904,-0.000446,-0.005535,-0.507352,0.001294,-0.577561,-262.859345,-0.614466,69.816393
7.5984,-0.006433,0.002466,0.001764,0.002802,-0.001851,-0.000101,-0.005432,-0.507234,0.001899,-0.652561,-262.858655,-0.539466,69.816963
7.6182,-0.006552,0.002816,0.002892,0.002816,-0.001787,-9.1e-05,-0.005522,-0.507509,0.001775,-0.652561,-262.858655,-0.539466,69.816963
7.6385,-0.00666,0.002949,0.002201,0.002827,-0.001736,-8.7e-05,-0.005522,-0.507509,0.001775,-0.652561,-262.858655,-0.539466,69.816963
7.6591,-0.005776,0.002755,-0.000364,0.002836,-0.001695,-8.6e-05,-0.005427,-0.507123,0.002197,-0.599021,-262.857377,-0.568492,69.818216
7.6785,-0.006232,0.003101,0.00269,0.002829,-0.001706,0.000216,-0.005632,-0.507181,0.001154,-0.599021,-262.857377,-0.568492,69.818216
7.6982,-0.006029,0.002877,0.002285,0.002824,-0.001714,0.000426,-0.004775,-0.506947,0.002687,-0.552268,-262.85613,-0.525035,69.819443
7.7182,-0.006319,0.002543,0.000433,0.002768,-0.001788,4.5e-05,-0.004852,-0.507108,0.002321,-0.552268,-262.85613,-0.525035,69.819443
7.7384,-0.006076,0.002422,0.002811,0.002721,-0.001844,-0.000226,-0.004852,-0.507108,0.002321,-0.552268,-262.85613,-0.525035,69.819443
7.758,-0.00629,0.00261,0.001838,0.002682,-0.001887,-0.00042,-0.004547,-0.507633,0.002824,-0.477358,-262.855101,-0.599945,69.820559
7.779,-0.006021,0.002685,0.001765,0.002674,-0.001847,-0.000597,-0.004864,-0.50754,0.002424,-0.477358,-262.855101,-0.599945,69.820559
7.7984,-0.005872,0.002509,0.003171,0.002665,-0.001815,-0.000722,-0.005074,-0.507343,0.001763,-0.552353,-262.854398,-0.546308,69.821202
7.8185,-0.005979,0.002217,0.001906,0.002608,-0.001838,-0.001031,-0.004327,-0.507476,0.003042,-0.552353,-262.854398,-0.546308,69.821202
7.8383,-0.006184,0.002721,0.001604,0.002559,-0.001854,-0.00125,-0.004327,-0.507476,0.003042,-0.552353,-262.854398,-0.546308,69.821202
7.8586,-0.006202,0.002307,0.001467,0.002518,-0.001865,-0.001404,-0.005292,-0.507324,0.001589,-0.6274,-262.853499,-0.47593,69.821974
7.8784,-0.005747,0.002567,0.002997,0.002558,-0.001803,-0.000875,-0.005349,-0.507478,0.001537,-0.6274,-262.853499,-0.47593,69.821974
7.898,-0.006192,0.001912,0.001915,0.002593,-0.001756,-0.000509,-0.00418,-0.507456,0.002981,-0.702415,-262.852813,-0.400915,69.822476
7.9185,-0.005606,0.002492,0.002403,0.002633,-0.001636,-0.000475,-0.00512,-0.508032,0.00201,-0.702415,-262.852813,-0.400915,69.822476
7.9382,-0.005936,0.002647,0.002018,0.002666,-0.001542,-0.000454,-0.00512,-0.508032,0.00201,-0.702415,-262.852813,-0.400915,69.822476
7.9583,-0.005705,0.002276,0.003046,0.002693,-0.001468,-0.000441,-0.004817,-0.50741,0.001998,-0.672833,-262.851726,-0.475888,69.823449
7.9785,-0.005807,0.002025,0.00161,0.002644,-0.001535,-0.000604,-0.004538,-0.507543,0.002419,-0.672833,-262.851726,-0.475888,69.823449
7.9981,-0.005752,0.002199,0.000686,0.002605,-0.001586,-0.00072,-0.004916,-0.508013,0.001597,-0.597863,-262.85069,-0.418701,69.824402
8.0185,-0.0052,0.002466,0.000712,0.002637,-0.001522,-4e-06,-0.005354,-0.507823,0.000769,-0.597863,-262.85069,-0.418701,69.824402
8.0387,-0.005669,0.002582,0.000523,0.002667,-0.001473,0.000493,-0.005354,-0.507823,0.000769,-0.597863,-262.85069,-0.418701,69.824402
8.0581,-0.005521,0.002306,0.001773,0.002693,-0.001435,0.000835,-0.0053,-0.50748,0.000494,-0.660903,-262.849452,-0.414498,69.825469
8.0783,-0.005314,0.002184,0.001809,0.002681,-0.00147,0.000935,-0.005011,-0.507574,0.00101,-0.660903,-262.849452,-0.414498,69.825469
8.098,-0.005722,0.002032,0.002802,0.002673,-0.001497,0.001001,-0.004384,-0.507819,0.001809,-0.585917,-262.849358,-0.489484,69.825579
8.1184,-0.00532,0.002175,0.003323,0.002639,-0.001501,0.000327,-0.004301,-0.507953,0.002713,-0.585917,-262.849358,-0.489484,69.825579
8.1386,-0.005029,0.00199,0.001504,0.002608,-0.0015,-0.000161,-0.004301,-0.507953,0.002713,-0.585917,-262.849358,-0.489484,69.825579
8.1585,-0.005309,0.001938,0.00268,0.002579,-0.001497,-0.000514,-0.004241,-0.508022,0.001506,-0.510917,-262.849143,-0.564485,69.825839
8.1786,-0.005238,0.002276,0.001226,0.002527,-0.001482,-0.000485,-0.004117,-0.508039,0.001984,-0.510917,-262.849143,-0.564485,69.825839
8.1981,-0.005226,0.002147,0.001348,0.002485,-0.00147,-0.000463,-0.004561,-0.507755,0.001219,-0.585922,-262.848343,-0.48948,69.826559
8.2186,-0.005521,0.002163,0.001133,0.002478,-0.001481,-0.00014,-0.004537,-0.507845,0.001336,-0.585922,-262.848343,-0.48948,69.826559
8.2387,-0.005572,0.001844,0.00075,0.002474,-0.00149,8.6e-05,-0.004537,-0.507845,0.001336,-0.585922,-262.848343,-0.48948,69.826559
8.2582,-0.005252,0.002155,0.000847,0.002471,-0.001498,0.000242,-0.00509,-0.508214,0.000731,-0.61449,-262.847179,-0.445765,69.827613
8.2782,-0.005701,0.002327,0.001592,0.002512,-0.001436,0.000648,-0.004969,-0.508071,0.000776,-0.61449,-262.847179,-0.445765,69.827613
8.2982,-0.00432,0.002324,0.00118,0.002547,-0.001388,0.000928,-0.004843,-0.5077,0.001592,-0.539548,-262.846518,-0.520707,69.82831
8.3188,-0.005097,0.00208,0.001161,0.002439,-0.001498,0.000881,-0.00382,-0.50768,0.001218,-0.539548,-262.846518,-0.520707,69.82831
8.3386,-0.004857,0.001951,0.002378,0.002353,-0.001582,0.000846,-0.00382,-0.50768,0.001218,-0.539548,-262.846518,-0.520707,69.82831
8.3583,-0.005193,0.00209,0.00086,0.002286,-0.001646,0.00082,-0.00361,-0.508068,0.002385,-0.464544,-262.84617,-0.595711,69.828728
8.3783,-0.00529,0.00179,0.002373,0.002288,-0.001616,0.000549,-0.004075,-0.508005,0.001761,-0.464544,-262.84617,-0.595711,69.828728
8.3979,-0.004968,0.00188,0.000448,0.002288,-0.001592,0.000356,-0.004029,-0.508241,0.002387,-0.46435,-262.845487,-0.6708,69.829566
8.4181,-0.004951,0.002155,0.002113,0.002339,-0.001511,0.000804,-0.004674,-0.508132,0.00062,-0.46435,-262.845487,-0.6708,69.829566
8.4381,-0.00486,0.00182,0.000928,0.002382,-0.001449,0.001116,-0.004674,-0.508132,0.00062,-0.46435,-262.845487,-0.6708,69.829566
8.4585,-0.004694,0.001489,-0.00014,0.002419,-0.001401,0.001331,-0.0043,-0.50824,0.000941,-0.53936,-262.844516,-0.669142,69.830627
8.478,-0.00475,0.002255,0.000751,0.002438,-0.001328,0.001542,-0.004479,-0.508357,0.000502,-0.53936,-262.844516,-0.669142,69.830627
8.4984,-0.004963,0.001664,0.003299,0.002455,-0.001272,0.001688,-0.004352,-0.507756,0.000757,-0.46446,-262.844305,-0.741228,69.830905
8.5185,-0.005179,0.001974,0.001119,0.002367,-0.001322,0.000725,-0.003374,-0.508283,0.003075,-0.46446,-262.844305,-0.741228,69.830905
8.5386,-0.004702,0.001769,0.001616,0.002292,-0.001356,1.7e-05,-0.003374,-0.508283,0.003075,-0.46446,-262.844305,-0.741228,69.830905
8.5586,-0.004624,0.001654,-0.000146,0.002229,-0.001377,-0.000499,-0.003868,-0.508238,0.001621,-0.389375,-262.844196,-0.753621,69.831053
8.5787,-0.005074,0.001957,0.001538,0.002253,-0.001332,7.1e-05,-0.004207,-0.508283,0.000898,-0.389375,-262.844196,-0.753621,69.831053
8.5982,-0.004436,0.001748,0.002366,0.002274,-0.001297,0.000467,-0.004285,-0.508045,0.001538,-0.464383,-262.844112,-0.678613,69.831128
8.6185,-0.004753,0.0017,0.001805,0.002193,-0.001341,9.1e-05,-0.003319,-0.508233,0.002296,-0.464383,-262.844112,-0.678613,69.831128
8.6387,-0.004812,0.002102,-0.001476,0.002127,-0.001373,-0.000178,-0.003319,-0.508233,0.002296,-0.464383,-262.844112,-0.678613,69.831128
8.6586,-0.00464,0.00162,0.001564,0.002073,-0.001395,-0.000369,-0.00548,-0.507946,-0.001459,-0.418762,-262.843224,-0.607915,69.832116
8.6787,-0.004758,0.001698,0.00133,0.002162,-0.001337,0.000822,-0.004808,-0.508127,-0.000235,-0.418762,-262.843224,-0.607915,69.832116
8.6984,-0.004657,0.001812,0.000699,0.002238,-0.001297,0.001653,-0.004056,-0.508314,0.001329,-0.493631,-262.842878,-0.533045,69.832429
8.7187,-0.004799,0.001718,0.001232,0.00227,-0.001287,0.001655,-0.004278,-0.5082,0.000756,-0.493631,-262.842878,-0.533045,69.832429
8.7386,-0.004566,0.001511,0.001605,0.002295,-0.001279,0.001649,-0.004278,-0.5082,0.000756,-0.493631,-262.842878,-0.533045,69.832429
8.7586,-0.00455,0.001419,0.001145,0.002317,-0.001273,0.001639,-0.003745,-0.50849,0.001606,-0.418632,-262.842846,-0.608044,69.832474
8.7786,-0.004541,0.001486,0.002141,0.002314,-0.00122,0.001287,-0.003834,-0.508527,0.00142,-0.418632,-262.842846,-0.608044,69.832474
8.7984,-0.004913,0.001394,0.001538,0.00231,-0.001178,0.001035,-0.003438,-0.50852,0.002146,-0.343633,-262.842711,-0.683043,69.832663
8.8185,-0.004484,0.001598,0.001494,0.002338,-0.001117,0.000778,-0.004069,-0.508598,0.001591,-0.343633,-262.842711,-0.683043,69.832663
8.8385,-0.004688,0.001881,0.002017,0.002358,-0.001069,0.000595,-0.004069,-0.508598,0.001591,-0.343633,-262.842711,-0.683043,69.832663
8.8584,-0.004565,0.001364,0.001276,0.002373,-0.001031,0.000465,-0.003581,-0.508159,0.00205,-0.268496,-262.841939,-0.664593,69.833617
8.8784,-0.004796,0.001386,0.002103,0.002334,-0.001075,0.000304,-0.003707,-0.508357,0.001739,-0.268496,-262.841939,-0.664593,69.833617
8.8986,-0.004588,0.001441,0.001607,0.002301,-0.001108,0.000191,-0.003675,-0.508636,0.002116,-0.30512,-262.841287,-0.589685,69.834328
8.9189,-0.004811,0.001467,0.001895,0.002289,-0.001082,0.000151,-0.003759,-0.508566,0.001651,-0.30512,-262.841287,-0.589685,69.834328
8.9386,-0.004928,0.001527,0.002176,0.002279,-0.001062,0.000124,-0.003759,-0.508566,0.001651,-0.30512,-262.841287,-0.589685,69.834328
8.9584,-0.004413,0.001611,0.002816,0.00227,-0.001046,0.000106,-0.003749,-0.508505,0.002185,-0.380212,-262.840566,-0.514593,69.835078
8.9781,-0.004378,0.00172,0.001596,0.002225,-0.00108,-0.000234,-0.003424,-0.508461,0.002444,-0.380212,-262.840566,-0.514593,69.835078
8.9982,-0.00464,0.001418,0.003283,0.002187,-0.001105,-0.000475,-0.003497,-0.50831,0.001599,-0.407923,-262.839643,-0.454875,69.836021
9.0182,-0.00443,0.001538,0.002247,0.002098,-0.001133,-0.000881,-0.00301,-0.508556,0.00313,-0.407923,-262.839643,-0.454875,69.836021
9.0381,-0.00436,0.001531,0.001193,0.002025,-0.001152,-0.001171,-0.00301,-0.508556,0.00313,-0.407923,-262.839643,-0.454875,69.836021
9.0581,-0.004605,0.00155,0.001162,0.001965,-0.001164,-0.001374,-0.003699,-0.508493,0.001186,-0.482884,-262.839054,-0.379914,69.836551
9.0785,-0.004052,0.001825,4.7e-05,0.002001,-0.001135,-0.00067,-0.00382,-0.508478,0.001175,-0.482884,-262.839054,-0.379914,69.836551
9.098,-0.004371,0.001596,0.00171,0.002032,-0.001115,-0.000182,-0.004022,-0.508179,4.4e-05,-0.55788,-262.838946,-0.304918,69.836628
9.1181,-0.004692,0.001759,0.002939,0.002023,-0.001139,-4.2e-05,-0.003543,-0.508384,0.001567,-0.55788,-262.838946,-0.304918,69.836628
9.1381,-0.004466,0.001427,0.001314,0.002018,-0.001158,5.4e-05,-0.003543,-0.508384,0.001567,-0.55788,-262.838946,-0.304918,69.836628
9.1584,-0.004278,0.001117,0.001728,0.002013,-0.001174,0.000119,-0.003737,-0.508602,0.001305,-0.542959,-262.8383,-0.380067,69.837244
9.1787,-0.004138,0.001338,0.002003,0.00203,-0.001103,0.000201,-0.00359,-0.508721,0.001478,-0.542959,-262.8383,-0.380067,69.837244
9.1983,-0.004247,0.001664,0.000884,0.002043,-0.001049,0.000256,-0.003077,-0.508681,0.002002,-0.500425,-262.837753,-0.455059,69.837809
9.2184,-0.004314,0.001351,0.001309,0.002051,-0.00108,0.000548,-0.00373,-0.508368,0.000984,-0.500425,-262.837753,-0.455059,69.837809
9.238,-0.003833,0.001538,0.00086,0.002059,-0.001104,0.000749,-0.00373,-0.508368,0.000984,-0.500425,-262.837753,-0.455059,69.837809
9.2587,-0.004363,0.001592,0.001082,0.002066,-0.001124,0.000887,-0.003326,-0.508497,0.000868,-0.425556,-262.837038,-0.529929,69.83857
9.2782,-0.003835,0.00124,0.001329,0.002047,-0.00113,0.000992,-0.003518,-0.508465,0.000957,-0.425556,-262.837038,-0.529929,69.83857
9.2984,-0.00406,0.001451,0.002664,0.002034,-0.001135,0.001063,-0.003125,-0.508777,0.001339,-0.350385,-262.836621,-0.605099,69.839085
9.3183,-0.004131,0.001295,0.002811,0.001924,-0.00117,0.000425,-0.00274,-0.50857,0.002538,-0.350385,-262.836621,-0.605099,69.839085
9.3383,-0.004153,0.001151,0.00257,0.001835,-0.001193,-3.5e-05,-0.00274,-0.50857,0.002538,-0.350385,-262.836621,-0.605099,69.839085
9.3583,-0.003947,0.001358,0.002639,0.001762,-0.001207,-0.000363,-0.002786,-0.508878,0.002595,-0.275562,-262.836074,-0.679922,69.839792
9.3782,-0.003937,0.00125,0.000993,0.001707,-0.001162,-0.000628,-0.002703,-0.508783,0.002616,-0.275562,-262.836074,-0.679922,69.839792
9.3981,-0.003967,0.001692,0.002222,0.001662,-0.001126,-0.000814,-0.003428,-0.508751,0.000994,-0.350811,-262.836037,-0.604673,69.839826
9.4184,-0.003961,0.001289,0.001731,0.001629,-0.001194,-0.000737,-0.002885,-0.508344,0.002117,-0.350811,-262.836037,-0.604673,69.839826
9.4382,-0.003975,0.001592,0.00132,0.001604,-0.001247,-0.000681,-0.002885,-0.508344,0.002117,-0.350811,-262.836037,-0.604673,69.839826
9.4585,-0.004024,0.001324,0.0035,0.001583,-0.001288,-0.00064,-0.003301,-0.508409,0.00132,-0.42571,-262.836018,-0.529775,69.83984
9.4784,-0.003962,0.001355,0.001497,0.001574,-0.001279,-0.000656,-0.00286,-0.508518,0.002224,-0.42571,-262.836018,-0.529775,69.83984
9.4981,-0.003973,0.001348,0.002622,0.001566,-0.001272,-0.000666,-0.003194,-0.508647,0.001497,-0.500751,-262.835941,-0.515497,69.839901
9.5182,-0.004086,0.001091,0.001618,0.001548,-0.001242,-0.000795,-0.002684,-0.50865,0.002525,-0.500751,-262.835941,-0.515497,69.839901
9.5381,-0.00393,0.001532,0.002355,0.001532,-0.001218,-0.000885,-0.002684,-0.50865,0.002525,-0.500751,-262.835941,-0.515497,69.839901
9.5584,-0.003687,0.001017,0.00147,0.001519,-0.001199,-0.000947,-0.002716,-0.508475,0.002352,-0.57568,-262.835767,-0.504688,69.840036
9.5782,-0.004025,0.001053,0.001635,0.001523,-0.001166,-0.000767,-0.002805,-0.508686,0.001987,-0.57568,-262.835767,-0.504688,69.840036
9.598,-0.003645,0.001521,0.000734,0.001527,-0.00114,-0.000641,-0.00318,-0.508953,0.001631,-0.650693,-262.835571,-0.429676,69.840174
9.6184,-0.004243,0.00107,0.000975,0.001579,-0.00113,4.1e-05,-0.003263,-0.50852,0.00081,-0.650693,-262.835571,-0.429676,69.840174
9.6384,-0.004481,0.001245,0.00125,0.001623,-0.001125,0.000514,-0.003263,-0.50852,0.00081,-0.650693,-262.835571,-0.429676,69.840174
9.6584,-0.003838,0.000868,0.001983,0.001661,-0.001123,0.000839,-0.003795,-0.508788,0.001233,-0.725697,-262.834936,-0.455844,69.840673
9.6783,-0.003569,0.001349,0.001983,0.001735,-0.001016,0.000689,-0.003388,-0.508934,0.001541,-0.725697,-262.834936,-0.455844,69.840673
9.6985,-0.004144,0.001228,0.002421,0.001795,-0.000934,0.000578,-0.002557,-0.508651,0.001983,-0.65067,-262.834923,-0.530871,69.840691
9.7184,-0.004192,0.001668,0.001023,0.00177,-0.000947,0.000145,-0.002875,-0.508758,0.002378,-0.65067,-262.834923,-0.530871,69.840691
9.7384,-0.003944,0.001163,0.001716,0.001748,-0.000955,-0.000164,-0.002875,-0.508758,0.002378,-0.65067,-262.834923,-0.530871,69.840691
9.7585,-0.003842,0.001084,0.001669,0.00173,-0.000959,-0.000385,-0.003059,-0.508843,0.001717,-0.575693,-262.83482,-0.605848,69.840811
9.7787,-0.003774,0.00095,0.001988,0.001736,-0.00092,-0.000254,-0.00303,-0.508873,0.001698,-0.575693,-262.83482,-0.605848,69.840811
9.7985,-0.004149,0.000937,0.00281,0.00174,-0.00089,-0.000162,-0.002735,-0.509066,0.001985,-0.604259,-262.834412,-0.530881,69.841176
9.8186,-0.003944,0.001091,0.001943,0.001714,-0.000836,-0.000518,-0.002716,-0.509063,0.002735,-0.604259,-262.834412,-0.530881,69.841176
9.8383,-0.003852,0.001133,0.001445,0.001691,-0.000793,-0.000773,-0.002716,-0.509063,0.002735,-0.604259,-262.834412,-0.530881,69.841176
9.8585,-0.003812,0.000934,0.002231,0.001672,-0.000758,-0.000952,-0.003061,-0.508895,0.001441,-0.529375,-262.833816,-0.455997,69.841744
9.8784,-0.003976,0.001361,0.002353,0.00167,-0.000743,-0.000675,-0.002897,-0.508967,0.001763,-0.529375,-262.833816,-0.455997,69.841744
9.8985,-0.003775,0.001083,0.001417,0.001669,-0.000732,-0.000481,-0.002771,-0.50864,0.002351,-0.6045,-262.833734,-0.380873,69.841808
9.9187,-0.004067,0.0012,0.001723,0.001684,-0.000735,-0.000216,-0.003027,-0.508893,0.001497,-0.6045,-262.833734,-0.380873,69.841808
9.9386,-0.004161,0.001207,0.001286,0.001696,-0.000738,-3.3e-05,-0.003027,-0.508893,0.001497,-0.6045,-262.833734,-0.380873,69.841808
9.9586,-0.003762,0.001618,0.001622,0.001708,-0.000741,9.4e-05,-0.003454,-0.508817,0.001273,-0.550914,-262.83315,-0.305852,69.842323
9.9786,-0.003753,0.001333,0.003485,0.001737,-0.000795,0.000226,-0.003234,-0.508641,0.001415,-0.550914,-262.83315,-0.305852,69.842323
9.9986,-0.003688,0.00108,0.001879,0.001761,-0.000838,0.000316,-0.00195,-0.508675,0.003484,-0.475914,-262.8328,-0.380852,69.842682
10.0182,-0.003629,0.001053,0.002561,0.001705,-0.00084,9.5e-05,-0.00266,-0.508899,0.002019,-0.475914,-262.8328,-0.380852,69.842682
10.0385,-0.003759,0.000961,0.001865,0.0,0.0,0.0,-0.00266,-0.508899,0.002019,-0.475914,-262.8328,-0.380852,69.842682
10.058,-0.003116,0.001078,0.003092,0.0,0.0,0.0,-0.002767,-0.509057,0.001868,-0.400921,-262.832391,-0.455846,69.843127
10.0784,-0.003905,0.001236,0.001262,0.0,0.0,0.0,-0.002254,-0.509002,0.002375,-0.400921,-262.832391,-0.455846,69.843127
10.098,-0.003469,0.00105,0.002442,0.0,0.0,0.0,-0.003262,-0.508764,0.001262,-0.400921,-262.832391,-0.455846,69.843127
10.1182,-0.003675,0.001017,0.002993,0.0,0.0,0.0,-0.002316,-0.508932,0.002336,-0.400921,-262.832391,-0.455846,69.843127
10.1384,-0.003553,0.001291,0.001485,0.0,0.0,0.0,-0.002316,-0.508932,0.002336,-0.400921,-262.832391,-0.455846,69.843127
10.1584,-0.004033,0.001056,0.0019,0.0,0.0,0.0,-0.002795,-0.508709,0.001485,-0.400921,-262.832391,-0.455846,69.843127
10.1783,-0.003367,0.00099,0.001691,0.0,0.0,0.0,-0.002906,-0.508806,0.001657,-0.400921,-262.832391,-0.455846,69.843127
10.1984,-0.003655,0.001187,0.003045,0.0,0.0,0.0,-0.002504,-0.50901,0.001691,-0.400921,-262.832391,-0.455846,69.843127
10.218,-0.003642,0.001414,0.002509,0.0,0.0,0.0,-0.002136,-0.508827,0.002928,-0.400921,-262.832391,-0.455846,69.843127
10.2381,-0.00351,0.000955,0.001062,0.0,0.0,0.0,-0.002136,-0.508827,0.002928,-0.400921,-262.832391,-0.455846,69.843127
10.258,-0.003417,0.001134,0.002064,0.0,0.0,0.0,-0.002969,-0.509044,0.001062,-0.400921,-262.832391,-0.455846,69.843127
10.2781,-0.003736,0.000928,0.000685,0.0,0.0,0.0,-0.002719,-0.50897,0.001476,-0.400921,-262.832391,-0.455846,69.843127
10.2984,-0.003441,0.000949,0.000137,0.0,0.0,0.0,-0.003387,-0.509072,0.000685,-0.400921,-262.832391,-0.455846,69.843127
10.3182,-0.003606,0.000985,0.00186,0.0,0.0,0.0,-0.003372,-0.509053,0.000193,-0.400921,-262.832391,-0.455846,69.843127
10.3382,-0.00342,0.001259,0.002642,0.0,0.0,0.0,-0.003372,-0.509053,0.000193,-0.400921,-262.832391,-0.455846,69.843127
10.3582,-0.003915,0.000906,0.000429,0.0,0.0,0.0,-0.002073,-0.508739,0.002642,-0.400921,-262.832391,-0.455846,69.843127
10.3783,-0.003714,0.000929,0.001917,0.0,0.0,0.0,-0.002741,-0.508885,0.001731,-0.400921,-262.832391,-0.455846,69.843127
10.3981,-0.003583,0.001068,0.000993,0.0,0.0,0.0,-0.002736,-0.50907,0.001917,-0.400921,-262.832391,-0.455846,69.843127
10.4182,-0.003432,0.000964,0.00086,0.0,0.0,0.0,-0.003046,-0.508944,0.001075,-0.400921,-262.832391,-0.455846,69.843127
10.4382,-0.003197,0.001629,0.002163,0.0,0.0,0.0,-0.003046,-0.508944,0.001075,-0.400921,-262.832391,-0.455846,69.843127
10.4587,-0.003595,0.000844,0.002402,0.0,0.0,0.0,-0.002094,-0.50837,0.002163,-0.400921,-262.832391,-0.455846,69.843127
10.479,-0.003623,0.000867,0.000754,0.0,0.0,0.0,-0.002207,-0.50869,0.00226,-0.400921,-262.832391,-0.455846,69.843127
10.4986,-0.003742,0.001039,0.002804,0.0,0.0,0.0,-0.003238,-0.509133,0.000754,-0.400921,-262.832391,-0.455846,69.843127
10.5186,-0.003972,0.001217,0.001557,0.0,0.0,0.0,-0.002395,-0.508975,0.002621,-0.400921,-262.832391,-0.455846,69.843127
10.5385,-0.003406,0.001001,0.001114,0.0,0.0,0.0,-0.002395,-0.508975,0.002621,-0.400921,-262.832391,-0.455846,69.843127
10.5581,-0.003946,0.001292,0.003631,0.0,0.0,0.0,-0.002838,-0.508999,0.001114,-0.400921,-262.832391,-0.455846,69.843127
10.5785,-0.003563,0.001487,0.002096,0.0,0.0,0.0,-0.002533,-0.508878,0.002145,-0.400921,-262.832391,-0.455846,69.843127
10.5984,-0.003959,0.001464,0.00266,0.0,0.0,0.0,-0.002494,-0.508512,0.002096,-0.400921,-262.832391,-0.455846,69.843127
10.6184,-0.003452,0.00122,0.000693,0.0,0.0,0.0,-0.002594,-0.508532,0.002612,-0.400921,-262.832391,-0.455846,69.843127
10.6383,-0.003359,0.001053,0.000666,0.0,0.0,0.0,-0.002594,-0.508532,0.002612,-0.400921,-262.832391,-0.455846,69.843127
10.6582,-0.003464,0.000912,0.002573,0.0,0.0,0.0,-0.003019,-0.508947,0.000666,-0.400921,-262.832391,-0.455846,69.843127
10.6784,-0.003688,0.001316,0.002095,0.0,0.0,0.0,-0.002665,-0.509004,0.001446,-0.400921,-262.832391,-0.455846,69.843127
10.6984,-0.003917,0.001385,0.000467,0.0,0.0,0.0,-0.00262,-0.508683,0.002095,-0.400921,-262.832391,-0.455846,69.843127
10.7186,-0.003486,0.000897,0.001919,0.0,0.0,0.0,-0.003584,-0.508621,0.000612,-0.400921,-262.832391,-0.455846,69.843127
10.7381,-0.003584,0.000913,0.0016,0.0,0.0,0.0,-0.003584,-0.508621,0.000612,-0.400921,-262.832391,-0.455846,69.843127
10.7583,-0.003606,0.001401,0.002725,0.0,0.0,0.0,-0.002768,-0.509086,0.0016,-0.400921,-262.832391,-0.455846,69.843127
10.778,-0.0038,0.001268,0.002018,0.0,0.0,0.0,-0.00254,-0.508884,0.002065,-0.400921,-262.832391,-0.455846,69.843127
10.7979,-0.003627,0.001192,0.002563,0.0,0.0,0.0,-0.002771,-0.508731,0.002018,-0.400921,-262.832391,-0.455846,69.843127
10.8181,-0.003755,0.001418,0.000633,0.0,0.0,0.0,-0.00236,-0.5088,0.002514,-0.400921,-262.832391,-0.455846,69.843127
10.8381,-0.003754,0.001034,0.000494,0.0,0.0,0.0,-0.00236,-0.5088,0.002514,-0.400921,-262.832391,-0.455846,69.843127
10.8581,-0.003548,0.001262,0.000101,0.0,0.0,0.0,-0.003502,-0.508966,0.000494,-0.400921,-262.832391,-0.455846,69.843127
10.8782,-0.003478,0.000925,0.000139,0.0,0.0,0.0,-0.0035,-0.508872,0.000332,-0.400921,-262.832391,-0.455846,69.843127
10.8979,-0.003293,0.001045,0.002572,0.0,0.0,0.0,-0.003407,-0.509075,0.000139,-0.400921,-262.832391,-0.455846,69.843127
10.9181,-0.003332,0.00132,0.002343,0.0,0.0,0.0,-0.002107,-0.508964,0.002357,-0.400921,-262.832391,-0.455846,69.843127
10.9387,-0.003322,0.001309,0.001375,0.0,0.0,0.0,-0.002107,-0.508964,0.002357,-0.400921,-262.832391,-0.455846,69.843127
10.9585,-0.003377,0.001133,0.003588,0.0,0.0,0.0,-0.002621,-0.50869,0.001375,-0.400921,-262.832391,-0.455846,69.843127
10.9786,-0.003651,0.00085,0.002455,0.0,0.0,0.0,-0.0022,-0.508758,0.002243,-0.400921,-262.832391,-0.455846,69.843127
10.9987,-0.003736,0.001042,0.002143,0.0,0.0,0.0,-0.002399,-0.509148,0.002455,-0.400921,-262.832391,-0.455846,69.843127
11.0185,-0.003562,0.00076,0.002485,0.0,0.0,0.0,-0.002622,-0.508973,0.00217,-0.400921,-262.832391,-0.455846,69.843127
11.0386,-0.003555,0.001005,0.000428,0.0,0.0,0.0,-0.002622,-0.508973,0.00217,-0.400921,-262.832391,-0.455846,69.843127
11.0585,-0.003626,0.00093,0.002034,0.0,0.0,0.0,-0.003337,-0.508995,0.000428,-0.400921,-262.832391,-0.455846,69.843127
11.0783,-0.003725,0.00107,0.000934,0.0,0.0,0.0,-0.003032,-0.509025,0.001082,-0.400921,-262.832391,-0.455846,69.843127
11.0987,-0.003501,0.001027,0.001228,0.0,0.0,0.0,-0.003248,-0.50893,0.000934,-0.400921,-262.832391,-0.455846,69.843127
11.1187,-0.003893,0.001232,0.003566,0.0,0.0,0.0,-0.002906,-0.508969,0.001204,-0.400921,-262.832391,-0.455846,69.843127
11.1386,-0.003449,0.000841,0.001605,0.0,0.0,0.0,-0.002906,-0.508969,0.001204,-0.400921,-262.832391,-0.455846,69.843127
11.1583,-0.003612,0.000942,0.001983,0.0,0.0,0.0,-0.002631,-0.509158,0.001605,-0.400921,-262.832391,-0.455846,69.843127
11.1785,-0.003446,0.001035,0.00237,0.0,0.0,0.0,-0.002618,-0.509116,0.00176,-0.400921,-262.832391,-0.455846,69.843127
11.1982,-0.003267,0.001008,0.000847,0.0,0.0,0.0,-0.002238,-0.508964,0.00237,-0.400921,-262.832391,-0.455846,69.843127
11.2187,-0.003621,0.000808,0.001376,0.0,0.0,0.0,-0.002782,-0.50899,0.000983,-0.400921,-262.832391,-0.455846,69.843127
11.2388,-0.003633,0.000955,0.001851,0.0,0.0,0.0,-0.002782,-0.50899,0.000983,-0.400921,-262.832391,-0.455846,69.843127
11.2582,-0.004135,0.000986,0.000491,0.0,0.0,0.0,-0.002689,-0.509044,0.001851,-0.400921,-262.832391,-0.455846,69.843127
11.2788,-0.003613,0.000919,0.002841,0.0,0.0,0.0,-0.003179,-0.509031,0.001293,-0.400921,-262.832391,-0.455846,69.843127
11.2985,-0.003641,0.001327,0.002741,0.0,0.0,0.0,-0.002164,-0.509079,0.002841,-0.400921,-262.832391,-0.455846,69.843127
11.3183,-0.003476,0.000762,0.002377,0.0,0.0,0.0,-0.002236,-0.508707,0.00275,-0.400921,-262.832391,-0.455846,69.843127
11.3383,-0.003582,0.000939,0.002218,0.0,0.0,0.0,-0.002236,-0.508707,0.00275,-0.400921,-262.832391,-0.455846,69.843127
11.3583,-0.003438,0.000911,0.002773,0.0,0.0,0.0,-0.002451,-0.50906,0.002218,-0.400921,-262.832391,-0.455846,69.843127
11.3783,-0.003454,0.001216,0.00185,0.0,0.0,0.0,-0.002275,-0.509071,0.002447,-0.400921,-262.832391,-0.455846,69.843127
11.3981,-0.003377,0.000938,0.001758,0.0,0.0,0.0,-0.002511,-0.508783,0.00185,-0.400921,-262.832391,-0.455846,69.843127
11.4185,-0.003487,0.001078,0.003292,0.0,0.0,0.0,-0.002483,-0.509038,0.001766,-0.400921,-262.832391,-0.455846,69.843127
11.4382,-0.003547,0.001153,0.001852,0.0,0.0,0.0,-0.002483,-0.509038,0.001766,-0.400921,-262.832391,-0.455846,69.843127
11.4585,-0.003631,0.001603,0.002593,0.0,0.0,0.0,-0.002602,-0.508846,0.001852,-0.400921,-262.832391,-0.455846,69.843127
11.4784,-0.003585,0.00097,0.002829,0.0,0.0,0.0,-0.002483,-0.508662,0.002154,-0.400921,-262.832391,-0.455846,69.843127
11.4984,-0.003531,0.001416,0.001484,0.0,0.0,0.0,-0.002142,-0.509028,0.002829,-0.400921,-262.832391,-0.455846,69.843127
11.5181,-0.003352,0.001082,-0.00022,0.0,0.0,0.0,-0.00272,-0.508622,0.0016,-0.400921,-262.832391,-0.455846,69.843127
11.5382,-0.003604,0.00101,0.00074,0.0,0.0,0.0,-0.00272,-0.508622,0.0016,-0.400921,-262.832391,-0.455846,69.843127
11.5582,-0.003859,0.000752,0.000985,0.0,0.0,0.0,-0.003227,-0.50899,0.00074,-0.400921,-262.832391,-0.455846,69.843127
11.5784,-0.003559,0.001302,0.001216,0.0,0.0,0.0,-0.00328,-0.509095,0.00084,-0.400921,-262.832391,-0.455846,69.843127
11.5987,-0.003579,0.00091,0.002211,0.0,0.0,0.0,-0.002939,-0.508698,0.001216,-0.400921,-262.832391,-0.455846,69.843127
11.6185,-0.003811,0.000737,0.001937,0.0,0.0,0.0,-0.002495,-0.509053,0.002121,-0.400921,-262.832391,-0.455846,69.843127
11.6384,-0.003571,0.000829,0.001883,0.0,0.0,0.0,-0.002495,-0.509053,0.002121,-0.400921,-262.832391,-0.455846,69.843127
11.6585,-0.003713,0.0009,0.001706,0.0,0.0,0.0,-0.002611,-0.50917,0.001883,-0.400921,-262.832391,-0.455846,69.843127
11.6783,-0.003324,0.001227,0.002595,0.0,0.0,0.0,-0.002704,-0.509142,0.001812,-0.400921,-262.832391,-0.455846,69.843127
11.6984,-0.003441,0.00105,0.001765,0.0,0.0,0.0,-0.002001,-0.508772,0.002595,-0.400921,-262.832391,-0.455846,69.843127
11.7189,-0.003931,0.001193,0.002786,0.0,0.0,0.0,-0.002489,-0.508932,0.001844,-0.400921,-262.832391,-0.455846,69.843127
11.7388,-0.003478,0.001294,0.001359,0.0,0.0,0.0,-0.002489,-0.508932,0.001844,-0.400921,-262.832391,-0.455846,69.843127
11.7586,-0.003793,0.001048,0.000754,0.0,0.0,0.0,-0.002785,-0.508705,0.001359,-0.400921,-262.832391,-0.455846,69.843127
11.7786,-0.003521,0.001032,0.002973,0.0,0.0,0.0,-0.003036,-0.508804,0.001116,-0.400921,-262.832391,-0.455846,69.843127
11.7984,-0.003548,0.000997,0.002549,0.0,0.0,0.0,-0.002005,-0.508966,0.002973,-0.400921,-262.832391,-0.455846,69.843127
11.8187,-0.00376,0.00064,0.003246,0.0,0.0,0.0,-0.002227,-0.508998,0.002586,-0.400921,-262.832391,-0.455846,69.843127
11.8386,-0.003746,0.001359,0.001256,0.0,0.0,0.0,-0.002227,-0.508998,0.002586,-0.400921,-262.832391,-0.455846,69.843127
11.8585,-0.003441,0.001493,0.001444,0.0,0.0,0.0,-0.003105,-0.508641,0.001256,-0.400921,-262.832391,-0.455846,69.843127
11.8787,-0.004078,0.001012,0.00083,0.0,0.0,0.0,-0.002942,-0.508586,0.001333,-0.400921,-262.832391,-0.455846,69.843127
11.898,-0.003431,0.001398,0.00101,0.0,0.0,0.0,-0.003655,-0.508988,0.00083,-0.400921,-262.832391,-0.455846,69.843127
11.9181,-0.003529,0.001494,0.001428,0.0,0.0,0.0,-0.002983,-0.508637,0.000994,-0.400921,-262.832391,-0.455846,69.843127
11.9386,-0.003438,0.001086,0.003744,0.0,0.0,0.0,-0.002983,-0.508637,0.000994,-0.400921,-262.832391,-0.455846,69.843127
11.9585,-0.003911,0.001087,0.001433,0.0,0.0,0.0,-0.001529,-0.508911,0.003744,-0.400921,-262.832391,-0.455846,69.843127
11.9781,-0.003689,0.000759,0.001588,0.0,0.0,0.0,-0.002201,-0.508912,0.002803,-0.400921,-262.832391,-0.455846,69.843127
11.9984,-0.0036,0.001157,0.002989,0.0,0.0,0.0,-0.00288,-0.509241,0.001588,-0.400921,-262.832391,-0.455846,69.843127
12.0184,-0.003616,0.000968,0.001623,0.0,0.0,0.0,-0.002146,-0.508876,0.002867,-0.400921,-262.832391,-0.455846,69.843127
12.0385,-0.003848,0.001311,0.001101,0.0,0.0,0.0,-0.002146,-0.508876,0.002867,-0.400921,-262.832391,-0.455846,69.843127
12.0585,-0.003587,0.001014,0.000909,0.0,0.0,0.0,-0.003287,-0.508688,0.001101,-0.400921,-262.832391,-0.455846,69.843127
12.0784,-0.003396,0.001039,0.001788,0.0,0.0,0.0,-0.00322,-0.50881,0.001023,-0.400921,-262.832391,-0.455846,69.843127
12.0985,-0.003345,0.001308,0.001414,0.0,0.0,0.0,-0.002484,-0.50896,0.001788,-0.400921,-262.832391,-0.455846,69.843127
12.1184,-0.003265,0.000361,0.001767,0.0,0.0,0.0,-0.002611,-0.508716,0.001447,-0.400921,-262.832391,-0.455846,69.843127
12.1386,-0.003317,0.000968,0.002508,0.0,0.0,0.0,-0.002611,-0.508716,0.001447,-0.400921,-262.832391,-0.455846,69.843127
12.1584,-0.003707,0.00113,0.001965,0.0,0.0,0.0,-0.002038,-0.50903,0.002508,-0.400921,-262.832391,-0.455846,69.843127
12.1785,-0.003873,0.001104,0.001303,0.0,0.0,0.0,-0.00231,-0.508964,0.002286,-0.400921,-262.832391,-0.455846,69.843127
12.1979,-0.003432,0.000722,0.002022,0.0,0.0,0.0,-0.003209,-0.508896,0.001303,-0.400921,-262.832391,-0.455846,69.843127
12.2183,-0.003668,0.001599,-0.000265,0.0,0.0,0.0,-0.002473,-0.509243,0.001957,-0.400921,-262.832391,-0.455846,69.843127
12.2386,-0.00336,0.001123,0.000646,0.0,0.0,0.0,-0.002473,-0.509243,0.001957,-0.400921,-262.832391,-0.455846,69.843127
12.2584,-0.003382,0.001264,0.003166,0.0,0.0,0.0,-0.003031,-0.508877,0.000646,-0.400921,-262.832391,-0.455846,69.843127
12.2783,-0.003417,0.001088,0.000655,0.0,0.0,0.0,-0.002516,-0.508819,0.001672,-0.400921,-262.832391,-0.455846,69.843127
12.2984,-0.003783,0.001027,0.002626,0.0,0.0,0.0,-0.003083,-0.508912,0.000655,-0.400921,-262.832391,-0.455846,69.843127
12.3184,-0.003288,0.000869,0.002852,0.0,0.0,0.0,-0.002502,-0.508966,0.002448,-0.400921,-262.832391,-0.455846,69.843127
12.3386,-0.003638,0.001248,0.003789,0.0,0.0,0.0,-0.002502,-0.508966,0.002448,-0.400921,-262.832391,-0.455846,69.843127
12.3584,-0.003489,0.000668,0.002299,0.0,0.0,0.0,-0.001705,-0.508749,0.003789,-0.400921,-262.832391,-0.455846,69.843127
12.3789,-0.003911,0.001448,0.000537,0.0,0.0,0.0,-0.001955,-0.508987,0.00318,-0.400921,-262.832391,-0.455846,69.843127
12.3981,-0.003641,0.001048,0.001894,0.0,0.0,0.0,-0.003638,-0.508552,0.000537,-0.400921,-262.832391,-0.455846,69.843127
12.4184,-0.003412,0.00081,0.003176,0.0,0.0,0.0,-0.002762,-0.508915,0.001772,-0.400921,-262.832391,-0.455846,69.843127
12.4386,-0.003531,0.000752,0.001498,0.0,0.0,0.0,-0.002762,-0.508915,0.001772,-0.400921,-262.832391,-0.455846,69.843127
12.4584,-0.003643,0.000929,0.001078,0.0,0.0,0.0,-0.002767,-0.509247,0.001498,-0.400921,-262.832391,-0.455846,69.843127
12.4785,-0.003431,0.000859,0.003428,0.0,0.0,0.0,-0.002899,-0.509176,0.001329,-0.400921,-262.832391,-0.455846,69.843127
12.4984,-0.003423,0.000865,0.000616,0.0,0.0,0.0,-0.001682,-0.509138,0.003428,-0.400921,-262.832391,-0.455846,69.843127
12.5183,-0.003761,0.0007,0.00154,0.0,0.0,0.0,-0.002974,-0.509136,0.000883,-0.400921,-262.832391,-0.455846,69.843127
12.5382,-0.00343,0.0012,0.002148,0.0,0.0,0.0,-0.002974,-0.509136,0.000883,-0.400921,-262.832391,-0.455846,69.843127
12.5581,-0.003823,0.001062,0.001248,0.0,0.0,0.0,-0.002334,-0.508799,0.002148,-0.400921,-262.832391,-0.455846,69.843127
12.5782,-0.003911,0.000845,0.003161,0.0,0.0,0.0,-0.002681,-0.508855,0.001782,-0.400921,-262.832391,-0.455846,69.843127
12.5982,-0.0039,0.001199,0.002503,0.0,0.0,0.0,-0.002299,-0.509152,0.003161,-0.400921,-262.832391,-0.455846,69.843127
12.6183,-0.003495,0.00081,0.000678,0.0,0.0,0.0,-0.002595,-0.508831,0.002561,-0.400921,-262.832391,-0.455846,69.843127
12.6381,-0.003525,0.001259,0.001919,0.0,0.0,0.0,-0.002595,-0.508831,0.002561,-0.400921,-262.832391,-0.455846,69.843127
12.6581,-0.003672,0.001172,0.002594,0.0,0.0,0.0,-0.002547,-0.50874,0.001919,-0.400921,-262.832391,-0.455846,69.843127
12.6781,-0.003536,0.001267,0.002137,0.0,0.0,0.0,-0.002466,-0.508776,0.002195,-0.400921,-262.832391,-0.455846,69.843127
12.6982,-0.003938,0.000784,-0.000521,0.0,0.0,0.0,-0.002446,-0.508732,0.002137,-0.400921,-262.832391,-0.455846,69.843127
12.7186,-0.00353,0.000806,0.001507,0.0,0.0,0.0,-0.004054,-0.509175,-0.000294,-0.400921,-262.832391,-0.455846,69.843127
12.7384,-0.00325,0.001274,0.002378,0.0,0.0,0.0,-0.004054,-0.509175,-0.000294,-0.400921,-262.832391,-0.455846,69.843127
12.7585,-0.003572,0.001333,0.00192,0.0,0.0,0.0,-0.002037,-0.508724,0.002378,-0.400921,-262.832391,-0.455846,69.843127
12.7782,-0.003513,0.001169,0.002501,0.0,0.0,0.0,-0.002266,-0.5087,0.00219,-0.400921,-262.832391,-0.455846,69.843127
12.7985,-0.003694,0.001389,0.002918,0.0,0.0,0.0,-0.002238,-0.508829,0.002501,-0.400921,-262.832391,-0.455846,69.843127
12.8183,-0.00344,0.001026,0.001832,0.0,0.0,0.0,-0.002208,-0.508628,0.002882,-0.400921,-262.832391,-0.455846,69.843127
12.8385,-0.003354,0.000826,0.002105,0.0,0.0,0.0,-0.002208,-0.508628,0.002882,-0.400921,-262.832391,-0.455846,69.843127
12.8583,-0.003494,0.001357,0.001578,0.0,0.0,0.0,-0.00228,-0.509173,0.002105,-0.400921,-262.832391,-0.455846,69.843127
12.8783,-0.003596,0.000982,0.001071,0.0,0.0,0.0,-0.002447,-0.508957,0.00189,-0.400921,-262.832391,-0.455846,69.843127
12.8981,-0.004019,0.001117,0.002041,0.0,0.0,0.0,-0.00305,-0.509017,0.001071,-0.400921,-262.832391,-0.455846,69.843127
12.9184,-0.003589,0.000928,0.001338,0.0,0.0,0.0,-0.002984,-0.508894,0.001957,-0.400921,-262.832391,-0.455846,69.843127
12.9382,-0.003459,0.001533,0.001286,0.0,0.0,0.0,-0.002984,-0.508894,0.001957,-0.400921,-262.832391,-0.455846,69.843127
12.958,-0.003534,0.000966,0.001501,0.0,0.0,0.0,-0.002804,-0.508466,0.001286,-0.400921,-262.832391,-0.455846,69.843127
12.9781,-0.003264,0.000903,0.001162,0.0,0.0,0.0,-0.002789,-0.508709,0.001378,-0.400921,-262.832391,-0.455846,69.843127
12.998,-0.003634,0.001263,0.001866,0.0,0.0,0.0,-0.002672,-0.509096,0.001162,-0.400921,-262.832391,-0.455846,69.843127
13.0181,-0.003659,0.001407,0.000701,0.0,0.0,0.0,-0.002681,-0.508767,0.001805,-0.400921,-262.832391,-0.455846,69.843127
13.0383,-0.003816,0.001022,0.002759,0.0,0.0,0.0,-0.002681,-0.508767,0.001805,-0.400921,-262.832391,-0.455846,69.843127
13.0587,-0.003726,0.000559,0.002258,0.0,0.0,0.0,-0.002409,-0.508976,0.002759,-0.400921,-262.832391,-0.455846,69.843127
13.0782,-0.003494,0.000766,0.002021,0.0,0.0,0.0,-0.002476,-0.509165,0.002555,-0.400921,-262.832391,-0.455846,69.843127
13.0983,-0.00382,0.001314,0.001443,0.0,0.0,0.0,-0.002463,-0.509233,0.002021,-0.400921,-262.832391,-0.455846,69.843127
13.1181,-0.00372,0.001228,0.001899,0.0,0.0,0.0,-0.003028,-0.508734,0.001495,-0.400921,-262.832391,-0.455846,69.843127
13.1383,-0.003747,0.00107,0.001754,0.0,0.0,0.0,-0.003028,-0.508734,0.001495,-0.400921,-262.832391,-0.455846,69.843127
13.1582,-0.003657,0.000936,0.00217,0.0,0.0,0.0,-0.002852,-0.508929,0.001754,-0.400921,-262.832391,-0.455846,69.843127
13.1783,-0.003576,0.000985,0.001695,0.0,0.0,0.0,-0.002729,-0.508984,0.001923,-0.400921,-262.832391,-0.455846,69.843127
13.198,-0.003454,0.001163,0.002016,0.0,0.0,0.0,-0.002712,-0.509014,0.001695,-0.400921,-262.832391,-0.455846,69.843127
13.2181,-0.003308,0.001227,0.001935,0.0,0.0,0.0,-0.002451,-0.508852,0.001988,-0.400921,-262.832391,-0.455846,69.843127
13.2381,-0.003213,0.001258,0.000447,0.0,0.0,0.0,-0.002451,-0.508852,0.001988,-0.400921,-262.832391,-0.455846,69.843127
13.2581,-0.003609,0.000735,0.000119,0.0,0.0,0.0,-0.002985,-0.508742,0.000447,-0.400921,-262.832391,-0.455846,69.843127
13.2783,-0.003754,0.001148,-0.000145,0.0,0.0,0.0,-0.003216,-0.508957,0.000312,-0.400921,-262.832391,-0.455846,69.843127
13.2981,-0.00384,0.001031,0.002343,0.0,0.0,0.0,-0.003827,-0.508852,-0.000145,-0.400921,-262.832391,-0.455846,69.843127
13.3181,-0.003743,0.00111,0.002168,0.0,0.0,0.0,-0.002752,-0.508957,0.002118,-0.400921,-262.832391,-0.455846,69.843127
13.3382,-0.003672,0.000963,0.002148,0.0,0.0,0.0,-0.002752,-0.508957,0.002118,-0.400921,-262.832391,-0.455846,69.843127
13.3586,-0.003476,0.001341,0.002534,0.0,0.0,0.0,-0.002577,-0.509036,0.002148,-0.400921,-262.832391,-0.455846,69.843127
13.3782,-0.003445,0.000782,0.001446,0.0,0.0,0.0,-0.002416,-0.508882,0.002305,-0.400921,-262.832391,-0.455846,69.843127
13.3988,-0.003659,0.001083,0.00285,0.0,0.0,0.0,-0.002708,-0.509218,0.001446,-0.400921,-262.832391,-0.455846,69.843127
13.4186,-0.003448,0.00099,0.002055,0.0,0.0,0.0,-0.002251,-0.508942,0.002723,-0.400921,-262.832391,-0.455846,69.843127
13.4386,-0.003408,0.000949,0.002026,0.0,0.0,0.0,-0.002251,-0.508942,0.002723,-0.400921,-262.832391,-0.455846,69.843127
13.4587,-0.003661,0.000824,0.003106,0.0,0.0,0.0,-0.002375,-0.50905,0.002026,-0.400921,-262.832391,-0.455846,69.843127
13.4784,-0.00383,0.000994,0.002682,0.0,0.0,0.0,-0.002253,-0.509101,0.002467,-0.400921,-262.832391,-0.455846,69.843127
13.4982,-0.003177,0.000986,0.00232,0.0,0.0,0.0,-0.002462,-0.509005,0.002682,-0.400921,-262.832391,-0.455846,69.843127
13.5181,-0.003693,0.001025,0.000745,0.0,0.0,0.0,-0.002036,-0.509012,0.002353,-0.400921,-262.832391,-0.455846,69.843127
13.5382,-0.003894,0.00145,0.002834,0.0,0.0,0.0,-0.002036,-0.509012,0.002353,-0.400921,-262.832391,-0.455846,69.843127
13.5583,-0.003638,0.001353,0.001965,0.0,0.0,0.0,-0.002448,-0.508548,0.002834,-0.400921,-262.832391,-0.455846,69.843127
13.5784,-0.003651,0.00106,0.000751,0.0,0.0,0.0,-0.002524,-0.508588,0.002482,-0.400921,-262.832391,-0.455846,69.843127
13.5984,-0.003696,0.001107,0.002302,0.0,0.0,0.0,-0.003268,-0.50894,0.000751,-0.400921,-262.832391,-0.455846,69.843127
13.6186,-0.003311,0.001159,0.000768,0.0,0.0,0.0,-0.00259,-0.508896,0.002162,-0.400921,-262.832391,-0.455846,69.843127
13.6386,-0.003682,0.001299,0.00115,0.0,0.0,0.0,-0.00259,-0.508896,0.002162,-0.400921,-262.832391,-0.455846,69.843127
13.6589,-0.003754,0.001326,-0.000142,0.0,0.0,0.0,-0.003095,-0.508701,0.00115,-0.400921,-262.832391,-0.455846,69.843127
13.6786,-0.003736,0.001177,0.001655,0.0,0.0,0.0,-0.003392,-0.50869,0.000625,-0.400921,-262.832391,-0.455846,69.843127
13.6984,-0.003638,0.001155,0.002333,0.0,0.0,0.0,-0.002892,-0.508823,0.001655,-0.400921,-262.832391,-0.455846,69.843127
13.7189,-0.003631,0.001182,0.001653,0.0,0.0,0.0,-0.002488,-0.508841,0.002271,-0.400921,-262.832391,-0.455846,69.843127
13.7388,-0.003721,0.001273,0.001735,0.0,0.0,0.0,-0.002488,-0.508841,0.002271,-0.400921,-262.832391,-0.455846,69.843127
13.7587,-0.003258,0.001031,0.001671,0.0,0.0,0.0,-0.002836,-0.508727,0.001735,-0.400921,-262.832391,-0.455846,69.843127
13.7784,-0.003477,0.001214,0.002684,0.0,0.0,0.0,-0.002661,-0.508825,0.001709,-0.400921,-262.832391,-0.455846,69.843127
13.7979,-0.003986,0.00083,0.000799,0.0,0.0,0.0,-0.002108,-0.508785,0.002684,-0.400921,-262.832391,-0.455846,69.843127
13.8187,-0.003576,0.000822,0.001481,0.0,0.0,0.0,-0.003446,-0.509135,0.00097,-0.400921,-262.832391,-0.455846,69.843127
13.8386,-0.003513,0.001073,0.003054,0.0,0.0,0.0,-0.003446,-0.509135,0.00097,-0.400921,-262.832391,-0.455846,69.843127
13.8587,-0.003378,0.001301,0.002302,0.0,0.0,0.0,-0.001956,-0.508925,0.003054,-0.400921,-262.832391,-0.455846,69.843127
13.8785,-0.003723,0.001314,0.001825,0.0,0.0,0.0,-0.002056,-0.508832,0.002748,-0.400921,-262.832391,-0.455846,69.843127
13.8982,-0.003819,0.001024,0.000689,0.0,0.0,0.0,-0.002792,-0.508685,0.001825,-0.400921,-262.832391,-0.455846,69.843127
13.9185,-0.00381,0.001516,0.001336,0.0,0.0,0.0,-0.003408,-0.50895,0.00079,-0.400921,-262.832391,-0.455846,69.843127
13.9384,-0.003438,0.001384,0.001931,0.0,0.0,0.0,-0.003408,-0.50895,0.00079,-0.400921,-262.832391,-0.455846,69.843127
13.9585,-0.003983,0.001422,0.002298,0.0,0.0,0.0,-0.002453,-0.508615,0.001931,-0.400921,-262.832391,-0.455846,69.843127
13.9783,-0.003464,0.001159,0.002265,0.0,0.0,0.0,-0.002598,-0.508599,0.00208,-0.400921,-262.832391,-0.455846,69.843127
13.9981,-0.003778,0.001178,0.001766,0.0,0.0,0.0,-0.002309,-0.50884,0.002265,-0.400921,-262.832391,-0.455846,69.843127
14.0183,-0.003575,0.001411,0.000238,0.0,0.0,0.0,-0.002826,-0.508823,0.001811,-0.400921,-262.832391,-0.455846,69.843127
14.0387,-0.003636,0.001385,0.002221,0.0,0.0,0.0,-0.002826,-0.508823,0.001811,-0.400921,-262.832391,-0.455846,69.843127
14.0584,-0.003654,0.001192,0.001874,0.0,0.0,0.0,-0.002503,-0.508614,0.002221,-0.400921,-262.832391,-0.455846,69.843127
14.0783,-0.003535,0.000987,0.001678,0.0,0.0,0.0,-0.002582,-0.508693,0.00208,-0.400921,-262.832391,-0.455846,69.843127
14.0984,-0.003625,0.001108,0.001452,0.0,0.0,0.0,-0.002679,-0.509012,0.001678,-0.400921,-262.832391,-0.455846,69.843127
14.1184,-0.003564,0.000983,0.000649,0.0,0.0,0.0,-0.002866,-0.508902,0.001471,-0.400921,-262.832391,-0.455846,69.843127
14.1385,-0.003697,0.001054,0.001869,0.0,0.0,0.0,-0.002866,-0.508902,0.001471,-0.400921,-262.832391,-0.455846,69.843127
14.1584,-0.003529,0.001324,0.00318,0.0,0.0,0.0,-0.002744,-0.508945,0.001869,-0.400921,-262.832391,-0.455846,69.843127
14.1785,-0.003408,0.000751,0.000791,0.0,0.0,0.0,-0.002402,-0.508834,0.002406,-0.400921,-262.832391,-0.455846,69.843127
14.198,-0.003584,0.00115,0.001539,0.0,0.0,0.0,-0.003005,-0.509249,0.000791,-0.400921,-262.832391,-0.455846,69.843127
14.2185,-0.003754,0.000981,0.00186,0.0,0.0,0.0,-0.002818,-0.508885,0.001472,-0.400921,-262.832391,-0.455846,69.843127
14.2384,-0.003501,0.001091,-4e-06,0.0,0.0,0.0,-0.002818,-0.508885,0.001472,-0.400921,-262.832391,-0.455846,69.843127
14.2581,-0.003608,0.001085,0.003643,0.0,0.0,0.0,-0.003503,-0.508909,-4e-06,-0.400921,-262.832391,-0.455846,69.843127
14.2787,-0.003781,0.001536,0.001607,0.0,0.0,0.0,-0.002785,-0.50891,0.00149,-0.400921,-262.832391,-0.455846,69.843127
14.2984,-0.003644,0.001436,-0.000893,0.0,0.0,0.0,-0.002961,-0.508463,0.001607,-0.400921,-262.832391,-0.455846,69.843127
14.3187,-0.003117,0.001362,0.001606,0.0,0.0,0.0,-0.003998,-0.508555,-0.000669,-0.400921,-262.832391,-0.455846,69.843127
14.3385,-0.003683,0.001388,0.001747,0.0,0.0,0.0,-0.003998,-0.508555,-0.000669,-0.400921,-262.832391,-0.455846,69.843127
14.3589,-0.003734,0.000955,0.003082,0.0,0.0,0.0,-0.002791,-0.508611,0.001747,-0.400921,-262.832391,-0.455846,69.843127
14.3783,-0.003645,0.000924,0.001182,0.0,0.0,0.0,-0.002533,-0.508789,0.002297,-0.400921,-262.832391,-0.455846,69.843127
14.3986,-0.003779,0.001497,0.002152,0.0,0.0,0.0,-0.003042,-0.509075,0.001182,-0.400921,-262.832391,-0.455846,69.843127
14.4187,-0.003541,0.000916,0.003295,0.0,0.0,0.0,-0.002712,-0.508551,0.002069,-0.400921,-262.832391,-0.455846,69.843127
14.4386,-0.003608,0.001237,0.000339,0.0,0.0,0.0,-0.002712,-0.508551,0.002069,-0.400921,-262.832391,-0.455846,69.843127
14.4585,-0.003432,0.00096,0.000158,0.0,0.0,0.0,-0.003435,-0.508763,0.000339,-0.400921,-262.832391,-0.455846,69.843127
14.4787,-0.003821,0.001191,0.001832,0.0,0.0,0.0,-0.003401,-0.508875,0.000266,-0.400921,-262.832391,-0.455846,69.843127
14.4985,-0.003593,0.001336,0.001688,0.0,0.0,0.0,-0.002887,-0.508808,0.001832,-0.400921,-262.832391,-0.455846,69.843127
14.5184,-0.003614,0.001039,0.002157,0.0,0.0,0.0,-0.002745,-0.508675,0.001701,-0.400921,-262.832391,-0.455846,69.843127
14.5386,-0.003614,0.001126,0.001387,0.0,0.0,0.0,-0.002745,-0.508675,0.001701,-0.400921,-262.832391,-0.455846,69.843127
14.5585,-0.003052,0.000888,0.000923,0.0,0.0,0.0,-0.002907,-0.508874,0.001387,-0.400921,-262.832391,-0.455846,69.843127
14.5785,-0.0031,0.000809,0.002255,0.0,0.0,0.0,-0.002773,-0.508972,0.001196,-0.400921,-262.832391,-0.455846,69.843127
14.5983,-0.004021,0.001131,0.003269,0.0,0.0,0.0,-0.00195,-0.50919,0.002255,-0.400921,-262.832391,-0.455846,69.843127
14.6182,-0.003773,0.00074,0.002257,0.0,0.0,0.0,-0.002319,-0.508894,0.003182,-0.400921,-262.832391,-0.455846,69.843127
14.6384,-0.003701,0.001168,0.000601,0.0,0.0,0.0,-0.002319,-0.508894,0.003182,-0.400921,-262.832391,-0.455846,69.843127
14.6584,-0.003569,0.000932,0.001533,0.0,0.0,0.0,-0.003395,-0.508832,0.000601,-0.400921,-262.832391,-0.455846,69.843127
14.6783,-0.003421,0.00086,0.001254,0.0,0.0,0.0,-0.003143,-0.50893,0.000987,-0.400921,-262.832391,-0.455846,69.843127
14.6982,-0.003385,0.001378,0.001919,0.0,0.0,0.0,-0.002781,-0.50914,0.001254,-0.400921,-262.832391,-0.455846,69.843127
14.7186,-0.003599,0.001085,0.002777,0.0,0.0,0.0,-0.002439,-0.508667,0.00186,-0.400921,-262.832391,-0.455846,69.843127
14.7384,-0.003725,0.001258,-0.000301,0.0,0.0,0.0,-0.002439,-0.508667,0.00186,-0.400921,-262.832391,-0.455846,69.843127
14.7584,-0.003793,0.000889,0.001424,0.0,0.0,0.0,-0.003879,-0.508742,-0.000301,-0.400921,-262.832391,-0.455846,69.843127
14.7784,-0.003731,0.001081,0.000442,0.0,0.0,0.0,-0.003547,-0.508893,0.000403,-0.400921,-262.832391,-0.455846,69.843127
14.7982,-0.002948,0.0015,0.001798,0.0,0.0,0.0,-0.003505,-0.508919,0.000442,-0.400921,-262.832391,-0.455846,69.843127
14.8182,-0.003405,0.001088,0.002249,0.0,0.0,0.0,-0.002162,-0.508537,0.001677,-0.400921,-262.832391,-0.455846,69.843127
14.838,-0.00367,0.001322,0.001497,0.0,0.0,0.0,-0.002162,-0.508537,0.001677,-0.400921,-262.832391,-0.455846,69.843127
14.8582,-0.003636,0.00079,0.001735,0.0,0.0,0.0,-0.002906,-0.508677,0.001497,-0.400921,-262.832391,-0.455846,69.843127
14.8786,-0.003519,0.000921,0.000973,0.0,0.0,0.0,-0.002842,-0.508899,0.001596,-0.400921,-262.832391,-0.455846,69.843127
14.8984,-0.003541,0.001074,0.001472,0.0,0.0,0.0,-0.003023,-0.509079,0.000973,-0.400921,-262.832391,-0.455846,69.843127
14.9184,-0.003921,0.001194,0.001927,0.0,0.0,0.0,-0.00281,-0.508938,0.00143,-0.400921,-262.832391,-0.455846,69.843127
14.9382,-0.003992,0.000851,0.001451,0.0,0.0,0.0,-0.00281,-0.508938,0.00143,-0.400921,-262.832391,-0.455846,69.843127
14.958,-0.00365,0.001351,0.002073,0.0,0.0,0.0,-0.003252,-0.509149,0.001451,-0.400921,-262.832391,-0.455846,69.843127
14.9784,-0.003664,0.001235,0.000953,0.0,0.0,0.0,-0.002979,-0.508942,0.001708,-0.400921,-262.832391,-0.455846,69.843127
14.998,-0.003778,0.001329,0.00213,0.0,0.0,0.0,-0.003177,-0.508765,0.000953,-0.400921,-262.832391,-0.455846,69.843127
15.0182,-0.003794,0.001261,-0.000401,0.0,0.0,0.0,-0.002733,-0.508678,0.002031,-0.400921,-262.832391,-0.455846,69.843127
15.0381,-0.003863,0.001286,0.001019,0.0,0.0,0.0,-0.002733,-0.508678,0.002031,-0.400921,-262.832391,-0.455846,69.843127
