mach0312/omni-docking-bench/src/icros_test_setup/results/MPPI_sample/timeseries/trial_022.csv
t,x,y,yaw,vx,vy,wz,bl_x,bl_y,bl_yaw,front_steering_joint,front_wheel_joint,rear_steering_joint,rear_wheel_joint
0.0,0.029821,0.028775,-0.052871,0.0,0.0,0.0,0.004181,-0.480295,-0.05181,-0.00268,-265.51537,-0.460725,63.463563
0.0003,0.029914,0.028775,-0.051694,0.0,0.0,0.0,0.003873,-0.480829,-0.051923,-0.00268,-265.516813,-0.460725,63.461951
0.0006,0.030174,0.028975,-0.052211,0.0,0.0,0.0,0.003873,-0.480829,-0.051923,-0.00268,-265.517323,-0.460725,63.461382
0.0009,0.029539,0.029077,-0.052726,0.0,0.0,0.0,0.003704,-0.480643,-0.052314,-0.00268,-265.517323,-0.460725,63.461382
0.0012,0.030032,0.028626,-0.051137,0.0,0.0,0.0,0.003704,-0.480643,-0.052314,-0.00268,-265.517323,-0.460725,63.461382
0.0014,0.030097,0.028998,-0.05271,0.0,0.0,0.0,0.003367,-0.480587,-0.052637,-0.00268,-265.517323,-0.460725,63.461382
0.0017,0.030217,0.028855,-0.052945,0.0,0.0,0.0,0.003367,-0.480587,-0.052637,-0.00268,-265.517323,-0.460725,63.461382
0.0019,0.029509,0.028905,-0.053564,0.0,0.0,0.0,0.003131,-0.480582,-0.052667,-0.00268,-265.517323,-0.460725,63.461382
0.0171,0.029899,0.028459,-0.051874,0.0,0.0,0.0,0.003228,-0.480418,-0.052925,-0.00268,-265.517323,-0.460725,63.461382
0.0368,0.029998,0.029251,-0.055615,0.0,0.0,0.0,0.003455,-0.480855,-0.051874,-0.00268,-265.517323,-0.460725,63.461382
0.0565,0.029803,0.028798,-0.052374,0.0,0.0,0.0,0.00271,-0.480486,-0.053418,-0.00268,-265.517323,-0.460725,63.461382
0.0765,0.030256,0.028793,-0.051602,0.0,0.0,0.0,0.003104,-0.480503,-0.052374,-0.00268,-265.517323,-0.460725,63.461382
0.0965,0.030045,0.028541,-0.051634,0.0,0.0,0.0,0.003875,-0.480526,-0.051672,-0.00268,-265.517323,-0.460725,63.461382
0.1167,0.029898,0.029286,-0.052939,0.002252,-0.0041,0.00593,0.003875,-0.480526,-0.051672,-0.00268,-265.517323,-0.460725,63.461382
0.1365,0.029782,0.028878,-0.054277,0.00241,-0.004476,0.006462,0.002912,-0.48,-0.052939,-0.00268,-265.517323,-0.460725,63.461382
0.1567,0.029754,0.028774,-0.050881,0.002585,-0.004801,0.006939,0.002586,-0.480152,-0.053485,-0.00268,-265.517323,-0.460725,63.461382
0.1764,0.02982,0.028988,-0.052459,0.002729,-0.005079,0.007342,0.003816,-0.480566,-0.050881,-0.077673,-265.517323,-0.535718,63.461382
0.1966,0.029695,0.028891,-0.052702,0.002823,-0.005316,0.007731,0.003142,-0.480333,-0.052323,-0.077673,-265.517323,-0.535718,63.461382
0.2164,0.029766,0.029008,-0.052567,0.002899,-0.005519,0.00806,0.003142,-0.480333,-0.052323,-0.077673,-265.517323,-0.535718,63.461382
0.2367,0.029498,0.028722,-0.052331,0.00296,-0.005694,0.008338,0.002969,-0.480288,-0.052567,-0.152769,-265.517323,-0.610815,63.461383
0.2566,0.030071,0.02888,-0.053025,0.003016,-0.005844,0.008574,0.002909,-0.480407,-0.052471,-0.152769,-265.517323,-0.610815,63.461383
0.2768,0.029595,0.028694,-0.053218,0.003062,-0.005974,0.008774,0.003041,-0.480403,-0.053025,-0.200443,-265.517323,-0.685716,63.461384
0.2971,0.029843,0.028905,-0.052773,0.003111,-0.006086,0.008946,0.002518,-0.480568,-0.053201,-0.200443,-265.517323,-0.685716,63.461384
0.317,0.029185,0.029034,-0.052381,0.003151,-0.006182,0.009092,0.002518,-0.480568,-0.053201,-0.200443,-265.517323,-0.685716,63.461384
0.3369,0.029738,0.028877,-0.05296,0.003184,-0.006265,0.009216,0.002483,-0.480267,-0.052381,-0.198132,-265.517321,-0.760787,63.461391
0.3568,0.029896,0.028963,-0.053738,0.003207,-0.006336,0.009321,0.002592,-0.480327,-0.052626,-0.198132,-265.517321,-0.760787,63.461391
0.3769,0.029984,0.029162,-0.051886,0.003226,-0.006398,0.009411,0.002503,-0.480301,-0.053737,-0.197313,-265.517313,-0.836221,63.461422
0.397,0.030118,0.029294,-0.052,0.003212,-0.006448,0.009484,0.00344,-0.480165,-0.052055,-0.197313,-265.517313,-0.836221,63.461422
0.417,0.029659,0.029169,-0.053602,0.003199,-0.006492,0.009546,0.00344,-0.480165,-0.052055,-0.197313,-265.517313,-0.836221,63.461422
0.4369,0.029941,0.028744,-0.05224,0.003188,-0.006529,0.009601,0.00234,-0.480104,-0.053594,-0.198782,-265.517282,-0.910713,63.46154
0.4569,0.030248,0.028933,-0.05151,0.003203,-0.006565,0.009652,0.002733,-0.480289,-0.053046,-0.198782,-265.517282,-0.910713,63.46154
0.4765,0.029999,0.029219,-0.051546,0.003215,-0.006595,0.009695,0.004,-0.480403,-0.051493,-0.205866,-265.517198,-0.985717,63.461869
0.4969,0.03008,0.02905,-0.050088,0.003188,-0.006618,0.009727,0.003746,-0.48013,-0.051541,-0.205866,-265.517198,-0.985717,63.461869
0.517,0.029754,0.029144,-0.052512,0.003166,-0.006637,0.009756,0.003746,-0.48013,-0.051541,-0.205866,-265.517198,-0.985717,63.461869
0.5368,0.029891,0.029026,-0.052408,0.003147,-0.006655,0.009781,0.003016,-0.480196,-0.052453,-0.206517,-265.516985,-1.060817,63.462709
0.5565,0.030017,0.029016,-0.050955,0.003154,-0.006672,0.009807,0.003084,-0.480233,-0.052427,-0.206517,-265.516985,-1.060817,63.462709
0.5766,0.02991,0.028675,-0.051333,0.00316,-0.006687,0.009829,0.004081,-0.480388,-0.050863,-0.21302,-265.516574,-1.135722,63.464367
0.5966,0.029989,0.028829,-0.050853,0.003137,-0.006697,0.009845,0.003774,-0.480633,-0.051287,-0.21302,-265.516574,-1.135722,63.464367
0.6165,0.029801,0.028693,-0.05131,0.003118,-0.006706,0.009859,0.003774,-0.480633,-0.051287,-0.21302,-265.516574,-1.135722,63.464367
0.6368,0.029719,0.028722,-0.052365,0.003102,-0.006714,0.009871,0.003727,-0.48079,-0.05109,-0.213183,-265.515856,-1.210766,63.467272
0.6566,0.029762,0.02904,-0.052641,0.003099,-0.006723,0.009932,0.003452,-0.480723,-0.051582,-0.213183,-265.515856,-1.210766,63.467272
0.6765,0.029504,0.028341,-0.050398,0.003097,-0.00673,0.009982,0.003004,-0.480425,-0.052396,-0.217448,-265.514853,-1.28572,63.471414
0.697,0.029771,0.02841,-0.052523,0.003082,-0.006736,0.010056,0.003743,-0.480967,-0.050566,-0.217448,-265.514853,-1.28572,63.471414
0.7168,0.029791,0.028495,-0.05319,0.003069,-0.00674,0.010116,0.003743,-0.480967,-0.050566,-0.217448,-265.514853,-1.28572,63.471414
0.7366,0.02978,0.02791,-0.051411,0.003058,-0.006745,0.010167,0.002787,-0.48106,-0.05279,-0.201893,-265.51364,-1.333908,63.47648
0.7565,0.029764,0.028015,-0.049456,0.003069,-0.006751,0.010251,0.003121,-0.481238,-0.05218,-0.201893,-265.51364,-1.333908,63.47648
0.7765,0.029305,0.027431,-0.051515,0.003079,-0.006756,0.01032,0.004637,-0.481577,-0.049137,-0.173326,-265.512413,-1.338978,63.481739
0.7966,0.029249,0.027608,-0.052001,0.003079,-0.00676,0.010415,0.003188,-0.481876,-0.05129,-0.173326,-265.512413,-1.338978,63.481739
0.8169,0.029696,0.027947,-0.051236,0.003079,-0.006764,0.010494,0.003188,-0.481876,-0.05129,-0.173326,-265.512413,-1.338978,63.481739
0.8365,0.029471,0.027593,-0.049712,0.003079,-0.006767,0.010558,0.00369,-0.48167,-0.050809,-0.146202,-265.511184,-1.339279,63.487036
0.8566,0.029041,0.0276,-0.050308,0.003052,-0.006766,0.010647,0.003881,-0.481746,-0.050315,-0.146202,-265.511184,-1.339279,63.487036
0.8765,0.029145,0.02665,-0.049362,0.003029,-0.006766,0.01072,0.003479,-0.481968,-0.049982,-0.103016,-265.509983,-1.341905,63.492303
0.8969,0.029011,0.027185,-0.050096,0.003001,-0.006765,0.010819,0.00394,-0.482671,-0.049401,-0.103016,-265.509983,-1.341905,63.492303
0.9167,0.029316,0.027175,-0.047907,0.002977,-0.006764,0.010901,0.00394,-0.482671,-0.049401,-0.103016,-265.509983,-1.341905,63.492303
0.9368,0.029031,0.026587,-0.050083,0.002957,-0.006764,0.010968,0.005005,-0.482524,-0.047465,-0.072176,-265.508787,-1.34708,63.497681
0.9571,0.02869,0.02678,-0.047595,0.00292,-0.006761,0.01106,0.004405,-0.482658,-0.048479,-0.072176,-265.508787,-1.34708,63.497681
0.9767,0.029009,0.02639,-0.048869,0.00289,-0.006759,0.011135,0.004508,-0.482858,-0.047254,-0.022043,-265.50765,-1.354621,63.502979
0.997,0.02877,0.026509,-0.048345,0.002872,-0.006758,0.011233,0.004137,-0.482999,-0.048708,-0.022043,-265.50765,-1.354621,63.502979
1.0171,0.028999,0.025986,-0.049845,0.002857,-0.006758,0.011315,0.004137,-0.482999,-0.048708,-0.022043,-265.50765,-1.354621,63.502979
1.0368,0.028931,0.0257,-0.047564,0.002845,-0.006758,0.011382,0.003693,-0.483663,-0.04939,0.014551,-265.506521,-1.360792,63.508396
1.057,0.028904,0.02633,-0.047011,0.002829,-0.006757,0.011468,0.004109,-0.48372,-0.048592,0.014551,-265.506521,-1.360792,63.508396
1.0764,0.028737,0.025963,-0.048092,0.002816,-0.006756,0.011539,0.005014,-0.483315,-0.046665,0.068098,-265.505432,-1.3662,63.513744
1.0971,0.028564,0.025721,-0.04711,0.002799,-0.006755,0.011621,0.004293,-0.483446,-0.04795,0.068098,-265.505432,-1.3662,63.513744
1.1171,0.028834,0.025729,-0.047552,0.002785,-0.006754,0.011689,0.004293,-0.483446,-0.04795,0.068098,-265.505432,-1.3662,63.513744
1.1369,0.028403,0.025387,-0.047832,0.002773,-0.006753,0.011746,0.004694,-0.483977,-0.047079,0.103174,-265.504322,-1.369525,63.519267
1.1568,0.028403,0.025253,-0.047246,0.002751,-0.00675,0.011809,0.004436,-0.484031,-0.047324,0.103174,-265.504322,-1.369525,63.519267
1.1763,0.028221,0.025378,-0.044505,0.002734,-0.006748,0.011862,0.004392,-0.48439,-0.046884,0.150716,-265.503239,-1.374279,63.52475
1.1966,0.028403,0.025551,-0.046338,0.002675,-0.006738,0.011911,0.005436,-0.484151,-0.044693,0.150716,-265.503239,-1.374279,63.52475
1.2168,0.028433,0.024814,-0.045633,0.002627,-0.00673,0.011953,0.005436,-0.484151,-0.044693,0.150716,-265.503239,-1.374279,63.52475
1.2369,0.028364,0.024643,-0.044843,0.002587,-0.006724,0.011988,0.005268,-0.484939,-0.045144,0.17975,-265.502144,-1.377865,63.530368
1.2566,0.02817,0.024597,-0.04634,0.002548,-0.006717,0.012024,0.005375,-0.484933,-0.044965,0.17975,-265.502144,-1.377865,63.530368
1.2767,0.027863,0.024575,-0.044296,0.002516,-0.006712,0.012054,0.004615,-0.485066,-0.045972,0.227298,-265.50112,-1.388678,63.535874
1.2965,0.028088,0.024064,-0.044962,0.002495,-0.006708,0.012085,0.005225,-0.484948,-0.044423,0.227298,-265.50112,-1.388678,63.535874
1.3167,0.027639,0.024589,-0.044634,0.002478,-0.006706,0.012111,0.005225,-0.484948,-0.044423,0.227298,-265.50112,-1.388678,63.535874
1.3365,0.027885,0.024285,-0.045055,0.002463,-0.006703,0.012133,0.004975,-0.485185,-0.044135,0.253023,-265.500093,-1.393871,63.541523
1.3564,0.027773,0.024426,-0.04397,0.002459,-0.006703,0.012157,0.004961,-0.485223,-0.044451,0.253023,-265.500093,-1.393871,63.541523
1.3763,0.027747,0.023909,-0.043489,0.002456,-0.006703,0.012177,0.005423,-0.485295,-0.043588,0.279446,-265.49908,-1.398028,63.547189
1.3967,0.027659,0.024452,-0.044928,0.002423,-0.006696,0.012195,0.005564,-0.485591,-0.043478,0.279446,-265.49908,-1.398028,63.547189
1.4167,0.027293,0.023721,-0.044258,0.002397,-0.006691,0.012211,0.005564,-0.485591,-0.043478,0.279446,-265.49908,-1.398028,63.547189
1.4365,0.027043,0.023605,-0.042084,0.002374,-0.006687,0.012224,0.004819,-0.486064,-0.043749,0.29059,-265.498057,-1.398839,63.552918
1.4566,0.02744,0.023751,-0.043172,0.002368,-0.006686,0.012242,0.005142,-0.486048,-0.043013,0.29059,-265.498057,-1.398839,63.552918
1.4766,0.027259,0.023027,-0.042904,0.002363,-0.006685,0.012257,0.005495,-0.485987,-0.042787,0.317141,-265.497069,-1.404581,63.55859
1.497,0.027333,0.023282,-0.043594,0.002344,-0.006681,0.012271,0.005398,-0.486468,-0.042874,0.317141,-265.497069,-1.404581,63.55859
1.5171,0.026897,0.023073,-0.042042,0.002327,-0.006677,0.012284,0.005398,-0.486468,-0.042874,0.317141,-265.497069,-1.404581,63.55859
1.5368,0.026834,0.022731,-0.041655,0.002314,-0.006674,0.012295,0.005549,-0.48676,-0.041529,0.32676,-265.496072,-1.405536,63.564328
1.557,0.027222,0.022843,-0.041335,0.00229,-0.006669,0.012306,0.005578,-0.486819,-0.041521,0.32676,-265.496072,-1.405536,63.564328
1.5763,0.026629,0.022482,-0.041378,0.002269,-0.006664,0.012316,0.006212,-0.486936,-0.040946,0.34622,-265.495095,-1.409078,63.570041
1.5965,0.026452,0.022827,-0.041451,0.002249,-0.00666,0.012328,0.005597,-0.48708,-0.041319,0.34622,-265.495095,-1.409078,63.570041
1.6167,0.026679,0.02237,-0.041634,0.002231,-0.006656,0.012338,0.005597,-0.48708,-0.041319,0.34622,-265.495095,-1.409078,63.570041
1.637,0.026412,0.02238,-0.041803,0.002217,-0.006652,0.012347,0.005535,-0.48747,-0.041119,0.361371,-265.494128,-1.41217,63.575765
1.6569,0.026791,0.021908,-0.039939,0.002212,-0.006651,0.012358,0.005368,-0.487383,-0.041337,0.361371,-265.494128,-1.41217,63.575765
1.6767,0.026022,0.021749,-0.040983,0.002208,-0.00665,0.012368,0.006489,-0.487898,-0.039548,0.381211,-265.493179,-1.415833,63.581474
1.6967,0.026153,0.021887,-0.039155,0.002204,-0.006649,0.012378,0.005252,-0.487841,-0.040834,0.381211,-265.493179,-1.415833,63.581474
1.7167,0.026178,0.021571,-0.040734,0.0022,-0.006648,0.012387,0.005252,-0.487841,-0.040834,0.381211,-265.493179,-1.415833,63.581474
1.7365,0.026432,0.021421,-0.038447,0.002197,-0.006647,0.012395,0.00549,-0.488288,-0.040216,0.388476,-265.492225,-1.416594,63.587219
1.7569,0.026017,0.021659,-0.038487,0.002152,-0.006636,0.012398,0.006042,-0.488285,-0.03944,0.388476,-265.492225,-1.416594,63.587219
1.7763,0.025634,0.021197,-0.038272,0.002114,-0.006626,0.012402,0.006455,-0.488177,-0.038093,0.397755,-265.491273,-1.417476,63.592966
1.7968,0.025706,0.021051,-0.040682,0.002075,-0.006616,0.012407,0.006153,-0.488418,-0.038236,0.397755,-265.491273,-1.417476,63.592966
1.8167,0.025562,0.0215,-0.038602,0.002042,-0.006608,0.012412,0.006153,-0.488418,-0.038236,0.397755,-265.491273,-1.417476,63.592966
1.8365,0.025315,0.021071,-0.038101,0.002016,-0.006601,0.012417,0.005957,-0.488399,-0.038087,0.42172,-265.490355,-1.423015,63.598653
1.8567,0.025841,0.021165,-0.039008,0.002002,-0.006597,0.012423,0.005938,-0.488495,-0.038034,0.42172,-265.490355,-1.423015,63.598653
1.8763,0.025597,0.020725,-0.037487,0.001991,-0.006594,0.012429,0.006007,-0.488656,-0.038619,0.453707,-265.489474,-1.429636,63.604287
1.8965,0.025449,0.020538,-0.036892,0.001952,-0.006584,0.012431,0.006443,-0.488904,-0.037569,0.453707,-265.489474,-1.429636,63.604287
1.9168,0.025495,0.020813,-0.038671,0.00192,-0.006575,0.012434,0.006443,-0.488904,-0.037569,0.453707,-265.489474,-1.429636,63.604287
1.9369,0.025308,0.020519,-0.03604,0.001894,-0.006568,0.012437,0.00585,-0.489084,-0.038152,0.46405,-265.488583,-1.431356,63.610016
1.9564,0.025342,0.020256,-0.036353,0.001874,-0.006562,0.012441,0.006305,-0.489143,-0.037221,0.46405,-265.488583,-1.431356,63.610016
1.9767,0.024889,0.020337,-0.036125,0.001858,-0.006558,0.012444,0.006858,-0.489614,-0.035965,0.497398,-265.487738,-1.437871,63.615618
1.9964,0.02516,0.020016,-0.037507,0.001831,-0.00655,0.012446,0.006507,-0.489367,-0.036091,0.497398,-265.487738,-1.437871,63.615618
2.0164,0.025168,0.019948,-0.035232,0.001809,-0.006543,0.012449,0.006507,-0.489367,-0.036091,0.497398,-265.487738,-1.437871,63.615618
2.0365,0.024624,0.019357,-0.035732,0.00179,-0.006537,0.012451,0.007272,-0.490011,-0.034713,0.511325,-265.486887,-1.440274,63.621322
2.0567,0.024679,0.019695,-0.035474,0.001741,-0.006522,0.012451,0.006921,-0.49017,-0.035074,0.511325,-265.486887,-1.440274,63.621322
2.0766,0.024342,0.019252,-0.033988,0.001701,-0.006509,0.012451,0.00664,-0.490191,-0.035083,0.537459,-265.486063,-1.444861,63.62696
2.0965,0.024385,0.019228,-0.03294,0.001659,-0.006495,0.012452,0.006982,-0.490442,-0.034062,0.537459,-265.486063,-1.444861,63.62696
2.1166,0.024135,0.019487,-0.034989,0.001624,-0.006483,0.012453,0.006982,-0.490442,-0.034062,0.537459,-265.486063,-1.444861,63.62696
2.1366,0.024404,0.019141,-0.033163,0.001595,-0.006474,0.012454,0.006354,-0.49047,-0.03448,0.5724,-265.48527,-1.450869,63.632532
2.1566,0.02436,0.019246,-0.034362,0.001577,-0.006468,0.012456,0.00683,-0.490546,-0.033879,0.5724,-265.48527,-1.450869,63.632532
2.1765,0.023841,0.018595,-0.035202,0.001562,-0.006462,0.012458,0.006881,-0.490653,-0.03398,0.617461,-265.484514,-1.457989,63.638005
2.1966,0.023974,0.019003,-0.033347,0.001583,-0.006468,0.012463,0.005984,-0.49106,-0.035072,0.617461,-265.484514,-1.457989,63.638005
2.2166,0.024184,0.018451,-0.033635,0.001601,-0.006473,0.012466,0.005984,-0.49106,-0.035072,0.617461,-265.484514,-1.457989,63.638005
2.2365,0.02365,0.01861,-0.033781,0.001615,-0.006478,0.012469,0.007089,-0.491532,-0.033116,0.633258,-265.483742,-1.460268,63.643645
2.2564,0.023566,0.018127,-0.032457,0.001577,-0.006465,0.012467,0.006825,-0.491387,-0.033327,0.633258,-265.483742,-1.460268,63.643645
2.2769,0.023449,0.018274,-0.031608,0.001546,-0.006454,0.012465,0.00706,-0.491811,-0.032062,0.613695,-265.482955,-1.456671,63.649297
2.2968,0.023807,0.017973,-0.031525,0.001493,-0.006435,0.012462,0.00731,-0.491512,-0.031628,0.613695,-265.482955,-1.456671,63.649297
2.3167,0.023598,0.018239,-0.032769,0.001449,-0.006419,0.01246,0.00731,-0.491512,-0.031628,0.613695,-265.482955,-1.456671,63.649297
2.3368,0.023002,0.0175,-0.030902,0.001412,-0.006406,0.012459,0.006944,-0.491755,-0.032256,0.643353,-265.482191,-1.461317,63.654888
2.3567,0.023306,0.017836,-0.033465,0.001384,-0.006395,0.012459,0.007076,-0.491996,-0.031629,0.643353,-265.482191,-1.461317,63.654888
2.3765,0.022965,0.01752,-0.030169,0.001361,-0.006386,0.012459,0.006278,-0.49207,-0.033096,0.705738,-265.481496,-1.470358,63.660167
2.3965,0.023209,0.01724,-0.032706,0.001315,-0.006368,0.012457,0.007475,-0.492243,-0.030393,0.705738,-265.481496,-1.470358,63.660167
2.4168,0.023305,0.017918,-0.033258,0.001278,-0.006354,0.012455,0.007475,-0.492243,-0.030393,0.705738,-265.481496,-1.470358,63.660167
2.4365,0.02272,0.016934,-0.031141,0.001247,-0.006341,0.012454,0.006394,-0.492065,-0.032744,0.732442,-265.480775,-1.473885,63.66571
2.4568,0.02286,0.016984,-0.030711,0.001266,-0.006347,0.012457,0.006582,-0.492403,-0.032031,0.732442,-265.480775,-1.473885,63.66571
2.4769,0.022412,0.016723,-0.031483,0.001281,-0.006352,0.012459,0.007231,-0.492967,-0.030336,0.792365,-265.480102,-1.481612,63.671014
2.4965,0.022548,0.016633,-0.030833,0.001287,-0.006354,0.01246,0.006429,-0.493028,-0.031374,0.792365,-265.480102,-1.481612,63.671014
2.5168,0.023001,0.017025,-0.031095,0.001293,-0.006355,0.01246,0.006429,-0.493028,-0.031374,0.792365,-265.480102,-1.481612,63.671014
2.5365,0.022143,0.016328,-0.029081,0.001297,-0.006356,0.01246,0.00719,-0.492993,-0.030578,0.776163,-265.479386,-1.479314,63.676603
2.5565,0.022506,0.016904,-0.029442,0.001252,-0.006337,0.012456,0.007247,-0.493218,-0.029891,0.776163,-265.479386,-1.479314,63.676603
2.5764,0.022055,0.015974,-0.030006,0.001215,-0.006322,0.012453,0.007528,-0.493078,-0.029047,0.768614,-265.478665,-1.478179,63.682214
2.5968,0.021993,0.016599,-0.029089,0.001194,-0.006313,0.012453,0.006817,-0.493749,-0.029913,0.768614,-265.478665,-1.478179,63.682214
2.6167,0.022165,0.016349,-0.027533,0.001177,-0.006306,0.012453,0.006817,-0.493749,-0.029913,0.768614,-265.478665,-1.478179,63.682214
2.6367,0.021567,0.016104,-0.028315,0.001163,-0.006299,0.012453,0.008167,-0.493714,-0.02703,0.81289,-265.477984,-1.483806,63.687599
2.6567,0.021484,0.015575,-0.028051,0.001101,-0.006273,0.012449,0.007753,-0.493735,-0.02749,0.81289,-265.477984,-1.483806,63.687599
2.6768,0.021319,0.015349,-0.027506,0.00105,-0.006251,0.012447,0.007211,-0.494423,-0.027659,0.843317,-265.477294,-1.487329,63.693106
2.6965,0.021753,0.015461,-0.028605,0.001013,-0.006234,0.012447,0.007287,-0.494465,-0.0275,0.843317,-265.477294,-1.487329,63.693106
2.7168,0.021472,0.015463,-0.027791,0.000982,-0.00622,0.012448,0.007287,-0.494465,-0.0275,0.843317,-265.477294,-1.487329,63.693106
2.7367,0.021101,0.015465,-0.028086,0.000957,-0.006208,0.012448,0.007335,-0.494584,-0.027307,0.910251,-265.476657,-1.495147,63.698271
2.7565,0.021143,0.015639,-0.028893,0.000946,-0.006202,0.012448,0.00711,-0.49451,-0.027571,0.910251,-265.476657,-1.495147,63.698271
2.7767,0.021258,0.015153,-0.025723,0.000936,-0.006197,0.012447,0.006433,-0.494335,-0.028519,0.96939,-265.476017,-1.501587,63.703509
2.7964,0.021146,0.014888,-0.027752,0.000876,-0.006168,0.012441,0.007997,-0.494658,-0.025942,0.96939,-265.476017,-1.501587,63.703509
2.8166,0.021374,0.015056,-0.028067,0.000827,-0.006145,0.012437,0.007997,-0.494658,-0.025942,0.96939,-265.476017,-1.501587,63.703509
2.8372,0.020495,0.015033,-0.026671,0.000786,-0.006125,0.012434,0.007093,-0.495002,-0.02755,0.983262,-265.475345,-1.503064,63.709011
2.8565,0.020694,0.014882,-0.025045,0.000799,-0.006129,0.012436,0.007017,-0.494945,-0.027134,0.983262,-265.475345,-1.503064,63.709011
2.877,0.020709,0.014859,-0.023764,0.000809,-0.006133,0.012437,0.007941,-0.495127,-0.024704,1.058081,-265.474768,-1.513555,63.713776
2.8969,0.020248,0.014659,-0.025547,0.000732,-0.006095,0.01243,0.008544,-0.495013,-0.023818,1.058081,-265.474768,-1.513555,63.713776
2.9168,0.020528,0.014405,-0.024365,0.00067,-0.006063,0.012424,0.008544,-0.495013,-0.023818,1.058081,-265.474768,-1.513555,63.713776
2.937,0.020125,0.014153,-0.024624,0.000618,-0.006037,0.01242,0.008131,-0.495698,-0.023849,1.065771,-265.474103,-1.511938,63.719241
2.9569,0.020336,0.014007,-0.024675,0.000587,-0.00602,0.012419,0.007903,-0.495726,-0.024106,1.065771,-265.474103,-1.511938,63.719241
2.977,0.019718,0.013652,-0.024126,0.000562,-0.006006,0.012419,0.007766,-0.495988,-0.024368,1.140361,-265.473586,-1.525451,63.723472
2.9969,0.019803,0.014203,-0.024237,0.000554,-0.006,0.012414,0.007445,-0.496189,-0.024132,1.140361,-265.473586,-1.525451,63.723472
3.0167,0.020158,0.014116,-0.023861,0.000548,-0.005995,0.01241,0.007445,-0.496189,-0.024132,1.140361,-265.473586,-1.525451,63.723472
3.0369,0.019749,0.013699,-0.024322,0.000543,-0.00599,0.012406,0.008006,-0.49596,-0.023404,1.215427,-265.472996,-1.529494,63.728257
3.0574,0.019662,0.013453,-0.022281,0.000527,-0.005981,0.012399,0.007739,-0.496063,-0.023725,1.215427,-265.472996,-1.529494,63.728257
3.0771,0.019287,0.013687,-0.023037,0.000513,-0.005973,0.012392,0.008313,-0.496613,-0.021882,1.241006,-265.472332,-1.530781,63.733632
3.097,0.019597,0.01314,-0.024032,0.000503,-0.005966,0.012387,0.007611,-0.496227,-0.02291,1.241006,-265.472332,-1.530781,63.733632
3.1169,0.0198,0.013479,-0.023706,0.000495,-0.00596,0.012383,0.007611,-0.496227,-0.02291,1.241006,-265.472332,-1.530781,63.733632
3.1368,0.018988,0.013117,-0.023329,0.000489,-0.005956,0.012379,0.007726,-0.496627,-0.023191,1.259603,-265.471665,-1.532901,63.739022
3.1568,0.019218,0.013298,-0.022621,0.000476,-0.005947,0.012377,0.007469,-0.496704,-0.023187,1.259603,-265.471665,-1.532901,63.739022
3.1765,0.019023,0.012955,-0.022248,0.000465,-0.00594,0.012376,0.007693,-0.496761,-0.022229,1.275188,-265.470996,-1.534651,63.744417
3.1968,0.018781,0.012905,-0.022759,0.000437,-0.005923,0.012374,0.007679,-0.496914,-0.022227,1.275188,-265.470996,-1.534651,63.744417
3.2168,0.018609,0.012666,-0.022878,0.000414,-0.005909,0.012372,0.007679,-0.496914,-0.022227,1.275188,-265.470996,-1.534651,63.744417
3.2368,0.018433,0.012448,-0.021373,0.000395,-0.005897,0.012371,0.006955,-0.497448,-0.022363,1.290882,-265.470325,-1.53634,63.7498
3.2568,0.018283,0.012333,-0.020963,0.000387,-0.00589,0.012374,0.007193,-0.497472,-0.021898,1.290882,-265.470325,-1.53634,63.7498
3.2767,0.018484,0.012322,-0.019581,0.000381,-0.005884,0.012376,0.007601,-0.497736,-0.020582,1.337242,-265.469667,-1.541472,63.754994
3.2968,0.018137,0.012469,-0.020933,0.000301,-0.005835,0.012373,0.008418,-0.497604,-0.019652,1.337242,-265.469667,-1.541472,63.754994
3.3169,0.018348,0.012451,-0.019822,0.000236,-0.005795,0.012371,0.008418,-0.497604,-0.019652,1.337242,-265.469667,-1.541472,63.754994
3.3364,0.018259,0.011864,-0.020174,0.000183,-0.005761,0.01237,0.00825,-0.497696,-0.019303,1.347119,-265.468981,-1.542469,63.760362
3.3571,0.017693,0.01159,-0.019896,0.000144,-0.005736,0.01237,0.008138,-0.49786,-0.019596,1.347119,-265.468981,-1.542469,63.760362
3.3763,0.01767,0.011697,-0.019798,0.000113,-0.005715,0.01237,0.00755,-0.498455,-0.019583,1.422126,-265.468416,-1.55708,63.76454
3.3964,0.017803,0.011749,-0.017345,0.000105,-0.005706,0.012369,0.007572,-0.498233,-0.019763,1.422126,-265.468416,-1.55708,63.76454
3.4163,0.017278,0.011692,-0.020701,9.9e-05,-0.005699,0.012367,0.007572,-0.498233,-0.019763,1.422126,-265.468416,-1.55708,63.76454
3.4365,0.017469,0.011758,-0.017811,9.4e-05,-0.005693,0.012366,0.006722,-0.498411,-0.020243,1.497067,-265.467763,-1.562274,63.769235
3.4565,0.017623,0.011421,-0.018193,9.5e-05,-0.005691,0.012362,0.0074,-0.498333,-0.019199,1.497067,-265.467763,-1.562274,63.769235
3.4763,0.01711,0.010985,-0.01856,9.7e-05,-0.005689,0.012357,0.008345,-0.498675,-0.017803,1.520469,-265.467025,-1.563725,63.774487
3.4964,0.017163,0.01107,-0.018255,5.5e-05,-0.005659,0.012359,0.007708,-0.498913,-0.018472,1.520469,-265.467025,-1.563725,63.774487
3.5165,0.016737,0.011449,-0.020037,2.1e-05,-0.005635,0.01236,0.007708,-0.498913,-0.018472,1.520469,-265.467025,-1.563725,63.774487
3.5365,0.016659,0.010845,-0.018651,-7e-06,-0.005614,0.012362,0.006518,-0.498687,-0.019519,1.5188,-265.46628,-1.56349,63.779788
3.5566,0.016961,0.010523,-0.018293,3.1e-05,-0.005633,0.012371,0.006777,-0.49887,-0.019103,1.5188,-265.46628,-1.56349,63.779788
3.5771,0.016162,0.010671,-0.017257,6.2e-05,-0.005647,0.012378,0.007629,-0.499561,-0.017919,1.574219,-265.465541,-1.5713,63.784815
3.5966,0.016631,0.01056,-0.017899,2.7e-05,-0.005622,0.012375,0.007388,-0.499295,-0.017302,1.574219,-265.465541,-1.5713,63.784815
3.6166,0.016382,0.011056,-0.017097,-0.0,-0.005601,0.012374,0.007388,-0.499295,-0.017302,1.574219,-265.465541,-1.5713,63.784815
3.6371,0.016222,0.01014,-0.019006,-2.3e-05,-0.005583,0.012372,0.007662,-0.4991,-0.016591,1.538604,-265.464795,-1.566134,63.789964
3.6567,0.016425,0.010581,-0.017773,-3.4e-05,-0.005573,0.012371,0.007204,-0.499396,-0.017508,1.538604,-265.464795,-1.566134,63.789964
3.6767,0.015695,0.010289,-0.016409,-4.2e-05,-0.005564,0.012371,0.007358,-0.499511,-0.01739,1.58223,-265.464029,-1.572513,63.795067
3.6969,0.015598,0.0101,-0.01592,-6.9e-05,-0.005542,0.012365,0.007329,-0.499639,-0.016474,1.58223,-265.464029,-1.572513,63.795067
3.7169,0.015682,0.010159,-0.014893,-9.1e-05,-0.005523,0.012361,0.007329,-0.499639,-0.016474,1.58223,-265.464029,-1.572513,63.795067
3.7365,0.015652,0.009997,-0.015836,-0.000109,-0.005507,0.012357,0.008081,-0.500016,-0.014377,1.592077,-265.463235,-1.574026,63.800298
3.7567,0.015241,0.009832,-0.016169,-0.000172,-0.005453,0.01234,0.007874,-0.500012,-0.014914,1.592077,-265.463235,-1.574026,63.800298
3.7769,0.014561,0.009381,-0.014676,-0.000224,-0.005409,0.012326,0.006989,-0.500273,-0.015782,1.623993,-265.462429,-1.579116,63.805445
3.7969,0.015136,0.009779,-0.015787,-0.000244,-0.005384,0.012315,0.007069,-0.500548,-0.014751,1.623993,-265.462429,-1.579116,63.805445
3.8168,0.015232,0.009561,-0.014359,-0.000259,-0.005363,0.012306,0.007069,-0.500548,-0.014751,1.623993,-265.462429,-1.579116,63.805445
3.8368,0.01482,0.009551,-0.014308,-0.000272,-0.005345,0.012298,0.007897,-0.500602,-0.013868,1.676091,-265.461615,-1.588105,63.810393
3.8569,0.014596,0.009226,-0.014691,-0.000321,-0.005299,0.012276,0.007741,-0.500542,-0.013993,1.676091,-265.461615,-1.588105,63.810393
3.8764,0.014508,0.009214,-0.012593,-0.000361,-0.005261,0.012257,0.007093,-0.500887,-0.014303,1.695606,-265.460748,-1.591936,63.815493
3.8968,0.014595,0.009074,-0.013687,-0.000415,-0.005206,0.012212,0.007995,-0.500767,-0.012729,1.695606,-265.460748,-1.591936,63.815493
3.9167,0.014477,0.009232,-0.012421,-0.000459,-0.005159,0.012176,0.007995,-0.500767,-0.012729,1.695606,-265.460748,-1.591936,63.815493
3.9365,0.014102,0.009072,-0.012592,-0.000494,-0.00512,0.012146,0.008125,-0.500944,-0.011919,1.731466,-265.459866,-1.599074,63.820486
3.9568,0.014232,0.008949,-0.013394,-0.000528,-0.00508,0.012099,0.007942,-0.500946,-0.012134,1.731466,-265.459866,-1.599074,63.820486
3.9764,0.014296,0.008821,-0.01213,-0.000555,-0.005047,0.012062,0.007401,-0.501006,-0.013394,1.656463,-265.459866,-1.610191,63.820487
3.9965,0.014609,0.009216,-0.01256,-0.00059,-0.005009,0.012008,0.008046,-0.501129,-0.012243,1.656463,-265.459866,-1.610191,63.820487
4.0164,0.014726,0.00863,-0.01199,-0.000617,-0.004977,0.011963,0.008046,-0.501129,-0.012243,1.656463,-265.459866,-1.610191,63.820487
4.0365,0.014286,0.008944,-0.011818,-0.00064,-0.00495,0.011927,0.008611,-0.501334,-0.01199,1.581462,-265.459866,-1.615456,63.820487
4.0565,0.014443,0.008929,-0.012333,-0.000681,-0.004907,0.01185,0.008468,-0.501206,-0.011919,1.581462,-265.459866,-1.615456,63.820487
4.0764,0.014386,0.008806,-0.013018,-0.000714,-0.004872,0.011788,0.008154,-0.501033,-0.012333,1.506466,-265.459866,-1.623035,63.820488
4.0965,0.014146,0.008844,-0.01328,-0.000702,-0.004878,0.011742,0.007784,-0.50114,-0.012957,1.506466,-265.459866,-1.623035,63.820488
4.1166,0.014478,0.008749,-0.015224,-0.000692,-0.004883,0.011704,0.007784,-0.50114,-0.012957,1.506466,-265.459866,-1.623035,63.820488
4.1364,0.014384,0.008939,-0.013472,-0.000684,-0.004887,0.011672,0.006714,-0.501192,-0.015224,1.431446,-265.459866,-1.629879,63.820488
4.1567,0.014271,0.008759,-0.013299,-0.000631,-0.00493,0.011635,0.007042,-0.501119,-0.014505,1.431446,-265.459866,-1.629879,63.820488
4.1764,0.014665,0.009486,-0.015187,-0.00059,-0.004966,0.011605,0.007489,-0.501196,-0.013299,1.356361,-265.459866,-1.627621,63.820489
4.1964,0.01435,0.008687,-0.012394,-0.000519,-0.005025,0.01154,0.006968,-0.500518,-0.015028,1.356361,-265.459866,-1.627621,63.820489
4.2165,0.01431,0.008618,-0.01361,-0.000463,-0.005074,0.011486,0.006968,-0.500518,-0.015028,1.356361,-265.459866,-1.627621,63.820489
4.2366,0.014529,0.008814,-0.013208,-0.000417,-0.005114,0.011443,0.007369,-0.501335,-0.01361,1.281304,-265.459867,-1.619676,63.820489
4.2567,0.014221,0.008979,-0.0122,-0.00045,-0.005089,0.01134,0.007542,-0.501256,-0.013446,1.281304,-265.459867,-1.619676,63.820489
4.2766,0.014302,0.008858,-0.013187,-0.000477,-0.005068,0.011256,0.007999,-0.500983,-0.0122,1.206457,-265.459867,-1.605217,63.82049
4.2968,0.01465,0.008983,-0.013268,-0.000492,-0.005055,0.011135,0.007614,-0.501088,-0.0131,1.206457,-265.459867,-1.605217,63.82049
4.3168,0.014169,0.008681,-0.012458,-0.000504,-0.005044,0.011036,0.007614,-0.501088,-0.0131,1.206457,-265.459867,-1.605217,63.82049
4.3369,0.014212,0.008707,-0.01379,-0.000514,-0.005035,0.010956,0.007815,-0.50128,-0.012458,1.130958,-265.459867,-1.610738,63.82049
4.3568,0.014329,0.008777,-0.012676,-0.000526,-0.005024,0.010842,0.007552,-0.501265,-0.013008,1.130958,-265.459867,-1.610738,63.82049
4.3766,0.014303,0.008955,-0.013341,-0.000535,-0.005014,0.01075,0.007864,-0.501182,-0.012676,1.056261,-265.459867,-1.614603,63.820491
4.3969,0.014186,0.0088,-0.013525,-0.000526,-0.005021,0.010629,0.007533,-0.501017,-0.013279,1.056261,-265.459867,-1.614603,63.820491
4.4169,0.014326,0.008781,-0.01522,-0.000519,-0.005027,0.01053,0.007533,-0.501017,-0.013279,1.056261,-265.459867,-1.614603,63.820491
4.4367,0.014296,0.009044,-0.013389,-0.000514,-0.005031,0.01045,0.006564,-0.50116,-0.01522,0.981524,-265.459867,-1.616957,63.820491
4.4569,0.014251,0.008884,-0.01268,-0.000474,-0.005064,0.010344,0.00693,-0.501059,-0.014478,0.981524,-265.459867,-1.616957,63.820491
4.4768,0.014503,0.008608,-0.012253,-0.000442,-0.00509,0.010258,0.007784,-0.501075,-0.01268,0.90646,-265.459867,-1.615769,63.820492
4.4967,0.014466,0.008738,-0.013502,-0.000501,-0.005038,0.010152,0.008211,-0.501328,-0.012292,0.90646,-265.459867,-1.615769,63.820492
4.5166,0.014159,0.009246,-0.013687,-0.000548,-0.004995,0.010067,0.008211,-0.501328,-0.012292,0.90646,-265.459867,-1.615769,63.820492
4.537,0.014002,0.008728,-0.013,-0.000587,-0.004959,0.009999,0.007179,-0.500707,-0.013687,0.831458,-265.459867,-1.609678,63.820492
4.557,0.014322,0.008743,-0.013212,-0.000545,-0.004991,0.009967,0.007258,-0.50092,-0.013406,0.831458,-265.459867,-1.609678,63.820492
4.5767,0.014343,0.008924,-0.012747,-0.000511,-0.005017,0.009941,0.007584,-0.501213,-0.013212,0.756359,-265.459867,-1.623769,63.820492
4.5966,0.014072,0.009053,-0.014326,-0.000523,-0.005008,0.009908,0.00782,-0.50105,-0.012787,0.756359,-265.459867,-1.623769,63.820492
4.6168,0.014129,0.008306,-0.012194,-0.000532,-0.005,0.009882,0.00782,-0.50105,-0.012787,0.756359,-265.459867,-1.623769,63.820492
4.6368,0.014345,0.008933,-0.015807,-0.000539,-0.004993,0.00986,0.00791,-0.501656,-0.012194,0.681305,-265.459867,-1.616887,63.820493
4.6567,0.01435,0.008621,-0.012323,-0.00053,-0.005002,0.009858,0.007242,-0.501388,-0.013678,0.681305,-265.459867,-1.616887,63.820493
4.6765,0.014135,0.008882,-0.013096,-0.000522,-0.005009,0.009856,0.008065,-0.50134,-0.012323,0.606331,-265.459867,-1.619719,63.820493
4.6971,0.014169,0.008821,-0.01227,-0.000516,-0.005013,0.009844,0.00751,-0.501098,-0.013027,0.606331,-265.459867,-1.619719,63.820493
4.7169,0.014319,0.009229,-0.01171,-0.000511,-0.005016,0.009835,0.00751,-0.501098,-0.013027,0.606331,-265.459867,-1.619719,63.820493
4.7365,0.014213,0.008742,-0.013164,-0.000507,-0.005019,0.009827,0.008347,-0.500736,-0.01171,0.531411,-265.459867,-1.618083,63.820494
4.7563,0.014318,0.00923,-0.014368,-0.000522,-0.005005,0.009804,0.008,-0.500931,-0.012304,0.531411,-265.459867,-1.618083,63.820494
4.7766,0.014267,0.009056,-0.01359,-0.000534,-0.004994,0.009786,0.006991,-0.500718,-0.014368,0.456459,-265.459867,-1.616806,63.820494
4.7967,0.014238,0.008959,-0.013903,-0.000503,-0.00502,0.009797,0.007305,-0.500881,-0.01366,0.456459,-265.459867,-1.616806,63.820494
4.8167,0.014571,0.008617,-0.01278,-0.000478,-0.005042,0.009806,0.007305,-0.500881,-0.01366,0.456459,-265.459867,-1.616806,63.820494
4.8371,0.01431,0.009166,-0.012302,-0.000458,-0.005061,0.009813,0.008053,-0.501341,-0.01278,0.381466,-265.459867,-1.619418,63.820495
4.857,0.014307,0.008677,-0.013287,-0.000495,-0.005031,0.009799,0.008047,-0.501121,-0.012587,0.381466,-265.459867,-1.619418,63.820495
4.8767,0.014527,0.008895,-0.013901,-0.000524,-0.005006,0.009788,0.007531,-0.501278,-0.013287,0.306371,-265.459867,-1.612219,63.820495
4.8971,0.014426,0.008825,-0.013038,-0.000514,-0.005018,0.0098,0.007446,-0.501074,-0.013849,0.306371,-265.459867,-1.612219,63.820495
4.9169,0.013876,0.0088,-0.013033,-0.000505,-0.005028,0.00981,0.007446,-0.501074,-0.013849,0.306371,-265.459867,-1.612219,63.820495
4.937,0.013988,0.009202,-0.013827,-0.000499,-0.005036,0.009818,0.007229,-0.501157,-0.013033,0.231327,-265.459867,-1.618497,63.820496
4.9564,0.014479,0.008957,-0.011599,-0.000468,-0.005058,0.00982,0.00711,-0.50099,-0.013358,0.231327,-265.459867,-1.618497,63.820496
4.9766,0.014094,0.008575,-0.013521,-0.000443,-0.005077,0.009821,0.008564,-0.501009,-0.011599,0.156451,-265.459867,-1.61596,63.820496
4.9969,0.014151,0.008693,-0.012998,-0.000454,-0.005068,0.009821,0.007321,-0.501345,-0.013348,0.156451,-265.459867,-1.61596,63.820496
5.0169,0.014546,0.008879,-0.013036,-0.000463,-0.005061,0.009822,0.007321,-0.501345,-0.013348,0.156451,-265.459867,-1.61596,63.820496
5.0367,0.014192,0.008451,-0.012699,-0.00047,-0.005056,0.009822,0.007898,-0.501078,-0.013036,0.081443,-265.459867,-1.610743,63.820496
5.057,0.01387,0.009127,-0.011485,-0.0005,-0.005032,0.009814,0.007824,-0.501253,-0.012898,0.081443,-265.459867,-1.610743,63.820496
5.0763,0.014082,0.008971,-0.012991,-0.000524,-0.005012,0.009807,0.008013,-0.50084,-0.011485,0.006456,-265.459867,-1.613309,63.820497
5.0965,0.01422,0.009065,-0.013062,-0.00051,-0.00502,0.009801,0.007507,-0.500973,-0.012855,0.006456,-265.459867,-1.613309,63.820497
5.1165,0.014291,0.008971,-0.013768,-0.0005,-0.005027,0.009797,0.007507,-0.500973,-0.012855,0.006456,-265.459867,-1.613309,63.820497
5.1364,0.014434,0.009145,-0.013667,-0.000491,-0.005033,0.009793,0.007269,-0.50098,-0.013768,-0.068565,-265.459867,-1.618354,63.820497
5.1565,0.014441,0.008894,-0.012248,-0.000473,-0.00505,0.009803,0.007349,-0.50091,-0.013726,-0.068565,-265.459867,-1.618354,63.820497
5.1763,0.014137,0.008586,-0.013896,-0.000458,-0.005065,0.009811,0.008195,-0.501068,-0.012248,-0.14357,-265.459868,-1.615351,63.820498
5.1964,0.014162,0.008923,-0.012064,-0.000456,-0.005068,0.009819,0.007149,-0.501339,-0.013755,-0.14357,-265.459868,-1.615351,63.820498
5.2166,0.01425,0.008809,-0.014098,-0.000454,-0.005071,0.009825,0.007149,-0.501339,-0.013755,-0.14357,-265.459868,-1.615351,63.820498
5.2367,0.014378,0.008892,-0.014075,-0.000452,-0.005073,0.00983,0.00706,-0.501141,-0.014098,-0.218672,-265.459868,-1.612185,63.820498
5.2565,0.01415,0.009058,-0.012619,-0.000437,-0.005087,0.009837,0.007117,-0.501107,-0.014089,-0.218672,-265.459868,-1.612185,63.820498
5.2767,0.013864,0.008645,-0.013967,-0.000425,-0.005099,0.009843,0.007715,-0.500901,-0.012619,-0.293549,-265.459868,-1.611589,63.820499
5.2972,0.014125,0.008661,-0.013655,-0.000404,-0.005114,0.009846,0.006823,-0.501271,-0.013853,-0.293549,-265.459868,-1.611589,63.820499
5.317,0.01445,0.008643,-0.014087,-0.000388,-0.005126,0.009849,0.006823,-0.501271,-0.013853,-0.293549,-265.459868,-1.611589,63.820499
5.3369,0.014138,0.009127,-0.01221,-0.000375,-0.005136,0.009851,0.007266,-0.501306,-0.014087,-0.368705,-265.459868,-1.609023,63.820499
5.3567,0.014491,0.009036,-0.011996,-0.000399,-0.005118,0.009845,0.007529,-0.501114,-0.013322,-0.368705,-265.459868,-1.609023,63.820499
5.3766,0.014643,0.009051,-0.013044,-0.00042,-0.005104,0.00984,0.008373,-0.500927,-0.011996,-0.443539,-265.459868,-1.604372,63.8205
5.3967,0.01395,0.008686,-0.013665,-0.000453,-0.005078,0.009828,0.008025,-0.500907,-0.012948,-0.443539,-265.459868,-1.604372,63.8205
5.4169,0.013977,0.00911,-0.013614,-0.00048,-0.005057,0.009819,0.008025,-0.500907,-0.012948,-0.443539,-265.459868,-1.604372,63.8205
5.4367,0.014284,0.008948,-0.013627,-0.000502,-0.00504,0.009812,0.007034,-0.500843,-0.013614,-0.518542,-265.459868,-1.608537,63.820501
5.4571,0.014143,0.008693,-0.011772,-0.000469,-0.005064,0.009818,0.007155,-0.500909,-0.013619,-0.518542,-265.459868,-1.608537,63.820501
5.4763,0.013835,0.009051,-0.012381,-0.000443,-0.005085,0.009823,0.008139,-0.501272,-0.01177,-0.593535,-265.45987,-1.616232,63.82052
5.4965,0.014168,0.008669,-0.012752,-0.000447,-0.005077,0.009802,0.007575,-0.500942,-0.012327,-0.593535,-265.45987,-1.616232,63.82052
5.517,0.014001,0.008815,-0.01278,-0.00045,-0.005071,0.009786,0.007575,-0.500942,-0.012327,-0.593535,-265.45987,-1.616232,63.82052
5.5367,0.014112,0.008593,-0.011714,-0.000452,-0.005065,0.009772,0.007483,-0.501145,-0.012777,-0.668631,-265.459874,-1.610749,63.820563
5.5568,0.014037,0.008663,-0.012117,-0.000478,-0.005041,0.009762,0.00775,-0.501238,-0.012344,-0.668631,-265.459874,-1.610749,63.820563
5.5764,0.014262,0.008802,-0.013331,-0.0005,-0.005022,0.009754,0.007856,-0.501306,-0.012105,-0.743554,-265.45989,-1.611714,63.820747
5.5965,0.013914,0.008569,-0.01247,-0.000501,-0.005023,0.009765,0.007497,-0.501166,-0.013226,-0.743554,-265.45989,-1.611714,63.820747
5.6167,0.014054,0.009008,-0.01291,-0.000502,-0.005023,0.009774,0.007497,-0.501166,-0.013226,-0.743554,-265.45989,-1.611714,63.820747
5.6366,0.014088,0.008813,-0.014217,-0.000502,-0.005024,0.009781,0.007466,-0.500983,-0.012846,-0.818664,-265.459957,-1.616289,63.82144
5.6568,0.014033,0.008803,-0.013986,-0.00048,-0.005042,0.00979,0.007208,-0.501049,-0.013399,-0.818664,-265.459957,-1.616289,63.82144
5.6764,0.013854,0.00864,-0.012909,-0.000462,-0.005057,0.009798,0.006893,-0.501198,-0.013888,-0.893669,-265.460094,-1.616453,63.822844
5.6969,0.014165,0.008638,-0.013254,-0.000461,-0.005056,0.009797,0.007239,-0.50131,-0.012986,-0.893669,-265.460094,-1.616453,63.822844
5.7168,0.014127,0.009026,-0.014238,-0.000461,-0.005054,0.009796,0.007239,-0.50131,-0.012986,-0.893669,-265.460094,-1.616453,63.822844
5.7366,0.01424,0.008986,-0.012573,-0.000461,-0.005053,0.009796,0.006854,-0.501023,-0.014045,-0.968744,-265.46029,-1.612576,63.824935
5.7569,0.013877,0.00895,-0.01271,-0.000447,-0.005066,0.009802,0.007248,-0.501015,-0.013426,-0.968744,-265.46029,-1.612576,63.824935
5.7768,0.013946,0.008196,-0.011541,-0.000436,-0.005077,0.009806,0.007383,-0.501126,-0.012484,-1.043545,-265.460592,-1.612571,63.828147
5.797,0.013754,0.008547,-0.012792,-0.000502,-0.005016,0.009837,0.008002,-0.501721,-0.01161,-1.043545,-265.460592,-1.612571,63.828147
5.8167,0.013707,0.008511,-0.011767,-0.000556,-0.004965,0.009863,0.008002,-0.501721,-0.01161,-1.043545,-265.460592,-1.612571,63.828147
5.8366,0.013147,0.008091,-0.011401,-0.000599,-0.004924,0.009885,0.007687,-0.501644,-0.011399,-1.118696,-265.460956,-1.610185,63.832133
5.857,0.01355,0.008335,-0.01128,-0.000613,-0.004904,0.009927,0.007538,-0.501762,-0.011357,-1.118696,-265.460956,-1.610185,63.832133
5.8764,0.013178,0.008041,-0.013227,-0.000624,-0.004887,0.009962,0.007778,-0.501785,-0.010976,-1.07744,-265.461445,-1.62536,63.836379
5.8971,0.013367,0.008013,-0.01133,-0.000583,-0.004916,0.010081,0.006553,-0.50191,-0.013008,-1.07744,-265.461445,-1.62536,63.836379
5.9171,0.01331,0.007921,-0.010762,-0.00055,-0.004939,0.010176,0.006553,-0.50191,-0.013008,-1.07744,-265.461445,-1.62536,63.836379
5.9367,0.012771,0.007748,-0.012041,-0.000524,-0.004958,0.010254,0.007793,-0.502253,-0.010347,-1.090337,-265.461984,-1.627619,63.840762
5.9568,0.012965,0.007634,-0.011572,-0.00057,-0.004913,0.010276,0.007315,-0.502261,-0.010991,-1.090337,-265.461984,-1.627619,63.840762
5.9765,0.012661,0.007384,-0.01121,-0.000606,-0.004876,0.010297,0.007047,-0.502467,-0.011293,-1.165329,-265.462467,-1.617493,63.844622
5.997,0.012977,0.007416,-0.009387,-0.000633,-0.004844,0.010359,0.006952,-0.502581,-0.011204,-1.165329,-265.462467,-1.617493,63.844622
6.017,0.012585,0.007783,-0.010961,-0.000654,-0.004817,0.01041,0.006952,-0.502581,-0.011204,-1.165329,-265.462467,-1.617493,63.844622
6.037,0.012361,0.007157,-0.010497,-0.000671,-0.004795,0.010452,0.006968,-0.502389,-0.010533,-1.165516,-265.463079,-1.62505,63.849071
6.0568,0.012341,0.007284,-0.009897,-0.000688,-0.004773,0.010469,0.006981,-0.502586,-0.010469,-1.165516,-265.463079,-1.62505,63.849071
6.0765,0.012127,0.007131,-0.008568,-0.000701,-0.004754,0.010486,0.007271,-0.502843,-0.009565,-1.171002,-265.463769,-1.630767,63.853555
6.0965,0.011964,0.007177,-0.008788,-0.000773,-0.004686,0.010331,0.007715,-0.502857,-0.008635,-1.171002,-265.463769,-1.630767,63.853555
6.1168,0.012211,0.007394,-0.007597,-0.000829,-0.004629,0.010219,0.007715,-0.502857,-0.008635,-1.171002,-265.463769,-1.630767,63.853555
6.1367,0.011594,0.006705,-0.009121,-0.000874,-0.004581,0.01014,0.008306,-0.50279,-0.007159,-1.168892,-265.464485,-1.63357,63.858017
6.1567,0.011707,0.006786,-0.008715,-0.000922,-0.004529,0.009994,0.007748,-0.503009,-0.007906,-1.168892,-265.464485,-1.63357,63.858017
6.1765,0.011186,0.006573,-0.009226,-0.00096,-0.004486,0.009889,0.007238,-0.50332,-0.008437,-1.094064,-265.465117,-1.651715,63.861746
6.1966,0.011516,0.00621,-0.00966,-0.000942,-0.004483,0.009993,0.006544,-0.503404,-0.009146,-1.094064,-265.465117,-1.651715,63.861746
6.217,0.01186,0.006513,-0.007446,-0.000927,-0.00448,0.010076,0.006544,-0.503404,-0.009146,-1.094064,-265.465117,-1.651715,63.861746
6.237,0.011395,0.00649,-0.008075,-0.000915,-0.004476,0.010141,0.008025,-0.503643,-0.00707,-1.018905,-265.465781,-1.661763,63.865587
6.257,0.011351,0.00634,-0.006703,-0.000988,-0.0044,0.009953,0.007714,-0.503601,-0.007438,-1.018905,-265.465781,-1.661763,63.865587
6.2763,0.010728,0.006153,-0.006699,-0.001046,-0.004337,0.009816,0.007904,-0.503782,-0.0064,-1.081237,-265.466511,-1.656362,63.869603
6.2968,0.01095,0.006289,-0.005792,-0.00109,-0.004285,0.009573,0.007364,-0.503838,-0.006656,-1.081237,-265.466511,-1.656362,63.869603
6.3171,0.010735,0.006473,-0.00678,-0.001124,-0.004242,0.009399,0.007364,-0.503838,-0.006656,-1.081237,-265.466511,-1.656362,63.869603
6.3366,0.010465,0.006333,-0.005924,-0.001149,-0.004207,0.009275,0.007236,-0.503681,-0.006404,-1.008153,-265.467229,-1.671637,63.873411
6.3569,0.010815,0.006138,-0.005816,-0.001159,-0.004191,0.00908,0.007317,-0.50369,-0.006162,-1.008153,-265.467229,-1.671637,63.873411
6.3771,0.010539,0.005897,-0.005409,-0.001165,-0.004177,0.008941,0.007818,-0.503964,-0.005569,-0.932937,-265.467849,-1.68668,63.876729
6.3967,0.010562,0.005891,-0.005495,-0.001221,-0.004118,0.008659,0.007782,-0.50409,-0.005411,-0.932937,-265.467849,-1.68668,63.876729
6.417,0.010272,0.005837,-0.006766,-0.001263,-0.004068,0.008458,0.007782,-0.50409,-0.005411,-0.932937,-265.467849,-1.68668,63.876729
6.4365,0.010545,0.005615,-0.007122,-0.001295,-0.004026,0.008314,0.00678,-0.5043,-0.006446,-0.858036,-265.468441,-1.691089,63.880043
6.4568,0.010182,0.00548,-0.007764,-0.001279,-0.004016,0.008482,0.006829,-0.504346,-0.006686,-0.858036,-265.468441,-1.691089,63.880043
6.4765,0.010372,0.005607,-0.005614,-0.001267,-0.004007,0.008606,0.006197,-0.504581,-0.007601,-0.783032,-265.468845,-1.71207,63.882269
6.4965,0.00982,0.005487,-0.005798,-0.001294,-0.003968,0.008506,0.007396,-0.504406,-0.005776,-0.783032,-265.468845,-1.71207,63.882269
6.5174,0.010239,0.005592,-0.006718,-0.001314,-0.003935,0.008432,0.007396,-0.504406,-0.005776,-0.783032,-265.468845,-1.71207,63.882269
6.5367,0.009524,0.00519,-0.005724,-0.00133,-0.003908,0.008376,0.006759,-0.504563,-0.006358,-0.778427,-265.469556,-1.706686,63.886008
6.5569,0.009742,0.005552,-0.006033,-0.001318,-0.003898,0.008397,0.00669,-0.50468,-0.006057,-0.778427,-265.469556,-1.706686,63.886008
6.5765,0.009256,0.005243,-0.005,-0.001309,-0.003889,0.008411,0.006624,-0.50456,-0.005773,-0.737674,-265.470254,-1.71709,63.889551
6.5964,0.009418,0.00541,-0.003973,-0.001311,-0.00388,0.008174,0.006697,-0.50474,-0.005054,-0.737674,-265.470254,-1.71709,63.889551
6.6167,0.009723,0.004913,-0.005363,-0.001311,-0.003871,0.008003,0.006697,-0.50474,-0.005054,-0.737674,-265.470254,-1.71709,63.889551
6.6367,0.008625,0.004735,-0.00536,-0.001308,-0.003864,0.007878,0.006933,-0.50524,-0.005015,-0.761903,-265.470971,-1.71477,63.893165
6.6565,0.00931,0.004965,-0.00459,-0.001328,-0.003818,0.007808,0.006497,-0.505266,-0.005117,-0.761903,-265.470971,-1.71477,63.893165
6.6765,0.009062,0.004594,-0.003682,-0.001343,-0.003781,0.007756,0.006938,-0.505121,-0.004402,-0.686911,-265.471453,-1.720472,63.895784
6.6966,0.009318,0.004727,-0.003978,-0.001409,-0.003717,0.007296,0.007162,-0.505383,-0.003733,-0.686911,-265.471453,-1.720472,63.895784
6.7168,0.008786,0.004807,-0.003827,-0.001457,-0.003663,0.006971,0.007162,-0.505383,-0.003733,-0.686911,-265.471453,-1.720472,63.895784
6.7365,0.008893,0.004954,-0.004168,-0.001491,-0.00362,0.006741,0.006782,-0.505335,-0.003527,-0.618804,-265.472063,-1.72718,63.898977
6.7565,0.009093,0.004519,-0.00317,-0.001485,-0.003618,0.006582,0.006769,-0.505232,-0.003754,-0.618804,-265.472063,-1.72718,63.898977
6.7764,0.008317,0.004613,-0.004404,-0.001479,-0.003616,0.006469,0.007476,-0.505479,-0.00317,-0.543962,-265.472063,-1.652339,63.898977
6.7965,0.009022,0.004646,-0.003286,-0.001443,-0.003625,0.006547,0.006196,-0.505391,-0.004294,-0.543962,-265.472063,-1.652339,63.898977
6.8167,0.008699,0.004694,-0.003637,-0.001414,-0.003632,0.006601,0.006196,-0.505391,-0.004294,-0.543962,-265.472063,-1.652339,63.898977
6.8364,0.008956,0.004879,-0.002938,-0.001391,-0.003636,0.006637,0.006844,-0.505302,-0.003637,-0.468973,-265.472063,-1.57735,63.898977
6.8565,0.008918,0.004663,-0.004892,-0.001422,-0.003617,0.006352,0.007092,-0.505228,-0.003354,-0.468973,-265.472063,-1.57735,63.898977
6.8763,0.009047,0.004535,-0.003945,-0.001445,-0.0036,0.006147,0.006423,-0.505331,-0.004892,-0.393993,-265.472063,-1.50237,63.898977
6.8964,0.00878,0.004247,-0.004455,-0.001461,-0.003568,0.00621,0.00698,-0.505449,-0.004031,-0.393993,-265.472063,-1.50237,63.898977
6.9165,0.008639,0.004639,-0.004137,-0.001473,-0.003542,0.006252,0.00698,-0.505449,-0.004031,-0.393993,-265.472063,-1.50237,63.898977
6.9369,0.008515,0.004407,-0.004451,-0.001483,-0.003521,0.006279,0.006529,-0.505357,-0.004137,-0.318998,-265.472063,-1.427375,63.898977
6.9566,0.008813,0.004866,-0.004007,-0.001455,-0.003533,0.006355,0.006413,-0.505451,-0.004265,-0.318998,-265.472063,-1.427375,63.898977
6.9766,0.008702,0.004797,-0.003468,-0.001434,-0.003542,0.006406,0.00677,-0.505129,-0.004007,-0.243873,-265.472064,-1.35225,63.898977
6.9968,0.008394,0.004401,-0.003734,-0.001435,-0.003553,0.006205,0.006919,-0.505193,-0.003516,-0.243873,-265.472064,-1.35225,63.898977
7.0169,0.008641,0.004752,-0.004276,-0.001435,-0.003563,0.006059,0.006919,-0.505193,-0.003516,-0.243873,-265.472064,-1.35225,63.898977
7.0375,0.008752,0.004825,-0.003544,-0.001434,-0.00357,0.005952,0.00646,-0.505244,-0.004276,-0.252735,-265.472064,-1.277255,63.898976
7.0572,0.008725,0.005021,-0.004703,-0.001412,-0.003586,0.006005,0.006655,-0.505215,-0.003982,-0.252735,-265.472064,-1.277255,63.898976
7.0765,0.008563,0.004862,-0.004351,-0.001395,-0.003599,0.00604,0.006327,-0.504974,-0.004703,-0.177828,-265.472064,-1.202347,63.898976
7.097,0.008706,0.00422,-0.004402,-0.001351,-0.003635,0.006156,0.006343,-0.50512,-0.004379,-0.177828,-265.472064,-1.202347,63.898976
7.117,0.008689,0.004906,-0.005377,-0.001317,-0.003664,0.006236,0.006343,-0.50512,-0.004379,-0.177828,-265.472064,-1.202347,63.898976
7.1369,0.008796,0.00505,-0.003186,-0.001291,-0.003688,0.006289,0.005947,-0.505087,-0.005377,-0.102516,-265.472064,-1.127035,63.898976
7.1567,0.008966,0.004434,-0.003564,-0.001266,-0.003714,0.006334,0.006446,-0.50503,-0.004483,-0.102516,-265.472064,-1.127035,63.898976
7.1764,0.008872,0.004894,-0.003286,-0.001247,-0.003735,0.006361,0.007148,-0.505563,-0.003563,-0.118032,-265.472065,-1.201709,63.898981
7.1966,0.008975,0.004867,-0.00497,-0.001292,-0.00371,0.006015,0.007192,-0.505142,-0.00331,-0.118032,-265.472065,-1.201709,63.898981
7.2166,0.008792,0.004959,-0.004844,-0.001326,-0.003689,0.005765,0.007192,-0.505142,-0.00331,-0.118032,-265.472065,-1.201709,63.898981
7.2369,0.008953,0.004842,-0.004985,-0.001352,-0.003672,0.005584,0.006322,-0.505036,-0.004842,-0.119932,-265.472069,-1.27684,63.899008
7.2566,0.008693,0.005085,-0.004646,-0.00131,-0.003701,0.005863,0.006359,-0.505084,-0.004901,-0.119932,-265.472069,-1.27684,63.899008
7.277,0.008663,0.004829,-0.002997,-0.001277,-0.003723,0.006063,0.006324,-0.50491,-0.004646,-0.044667,-265.472069,-1.201574,63.899008
7.2969,0.00898,0.004815,-0.00325,-0.001312,-0.003708,0.005724,0.007064,-0.505147,-0.00314,-0.044667,-265.472069,-1.201574,63.899008
7.3166,0.008309,0.004707,-0.002861,-0.001338,-0.003695,0.005485,0.007064,-0.505147,-0.00314,-0.044667,-265.472069,-1.201574,63.899008
7.3368,0.008295,0.004498,-0.005299,-0.001357,-0.003684,0.005317,0.00685,-0.505292,-0.00286,0.015658,-265.472073,-1.276276,63.89903
7.3568,0.008637,0.004608,-0.005949,-0.001337,-0.003687,0.005414,0.006338,-0.505375,-0.003853,0.015658,-265.472073,-1.276276,63.89903
7.3765,0.008924,0.004715,-0.004452,-0.001321,-0.00369,0.005483,0.005603,-0.505383,-0.005949,0.090564,-265.472073,-1.201371,63.899029
7.3965,0.008577,0.00464,-0.004836,-0.001313,-0.003685,0.005713,0.006559,-0.505289,-0.004586,0.090564,-265.472073,-1.201371,63.899029
7.417,0.00855,0.004672,-0.004614,-0.001306,-0.003681,0.00588,0.006559,-0.505289,-0.004586,0.090564,-265.472073,-1.201371,63.899029
7.437,0.008917,0.004802,-0.005303,-0.001302,-0.003678,0.005999,0.006197,-0.505323,-0.004614,0.165557,-265.472073,-1.126378,63.899029
7.4566,0.008718,0.004597,-0.003976,-0.001273,-0.003696,0.006153,0.006203,-0.50527,-0.00489,0.165557,-265.472073,-1.126378,63.899029
7.4768,0.008548,0.004507,-0.003431,-0.001251,-0.00371,0.006264,0.00669,-0.505399,-0.003976,0.09056,-265.472073,-1.051381,63.899029
7.4967,0.009062,0.004789,-0.004398,-0.001296,-0.003677,0.005967,0.006788,-0.505482,-0.003481,0.09056,-265.472073,-1.051381,63.899029
7.5168,0.008741,0.004495,-0.005148,-0.00133,-0.00365,0.005759,0.006788,-0.505482,-0.003481,0.09056,-265.472073,-1.051381,63.899029
7.537,0.008826,0.004537,-0.004551,-0.001355,-0.003627,0.005613,0.006116,-0.505498,-0.005148,0.015556,-265.472073,-1.126385,63.89903
7.5569,0.008512,0.004182,-0.003627,-0.001334,-0.00363,0.005874,0.006273,-0.505482,-0.004907,0.015556,-265.472073,-1.126385,63.89903
7.5764,0.008789,0.004729,-0.003511,-0.001318,-0.003632,0.006065,0.006663,-0.505814,-0.003627,0.09055,-265.472073,-1.051391,63.89903
7.5963,0.008798,0.004749,-0.005142,-0.001345,-0.00362,0.005837,0.006968,-0.505318,-0.003522,0.09055,-265.472073,-1.051391,63.89903
7.6164,0.008553,0.004814,-0.006496,-0.001365,-0.003609,0.005677,0.006968,-0.505318,-0.003522,0.09055,-265.472073,-1.051391,63.89903
7.6366,0.008693,0.004627,-0.003316,-0.00138,-0.0036,0.005564,0.00524,-0.505176,-0.006496,0.015545,-265.472073,-0.976386,63.899029
7.6569,0.008806,0.00467,-0.003861,-0.001315,-0.003648,0.005893,0.005961,-0.505255,-0.005195,0.015545,-265.472073,-0.976386,63.899029
7.6763,0.008603,0.00473,-0.003449,-0.001264,-0.003686,0.006134,0.006837,-0.505326,-0.003861,0.090549,-265.472073,-0.901382,63.899029
7.6964,0.008434,0.005063,-0.003503,-0.001294,-0.003674,0.005873,0.006844,-0.505272,-0.003486,0.090549,-265.472073,-0.901382,63.899029
7.7165,0.008847,0.004244,-0.004991,-0.001316,-0.003664,0.00569,0.006844,-0.505272,-0.003486,0.090549,-265.472073,-0.901382,63.899029
7.7365,0.008751,0.004176,-0.002901,-0.001332,-0.003656,0.005561,0.006301,-0.50575,-0.004991,0.015552,-265.472073,-0.976379,63.899029
7.7565,0.009204,0.004571,-0.002791,-0.001365,-0.003603,0.005662,0.006695,-0.505779,-0.004143,0.015552,-265.472073,-0.976379,63.899029
7.7763,0.008935,0.004792,-0.003829,-0.00139,-0.003559,0.005735,0.007781,-0.505427,-0.002791,0.090555,-265.472073,-0.901377,63.899029
7.7966,0.00872,0.004836,-0.004236,-0.001396,-0.003562,0.005668,0.007054,-0.505224,-0.003735,0.090555,-265.472073,-0.901377,63.899029
7.8165,0.00905,0.0046,-0.00229,-0.0014,-0.003564,0.00562,0.007054,-0.505224,-0.003735,0.090555,-265.472073,-0.901377,63.899029
7.8365,0.008715,0.004566,-0.002828,-0.001404,-0.003566,0.005587,0.007882,-0.505399,-0.00229,0.040679,-265.472073,-0.826378,63.899029
7.8567,0.008634,0.004885,-0.003876,-0.001461,-0.003531,0.00516,0.007636,-0.505412,-0.002508,0.040679,-265.472073,-0.826378,63.899029
7.8765,0.008946,0.004401,-0.003569,-0.001503,-0.003503,0.004863,0.006658,-0.505111,-0.003876,0.109359,-265.472073,-0.751383,63.899029
7.8966,0.008167,0.004773,-0.004917,-0.001505,-0.003484,0.005011,0.007084,-0.505552,-0.003596,0.109359,-265.472073,-0.751383,63.899029
7.9169,0.008662,0.004651,-0.003691,-0.001506,-0.003469,0.005119,0.007084,-0.505552,-0.003596,0.109359,-265.472073,-0.751383,63.899029
7.9366,0.008729,0.004784,-0.004778,-0.001508,-0.003456,0.005196,0.00678,-0.505345,-0.003691,0.184356,-265.472073,-0.676386,63.899029
7.9566,0.008741,0.004901,-0.004389,-0.001461,-0.003495,0.005394,0.006582,-0.50529,-0.004133,0.184356,-265.472073,-0.676386,63.899029
7.9768,0.008368,0.004536,-0.005882,-0.001425,-0.003526,0.005536,0.006502,-0.505094,-0.004389,0.185309,-265.472073,-0.601376,63.899028
7.9965,0.008821,0.004373,-0.004334,-0.001321,-0.0036,0.005976,0.005468,-0.505424,-0.005751,0.185309,-265.472073,-0.601376,63.899028
8.0165,0.009099,0.004667,-0.00294,-0.00124,-0.00366,0.0063,0.005468,-0.505424,-0.005751,0.185309,-265.472073,-0.601376,63.899028
8.0368,0.008649,0.004777,-0.004553,-0.001177,-0.003707,0.00654,0.0076,-0.505331,-0.00294,0.110217,-265.472073,-0.526283,63.899028
8.0568,0.008521,0.004805,-0.005516,-0.001238,-0.003677,0.006191,0.007075,-0.505284,-0.003605,0.110217,-265.472073,-0.526283,63.899028
8.0766,0.008602,0.004518,-0.002257,-0.001284,-0.003653,0.005946,0.005708,-0.505187,-0.005516,0.035177,-265.472073,-0.601323,63.899028
8.0965,0.008696,0.004577,-0.004292,-0.001356,-0.003613,0.005413,0.007299,-0.505455,-0.00254,0.035177,-265.472073,-0.601323,63.899028
8.1166,0.008527,0.004495,-0.004815,-0.001409,-0.00358,0.005044,0.007299,-0.505455,-0.00254,0.035177,-265.472073,-0.601323,63.899028
8.1365,0.009225,0.004585,-0.003794,-0.001448,-0.003553,0.004789,0.006071,-0.5055,-0.004815,0.016299,-265.472073,-0.526329,63.899028
8.1567,0.008886,0.004877,-0.0048,-0.001424,-0.003557,0.005159,0.00657,-0.505464,-0.004398,0.016299,-265.472073,-0.526329,63.899028
8.1772,0.008755,0.004791,-0.003969,-0.001405,-0.003559,0.00543,0.006438,-0.505117,-0.0048,0.091167,-265.472073,-0.451462,63.899028
8.1968,0.008733,0.004215,-0.004969,-0.001383,-0.003581,0.005535,0.006703,-0.505197,-0.004047,0.091167,-265.472073,-0.451462,63.899028
8.2167,0.008647,0.004487,-0.004022,-0.001366,-0.003598,0.005611,0.006703,-0.505197,-0.004047,0.091167,-265.472073,-0.451462,63.899028
8.237,0.009075,0.005002,-0.00389,-0.001352,-0.003612,0.005665,0.006596,-0.505509,-0.004022,0.166167,-265.472073,-0.376461,63.899028
8.2564,0.008685,0.004873,-0.004205,-0.001355,-0.00361,0.005685,0.006797,-0.5053,-0.003968,0.166167,-265.472073,-0.376461,63.899028
8.2767,0.008604,0.005008,-0.003448,-0.001357,-0.003608,0.005699,0.00654,-0.505123,-0.004205,0.111934,-265.472073,-0.301465,63.899027
8.2965,0.00884,0.004677,-0.004048,-0.001345,-0.003635,0.005567,0.00683,-0.504996,-0.003485,0.111934,-265.472073,-0.301465,63.899027
8.3166,0.008909,0.004709,-0.004504,-0.001335,-0.003658,0.005474,0.00683,-0.504996,-0.003485,0.111934,-265.472073,-0.301465,63.899027
8.3367,0.008873,0.004709,-0.00526,-0.001326,-0.003676,0.005409,0.006612,-0.505286,-0.004504,0.093446,-265.472073,-0.225318,63.899027
8.3568,0.008819,0.004673,-0.003389,-0.001308,-0.00368,0.005705,0.006441,-0.505285,-0.004812,0.093446,-265.472073,-0.225318,63.899027
8.3763,0.00853,0.004192,-0.004382,-0.001294,-0.003683,0.00592,0.007091,-0.505324,-0.003389,0.167304,-265.472073,-0.15146,63.899027
8.3966,0.008786,0.004895,-0.004614,-0.001315,-0.003643,0.005965,0.006352,-0.505769,-0.004312,0.167304,-265.472073,-0.15146,63.899027
8.4165,0.009081,0.004956,-0.003683,-0.001331,-0.00361,0.005996,0.006352,-0.505769,-0.004312,0.167304,-265.472073,-0.15146,63.899027
8.4367,0.008447,0.004713,-0.005239,-0.001344,-0.003583,0.006018,0.007203,-0.50504,-0.003683,0.091724,-265.472074,-0.075881,63.899027
8.4571,0.008657,0.004374,-0.003955,-0.001325,-0.003608,0.006027,0.006618,-0.505139,-0.004321,0.091724,-265.472074,-0.075881,63.899027
8.4766,0.008208,0.004869,-0.00312,-0.00131,-0.003629,0.006032,0.006639,-0.505622,-0.003955,0.017198,-265.472074,-0.001354,63.899026
8.4966,0.008983,0.004977,-0.005384,-0.001314,-0.003651,0.005707,0.006619,-0.505173,-0.003195,0.017198,-265.472074,-0.001354,63.899026
8.5168,0.00896,0.004768,-0.00303,-0.001314,-0.003668,0.00548,0.006619,-0.505173,-0.003195,0.017198,-265.472074,-0.001354,63.899026
8.5365,0.008511,0.004709,-0.005012,-0.001313,-0.003681,0.005322,0.007415,-0.50523,-0.00303,-0.042001,-265.472074,0.073541,63.899026
8.557,0.008665,0.00462,-0.00416,-0.001322,-0.00367,0.005403,0.006822,-0.505252,-0.003835,-0.042001,-265.472074,0.073541,63.899026
8.5768,0.008715,0.004999,-0.004851,-0.001329,-0.003661,0.005462,0.006543,-0.505375,-0.00416,0.032998,-265.472074,0.14854,63.899026
8.5965,0.008855,0.004482,-0.003584,-0.00128,-0.003701,0.005736,0.006267,-0.505028,-0.004792,0.032998,-265.472074,0.14854,63.899026
8.6165,0.008851,0.004686,-0.003905,-0.001242,-0.003733,0.005936,0.006267,-0.505028,-0.004792,0.032998,-265.472074,0.14854,63.899026
8.6367,0.008822,0.0047,-0.002109,-0.001213,-0.00376,0.006081,0.006859,-0.50531,-0.003905,0.108109,-265.472074,0.223651,63.899026
8.6565,0.008796,0.004422,-0.003712,-0.001279,-0.003715,0.005736,0.007222,-0.505306,-0.003171,0.108109,-265.472074,0.223651,63.899026
8.6765,0.008684,0.004677,-0.004468,-0.001329,-0.003678,0.005495,0.006903,-0.505575,-0.003712,0.037721,-265.472074,0.29854,63.899026
8.6965,0.008514,0.004561,-0.004593,-0.001317,-0.003677,0.005675,0.006449,-0.505341,-0.004401,0.037721,-265.472074,0.29854,63.899026
8.7168,0.008567,0.004541,-0.004296,-0.001307,-0.003676,0.005805,0.006449,-0.505341,-0.004401,0.037721,-265.472074,0.29854,63.899026
8.7368,0.008373,0.004555,-0.005869,-0.0013,-0.003675,0.005898,0.006376,-0.505454,-0.004296,0.112769,-265.472074,0.373588,63.899025
8.7566,0.008763,0.004713,-0.005375,-0.001268,-0.003689,0.00609,0.00597,-0.505447,-0.004937,0.112769,-265.472074,0.373588,63.899025
8.7767,0.008327,0.004341,-0.003172,-0.001243,-0.0037,0.006229,0.006022,-0.50528,-0.005375,0.055897,-265.472074,0.448546,63.899025
8.7968,0.008981,0.004563,-0.003862,-0.001293,-0.003663,0.005904,0.00665,-0.505624,-0.003359,0.055897,-265.472074,0.448546,63.899025
8.8168,0.008676,0.00488,-0.002168,-0.00133,-0.003631,0.005677,0.00665,-0.505624,-0.003359,0.055897,-265.472074,0.448546,63.899025
8.8366,0.008668,0.004861,-0.005498,-0.001357,-0.003606,0.005518,0.00757,-0.505119,-0.002168,-0.019229,-265.472074,0.523672,63.899025
8.8567,0.008633,0.004971,-0.004074,-0.001354,-0.003619,0.00545,0.006876,-0.505124,-0.003522,-0.019229,-265.472074,0.523672,63.899025
8.8763,0.008561,0.004896,-0.00482,-0.001352,-0.00363,0.005403,0.006555,-0.505025,-0.004074,0.055644,-265.472074,0.598545,63.899025
8.8967,0.009109,0.004658,-0.004603,-0.001294,-0.003677,0.005685,0.006143,-0.505092,-0.004753,0.055644,-265.472074,0.598545,63.899025
8.9168,0.008548,0.004686,-0.004587,-0.001249,-0.003715,0.005891,0.006143,-0.505092,-0.004753,0.055644,-265.472074,0.598545,63.899025
8.9366,0.008382,0.004135,-0.00529,-0.001214,-0.003746,0.00604,0.006209,-0.505308,-0.004587,0.130632,-265.472074,0.673533,63.899025
8.9569,0.008636,0.0049,-0.00399,-0.001209,-0.003736,0.006181,0.005993,-0.505534,-0.004875,0.130632,-265.472074,0.673533,63.899025
8.9767,0.008729,0.004957,-0.004875,-0.001205,-0.003728,0.006282,0.0066,-0.505096,-0.00399,0.055486,-265.472074,0.748679,63.899024
8.9966,0.008796,0.004667,-0.003108,-0.001186,-0.003753,0.006332,0.006271,-0.505042,-0.004804,0.055486,-265.472074,0.748679,63.899024
9.0167,0.008412,0.004714,-0.003452,-0.001171,-0.003773,0.006367,0.006271,-0.505042,-0.004804,0.055486,-265.472074,0.748679,63.899024
9.0371,0.008682,0.004711,-0.00333,-0.00116,-0.00379,0.006392,0.006652,-0.505283,-0.003452,-0.019682,-265.472074,0.823847,63.899023
9.0565,0.008675,0.004868,-0.005183,-0.001213,-0.003762,0.006024,0.006792,-0.505284,-0.0034,-0.019682,-265.472074,0.823847,63.899023
9.0766,0.008913,0.004778,-0.003936,-0.001253,-0.003738,0.005767,0.006031,-0.505125,-0.005183,-0.094892,-265.472075,0.899057,63.899016
9.097,0.008764,0.004585,-0.004139,-0.001273,-0.003719,0.005773,0.006832,-0.50521,-0.004041,-0.094892,-265.472075,0.899057,63.899016
9.1172,0.008833,0.004764,-0.003995,-0.001289,-0.003704,0.005778,0.006832,-0.50521,-0.004041,-0.094892,-265.472075,0.899057,63.899016
9.137,0.008559,0.004576,-0.004236,-0.001302,-0.003691,0.005782,0.006795,-0.505232,-0.003994,-0.020229,-265.472078,0.97372,63.899002
9.157,0.009104,0.004335,-0.003551,-0.001307,-0.003682,0.005801,0.006633,-0.505309,-0.004093,-0.020229,-265.472078,0.97372,63.899002
9.1766,0.00905,0.004923,-0.004965,-0.001311,-0.003675,0.005815,0.00729,-0.505666,-0.003545,0.054587,-265.472099,1.048536,63.898884
9.1965,0.008693,0.004718,-0.004878,-0.001294,-0.003686,0.006004,0.006584,-0.505122,-0.004843,0.054587,-265.472099,1.048536,63.898884
9.217,0.008672,0.004402,-0.002912,-0.001282,-0.003696,0.006141,0.006584,-0.505122,-0.004843,0.054587,-265.472099,1.048536,63.898884
9.2369,0.009218,0.004785,-0.004579,-0.001273,-0.003703,0.00624,0.007173,-0.505616,-0.00288,0.093666,-265.472174,1.123659,63.898462
9.2571,0.008545,0.004564,-0.002739,-0.001324,-0.003662,0.005981,0.00705,-0.505449,-0.003587,0.093666,-265.472174,1.123659,63.898462
9.2766,0.008818,0.004268,-0.00436,-0.001362,-0.003627,0.005799,0.007137,-0.505453,-0.002708,0.018433,-265.47226,1.198891,63.897948
9.2969,0.00876,0.004796,-0.004027,-0.001381,-0.00359,0.00585,0.006641,-0.505704,-0.004217,0.018433,-265.47226,1.198891,63.897948
9.3171,0.00872,0.004565,-0.004236,-0.001396,-0.003559,0.005887,0.006641,-0.505704,-0.004217,0.018433,-265.47226,1.198891,63.897948
9.3369,0.0083,0.00456,-0.005169,-0.001408,-0.003534,0.005913,0.006518,-0.505514,-0.004103,0.06277,-265.472566,1.273673,63.896312
9.3568,0.008243,0.004515,-0.003496,-0.001371,-0.00356,0.006005,0.006167,-0.50549,-0.00452,0.06277,-265.472566,1.273673,63.896312
9.3765,0.008321,0.004458,-0.002896,-0.001342,-0.003581,0.006071,0.006427,-0.505558,-0.00337,-0.012098,-265.472949,1.34854,63.894337
9.3966,0.008689,0.004451,-0.00256,-0.001378,-0.003568,0.005647,0.006805,-0.505546,-0.002932,-0.012098,-265.472949,1.34854,63.894337
9.4166,0.008177,0.004447,-0.00338,-0.001404,-0.003556,0.005352,0.006805,-0.505546,-0.002932,-0.012098,-265.472949,1.34854,63.894337
9.437,0.008343,0.004172,-0.004056,-0.001422,-0.003546,0.005147,0.006403,-0.505681,-0.003159,-0.087101,-265.47342,1.388775,63.891748
9.457,0.008387,0.004292,-0.003633,-0.001417,-0.003538,0.005213,0.006345,-0.505754,-0.003501,-0.087101,-265.47342,1.388775,63.891748
9.4768,0.008376,0.004146,-0.003032,-0.001413,-0.003531,0.005265,0.006529,-0.505717,-0.003613,-0.012082,-265.473487,1.361374,63.891435
9.4969,0.008064,0.004097,-0.003509,-0.001446,-0.003496,0.005174,0.006803,-0.50584,-0.003083,-0.012082,-265.473487,1.361374,63.891435
9.5171,0.008131,0.00429,-0.001775,-0.001471,-0.003467,0.005114,0.006803,-0.50584,-0.003083,-0.012082,-265.473487,1.361374,63.891435
9.5368,0.008158,0.00436,-0.004733,-0.00149,-0.003443,0.005074,0.007201,-0.505769,-0.001679,0.062923,-265.473731,1.364349,63.890276
9.5571,0.007952,0.004213,-0.003839,-0.001492,-0.003442,0.004989,0.006607,-0.505722,-0.002906,0.062923,-265.473731,1.364349,63.890276
9.5766,0.007648,0.003854,-0.002551,-0.001492,-0.00344,0.004931,0.005963,-0.505853,-0.003733,0.137922,-265.474126,1.346858,63.888542
9.5968,0.007862,0.003907,-0.003163,-0.001507,-0.00341,0.00481,0.006312,-0.506123,-0.002648,0.137922,-265.474126,1.346858,63.888542
9.6169,0.007735,0.00398,-0.003113,-0.001517,-0.003386,0.004728,0.006312,-0.506123,-0.002648,0.137922,-265.474126,1.346858,63.888542
9.6365,0.007925,0.003862,-0.004419,-0.001524,-0.003365,0.004671,0.006101,-0.506121,-0.002961,0.213007,-265.474576,1.343503,63.886623
9.6565,0.007539,0.003818,-0.004493,-0.001495,-0.003361,0.004929,0.005922,-0.506137,-0.003533,0.213007,-265.474576,1.343503,63.886623
9.6763,0.007883,0.003817,-0.003384,-0.001473,-0.003357,0.005116,0.005208,-0.506264,-0.00437,0.288055,-265.4751,1.330479,63.884534
9.6967,0.007841,0.004126,-0.002086,-0.001472,-0.003338,0.005236,0.006071,-0.506192,-0.003466,0.288055,-265.4751,1.330479,63.884534
9.7165,0.007541,0.003534,-0.002474,-0.001471,-0.003322,0.005323,0.006071,-0.506192,-0.003466,0.288055,-265.4751,1.330479,63.884534
9.7366,0.007491,0.003747,-0.002957,-0.001471,-0.00331,0.005387,0.006232,-0.506572,-0.002315,0.213187,-265.47555,1.347316,63.882531
9.7566,0.007599,0.003581,-0.00358,-0.001505,-0.003269,0.005123,0.006125,-0.506453,-0.002558,0.213187,-265.47555,1.347316,63.882531
9.7766,0.007601,0.003737,-0.003923,-0.00153,-0.003235,0.004938,0.005748,-0.506473,-0.003493,0.138204,-265.475859,1.351508,63.881111
9.7967,0.007551,0.003435,-0.001366,-0.001486,-0.003249,0.005243,0.005612,-0.506281,-0.00388,0.138204,-265.475859,1.351508,63.881111
9.8167,0.007407,0.003457,-0.001957,-0.001452,-0.003259,0.005466,0.005612,-0.506281,-0.00388,0.138204,-265.475859,1.351508,63.881111
9.8366,0.007151,0.003234,-0.00268,-0.001426,-0.003267,0.005628,0.006345,-0.506676,-0.001751,0.142371,-265.476472,1.330812,63.878555
9.8566,0.007254,0.00343,-0.002631,-0.001496,-0.003198,0.005114,0.006111,-0.506727,-0.002103,0.142371,-265.476472,1.330812,63.878555
9.8765,0.007048,0.003399,-0.003334,-0.001545,-0.003142,0.004754,0.005898,-0.506604,-0.002574,0.067375,-265.47666,1.36119,63.87766
9.8968,0.007175,0.003085,-0.001968,-0.001507,-0.003145,0.004936,0.005397,-0.5066,-0.003262,0.067375,-265.47666,1.36119,63.87766
9.9166,0.007131,0.003737,-0.001958,-0.001478,-0.003148,0.005069,0.005397,-0.5066,-0.003262,0.067375,-265.47666,1.36119,63.87766
9.9364,0.007009,0.003383,-0.002125,-0.001454,-0.003149,0.005164,0.006076,-0.506376,-0.001785,0.142363,-265.477202,1.320499,63.875496
9.9567,0.006889,0.003006,-0.002097,-0.00149,-0.003138,0.004697,0.006008,-0.506488,-0.001905,0.142363,-265.477202,1.320499,63.875496
9.9765,0.006735,0.002989,-0.001039,-0.001514,-0.003128,0.004368,0.005787,-0.507065,-0.001983,0.067252,-265.477612,1.344032,63.873672
9.9968,0.00666,0.003002,-0.00133,-0.001588,-0.003047,0.003767,0.006168,-0.507019,-0.001114,0.067252,-265.477612,1.344032,63.873672
10.0169,0.006692,0.003219,-0.001761,-0.001641,-0.002981,0.003344,0.006168,-0.507019,-0.001114,0.067252,-265.477612,1.344032,63.873672
10.0369,0.006712,0.003298,-0.001148,-0.00168,-0.002926,0.003045,0.005766,-0.506834,-0.001679,0.142288,-265.477882,1.315279,63.872652
10.0569,0.006428,0.003166,-0.001521,-0.00167,-0.002924,0.002998,0.005909,-0.506787,-0.001455,0.142288,-265.477882,1.315279,63.872652
10.0763,0.006445,0.00289,-0.001868,-0.001662,-0.002922,0.002966,0.00565,-0.506837,-0.001516,0.217138,-265.477919,1.24043,63.872558
10.0969,0.006624,0.002799,-0.003245,-0.001644,-0.002896,0.003129,0.005507,-0.507084,-0.001835,0.217138,-265.477919,1.24043,63.872558
10.1167,0.006875,0.002952,-0.002284,-0.00163,-0.002875,0.003246,0.005507,-0.507084,-0.001835,0.217138,-265.477919,1.24043,63.872558
10.1363,0.006799,0.002967,0.000574,-0.001619,-0.002858,0.003329,0.005702,-0.507058,-0.002269,0.292143,-265.478002,1.233177,63.87235
10.1565,0.00678,0.003318,-0.002746,-0.001665,-0.002817,0.00303,0.006272,-0.507049,-0.0011,0.292143,-265.478002,1.233177,63.87235
10.1764,0.006861,0.002815,-0.002416,-0.0017,-0.002784,0.002815,0.005348,-0.506732,-0.00268,0.367283,-265.478433,1.251139,63.871128
10.1963,0.006713,0.003036,-0.00074,-0.001673,-0.00277,0.003251,0.005602,-0.507145,-0.002437,0.367283,-265.478433,1.251139,63.871128
10.2163,0.006621,0.002779,-0.001052,-0.001654,-0.002759,0.003564,0.005602,-0.507145,-0.002437,0.367283,-265.478433,1.251139,63.871128
10.2366,0.006335,0.003062,-0.000676,-0.00164,-0.002751,0.00379,0.006045,-0.507281,-0.000985,0.442141,-265.478866,1.209873,63.870089
10.2564,0.006145,0.002607,-0.002123,-0.001679,-0.002732,0.003221,0.006018,-0.507143,-0.000847,0.442141,-265.478866,1.209873,63.870089
10.2764,0.006335,0.002942,-0.001343,-0.001706,-0.002715,0.002817,0.005034,-0.507442,-0.002058,0.366759,-265.479248,1.257735,63.868889
10.2965,0.006332,0.002655,-2.9e-05,-0.001685,-0.002726,0.002809,0.005596,-0.507092,-0.001401,0.366759,-265.479248,1.257735,63.868889
10.3165,0.006306,0.002544,-0.001995,-0.001668,-0.002734,0.002804,0.005596,-0.507092,-0.001401,0.366759,-265.479248,1.257735,63.868889
10.3368,0.006093,0.002415,-0.001494,-0.001654,-0.002741,0.002801,0.005242,-0.507524,-0.001918,0.44151,-265.479744,1.20351,63.867696
10.3564,0.006148,0.002763,-0.0009,-0.001644,-0.002689,0.002973,0.005273,-0.507557,-0.001736,0.44151,-265.479744,1.20351,63.867696
10.377,0.006039,0.002487,-0.001965,-0.001635,-0.002648,0.003095,0.005646,-0.507306,-0.000827,0.516383,-265.480373,1.215108,63.866162
10.3969,0.005888,0.002728,0.000175,-0.001607,-0.002632,0.003239,0.005086,-0.507498,-0.001866,0.516383,-265.480373,1.215108,63.866162
10.4168,0.006557,0.002431,-0.001798,-0.001585,-0.002619,0.003342,0.005086,-0.507498,-0.001866,0.516383,-265.480373,1.215108,63.866162
10.4367,0.006391,0.002697,0.000623,-0.001567,-0.002608,0.003414,0.005579,-0.507667,-0.001683,0.441165,-265.481018,1.225019,63.864436
10.4566,0.006033,0.002456,-0.00053,-0.001637,-0.002557,0.0029,0.006031,-0.50753,-0.000731,0.441165,-265.481018,1.225019,63.864436
10.4764,0.006195,0.002156,-0.00014,-0.00169,-0.002516,0.002534,0.005724,-0.50761,-0.000445,0.366273,-265.481539,1.248568,63.862875
10.4969,0.006165,0.002555,-0.000503,-0.001758,-0.002439,0.001976,0.006086,-0.507827,-0.000163,0.366273,-265.481539,1.248568,63.862875
10.5166,0.005553,0.002674,-0.001946,-0.001808,-0.002377,0.001576,0.006086,-0.507827,-0.000163,0.366273,-265.481539,1.248568,63.862875
10.5368,0.005789,0.002257,0.002357,-0.001844,-0.002326,0.001289,0.004515,-0.507389,-0.001877,0.441169,-265.482029,1.176567,63.861768
10.5568,0.00577,0.00245,0.000324,-0.001821,-0.00235,0.001067,0.005523,-0.507541,-0.000135,0.441169,-265.482029,1.176567,63.861768
10.5764,0.005719,0.00261,-0.001236,-0.001801,-0.002369,0.000908,0.00592,-0.507568,0.000337,0.516189,-265.482275,1.101548,63.861397
10.5969,0.00566,0.00258,-0.000858,-0.001733,-0.002419,0.001292,0.005164,-0.507407,-0.001091,0.516189,-265.482275,1.101548,63.861397
10.6165,0.005664,0.002436,-0.000233,-0.001681,-0.002458,0.001569,0.005164,-0.507407,-0.001091,0.516189,-265.482275,1.101548,63.861397
10.637,0.00578,0.00232,0.000115,-0.001642,-0.002489,0.001768,0.005523,-0.507588,-0.00022,0.591157,-265.482549,1.02658,63.861029
10.6568,0.005872,0.00208,0.000495,-0.001675,-0.002463,0.001382,0.005648,-0.507628,-8.3e-05,0.591157,-265.482549,1.02658,63.861029
10.677,0.005675,0.002085,-0.00107,-0.001699,-0.002441,0.001106,0.006088,-0.507971,0.000532,0.666155,-265.483113,1.101579,63.860005
10.6969,0.005907,0.002076,-0.000192,-0.001688,-0.002389,0.001376,0.00521,-0.507922,-0.000931,0.666155,-265.483113,1.101579,63.860005
10.7172,0.005645,0.002261,-0.000791,-0.001679,-0.002347,0.001568,0.00521,-0.507922,-0.000931,0.666155,-265.483113,1.101579,63.860005
10.737,0.005465,0.001869,-0.000983,-0.001672,-0.002314,0.001705,0.005189,-0.507811,-0.000755,0.741305,-265.483822,1.071758,63.858978
10.7568,0.005457,0.001984,-0.000134,-0.00166,-0.002287,0.001762,0.005091,-0.50795,-0.000843,0.741305,-265.483822,1.071758,63.858978
10.777,0.005168,0.002188,0.000213,-0.001649,-0.002265,0.001802,0.005343,-0.50808,-8.8e-05,0.666437,-265.484543,1.108435,63.857692
10.7965,0.005078,0.002022,-0.001945,-0.001665,-0.002263,0.001271,0.005281,-0.50784,0.000189,0.666437,-265.484543,1.108435,63.857692
10.8165,0.005406,0.001827,-0.000221,-0.001675,-0.002261,0.00089,0.005281,-0.50784,0.000189,0.666437,-265.484543,1.108435,63.857692
10.8366,0.005675,0.001979,-0.001096,-0.00168,-0.002258,0.000618,0.005228,-0.508264,-0.000149,0.614825,-265.485318,1.115091,63.856254
10.8565,0.005215,0.001861,-0.0007,-0.001682,-0.002197,0.000822,0.005174,-0.508174,-0.000531,0.614825,-265.485318,1.115091,63.856254
10.8766,0.005263,0.001696,-0.000297,-0.001683,-0.002149,0.000967,0.004838,-0.508163,-0.00069,0.689943,-265.485677,1.039973,63.855809
10.897,0.005196,0.001665,0.000505,-0.001686,-0.002093,0.00097,0.005086,-0.508293,-0.000332,0.689943,-265.485677,1.039973,63.855809
10.9169,0.005171,0.001851,-0.000229,-0.001687,-0.002048,0.00097,0.005086,-0.508293,-0.000332,0.689943,-265.485677,1.039973,63.855809
10.9368,0.005401,0.001997,-0.000155,-0.001687,-0.002012,0.000969,0.004987,-0.508234,-0.000191,0.746926,-265.486544,1.019799,63.854594
10.9568,0.005102,0.001585,0.000414,-0.001683,-0.002009,0.000873,0.005117,-0.508149,-0.000171,0.746926,-265.486544,1.019799,63.854594
10.9768,0.005015,0.001734,0.000681,-0.001679,-0.002006,0.000804,0.005262,-0.508476,0.000443,0.699738,-265.487386,0.995815,63.85341
10.9968,0.005079,0.001957,0.000237,-0.001712,-0.001975,0.000314,0.005351,-0.508288,0.000661,0.699738,-265.487386,0.995815,63.85341
11.0168,0.005245,0.001509,-0.001156,-0.001735,-0.00195,-4e-05,0.005351,-0.508288,0.000661,0.699738,-265.487386,0.995815,63.85341
11.0365,0.005009,0.00159,-0.000574,-0.00175,-0.001929,-0.000297,0.004586,-0.508573,-0.001123,0.733991,-265.488269,0.978719,63.852234
11.0569,0.004597,0.001758,4.6e-05,-0.001687,-0.001885,0.000358,0.004631,-0.508516,-0.000896,0.733991,-265.488269,0.978719,63.852234
11.0772,0.004727,0.001797,-0.000819,-0.001639,-0.00185,0.000827,0.004599,-0.508266,4.6e-05,0.808966,-265.488697,0.903744,63.851848
11.0966,0.004899,0.001702,8.1e-05,-0.001555,-0.001895,0.001081,0.004334,-0.50821,-0.000742,0.808966,-265.488697,0.903744,63.851848
11.1171,0.004848,0.001492,-0.00087,-0.001491,-0.00193,0.001263,0.004334,-0.50821,-0.000742,0.808966,-265.488697,0.903744,63.851848
11.1366,0.004721,0.00124,-0.000278,-0.001441,-0.001956,0.001392,0.004353,-0.508567,-0.000846,0.733951,-265.489331,0.962633,63.85099
11.1568,0.004874,0.001063,0.001214,-0.001441,-0.00188,0.001433,0.004441,-0.508653,-0.000609,0.733951,-265.489331,0.962633,63.85099
11.1765,0.004763,0.000894,-0.00104,-0.00144,-0.00182,0.00146,0.005461,-0.508977,0.001243,0.658682,-265.489823,1.037902,63.850136
11.1971,0.0047,0.001246,-0.000606,-0.00144,-0.001678,0.001619,0.004336,-0.509097,-0.000844,0.658682,-265.489823,1.037902,63.850136
11.2172,0.004803,0.001678,0.000151,-0.001439,-0.001565,0.00173,0.004336,-0.509097,-0.000844,0.658682,-265.489823,1.037902,63.850136
11.2369,0.004711,0.00107,-0.001177,-0.001437,-0.001475,0.001806,0.004829,-0.508388,0.000204,0.583846,-265.490412,1.082678,63.849081
11.2569,0.004522,0.001339,-0.000475,-0.001442,-0.001504,0.001568,0.004535,-0.508612,-0.000343,0.583846,-265.490412,1.082678,63.849081
11.2769,0.005135,0.001086,-0.00045,-0.001446,-0.001525,0.001398,0.004273,-0.50867,-0.000467,0.508971,-265.490511,1.062262,63.848883
11.2966,0.004678,0.001551,-0.000103,-0.001488,-0.001479,0.001333,0.004847,-0.508892,-0.000451,0.508971,-265.490511,1.062262,63.848883
11.3164,0.004296,0.001456,-0.000316,-0.001521,-0.001441,0.001285,0.004847,-0.508892,-0.000451,0.508971,-265.490511,1.062262,63.848883
11.3369,0.00393,0.001267,-0.001026,-0.001546,-0.001412,0.001249,0.00408,-0.508601,-0.000264,0.435067,-265.491084,1.024761,63.847883
11.3566,0.004492,0.001437,-0.000331,-0.001434,-0.001471,0.001309,0.003798,-0.508662,-0.00057,0.435067,-265.491084,1.024761,63.847883
11.3767,0.004885,0.001161,0.000757,-0.001348,-0.001515,0.001352,0.004279,-0.508603,-0.000295,0.397337,-265.491686,0.952638,63.846925
11.3967,0.004426,0.000836,0.00179,-0.001447,-0.001483,0.00069,0.005179,-0.508819,0.000664,0.397337,-265.491686,0.952638,63.846925
11.4166,0.004649,0.001494,0.001679,-0.001523,-0.001456,0.000214,0.005179,-0.508819,0.000664,0.397337,-265.491686,0.952638,63.846925
11.4363,0.004497,0.000992,0.001497,-0.001581,-0.001435,-0.000127,0.00546,-0.508554,0.001723,0.472148,-265.492164,1.027449,63.846072
11.4565,0.004567,0.001127,-0.001709,-0.001651,-0.001437,-0.000836,0.005372,-0.508747,0.001635,0.472148,-265.492164,1.027449,63.846072
11.4766,0.004036,0.001034,-0.000712,-0.001704,-0.001438,-0.001346,0.003693,-0.508875,-0.001709,0.547252,-265.492206,0.952344,63.846032
11.4965,0.00426,0.001012,0.001551,-0.001548,-0.001428,-0.000426,0.003675,-0.508958,-0.000798,0.547252,-265.492206,0.952344,63.846032
11.5168,0.004987,0.001247,0.000194,-0.001429,-0.001418,0.000236,0.003675,-0.508958,-0.000798,0.547252,-265.492206,0.952344,63.846032
11.5366,0.004123,0.00114,1.1e-05,-0.001338,-0.001409,0.000709,0.005086,-0.508753,0.000194,0.622266,-265.492207,0.877331,63.846031
11.5565,0.004149,0.001078,0.000269,-0.001388,-0.001421,0.000519,0.004692,-0.508797,0.000119,0.622266,-265.492207,0.877331,63.846031
11.577,0.00433,0.001249,-0.00125,-0.001426,-0.001431,0.000383,0.004246,-0.508964,0.00029,0.630291,-265.492824,0.94263,63.845183
11.5968,0.004288,0.000819,-0.000272,-0.001331,-0.001471,0.000945,0.003742,-0.508773,-0.001105,0.630291,-265.492824,0.94263,63.845183
11.617,0.004543,0.00102,-0.001787,-0.001259,-0.001502,0.001351,0.003742,-0.508773,-0.001105,0.630291,-265.492824,0.94263,63.845183
11.6366,0.003973,0.001219,-0.000483,-0.001204,-0.001526,0.001644,0.003582,-0.50903,-0.001773,0.698157,-265.493448,0.867718,63.844448
11.6567,0.004536,0.001243,9e-06,-0.001155,-0.00151,0.001935,0.003635,-0.508935,-0.00125,0.698157,-265.493448,0.867718,63.844448
11.6765,0.004314,0.00095,0.000163,-0.001117,-0.001496,0.002144,0.004537,-0.508761,1.3e-05,0.623157,-265.493494,0.942718,63.84435
11.6966,0.004228,0.000732,-0.000471,-0.001205,-0.001451,0.001542,0.004409,-0.509024,0.00015,0.623157,-265.493494,0.942718,63.84435
11.7166,0.004531,0.001189,0.000352,-0.001271,-0.001414,0.001112,0.004409,-0.509024,0.00015,0.623157,-265.493494,0.942718,63.84435
11.7368,0.004254,0.001012,0.000284,-0.00132,-0.001385,0.000804,0.004709,-0.508812,0.000352,0.548162,-265.493499,1.017713,63.844337
11.7564,0.004317,0.000921,0.000314,-0.001371,-0.001387,0.000478,0.004583,-0.508884,0.000325,0.548162,-265.493499,1.017713,63.844337
11.7764,0.004355,0.000952,0.001837,-0.001409,-0.001388,0.000245,0.004439,-0.509119,0.000338,0.59504,-265.494081,0.957373,63.843499
11.7967,0.003872,0.000888,0.000604,-0.001518,-0.001356,-0.000592,0.005216,-0.509055,0.001709,0.59504,-265.494081,0.957373,63.843499
11.8167,0.004161,0.000768,0.002257,-0.001599,-0.00133,-0.001197,0.005216,-0.509055,0.001709,0.59504,-265.494081,0.957373,63.843499
11.8369,0.004111,0.000688,0.00065,-0.00166,-0.001309,-0.001633,0.005277,-0.509265,0.002266,0.670171,-265.494527,0.882241,63.843003
11.8571,0.00383,0.000993,0.000888,-0.001691,-0.001249,-0.001885,0.00493,-0.509288,0.001603,0.670171,-265.494527,0.882241,63.843003
11.8766,0.004038,0.000488,0.001139,-0.001712,-0.001202,-0.002067,0.004282,-0.509007,0.000888,0.745145,-265.494527,0.807268,63.843003
11.8969,0.004229,0.000829,-0.000763,-0.001696,-0.001126,-0.001955,0.00459,-0.509468,0.001117,0.745145,-265.494527,0.807268,63.843003
11.917,0.003774,0.000861,0.000572,-0.001683,-0.001065,-0.001878,0.00459,-0.509468,0.001117,0.745145,-265.494527,0.807268,63.843003
11.9365,0.003933,0.001118,-0.001578,-0.001671,-0.001017,-0.001826,0.004066,-0.509139,0.000572,0.820141,-265.494527,0.732272,63.843003
11.957,0.003969,0.000699,-6.8e-05,-0.00152,-0.001091,-0.001035,0.003685,-0.509034,-0.000303,0.820141,-265.494527,0.732272,63.843003
11.977,0.004325,0.000613,0.00018,-0.001407,-0.001148,-0.000469,0.003934,-0.509301,-6.8e-05,0.895135,-265.494527,0.657277,63.843003
11.997,0.003765,0.001176,0.001564,-0.001423,-0.001099,-0.000322,0.004374,-0.50938,0.000158,0.895135,-265.494527,0.657277,63.843003
12.017,0.004198,0.000703,0.001684,-0.001436,-0.001059,-0.000219,0.004374,-0.50938,0.000158,0.895135,-265.494527,0.657277,63.843003
12.0365,0.003982,0.000327,-0.001014,-0.001446,-0.001028,-0.000147,0.005016,-0.509332,0.00167,0.820211,-265.495097,0.582352,63.842536
12.0568,0.00378,0.000804,0.000424,-0.001464,-0.000984,-0.000316,0.004382,-0.509474,0.00058,0.820211,-265.495097,0.582352,63.842536
12.0765,0.004297,0.000605,0.000188,-0.001477,-0.000949,-0.000439,0.003967,-0.509218,0.000419,0.745208,-265.495575,0.575466,63.842085
12.0968,0.004094,0.00073,0.000783,-0.001474,-0.00094,-0.000334,0.004353,-0.50938,0.000209,0.745208,-265.495575,0.575466,63.842085
12.1165,0.004174,0.000649,0.00015,-0.001473,-0.000932,-0.00026,0.004353,-0.50938,0.000209,0.745208,-265.495575,0.575466,63.842085
12.1367,0.003661,0.000667,-0.000231,-0.001472,-0.000926,-0.000207,0.004209,-0.509379,0.000139,0.689281,-265.496101,0.500493,63.841637
12.1564,0.004032,0.000423,0.000679,-0.001418,-0.000932,-3.1e-05,0.003921,-0.509363,-1.9e-05,0.689281,-265.496101,0.500493,63.841637
12.1766,0.004146,0.000758,-0.000505,-0.001377,-0.000935,9.4e-05,0.004335,-0.509604,0.000673,0.620998,-265.496769,0.497672,63.84102
12.1969,0.003881,0.000805,-0.000211,-0.001336,-0.000956,0.000383,0.003925,-0.509275,-0.000403,0.620998,-265.496769,0.497672,63.84102
12.2171,0.004218,0.000309,0.001131,-0.001306,-0.000972,0.00059,0.003925,-0.509275,-0.000403,0.620998,-265.496769,0.497672,63.84102
12.2365,0.004073,0.000634,-0.001344,-0.001284,-0.000984,0.000738,0.004752,-0.509719,0.001132,0.567728,-265.497251,0.572193,63.840519
12.2568,0.003717,0.00079,-0.001211,-0.001315,-0.000923,0.000569,0.004186,-0.509577,0.000115,0.567728,-265.497251,0.572193,63.840519
12.2766,0.003483,0.000653,-2.1e-05,-0.001337,-0.000875,0.000446,0.003091,-0.509215,-0.001209,0.492671,-265.497357,0.64725,63.840372
12.2968,0.00403,0.000709,-0.00086,-0.001246,-0.000906,0.000506,0.003439,-0.509336,-0.000122,0.492671,-265.497357,0.64725,63.840372
12.3166,0.004129,0.000884,-0.00015,-0.001176,-0.000929,0.000548,0.003439,-0.509336,-0.000122,0.492671,-265.497357,0.64725,63.840372
12.3368,0.003956,0.000427,0.000539,-0.001122,-0.000946,0.000577,0.004003,-0.509148,-0.000134,0.423331,-265.497867,0.709382,63.839758
12.3567,0.003422,0.000345,-0.000129,-0.001167,-0.000948,0.000426,0.004091,-0.509325,0.000143,0.423331,-265.497867,0.709382,63.839758
12.3764,0.003396,0.000415,-0.000431,-0.001201,-0.00095,0.000318,0.003331,-0.509674,-0.000119,0.486398,-265.498202,0.784365,63.839306
12.3966,0.003555,0.000701,-3.3e-05,-0.001106,-0.0009,0.000585,0.003188,-0.509593,-0.000404,0.486398,-265.498202,0.784365,63.839306
12.4165,0.004119,0.000722,-0.000844,-0.001033,-0.000861,0.000774,0.003188,-0.509593,-0.000404,0.486398,-265.498202,0.784365,63.839306
12.4367,0.003459,0.000592,0.001882,-0.000976,-0.00083,0.000907,0.003644,-0.509314,-0.000832,0.561311,-265.498716,0.76084,63.838705
12.4567,0.003191,0.000593,0.000905,-0.001039,-0.000851,0.000587,0.003956,-0.509356,0.000283,0.561311,-265.498716,0.76084,63.838705
12.4766,0.00384,0.000736,0.000606,-0.001087,-0.000867,0.000358,0.003647,-0.50941,0.000908,0.486355,-265.498774,0.835795,63.838609
12.4969,0.003446,0.000376,0.001001,-0.001143,-0.000897,2e-06,0.004106,-0.509277,0.000632,0.486355,-265.498774,0.835795,63.838609
12.5169,0.00392,0.000475,0.000485,-0.001187,-0.000921,-0.000252,0.004106,-0.509277,0.000632,0.486355,-265.498774,0.835795,63.838609
12.5364,0.003432,0.000321,0.000363,-0.00122,-0.000941,-0.000434,0.004125,-0.509559,0.000498,0.53771,-265.499239,0.784957,63.838044
12.5567,0.003375,0.000543,0.001128,-0.001231,-0.000883,-0.000443,0.003915,-0.509611,0.000445,0.53771,-265.499239,0.784957,63.838044
12.5767,0.003338,0.000356,6e-05,-0.00124,-0.000837,-0.00045,0.003946,-0.50946,0.001128,0.612576,-265.499314,0.710091,63.837983
12.5968,0.003657,0.000445,0.00064,-0.001175,-0.000803,-0.000278,0.00342,-0.509628,0.000156,0.612576,-265.499314,0.710091,63.837983
12.6168,0.003562,0.000583,0.000777,-0.001126,-0.000775,-0.000157,0.00342,-0.509628,0.000156,0.612576,-265.499314,0.710091,63.837983
12.6364,0.003569,0.000708,0.001306,-0.001087,-0.000752,-7.3e-05,0.003948,-0.509426,0.000775,0.687571,-265.499458,0.635095,63.837866
12.6566,0.003339,0.000719,0.001046,-0.001142,-0.000789,-0.000486,0.004063,-0.509372,0.00099,0.687571,-265.499458,0.635095,63.837866
12.6766,0.003634,0.000616,0.00155,-0.001185,-0.000818,-0.000782,0.003841,-0.509302,0.001044,0.63252,-265.499945,0.577281,63.837396
12.697,0.00337,0.000505,0.001137,-0.001258,-0.000839,-0.001245,0.004373,-0.509378,0.001506,0.63252,-265.499945,0.577281,63.837396
12.7166,0.003535,0.000374,0.000887,-0.001314,-0.000855,-0.001576,0.004373,-0.509378,0.001506,0.63252,-265.499945,0.577281,63.837396
12.7364,0.00369,0.000299,-2.8e-05,-0.001357,-0.000868,-0.001813,0.003981,-0.50963,0.000884,0.707653,-265.500034,0.502149,63.837334
12.7565,0.002946,0.000166,0.001302,-0.001325,-0.000815,-0.001456,0.003855,-0.509659,0.000512,0.707653,-265.500034,0.502149,63.837334
12.7767,0.003543,0.00078,0.000109,-0.001302,-0.000773,-0.001203,0.00361,-0.509833,0.001302,0.782525,-265.500034,0.427276,63.837334
12.7968,0.003368,0.000277,7e-05,-0.001233,-0.000837,-0.000874,0.003599,-0.509274,0.000215,0.782525,-265.500034,0.427276,63.837334
12.8167,0.003714,0.000597,0.001274,-0.001183,-0.000886,-0.000639,0.003599,-0.509274,0.000215,0.782525,-265.500034,0.427276,63.837334
12.8369,0.003812,0.000414,-0.001404,-0.001145,-0.000925,-0.000471,0.00436,-0.509406,0.001271,0.857525,-265.500088,0.352276,63.837299
12.857,0.003479,0.000592,0.000107,-0.001156,-0.000901,-0.00034,0.00385,-0.509478,0.000193,0.857525,-265.500088,0.352276,63.837299
12.8768,0.00355,0.000221,-0.000355,-0.001165,-0.000882,-0.000246,0.00351,-0.509426,9.6e-05,0.813948,-265.500528,0.427268,63.836953
12.897,0.003339,0.000466,-5.8e-05,-0.001108,-0.000805,0.000126,0.00338,-0.50975,-0.000316,0.813948,-265.500528,0.427268,63.836953
12.9166,0.003461,0.000127,-0.000257,-0.001065,-0.000745,0.000391,0.00338,-0.50975,-0.000316,0.813948,-265.500528,0.427268,63.836953
12.9366,0.003502,0.00018,-0.0001,-0.001031,-0.000697,0.000579,0.003297,-0.509897,-0.000265,0.738855,-265.500941,0.502361,63.836588
12.9568,0.003991,0.000124,0.000207,-0.001006,-0.000629,0.000655,0.003357,-0.509868,-0.000198,0.738855,-265.500941,0.502361,63.836588
12.9764,0.003419,0.000671,0.000175,-0.000986,-0.000576,0.000708,0.004096,-0.509877,0.000208,0.663691,-265.500947,0.577525,63.83658
12.9965,0.003635,0.00026,-0.000334,-0.000988,-0.000655,0.000509,0.003553,-0.50937,0.000178,0.663691,-265.500947,0.577525,63.83658
13.0166,0.003713,-1.6e-05,0.001283,-0.00099,-0.000716,0.000366,0.003553,-0.50937,0.000178,0.663691,-265.500947,0.577525,63.83658
13.0369,0.003167,0.000208,0.001445,-0.000992,-0.000764,0.000265,0.004367,-0.510015,0.001283,0.588483,-265.500949,0.652732,63.836577
13.0573,0.003835,0.000111,-0.000768,-0.0011,-0.000679,-0.000396,0.004178,-0.509924,0.001349,0.588483,-265.500949,0.652732,63.836577
13.0765,0.003515,0.0004,-0.001296,-0.00118,-0.00061,-0.000872,0.003417,-0.509908,-0.000762,0.545606,-265.501335,0.727292,63.836125
13.0965,0.003847,0.000508,0.001016,0.0,0.0,0.0,0.002903,-0.509628,-0.001248,0.545606,-265.501335,0.727292,63.836125
13.1164,0.003597,8.7e-05,0.002513,0.0,0.0,0.0,0.002903,-0.509628,-0.001248,0.545606,-265.501335,0.727292,63.836125
13.1368,0.003378,0.000207,0.001088,0.0,0.0,0.0,0.004879,-0.509911,0.002513,0.620609,-265.501335,0.65229,63.836125
13.1568,0.00349,0.000415,0.00175,0.0,0.0,0.0,0.004494,-0.509863,0.001933,0.620609,-265.501335,0.65229,63.836125
13.1767,0.003342,0.000193,-0.000676,0.0,0.0,0.0,0.004382,-0.509584,0.00175,0.620609,-265.501335,0.65229,63.836125
13.1966,0.003623,0.000333,0.000916,0.0,0.0,0.0,0.003119,-0.509787,-0.000462,0.620609,-265.501335,0.65229,63.836125
13.2167,0.003397,0.000251,0.000276,0.0,0.0,0.0,0.003119,-0.509787,-0.000462,0.620609,-265.501335,0.65229,63.836125
13.2365,0.003472,9.1e-05,-0.001175,0.0,0.0,0.0,0.003537,-0.509748,0.000276,0.620609,-265.501335,0.65229,63.836125
13.2568,0.00361,2.2e-05,0.000824,0.0,0.0,0.0,0.003267,-0.509814,-0.000313,0.620609,-265.501335,0.65229,63.836125
13.2766,0.003413,0.000371,0.000249,0.0,0.0,0.0,0.00403,-0.509978,0.000824,0.620609,-265.501335,0.65229,63.836125
13.2974,0.00373,0.000442,-0.001549,0.0,0.0,0.0,0.003588,-0.509663,0.000305,0.620609,-265.501335,0.65229,63.836125
13.317,0.003316,0.000474,0.001164,0.0,0.0,0.0,0.003588,-0.509663,0.000305,0.620609,-265.501335,0.65229,63.836125
13.3367,0.003615,0.0006,-0.000409,0.0,0.0,0.0,0.00391,-0.509526,0.001164,0.620609,-265.501335,0.65229,63.836125
13.3569,0.003199,0.000519,0.000323,0.0,0.0,0.0,0.003705,-0.509475,0.000525,0.620609,-265.501335,0.65229,63.836125
13.3766,0.003563,0.000549,2.1e-05,0.0,0.0,0.0,0.003363,-0.509481,0.000323,0.620609,-265.501335,0.65229,63.836125
13.3969,0.003683,0.000574,-0.001756,0.0,0.0,0.0,0.003555,-0.509454,4.8e-05,0.620609,-265.501335,0.65229,63.836125
13.4172,0.003264,0.000329,0.000295,0.0,0.0,0.0,0.003555,-0.509454,4.8e-05,0.620609,-265.501335,0.65229,63.836125
13.4366,0.003177,0.000195,0.000336,0.0,0.0,0.0,0.003414,-0.50967,0.000295,0.620609,-265.501335,0.65229,63.836125
13.4566,0.003627,0.000266,-0.001989,0.0,0.0,0.0,0.003388,-0.509724,0.000311,0.620609,-265.501335,0.65229,63.836125
13.4766,0.003136,0.000439,-0.000819,0.0,0.0,0.0,0.002612,-0.509733,-0.001989,0.620609,-265.501335,0.65229,63.836125
13.4966,0.003693,5.9e-05,0.000693,0.0,0.0,0.0,0.002709,-0.509575,-0.000919,0.620609,-265.501335,0.65229,63.836125
13.5166,0.003586,9.3e-05,-0.001157,0.0,0.0,0.0,0.002709,-0.509575,-0.000919,0.620609,-265.501335,0.65229,63.836125
13.5365,0.003657,0.000252,0.000223,0.0,0.0,0.0,0.002996,-0.509906,-0.001157,0.620609,-265.501335,0.65229,63.836125
13.557,0.003109,0.000747,0.00146,0.0,0.0,0.0,0.003311,-0.509842,-0.000596,0.620609,-265.501335,0.65229,63.836125
13.5766,0.003656,5.3e-05,-0.002011,0.0,0.0,0.0,0.003853,-0.509252,0.00146,0.620609,-265.501335,0.65229,63.836125
13.5966,0.003368,0.000493,0.000361,0.0,0.0,0.0,0.002735,-0.509886,-0.001712,0.620609,-265.501335,0.65229,63.836125
13.6164,0.003431,0.000254,-0.000347,0.0,0.0,0.0,0.002735,-0.509886,-0.001712,0.620609,-265.501335,0.65229,63.836125
13.6369,0.003373,0.000101,0.000819,0.0,0.0,0.0,0.003254,-0.509746,-0.000347,0.620609,-265.501335,0.65229,63.836125
13.6569,0.003236,0.000372,0.000966,0.0,0.0,0.0,0.00347,-0.509808,0.000123,0.620609,-265.501335,0.65229,63.836125
13.6766,0.002898,0.00039,5.5e-05,0.0,0.0,0.0,0.003729,-0.509627,0.000966,0.620609,-265.501335,0.65229,63.836125
13.6966,0.00361,0.000239,-0.000699,0.0,0.0,0.0,0.002995,-0.509612,0.000134,0.620609,-265.501335,0.65229,63.836125
13.7164,0.003038,0.000466,0.001449,0.0,0.0,0.0,0.002995,-0.509612,0.000134,0.620609,-265.501335,0.65229,63.836125
13.7364,0.003657,0.000521,0.001506,0.0,0.0,0.0,0.003777,-0.509534,0.001449,0.620609,-265.501335,0.65229,63.836125
13.7568,0.003302,0.000527,0.001016,0.0,0.0,0.0,0.004041,-0.509511,0.001473,0.620609,-265.501335,0.65229,63.836125
13.7768,0.003489,0.000376,0.001631,0.0,0.0,0.0,0.00382,-0.509473,0.001016,0.620609,-265.501335,0.65229,63.836125
13.7969,0.002962,0.000504,0.001077,0.0,0.0,0.0,0.004281,-0.509612,0.001582,0.620609,-265.501335,0.65229,63.836125
13.817,0.003587,0.000296,0.000201,0.0,0.0,0.0,0.004281,-0.509612,0.001582,0.620609,-265.501335,0.65229,63.836125
13.837,0.003264,0.000541,-0.000445,0.0,0.0,0.0,0.00369,-0.509704,0.000201,0.620609,-265.501335,0.65229,63.836125
13.8574,0.003099,0.000361,0.001131,0.0,0.0,0.0,0.003431,-0.509607,-5.5e-05,0.620609,-265.501335,0.65229,63.836125
13.8768,0.003188,0.000292,0.000103,0.0,0.0,0.0,0.003676,-0.509639,0.001131,0.620609,-265.501335,0.65229,63.836125
13.8967,0.003406,0.000522,0.001637,0.0,0.0,0.0,0.003279,-0.509702,0.000195,0.620609,-265.501335,0.65229,63.836125
13.917,0.002972,0.000471,0.000549,0.0,0.0,0.0,0.003279,-0.509702,0.000195,0.620609,-265.501335,0.65229,63.836125
13.9366,0.003493,0.000343,0.0002,0.0,0.0,0.0,0.003252,-0.509529,0.000549,0.620609,-265.501335,0.65229,63.836125
13.9564,0.003396,0.000472,-0.000877,0.0,0.0,0.0,0.003393,-0.509582,0.000405,0.620609,-265.501335,0.65229,63.836125
13.9763,0.003547,0.00053,-0.000775,0.0,0.0,0.0,0.002949,-0.509528,-0.000877,0.620609,-265.501335,0.65229,63.836125
13.9967,0.003483,0.000423,0.001154,0.0,0.0,0.0,0.003136,-0.509475,-0.000783,0.620609,-265.501335,0.65229,63.836125
14.0167,0.003372,0.000137,-0.000575,0.0,0.0,0.0,0.003136,-0.509475,-0.000783,0.620609,-265.501335,0.65229,63.836125
14.0373,0.003606,0.000351,0.000211,0.0,0.0,0.0,0.003079,-0.509863,-0.000575,0.620609,-265.501335,0.65229,63.836125
14.0573,0.003042,0.0002,0.000991,0.0,0.0,0.0,0.00334,-0.509775,-0.000252,0.620609,-265.501335,0.65229,63.836125
14.0768,0.00353,0.000453,0.000279,0.0,0.0,0.0,0.003548,-0.5098,0.000991,0.620609,-265.501335,0.65229,63.836125
14.097,0.003292,0.000472,-0.000134,0.0,0.0,0.0,0.003662,-0.509568,0.000339,0.620609,-265.501335,0.65229,63.836125
14.1166,0.003142,0.00071,0.000747,0.0,0.0,0.0,0.003662,-0.509568,0.000339,0.620609,-265.501335,0.65229,63.836125
14.1367,0.003258,0.000383,-0.000292,0.0,0.0,0.0,0.003523,-0.50929,0.000747,0.620609,-265.501335,0.65229,63.836125
14.1567,0.003478,0.000406,0.000757,0.0,0.0,0.0,0.003348,-0.509428,0.000309,0.620609,-265.501335,0.65229,63.836125
14.1768,0.003172,7.2e-05,-0.000346,0.0,0.0,0.0,0.003865,-0.509594,0.000757,0.620609,-265.501335,0.65229,63.836125
14.1966,0.003655,0.000341,-0.001112,0.0,0.0,0.0,0.003074,-0.509897,-0.000247,0.620609,-265.501335,0.65229,63.836125
14.2168,0.003494,0.000583,-0.000652,0.0,0.0,0.0,0.003074,-0.509897,-0.000247,0.620609,-265.501335,0.65229,63.836125
14.2367,0.003353,0.000219,-0.000256,0.0,0.0,0.0,0.003161,-0.509417,-0.000652,0.620609,-265.501335,0.65229,63.836125
14.2565,0.0035,0.000214,2.2e-05,0.0,0.0,0.0,0.003186,-0.509565,-0.000491,0.620609,-265.501335,0.65229,63.836125
14.2767,0.002576,0.000551,-0.001265,0.0,0.0,0.0,0.003511,-0.509786,2.2e-05,0.620609,-265.501335,0.65229,63.836125
14.2969,0.003634,0.000292,-0.000992,0.0,0.0,0.0,0.002073,-0.509479,-0.001149,0.620609,-265.501335,0.65229,63.836125
14.3169,0.003372,0.000356,0.000574,0.0,0.0,0.0,0.002073,-0.509479,-0.001149,0.620609,-265.501335,0.65229,63.836125
14.3368,0.003375,0.000313,0.000857,0.0,0.0,0.0,0.003664,-0.509644,0.000574,0.620609,-265.501335,0.65229,63.836125
14.3571,0.003315,0.000135,0.000745,0.0,0.0,0.0,0.003725,-0.509662,0.00069,0.620609,-265.501335,0.65229,63.836125
14.3769,0.003339,0.000443,-0.000603,0.0,0.0,0.0,0.003695,-0.509865,0.000745,0.620609,-265.501335,0.65229,63.836125
14.3968,0.003604,0.00029,-0.001393,0.0,0.0,0.0,0.003091,-0.509584,-0.000482,0.620609,-265.501335,0.65229,63.836125
14.4166,0.003233,0.000239,0.001091,0.0,0.0,0.0,0.003091,-0.509584,-0.000482,0.620609,-265.501335,0.65229,63.836125
14.4368,0.003271,5e-06,0.002072,0.0,0.0,0.0,0.00379,-0.509761,0.001091,0.620609,-265.501335,0.65229,63.836125
14.4573,0.003518,0.000915,0.000856,0.0,0.0,0.0,0.004011,-0.509857,0.001495,0.620609,-265.501335,0.65229,63.836125
14.4765,0.003239,0.000288,0.000179,0.0,0.0,0.0,0.003955,-0.509085,0.000856,0.620609,-265.501335,0.65229,63.836125
14.4967,0.003308,0.000337,0.000302,0.0,0.0,0.0,0.003378,-0.509664,0.000231,0.620609,-265.501335,0.65229,63.836125
14.5171,0.003732,0.000596,-0.000152,0.0,0.0,0.0,0.003378,-0.509664,0.000231,0.620609,-265.501335,0.65229,63.836125
14.5367,0.003198,0.000322,0.001824,0.0,0.0,0.0,0.003654,-0.509404,-0.000152,0.620609,-265.501335,0.65229,63.836125
14.5567,0.003511,0.000157,-0.000242,0.0,0.0,0.0,0.003847,-0.509515,0.00065,0.620609,-265.501335,0.65229,63.836125
14.5766,0.003345,0.000132,0.001877,0.0,0.0,0.0,0.003388,-0.509843,-0.000242,0.620609,-265.501335,0.65229,63.836125
14.5969,0.003255,0.000449,0.000268,0.0,0.0,0.0,0.004221,-0.509865,0.001688,0.620609,-265.501335,0.65229,63.836125
14.6169,0.003364,0.00033,0.000111,0.0,0.0,0.0,0.004221,-0.509865,0.001688,0.620609,-265.501335,0.65229,63.836125
14.6363,0.003597,0.000846,1.5e-05,0.0,0.0,0.0,0.003421,-0.50967,0.000111,0.620609,-265.501335,0.65229,63.836125
14.6567,0.003514,0.000455,0.001264,0.0,0.0,0.0,0.003495,-0.509461,7.2e-05,0.620609,-265.501335,0.65229,63.836125
14.6768,0.003349,0.000497,-4e-05,0.0,0.0,0.0,0.004158,-0.509544,0.001264,0.620609,-265.501335,0.65229,63.836125
14.6968,0.003998,4.5e-05,-0.00058,0.0,0.0,0.0,0.003401,-0.509507,7.4e-05,0.620609,-265.501335,0.65229,63.836125
14.7166,0.003569,0.000254,0.000224,0.0,0.0,0.0,0.003401,-0.509507,7.4e-05,0.620609,-265.501335,0.65229,63.836125
14.7368,0.003287,-0.000141,-0.000245,0.0,0.0,0.0,0.003683,-0.509746,0.000224,0.620609,-265.501335,0.65229,63.836125
14.7568,0.003496,0.00029,0.000786,0.0,0.0,0.0,0.00347,-0.509907,3.3e-05,0.620609,-265.501335,0.65229,63.836125
14.777,0.003449,0.000177,0.00109,0.0,0.0,0.0,0.003897,-0.50971,0.000786,0.620609,-265.501335,0.65229,63.836125
14.7967,0.003505,0.00031,-0.001457,0.0,0.0,0.0,0.003995,-0.509813,0.001064,0.620609,-265.501335,0.65229,63.836125
14.8169,0.003514,0.000586,0.00094,0.0,0.0,0.0,0.003995,-0.509813,0.001064,0.620609,-265.501335,0.65229,63.836125
14.8365,0.003433,0.000316,-0.000377,0.0,0.0,0.0,0.003993,-0.509413,0.00094,0.620609,-265.501335,0.65229,63.836125
14.8566,0.003556,0.000239,7.2e-05,0.0,0.0,0.0,0.003675,-0.509528,0.000383,0.620609,-265.501335,0.65229,63.836125
14.8768,0.003071,0.000553,-0.000416,0.0,0.0,0.0,0.003592,-0.509761,7.2e-05,0.620609,-265.501335,0.65229,63.836125
14.8972,0.003399,0.000267,0.000432,0.0,0.0,0.0,0.002914,-0.50947,-0.00038,0.620609,-265.501335,0.65229,63.836125
14.917,0.003464,0.00034,0.000754,0.0,0.0,0.0,0.002914,-0.50947,-0.00038,0.620609,-265.501335,0.65229,63.836125
14.9369,0.003598,8.5e-05,-0.000616,0.0,0.0,0.0,0.003849,-0.50966,0.000754,0.620609,-265.501335,0.65229,63.836125
14.9569,0.003661,3.2e-05,-0.001116,0.0,0.0,0.0,0.003618,-0.509764,0.000193,0.620609,-265.501335,0.65229,63.836125
14.9767,0.003589,0.000164,0.00091,0.0,0.0,0.0,0.003092,-0.509968,-0.001116,0.620609,-265.501335,0.65229,63.836125
14.9967,0.003513,0.000363,0.001121,0.0,0.0,0.0,0.003968,-0.509847,0.000731,0.620609,-265.501335,0.65229,63.836125
15.0166,0.00327,8.2e-05,-0.001071,0.0,0.0,0.0,0.003968,-0.509847,0.000731,0.620609,-265.501335,0.65229,63.836125
15.0366,0.003362,0.000267,0.000395,0.0,0.0,0.0,0.002724,-0.509917,-0.001071,0.620609,-265.501335,0.65229,63.836125
15.0568,0.003283,0.000465,0.001582,0.0,0.0,0.0,0.003071,-0.509841,-0.000466,0.620609,-265.501335,0.65229,63.836125
15.0767,0.004001,0.000717,-0.000506,0.0,0.0,0.0,0.00409,-0.509534,0.001582,0.620609,-265.501335,0.65229,63.836125
15.0971,0.003511,0.000352,-0.000372,0.0,0.0,0.0,0.003774,-0.509306,-0.000317,0.620609,-265.501335,0.65229,63.836125
15.1167,0.003574,0.000355,-0.001264,0.0,0.0,0.0,0.003774,-0.509306,-0.000317,0.620609,-265.501335,0.65229,63.836125
15.137,0.00313,0.000427,-0.001033,0.0,0.0,0.0,0.002929,-0.509645,-0.001264,0.620609,-265.501335,0.65229,63.836125
15.1571,0.003455,0.000422,0.000799,0.0,0.0,0.0,0.002797,-0.509616,-0.00117,0.620609,-265.501335,0.65229,63.836125
15.1766,0.003497,0.000302,0.000222,0.0,0.0,0.0,0.003863,-0.509577,0.000799,0.620609,-265.501335,0.65229,63.836125
15.1965,0.003468,0.000398,-0.000777,0.0,0.0,0.0,0.003631,-0.509688,0.000271,0.620609,-265.501335,0.65229,63.836125
15.2164,0.003282,0.000259,0.001073,0.0,0.0,0.0,0.003631,-0.509688,0.000271,0.620609,-265.501335,0.65229,63.836125
15.2367,0.003371,0.000483,5e-06,0.0,0.0,0.0,0.003829,-0.509741,0.001073,0.620609,-265.501335,0.65229,63.836125
15.2568,0.003701,0.000619,-9.3e-05,0.0,0.0,0.0,0.003643,-0.509649,0.000636,0.620609,-265.501335,0.65229,63.836125
15.2767,0.002929,0.000549,-0.0,0.0,0.0,0.0,0.003653,-0.509381,-9.3e-05,0.620609,-265.501335,0.65229,63.836125
15.2968,0.003436,0.000371,-2.2e-05,0.0,0.0,0.0,0.002991,-0.509445,-8e-06,0.620609,-265.501335,0.65229,63.836125
