mach0312/omni-docking-bench/src/icros_test_setup/results/MPPI_sample/timeseries/trial_007.csv
t,x,y,yaw,vx,vy,wz,bl_x,bl_y,bl_yaw,front_steering_joint,front_wheel_joint,rear_steering_joint,rear_wheel_joint
0.0,-0.001717,0.000289,0.001708,-0.006931,-0.002249,0.104289,-0.001002,-0.510005,-0.000934,-1.330318,-264.338203,1.256038,62.164552
0.0003,-0.001951,-0.0001,0.001478,-0.006914,-0.002244,0.104028,-0.001002,-0.510005,-0.000934,-1.405342,-264.343986,1.331062,62.158713
0.0006,-0.002149,8e-05,0.002056,-0.006862,-0.002227,0.103244,-0.001934,-0.509668,-0.001735,-1.458465,-264.352251,1.406334,62.150392
0.0009,-0.002532,-1.3e-05,0.001165,-0.006776,-0.002199,0.101945,-0.001934,-0.509668,-0.001735,-1.458465,-264.362988,1.46607,62.1396
0.0011,-0.003158,0.000383,0.003282,-0.006651,-0.002158,0.100073,-0.001654,-0.509817,-0.001236,-1.458465,-264.362988,1.46607,62.1396
0.0013,-0.003265,0.000128,0.001715,-0.006498,-0.002109,0.097766,-0.001654,-0.509817,-0.001236,-1.458465,-264.362988,1.46607,62.1396
0.0016,-0.004729,5.1e-05,0.003414,-0.006307,-0.002047,0.094889,-0.001725,-0.509796,-0.001054,-1.458465,-264.362988,1.46607,62.1396
0.0186,-0.004704,0.000394,0.004676,0.0,0.0,0.0,-0.00295,-0.50994,0.003456,-1.458465,-264.362988,1.46607,62.1396
0.0389,-0.004386,0.000121,0.003844,0.0,0.0,0.0,-0.00295,-0.50994,0.003456,-1.458465,-264.362988,1.46607,62.1396
0.0585,-0.006028,0.000315,0.008084,0.0,0.0,0.0,-0.002576,-0.50988,0.006105,-1.458465,-264.376228,1.46607,62.126305
0.0787,-0.005993,5.9e-05,0.007584,0.0,0.0,0.0,-0.002321,-0.509795,0.007169,-1.458465,-264.376228,1.46607,62.126305
0.098,-0.006345,0.000393,0.007391,0.0,0.0,0.0,-0.002153,-0.509929,0.008014,-1.458465,-264.379515,1.46607,62.122962
0.1186,-0.006379,0.000274,0.009426,0.005218,-7.2e-05,-0.000606,-0.002541,-0.509622,0.007465,-1.458465,-264.379515,1.46607,62.122962
0.1387,-0.006269,0.000211,0.006908,0.005596,-0.000106,-0.000507,-0.002541,-0.509622,0.007465,-1.458465,-264.379515,1.46607,62.122962
0.1583,-0.006711,0.000247,0.007311,0.005903,-0.00013,-0.000425,-0.002745,-0.509777,0.006908,-1.458465,-264.379515,1.46607,62.122962
0.178,-0.005864,-6.3e-05,0.008304,0.006224,-0.000106,-0.00034,-0.002843,-0.509761,0.007075,-1.458465,-264.379515,1.46607,62.122962
0.1983,-0.006544,0.000363,0.008842,0.006484,-8.6e-05,-0.000268,-0.001629,-0.510045,0.008304,-1.383284,-264.379515,1.390889,62.122962
0.2185,-0.006427,0.000293,0.009049,0.006472,-9.5e-05,-0.000291,-0.001999,-0.509656,0.008793,-1.383284,-264.379515,1.390889,62.122962
0.2385,-0.00623,0.000116,0.008973,0.006476,-0.000103,-0.000306,-0.001999,-0.509656,0.008793,-1.383284,-264.379515,1.390889,62.122962
0.2584,-0.006231,0.000458,0.009232,0.006491,-0.000109,-0.000313,-0.001654,-0.509863,0.008973,-1.308569,-264.379515,1.316174,62.122962
0.2787,-0.006448,-1.4e-05,0.008133,0.006386,-9.1e-05,-0.000336,-0.001599,-0.50972,0.009081,-1.308569,-264.379515,1.316174,62.122962
0.2986,-0.006774,1.9e-05,0.008421,0.006317,-7.9e-05,-0.00035,-0.0023,-0.509997,0.008133,-1.233187,-264.379515,1.240792,62.122962
0.3182,-0.00644,0.000406,0.006843,0.006522,5e-06,-0.000371,-0.002462,-0.509966,0.008394,-1.233187,-264.379515,1.240792,62.122962
0.3384,-0.0067,0.000368,0.009109,0.006683,7.1e-05,-0.000382,-0.002462,-0.509966,0.008394,-1.233187,-264.379515,1.240792,62.122962
0.3582,-0.006736,-0.000116,0.008078,0.006809,0.000122,-0.000386,-0.002055,-0.50961,0.009109,-1.158582,-264.379515,1.166187,62.122962
0.3785,-0.006408,0.000228,0.008746,0.00686,0.000114,-0.000519,-0.002287,-0.509813,0.008682,-1.158582,-264.379515,1.166187,62.122962
0.3982,-0.006552,0.000254,0.009549,0.006902,0.000107,-0.000621,-0.001948,-0.509753,0.008746,-1.08344,-264.379515,1.091045,62.122962
0.4184,-0.006603,0.000517,0.008298,0.006755,7.6e-05,-0.000927,-0.001704,-0.509725,0.009481,-1.08344,-264.379515,1.091045,62.122962
0.4382,-0.006447,-0.000239,0.009124,0.006648,5e-05,-0.001168,-0.001704,-0.509725,0.009481,-1.08344,-264.379515,1.091045,62.122962
0.4587,-0.006157,0.000174,0.009656,0.006571,2.7e-05,-0.001355,-0.001794,-0.510218,0.009124,-1.008454,-264.379515,1.016059,62.122962
0.4782,-0.006489,0.000189,0.010562,0.006446,0.00012,-0.001726,-0.001558,-0.510043,0.009348,-1.008454,-264.379515,1.016059,62.122962
0.4983,-0.006314,0.000153,0.008509,0.006355,0.000188,-0.002018,-0.001103,-0.509783,0.010562,-0.933242,-264.379515,0.940847,62.122962
0.5182,-0.006674,-4e-06,0.00787,0.0064,0.000155,-0.002374,-0.001905,-0.509825,0.008673,-0.933242,-264.379515,0.940847,62.122962
0.5384,-0.006783,0.000209,0.009106,0.006432,0.000127,-0.002671,-0.001905,-0.509825,0.008673,-0.933242,-264.379515,0.940847,62.122962
0.5582,-0.006019,0.000234,0.008089,0.006455,0.000105,-0.002917,-0.002139,-0.50977,0.009106,-0.858301,-264.379515,0.865906,62.122962
0.5779,-0.00652,0.000335,0.007055,0.006511,6.3e-05,-0.003251,-0.002038,-0.509761,0.008685,-0.858301,-264.379515,0.865906,62.122962
0.5979,-0.006417,0.000139,0.008309,0.00655,2.9e-05,-0.003533,-0.002922,-0.509652,0.007055,-0.783397,-264.379515,0.791002,62.122962
0.6183,-0.006482,0.000347,0.008839,0.006639,2e-05,-0.003756,-0.002246,-0.509826,0.008197,-0.783397,-264.379515,0.791002,62.122962
0.6385,-0.006354,0.00021,0.007812,0.006704,1.1e-05,-0.003945,-0.002246,-0.509826,0.008197,-0.783397,-264.379515,0.791002,62.122962
0.6582,-0.006339,0.000132,0.008562,0.006751,2e-06,-0.004104,-0.00237,-0.509774,0.007811,-0.708558,-264.379513,0.716163,62.122964
0.6783,-0.0066,9e-06,0.007072,0.006776,-1.3e-05,-0.004229,-0.002209,-0.509804,0.008114,-0.708558,-264.379513,0.716163,62.122964
0.6985,-0.00637,0.000327,0.008013,0.006794,-2.7e-05,-0.004335,-0.00299,-0.509978,0.007069,-0.633585,-264.379469,0.64119,62.123009
0.7183,-0.006077,-7.5e-05,0.0085,0.006846,-7.9e-05,-0.004398,-0.002346,-0.509685,0.00793,-0.633585,-264.379469,0.64119,62.123009
0.7385,-0.006571,0.000231,0.008156,0.006884,-0.00012,-0.004456,-0.002346,-0.509685,0.00793,-0.633585,-264.379469,0.64119,62.123009
0.7583,-0.006369,0.000222,0.009082,0.006912,-0.000153,-0.004507,-0.002385,-0.509751,0.008129,-0.558477,-264.379173,0.566082,62.123303
0.7785,-0.006182,6.3e-05,0.009047,0.006866,-0.000153,-0.004611,-0.002121,-0.509754,0.00851,-0.558477,-264.379173,0.566082,62.123303
0.7984,-0.006303,0.000252,0.009469,0.006833,-0.000155,-0.004694,-0.001498,-0.509915,0.008987,-0.483567,-264.378176,0.491172,62.124286
0.8183,-0.006179,0.000394,0.009863,0.006597,-0.000155,-0.004828,-0.001473,-0.509743,0.00942,-0.483567,-264.378176,0.491172,62.124286
0.8384,-0.006544,0.000376,0.009374,0.006423,-0.000159,-0.004935,-0.001473,-0.509743,0.00942,-0.483567,-264.378176,0.491172,62.124286
0.858,-0.005631,0.000235,0.009899,0.006294,-0.000164,-0.00502,-0.001548,-0.5096,0.009218,-0.416406,-264.375913,0.416168,62.126512
0.8782,-0.005684,9.7e-05,0.007313,0.0,0.0,0.0,-0.001132,-0.509657,0.009476,-0.416406,-264.375913,0.416168,62.126512
0.8978,-0.005354,0.00049,0.007869,0.0,0.0,0.0,-0.001764,-0.509893,0.007162,-0.474106,-264.373241,0.432072,62.12913
0.9181,-0.005412,-0.000191,0.00927,0.0,0.0,0.0,-0.001369,-0.50953,0.007798,-0.474106,-264.373241,0.432072,62.12913
0.9385,-0.005568,-0.000125,0.00664,0.0,0.0,0.0,-0.001369,-0.50953,0.007798,-0.474106,-264.373241,0.432072,62.12913
0.9585,-0.005622,0.000266,0.009423,0.0,0.0,0.0,-0.002181,-0.510114,0.00664,-0.474106,-264.373241,0.432072,62.12913
0.9783,-0.005662,1.7e-05,0.007335,0.0,0.0,0.0,-0.001629,-0.509951,0.007766,-0.474106,-264.373241,0.432072,62.12913
0.9979,-0.005394,0.000306,0.0069,0.0,0.0,0.0,-0.001921,-0.50997,0.007335,-0.474106,-264.373241,0.432072,62.12913
1.0183,-0.005433,8e-05,0.006743,0.0,0.0,0.0,-0.001879,-0.509707,0.006939,-0.474106,-264.373241,0.432072,62.12913
1.0384,-0.0054,0.000114,0.007189,0.0,0.0,0.0,-0.001879,-0.509707,0.006939,-0.474106,-264.373241,0.432072,62.12913
1.0581,-0.005274,2.4e-05,0.008875,0.0,0.0,0.0,-0.001733,-0.509873,0.007189,-0.474106,-264.373241,0.432072,62.12913
1.0785,-0.005311,0.000385,0.007219,0.0,0.0,0.0,-0.001315,-0.509908,0.007904,-0.474106,-264.373241,0.432072,62.12913
1.0983,-0.005175,0.000134,0.007995,0.0,0.0,0.0,-0.001629,-0.509601,0.007219,-0.474106,-264.373241,0.432072,62.12913
1.1183,-0.005226,6.4e-05,0.008604,0.0,0.0,0.0,-0.001146,-0.509827,0.007925,-0.474106,-264.373241,0.432072,62.12913
1.1383,-0.005396,0.000141,0.00881,0.0,0.0,0.0,-0.001146,-0.509827,0.007925,-0.474106,-264.373241,0.432072,62.12913
1.1587,-0.005461,0.000464,0.007951,0.0,0.0,0.0,-0.000903,-0.509839,0.00881,-0.474106,-264.373241,0.432072,62.12913
1.1781,-0.005249,1.6e-05,0.008125,0.0,0.0,0.0,-0.00111,-0.509707,0.008456,-0.474106,-264.373241,0.432072,62.12913
1.1985,-0.005572,9.5e-05,0.00757,0.0,0.0,0.0,-0.001105,-0.509967,0.008125,-0.474106,-264.373241,0.432072,62.12913
1.2184,-0.005743,-0.000193,0.007962,0.0,0.0,0.0,-0.001656,-0.509898,0.007621,-0.474106,-264.373241,0.432072,62.12913
1.2383,-0.00568,0.000586,0.008003,0.0,0.0,0.0,-0.001656,-0.509898,0.007621,-0.474106,-264.373241,0.432072,62.12913
1.2581,-0.004928,0.000173,0.008468,0.0,0.0,0.0,-0.001598,-0.509397,0.008003,-0.474106,-264.373241,0.432072,62.12913
1.2784,-0.005305,0.000589,0.006377,0.0,0.0,0.0,-0.001194,-0.509566,0.008193,-0.474106,-264.373241,0.432072,62.12913
1.2978,-0.005362,-2.2e-05,0.005203,0.0,0.0,0.0,-0.002052,-0.5094,0.006377,-0.474106,-264.373241,0.432072,62.12913
1.3183,-0.005455,0.000145,0.008749,0.0,0.0,0.0,-0.002662,-0.509971,0.005286,-0.474106,-264.373241,0.432072,62.12913
1.3384,-0.005528,4e-05,0.008475,0.0,0.0,0.0,-0.002662,-0.509971,0.005286,-0.474106,-264.373241,0.432072,62.12913
1.358,-0.005443,0.000105,0.007772,0.0,0.0,0.0,-0.001206,-0.509941,0.008475,-0.474106,-264.373241,0.432072,62.12913
1.3784,-0.005228,-0.000135,0.007715,0.0,0.0,0.0,-0.001317,-0.509916,0.008189,-0.474106,-264.373241,0.432072,62.12913
1.3981,-0.005791,0.000101,0.008102,0.0,0.0,0.0,-0.001293,-0.51012,0.007715,-0.474106,-264.373241,0.432072,62.12913
1.4183,-0.005375,0.000346,0.008619,0.0,0.0,0.0,-0.001626,-0.509904,0.008068,-0.474106,-264.373241,0.432072,62.12913
1.4383,-0.005736,0.000128,0.007828,0.0,0.0,0.0,-0.001626,-0.509904,0.008068,-0.474106,-264.373241,0.432072,62.12913
1.4583,-0.005003,-7.9e-05,0.009596,0.0,0.0,0.0,-0.001744,-0.509856,0.007828,-0.474106,-264.373241,0.432072,62.12913
1.4783,-0.005354,3.2e-05,0.008044,0.0,0.0,0.0,-0.001082,-0.509937,0.008544,-0.474106,-264.373241,0.432072,62.12913
1.4982,-0.005523,0.000238,0.006755,0.0,0.0,0.0,-0.001252,-0.509952,0.008044,-0.474106,-264.373241,0.432072,62.12913
1.5185,-0.005467,8e-05,0.007454,0.0,0.0,0.0,-0.002005,-0.509768,0.006869,-0.474106,-264.373241,0.432072,62.12913
1.5382,-0.005569,0.000165,0.006906,0.0,0.0,0.0,-0.002005,-0.509768,0.006869,-0.474106,-264.373241,0.432072,62.12913
1.558,-0.005087,0.0002,0.007548,0.0,0.0,0.0,-0.002047,-0.509823,0.006906,-0.474106,-264.373241,0.432072,62.12913
1.5781,-0.005304,-0.000149,0.007404,0.0,0.0,0.0,-0.001717,-0.509807,0.007168,-0.474106,-264.373241,0.432072,62.12913
1.5978,-0.005773,0.000144,0.008909,0.0,0.0,0.0,-0.001528,-0.510135,0.007404,-0.474106,-264.373241,0.432072,62.12913
1.6181,-0.005564,0.000194,0.007274,0.0,0.0,0.0,-0.001257,-0.509862,0.008773,-0.474106,-264.373241,0.432072,62.12913
1.6381,-0.00544,0.000108,0.008079,0.0,0.0,0.0,-0.001257,-0.509862,0.008773,-0.474106,-264.373241,0.432072,62.12913
1.6586,-0.005726,3.9e-05,0.007697,0.0,0.0,0.0,-0.00132,-0.509876,0.008079,-0.474106,-264.373241,0.432072,62.12913
1.6783,-0.005721,0.000296,0.00839,0.0,0.0,0.0,-0.001515,-0.509904,0.007924,-0.474106,-264.373241,0.432072,62.12913
1.6985,-0.005133,0.000161,0.00742,0.0,0.0,0.0,-0.001442,-0.509686,0.00839,-0.474106,-264.373241,0.432072,62.12913
1.7188,-0.005523,0.000319,0.007244,0.0,0.0,0.0,-0.001358,-0.509812,0.007511,-0.474106,-264.373241,0.432072,62.12913
1.7388,-0.005773,-0.000109,0.007098,0.0,0.0,0.0,-0.001358,-0.509812,0.007511,-0.474106,-264.373241,0.432072,62.12913
1.7583,-0.005705,1e-06,0.00778,0.0,0.0,0.0,-0.002153,-0.510096,0.007098,-0.474106,-264.373241,0.432072,62.12913
1.7785,-0.005732,7.9e-05,0.006198,0.0,0.0,0.0,-0.001987,-0.510051,0.007371,-0.474106,-264.373241,0.432072,62.12913
1.7985,-0.005793,4.3e-05,0.008446,0.0,0.0,0.0,-0.002571,-0.509911,0.006198,-0.474106,-264.373241,0.432072,62.12913
1.8188,-0.005467,-2e-05,0.006038,0.0,0.0,0.0,-0.001566,-0.509937,0.008281,-0.474106,-264.373241,0.432072,62.12913
1.8388,-0.005266,-3.5e-05,0.006843,0.0,0.0,0.0,-0.001566,-0.509937,0.008281,-0.474106,-264.373241,0.432072,62.12913
1.8587,-0.005326,0.000189,0.008169,0.0,0.0,0.0,-0.001776,-0.510023,0.006843,-0.474106,-264.373241,0.432072,62.12913
1.8782,-0.005476,-6.8e-05,0.00881,0.0,0.0,0.0,-0.001524,-0.509929,0.007384,-0.474106,-264.373241,0.432072,62.12913
1.8981,-0.005443,0.000524,0.00874,0.0,0.0,0.0,-0.000983,-0.510048,0.00881,-0.474106,-264.373241,0.432072,62.12913
1.918,-0.005495,0.000356,0.008981,0.0,0.0,0.0,-0.000986,-0.509509,0.008746,-0.474106,-264.373241,0.432072,62.12913
1.9383,-0.005031,-4.1e-05,0.007671,0.0,0.0,0.0,-0.000986,-0.509509,0.008746,-0.474106,-264.373241,0.432072,62.12913
1.958,-0.005324,-0.00014,0.00745,0.0,0.0,0.0,-0.001119,-0.510026,0.007671,-0.474106,-264.373241,0.432072,62.12913
1.978,-0.005645,0.000333,0.007397,0.0,0.0,0.0,-0.001283,-0.510067,0.007581,-0.474106,-264.373241,0.432072,62.12913
1.9982,-0.005419,0.0001,0.005626,0.0,0.0,0.0,-0.001872,-0.509653,0.007397,-0.474106,-264.373241,0.432072,62.12913
2.0185,-0.005271,0.000271,0.007083,0.0,0.0,0.0,-0.002488,-0.50987,0.005787,-0.474106,-264.373241,0.432072,62.12913
2.0384,-0.005525,0.000105,0.008857,0.0,0.0,0.0,-0.002488,-0.50987,0.005787,-0.474106,-264.373241,0.432072,62.12913
2.0581,-0.005323,-0.00019,0.006852,0.0,0.0,0.0,-0.001008,-0.509875,0.008857,-0.474106,-264.373241,0.432072,62.12913
2.078,-0.005651,0.000233,0.006693,0.0,0.0,0.0,-0.001354,-0.510003,0.008011,-0.474106,-264.373241,0.432072,62.12913
2.0978,-0.005365,0.000402,0.006145,0.0,0.0,0.0,-0.002237,-0.509755,0.006693,-0.474106,-264.373241,0.432072,62.12913
2.1182,-0.005943,0.000133,0.008956,0.0,0.0,0.0,-0.002231,-0.509603,0.006194,-0.474106,-264.373241,0.432072,62.12913
2.1383,-0.005377,0.00018,0.008124,0.0,0.0,0.0,-0.002231,-0.509603,0.006194,-0.474106,-264.373241,0.432072,62.12913
2.1582,-0.005547,0.000172,0.00886,0.0,0.0,0.0,-0.001233,-0.509804,0.008124,-0.474106,-264.373241,0.432072,62.12913
2.1785,-0.005396,0.000247,0.006907,0.0,0.0,0.0,-0.001149,-0.509805,0.008427,-0.474106,-264.373241,0.432072,62.12913
2.1985,-0.005179,0.000235,0.008365,0.0,0.0,0.0,-0.001874,-0.509741,0.006907,-0.474106,-264.373241,0.432072,62.12913
2.2182,-0.005409,0.000174,0.007442,0.0,0.0,0.0,-0.000976,-0.509746,0.008269,-0.474106,-264.373241,0.432072,62.12913
2.2382,-0.005605,1.1e-05,0.00662,0.0,0.0,0.0,-0.000976,-0.509746,0.008269,-0.474106,-264.373241,0.432072,62.12913
2.2585,-0.005367,0.000128,0.008249,0.0,0.0,0.0,-0.002229,-0.509978,0.00662,-0.474106,-264.373241,0.432072,62.12913
2.2782,-0.005568,-8.3e-05,0.00734,0.0,0.0,0.0,-0.001795,-0.509928,0.007281,-0.474106,-264.373241,0.432072,62.12913
2.2984,-0.005296,0.00017,0.008874,0.0,0.0,0.0,-0.001824,-0.51007,0.00734,-0.474106,-264.373241,0.432072,62.12913
2.3186,-0.005671,0.000246,0.008311,0.0,0.0,0.0,-0.000865,-0.509834,0.008737,-0.474106,-264.373241,0.432072,62.12913
2.3388,-0.005643,0.000341,0.008136,0.0,0.0,0.0,-0.000865,-0.509834,0.008737,-0.474106,-264.373241,0.432072,62.12913
2.3585,-0.005498,0.000247,0.007955,0.0,0.0,0.0,-0.001494,-0.509642,0.008136,-0.474106,-264.373241,0.432072,62.12913
2.3785,-0.00542,0.000295,0.008508,0.0,0.0,0.0,-0.001472,-0.50968,0.008062,-0.474106,-264.373241,0.432072,62.12913
2.3983,-0.005635,-4.5e-05,0.007587,0.0,0.0,0.0,-0.001081,-0.509687,0.008508,-0.474106,-264.373241,0.432072,62.12913
2.4182,-0.005446,0.000174,0.005664,0.0,0.0,0.0,-0.001704,-0.51,0.00767,-0.474106,-264.373241,0.432072,62.12913
2.4384,-0.005331,-5.7e-05,0.008916,0.0,0.0,0.0,-0.001704,-0.51,0.00767,-0.474106,-264.373241,0.432072,62.12913
2.4583,-0.006054,-0.000476,0.007994,0.0,0.0,0.0,-0.000784,-0.510037,0.008916,-0.474106,-264.373241,0.432072,62.12913
2.4784,-0.005405,-6e-05,0.00676,0.0,0.0,0.0,-0.001277,-0.510212,0.008535,-0.474106,-264.373241,0.432072,62.12913
2.498,-0.005355,0.000299,0.007128,0.0,0.0,0.0,-0.001958,-0.510048,0.00676,-0.474106,-264.373241,0.432072,62.12913
2.5182,-0.005315,-2e-05,0.007457,0.0,0.0,0.0,-0.001741,-0.509721,0.007095,-0.474106,-264.373241,0.432072,62.12913
2.5382,-0.005685,1.8e-05,0.007294,0.0,0.0,0.0,-0.001741,-0.509721,0.007095,-0.474106,-264.373241,0.432072,62.12913
2.5584,-0.005641,-0.000358,0.008585,0.0,0.0,0.0,-0.001965,-0.509968,0.007294,-0.474106,-264.373241,0.432072,62.12913
2.5785,-0.005655,-2.5e-05,0.007242,0.0,0.0,0.0,-0.001681,-0.510118,0.007817,-0.474106,-264.373241,0.432072,62.12913
2.5985,-0.005396,0.00011,0.007839,0.0,0.0,0.0,-0.001961,-0.510012,0.007242,-0.474106,-264.373241,0.432072,62.12913
2.6184,-0.005305,4.1e-05,0.007542,0.0,0.0,0.0,-0.001452,-0.509888,0.007782,-0.474106,-264.373241,0.432072,62.12913
2.6384,-0.005488,0.000271,0.007225,0.0,0.0,0.0,-0.001452,-0.509888,0.007782,-0.474106,-264.373241,0.432072,62.12913
2.6581,-0.005329,0.000202,0.007963,0.0,0.0,0.0,-0.001804,-0.509715,0.007225,-0.474106,-264.373241,0.432072,62.12913
2.678,-0.005383,4.9e-05,0.006088,0.0,0.0,0.0,-0.001588,-0.509742,0.007522,-0.474106,-264.373241,0.432072,62.12913
2.6978,-0.005266,0.000122,0.005964,0.0,0.0,0.0,-0.002278,-0.509942,0.006088,-0.474106,-264.373241,0.432072,62.12913
2.718,-0.005497,0.000354,0.008877,0.0,0.0,0.0,-0.002229,-0.509876,0.005975,-0.474106,-264.373241,0.432072,62.12913
2.738,-0.005796,-0.000212,0.008062,0.0,0.0,0.0,-0.002229,-0.509876,0.005975,-0.474106,-264.373241,0.432072,62.12913
2.7579,-0.005408,0.000324,0.006396,0.0,0.0,0.0,-0.001685,-0.510195,0.008062,-0.474106,-264.373241,0.432072,62.12913
2.7786,-0.005551,0.000312,0.005134,0.0,0.0,0.0,-0.001878,-0.509973,0.007365,-0.474106,-264.373241,0.432072,62.12913
2.7982,-0.005589,-0.000102,0.007413,0.0,0.0,0.0,-0.002933,-0.509682,0.005134,-0.474106,-264.373241,0.432072,62.12913
2.8182,-0.005428,0.000123,0.008574,0.0,0.0,0.0,-0.001909,-0.510051,0.007208,-0.474106,-264.373241,0.432072,62.12913
2.8381,-0.005246,0.000197,0.00803,0.0,0.0,0.0,-0.001909,-0.510051,0.007208,-0.474106,-264.373241,0.432072,62.12913
2.8579,-0.005814,-0.0001,0.007911,0.0,0.0,0.0,-0.00115,-0.509787,0.00803,-0.474106,-264.373241,0.432072,62.12913
2.8786,-0.00539,0.00012,0.008896,0.0,0.0,0.0,-0.001408,-0.509909,0.007981,-0.474106,-264.373241,0.432072,62.12913
2.898,-0.005771,7.5e-05,0.008586,0.0,0.0,0.0,-0.000853,-0.50986,0.008896,-0.474106,-264.373241,0.432072,62.12913
2.9182,-0.005297,0.000453,0.007092,0.0,0.0,0.0,-0.001344,-0.509902,0.008614,-0.474106,-264.373241,0.432072,62.12913
2.9386,-0.005698,-0.000485,0.007714,0.0,0.0,0.0,-0.001344,-0.509902,0.008614,-0.474106,-264.373241,0.432072,62.12913
2.9585,-0.005801,0.000125,0.007213,0.0,0.0,0.0,-0.001764,-0.51047,0.007714,-0.474106,-264.373241,0.432072,62.12913
2.9783,-0.005511,-2.5e-05,0.008202,0.0,0.0,0.0,-0.001912,-0.510218,0.007506,-0.474106,-264.373241,0.432072,62.12913
2.9983,-0.005172,0.000271,0.008737,0.0,0.0,0.0,-0.001328,-0.510008,0.008202,-0.474106,-264.373241,0.432072,62.12913
3.0184,-0.005543,0.000102,0.007135,0.0,0.0,0.0,-0.000772,-0.509736,0.008689,-0.474106,-264.373241,0.432072,62.12913
3.0385,-0.005331,0.00021,0.007685,0.0,0.0,0.0,-0.000772,-0.509736,0.008689,-0.474106,-264.373241,0.432072,62.12913
3.0582,-0.005661,0.000203,0.008333,0.0,0.0,0.0,-0.001411,-0.509775,0.007685,-0.474106,-264.373241,0.432072,62.12913
3.0785,-0.005779,0.000264,0.007787,0.0,0.0,0.0,-0.001411,-0.509777,0.007949,-0.474106,-264.373241,0.432072,62.12913
3.098,-0.005732,9.1e-05,0.008363,0.0,0.0,0.0,-0.001808,-0.50972,0.007787,-0.474106,-264.373241,0.432072,62.12913
3.1181,-0.005563,0.000195,0.008429,0.0,0.0,0.0,-0.001498,-0.509876,0.00831,-0.474106,-264.373241,0.432072,62.12913
3.1381,-0.005579,6.7e-05,0.009131,0.0,0.0,0.0,-0.001498,-0.509876,0.00831,-0.474106,-264.373241,0.432072,62.12913
3.1583,-0.005233,-0.000297,0.007046,0.0,0.0,0.0,-0.000923,-0.509912,0.009131,-0.474106,-264.373241,0.432072,62.12913
3.1788,-0.005604,-0.000138,0.006301,0.0,0.0,0.0,-0.001214,-0.510063,0.008283,-0.474106,-264.373241,0.432072,62.12913
3.1983,-0.006032,0.000142,0.007347,0.0,0.0,0.0,-0.002391,-0.510128,0.006301,-0.474106,-264.373241,0.432072,62.12913
3.2186,-0.005135,-0.000219,0.005691,0.0,0.0,0.0,-0.002295,-0.50987,0.007252,-0.474106,-264.373241,0.432072,62.12913
3.2387,-0.005587,3.9e-05,0.007062,0.0,0.0,0.0,-0.002295,-0.50987,0.007252,-0.474106,-264.373241,0.432072,62.12913
3.2586,-0.005395,-5.4e-05,0.006892,0.0,0.0,0.0,-0.001985,-0.509948,0.007062,-0.474106,-264.373241,0.432072,62.12913
3.2784,-0.005495,1e-06,0.009554,0.0,0.0,0.0,-0.001943,-0.509986,0.006993,-0.474106,-264.373241,0.432072,62.12913
3.298,-0.005632,0.00037,0.008134,0.0,0.0,0.0,-0.000623,-0.509975,0.009554,-0.474106,-264.373241,0.432072,62.12913
3.3182,-0.005257,-4.7e-05,0.006661,0.0,0.0,0.0,-0.001406,-0.509646,0.008261,-0.474106,-264.373241,0.432072,62.12913
3.3382,-0.005012,0.00015,0.007,0.0,0.0,0.0,-0.001406,-0.509646,0.008261,-0.474106,-264.373241,0.432072,62.12913
3.358,-0.005589,-0.000169,0.006273,0.0,0.0,0.0,-0.001442,-0.509837,0.007,-0.474106,-264.373241,0.432072,62.12913
3.378,-0.005564,0.00029,0.00832,0.0,0.0,0.0,-0.001828,-0.509968,0.006704,-0.474106,-264.373241,0.432072,62.12913
3.3987,-0.005595,3.1e-05,0.00733,0.0,0.0,0.0,-0.001321,-0.509693,0.00832,-0.474106,-264.373241,0.432072,62.12913
3.4187,-0.005112,0.000289,0.006382,0.0,0.0,0.0,-0.001808,-0.509932,0.007419,-0.474106,-264.373241,0.432072,62.12913
3.4386,-0.00544,-4e-05,0.008195,0.0,0.0,0.0,-0.001808,-0.509932,0.007419,-0.474106,-264.373241,0.432072,62.12913
3.4586,-0.005411,3.8e-05,0.007824,0.0,0.0,0.0,-0.00126,-0.510023,0.008195,-0.474106,-264.373241,0.432072,62.12913
3.4782,-0.005783,-0.000192,0.006891,0.0,0.0,0.0,-0.001326,-0.509992,0.008044,-0.474106,-264.373241,0.432072,62.12913
3.4983,-0.005269,3.8e-05,0.00784,0.0,0.0,0.0,-0.002268,-0.51018,0.006891,-0.474106,-264.373241,0.432072,62.12913
3.5186,-0.005186,-0.00029,0.008269,0.0,0.0,0.0,-0.00136,-0.509967,0.007755,-0.474106,-264.373241,0.432072,62.12913
3.5386,-0.005785,-0.000151,0.008082,0.0,0.0,0.0,-0.00136,-0.509967,0.007755,-0.474106,-264.373241,0.432072,62.12913
3.5582,-0.00552,-7.1e-05,0.007271,0.0,0.0,0.0,-0.001663,-0.510135,0.008082,-0.474106,-264.373241,0.432072,62.12913
3.5787,-0.005535,-4.7e-05,0.007595,0.0,0.0,0.0,-0.001724,-0.510103,0.007752,-0.474106,-264.373241,0.432072,62.12913
3.5981,-0.00551,-7.1e-05,0.007203,0.0,0.0,0.0,-0.001662,-0.510032,0.007595,-0.474106,-264.373241,0.432072,62.12913
3.6188,-0.005751,4.9e-05,0.00886,0.0,0.0,0.0,-0.001821,-0.510055,0.007237,-0.474106,-264.373241,0.432072,62.12913
3.6385,-0.005836,-0.000321,0.009214,0.0,0.0,0.0,-0.001821,-0.510055,0.007237,-0.474106,-264.373241,0.432072,62.12913
3.6584,-0.005395,9.5e-05,0.008328,0.0,0.0,0.0,-0.001137,-0.5103,0.009214,-0.474106,-264.373241,0.432072,62.12913
3.6783,-0.005466,-7.4e-05,0.007864,0.0,0.0,0.0,-0.001141,-0.510133,0.008855,-0.474106,-264.373241,0.432072,62.12913
3.6979,-0.005444,2.2e-05,0.007405,0.0,0.0,0.0,-0.001456,-0.510059,0.007864,-0.474106,-264.373241,0.432072,62.12913
3.7181,-0.005753,0.000148,0.007077,0.0,0.0,0.0,-0.001649,-0.509973,0.007447,-0.474106,-264.373241,0.432072,62.12913
3.7382,-0.005267,-9e-06,0.006792,0.0,0.0,0.0,-0.001649,-0.509973,0.007447,-0.474106,-264.373241,0.432072,62.12913
3.7583,-0.00537,8e-06,0.006577,0.0,0.0,0.0,-0.001803,-0.509997,0.006792,-0.474106,-264.373241,0.432072,62.12913
3.7785,-0.00529,-0.000108,0.007502,0.0,0.0,0.0,-0.001892,-0.50999,0.006703,-0.474106,-264.373241,0.432072,62.12913
3.7981,-0.005651,0.000386,0.007238,0.0,0.0,0.0,-0.001464,-0.510094,0.007502,-0.474106,-264.373241,0.432072,62.12913
3.8185,-0.005599,5.2e-05,0.007603,0.0,0.0,0.0,-0.001915,-0.509645,0.007262,-0.474106,-264.373241,0.432072,62.12913
3.8382,-0.005617,0.000405,0.00781,0.0,0.0,0.0,-0.001915,-0.509645,0.007262,-0.474106,-264.373241,0.432072,62.12913
3.8583,-0.005562,0.000333,0.00804,0.0,0.0,0.0,-0.001634,-0.509579,0.00781,-0.474106,-264.373241,0.432072,62.12913
3.8783,-0.005107,-0.000124,0.00948,0.0,0.0,0.0,-0.001563,-0.509608,0.007904,-0.474106,-264.373241,0.432072,62.12913
3.8979,-0.005544,-0.000488,0.007837,0.0,0.0,0.0,-0.000273,-0.510101,0.00948,-0.474106,-264.373241,0.432072,62.12913
3.9183,-0.005553,0.000534,0.008113,0.0,0.0,0.0,-0.001456,-0.510446,0.007955,-0.474106,-264.373241,0.432072,62.12913
3.9386,-0.005502,0.000308,0.007323,0.0,0.0,0.0,-0.001456,-0.510446,0.007955,-0.474106,-264.373241,0.432072,62.12913
3.9585,-0.005382,-3.5e-05,0.007911,0.0,0.0,0.0,-0.001767,-0.509678,0.007323,-0.474106,-264.373241,0.432072,62.12913
3.9789,-0.005364,0.000249,0.006901,0.0,0.0,0.0,-0.001597,-0.509816,0.007561,-0.474106,-264.373241,0.432072,62.12913
3.9982,-0.005557,8.4e-05,0.008928,0.0,0.0,0.0,-0.001844,-0.509738,0.006901,-0.474106,-264.373241,0.432072,62.12913
4.0189,-0.005832,9.6e-05,0.008392,0.0,0.0,0.0,-0.001079,-0.509881,0.008746,-0.474106,-264.373241,0.432072,62.12913
4.0385,-0.005464,-4.7e-05,0.007685,0.0,0.0,0.0,-0.001079,-0.509881,0.008746,-0.474106,-264.373241,0.432072,62.12913
4.0582,-0.005331,0.00029,0.00685,0.0,0.0,0.0,-0.001544,-0.510032,0.007685,-0.474106,-264.373241,0.432072,62.12913
4.0783,-0.005646,0.000213,0.00815,0.0,0.0,0.0,-0.001662,-0.509898,0.007349,-0.474106,-264.373241,0.432072,62.12913
4.098,-0.005693,0.000159,0.008374,0.0,0.0,0.0,-0.00149,-0.50977,0.00815,-0.474106,-264.373241,0.432072,62.12913
4.1186,-0.005471,-0.00033,0.008631,0.0,0.0,0.0,-0.001429,-0.509819,0.008354,-0.474106,-264.373241,0.432072,62.12913
4.1388,-0.005848,8.8e-05,0.009528,0.0,0.0,0.0,-0.001429,-0.509819,0.008354,-0.474106,-264.373241,0.432072,62.12913
4.158,-0.005206,-0.000162,0.006862,0.0,0.0,0.0,-0.000988,-0.509889,0.009528,-0.474106,-264.373241,0.432072,62.12913
4.1784,-0.005713,0.000247,0.007539,0.0,0.0,0.0,-0.001283,-0.509996,0.008435,-0.474106,-264.373241,0.432072,62.12913
4.1987,-0.005322,0.000178,0.008258,0.0,0.0,0.0,-0.001869,-0.509738,0.007539,-0.474106,-264.373241,0.432072,62.12913
4.2188,-0.005416,-6.9e-05,0.006784,0.0,0.0,0.0,-0.001185,-0.509798,0.008187,-0.474106,-264.373241,0.432072,62.12913
4.2393,-0.00557,8.6e-05,0.008286,0.0,0.0,0.0,-0.001185,-0.509798,0.008187,-0.474106,-264.373241,0.432072,62.12913
4.2579,-0.005514,6.8e-05,0.008109,0.0,0.0,0.0,-0.001345,-0.509897,0.008286,-0.474106,-264.373241,0.432072,62.12913
4.278,-0.005634,6.5e-05,0.008481,0.0,0.0,0.0,-0.001358,-0.509904,0.008216,-0.474106,-264.373241,0.432072,62.12913
4.2978,-0.005592,0.000212,0.008272,0.0,0.0,0.0,-0.001309,-0.509917,0.008481,-0.474106,-264.373241,0.432072,62.12913
4.3181,-0.005599,0.000159,0.00839,0.0,0.0,0.0,-0.001367,-0.509783,0.008291,-0.474106,-264.373241,0.432072,62.12913
4.3381,-0.005637,0.000195,0.008365,0.0,0.0,0.0,-0.001367,-0.509783,0.008291,-0.474106,-264.373241,0.432072,62.12913
4.3584,-0.005599,0.000235,0.007575,0.0,0.0,0.0,-0.001371,-0.509787,0.008365,-0.474106,-264.373241,0.432072,62.12913
4.3785,-0.005772,0.000353,0.006127,0.0,0.0,0.0,-0.001522,-0.509772,0.008038,-0.474106,-264.373241,0.432072,62.12913
4.3984,-0.005565,0.000214,0.006607,0.0,0.0,0.0,-0.002647,-0.509637,0.006127,-0.474106,-264.373241,0.432072,62.12913
4.4186,-0.005289,0.000471,0.007253,0.0,0.0,0.0,-0.002227,-0.509766,0.006574,-0.474106,-264.373241,0.432072,62.12913
4.4386,-0.005663,-5e-06,0.007441,0.0,0.0,0.0,-0.002227,-0.509766,0.006574,-0.474106,-264.373241,0.432072,62.12913
4.458,-0.005343,-0.000155,0.00912,0.0,0.0,0.0,-0.001868,-0.509991,0.007441,-0.474106,-264.373241,0.432072,62.12913
4.4783,-0.005582,0.000155,0.009536,0.0,0.0,0.0,-0.001383,-0.51005,0.008133,-0.474106,-264.373241,0.432072,62.12913
4.498,-0.00573,5e-05,0.007572,0.0,0.0,0.0,-0.000719,-0.509822,0.009536,-0.474106,-264.373241,0.432072,62.12913
4.5182,-0.005911,0.000536,0.00746,0.0,0.0,0.0,-0.001766,-0.509925,0.007748,-0.474106,-264.373241,0.432072,62.12913
4.5385,-0.005978,3e-06,0.010034,0.0,0.0,0.0,-0.001766,-0.509925,0.007748,-0.474106,-264.373241,0.432072,62.12913
4.5582,-0.005297,0.000322,0.008032,0.0,0.0,0.0,-0.00086,-0.509972,0.010034,-0.474106,-264.373241,0.432072,62.12913
4.5783,-0.005611,-0.000138,0.007526,0.0,0.0,0.0,-0.001,-0.509844,0.009211,-0.474106,-264.373241,0.432072,62.12913
4.5982,-0.005122,-8.7e-05,0.008054,0.0,0.0,0.0,-0.001773,-0.510123,0.007526,-0.474106,-264.373241,0.432072,62.12913
4.6184,-0.005671,9.6e-05,0.007674,0.0,0.0,0.0,-0.001081,-0.510075,0.008007,-0.474106,-264.373241,0.432072,62.12913
4.6382,-0.005915,5e-06,0.008451,0.0,0.0,0.0,-0.001081,-0.510075,0.008007,-0.474106,-264.373241,0.432072,62.12913
4.6582,-0.005793,0.000141,0.007459,0.0,0.0,0.0,-0.001605,-0.509977,0.008451,-0.474106,-264.373241,0.432072,62.12913
4.6781,-0.005917,-0.0,0.0076,0.0,0.0,0.0,-0.00176,-0.509924,0.00805,-0.474106,-264.373241,0.432072,62.12913
4.6982,-0.005659,-9.9e-05,0.007321,0.0,0.0,0.0,-0.002041,-0.509985,0.0076,-0.474106,-264.373241,0.432072,62.12913
4.7182,-0.005577,8.7e-05,0.007318,0.0,0.0,0.0,-0.001931,-0.51008,0.007336,-0.474106,-264.373241,0.432072,62.12913
4.7384,-0.005254,6.8e-05,0.005381,0.0,0.0,0.0,-0.001931,-0.51008,0.007336,-0.474106,-264.373241,0.432072,62.12913
4.7579,-0.00557,-5.9e-05,0.009392,0.0,0.0,0.0,-0.00251,-0.509925,0.005381,-0.474106,-264.373241,0.432072,62.12913
4.7781,-0.005584,0.000393,0.00869,0.0,0.0,0.0,-0.001817,-0.50997,0.006989,-0.474106,-264.373241,0.432072,62.12913
4.7978,-0.005384,0.000313,0.008505,0.0,0.0,0.0,-0.001152,-0.509588,0.00869,-0.474106,-264.373241,0.432072,62.12913
4.818,-0.005365,0.000226,0.008513,0.0,0.0,0.0,-0.001056,-0.509661,0.008521,-0.474106,-264.373241,0.432072,62.12913
4.8386,-0.005827,0.000227,0.007275,0.0,0.0,0.0,-0.001056,-0.509661,0.008521,-0.474106,-264.373241,0.432072,62.12913
4.8582,-0.005207,0.000315,0.008056,0.0,0.0,0.0,-0.002117,-0.50976,0.007275,-0.474106,-264.373241,0.432072,62.12913
4.8783,-0.005421,0.000365,0.008808,0.0,0.0,0.0,-0.001714,-0.509724,0.007584,-0.474106,-264.373241,0.432072,62.12913
4.898,-0.00553,-1.9e-05,0.008218,0.0,0.0,0.0,-0.000929,-0.509616,0.008808,-0.474106,-264.373241,0.432072,62.12913
4.9183,-0.005693,-1e-05,0.008343,0.0,0.0,0.0,-0.001304,-0.509969,0.008268,-0.474106,-264.373241,0.432072,62.12913
4.9384,-0.005383,0.000587,0.007377,0.0,0.0,0.0,-0.001304,-0.509969,0.008268,-0.474106,-264.373241,0.432072,62.12913
4.9583,-0.00529,0.000124,0.007822,0.0,0.0,0.0,-0.001621,-0.509399,0.007377,-0.474106,-264.373241,0.432072,62.12913
4.9783,-0.005342,-1.4e-05,0.007725,0.0,0.0,0.0,-0.001492,-0.509585,0.007556,-0.474106,-264.373241,0.432072,62.12913
4.9981,-0.005504,2.7e-05,0.00778,0.0,0.0,0.0,-0.001402,-0.509999,0.007725,-0.474106,-264.373241,0.432072,62.12913
5.0185,-0.005346,2.1e-05,0.008087,0.0,0.0,0.0,-0.001525,-0.509961,0.007775,-0.474106,-264.373241,0.432072,62.12913
5.0383,-0.005486,1e-05,0.00826,0.0,0.0,0.0,-0.001525,-0.509961,0.007775,-0.474106,-264.373241,0.432072,62.12913
5.0583,-0.005412,0.00015,0.008666,0.0,0.0,0.0,-0.001273,-0.509973,0.00826,-0.474106,-264.373241,0.432072,62.12913
5.0783,-0.005782,-9.5e-05,0.008053,0.0,0.0,0.0,-0.001159,-0.509915,0.008425,-0.474106,-264.373241,0.432072,62.12913
5.0986,-0.005524,-0.000119,0.008609,0.0,0.0,0.0,-0.001675,-0.510078,0.008053,-0.474106,-264.373241,0.432072,62.12913
5.1184,-0.005722,-0.000134,0.007602,0.0,0.0,0.0,-0.001181,-0.510098,0.00856,-0.474106,-264.373241,0.432072,62.12913
5.1383,-0.005219,6.4e-05,0.006778,0.0,0.0,0.0,-0.001181,-0.510098,0.00856,-0.474106,-264.373241,0.432072,62.12913
5.1581,-0.005345,0.000269,0.008373,0.0,0.0,0.0,-0.001762,-0.509924,0.006778,-0.474106,-264.373241,0.432072,62.12913
5.1787,-0.005917,-0.00011,0.00612,0.0,0.0,0.0,-0.001482,-0.509838,0.007428,-0.474106,-264.373241,0.432072,62.12913
5.1981,-0.005414,-0.000396,0.007152,0.0,0.0,0.0,-0.002795,-0.510101,0.00612,-0.474106,-264.373241,0.432072,62.12913
5.218,-0.005135,0.000502,0.005732,0.0,0.0,0.0,-0.001861,-0.510356,0.007057,-0.474106,-264.373241,0.432072,62.12913
5.238,-0.005603,-0.000213,0.006579,0.0,0.0,0.0,-0.001861,-0.510356,0.007057,-0.474106,-264.373241,0.432072,62.12913
5.2582,-0.00591,0.000154,0.008285,0.0,0.0,0.0,-0.002247,-0.510202,0.006579,-0.474106,-264.373241,0.432072,62.12913
5.2781,-0.00537,0.000185,0.005885,0.0,0.0,0.0,-0.002018,-0.51005,0.007275,-0.474106,-264.373241,0.432072,62.12913
5.2982,-0.005197,-2e-05,0.008649,0.0,0.0,0.0,-0.002369,-0.509807,0.005885,-0.474106,-264.373241,0.432072,62.12913
5.3181,-0.005558,0.000209,0.010483,0.0,0.0,0.0,-0.000927,-0.509983,0.008402,-0.474106,-264.373241,0.432072,62.12913
5.3381,-0.005482,0.000101,0.006222,0.0,0.0,0.0,-0.000927,-0.509983,0.008402,-0.474106,-264.373241,0.432072,62.12913
5.3584,-0.005568,-0.00033,0.007995,0.0,0.0,0.0,-0.002309,-0.509889,0.006222,-0.474106,-264.373241,0.432072,62.12913
5.3783,-0.005685,0.000335,0.008743,0.0,0.0,0.0,-0.001978,-0.510061,0.006939,-0.474106,-264.373241,0.432072,62.12913
5.398,-0.005625,0.000336,0.008141,0.0,0.0,0.0,-0.001226,-0.509646,0.008743,-0.474106,-264.373241,0.432072,62.12913
5.4182,-0.005345,0.000248,0.008143,0.0,0.0,0.0,-0.001452,-0.509647,0.008193,-0.474106,-264.373241,0.432072,62.12913
5.4382,-0.005659,0.000263,0.008558,0.0,0.0,0.0,-0.001452,-0.509647,0.008193,-0.474106,-264.373241,0.432072,62.12913
5.4579,-0.005688,-5.1e-05,0.007724,0.0,0.0,0.0,-0.001295,-0.509718,0.008558,-0.474106,-264.373241,0.432072,62.12913
5.4779,-0.005578,-3.6e-05,0.006952,0.0,0.0,0.0,-0.001478,-0.509846,0.008221,-0.474106,-264.373241,0.432072,62.12913
5.4981,-0.0054,7.5e-05,0.007623,0.0,0.0,0.0,-0.002033,-0.510023,0.006952,-0.474106,-264.373241,0.432072,62.12913
5.5181,-0.006024,7.8e-05,0.008307,0.0,0.0,0.0,-0.001557,-0.50992,0.007565,-0.474106,-264.373241,0.432072,62.12913
5.5382,-0.005454,0.000172,0.007533,0.0,0.0,0.0,-0.001557,-0.50992,0.007565,-0.474106,-264.373241,0.432072,62.12913
5.5583,-0.005673,8e-06,0.00723,0.0,0.0,0.0,-0.001612,-0.509814,0.007533,-0.474106,-264.373241,0.432072,62.12913
5.5784,-0.005324,0.000352,0.008755,0.0,0.0,0.0,-0.001764,-0.509881,0.00741,-0.474106,-264.373241,0.432072,62.12913
5.5979,-0.005717,8.1e-05,0.008373,0.0,0.0,0.0,-0.000859,-0.509628,0.008755,-0.474106,-264.373241,0.432072,62.12913
5.6182,-0.005402,-7e-05,0.008059,0.0,0.0,0.0,-0.001396,-0.509877,0.008406,-0.474106,-264.373241,0.432072,62.12913
5.6382,-0.005442,0.000278,0.00827,0.0,0.0,0.0,-0.001396,-0.509877,0.008406,-0.474106,-264.373241,0.432072,62.12913
5.6583,-0.005312,0.000429,0.007323,0.0,0.0,0.0,-0.001225,-0.509705,0.00827,-0.474106,-264.373241,0.432072,62.12913
5.6784,-0.005369,0.000364,0.006173,0.0,0.0,0.0,-0.001368,-0.509645,0.007884,-0.474106,-264.373241,0.432072,62.12913
5.698,-0.00547,0.000374,0.008164,0.0,0.0,0.0,-0.002221,-0.509626,0.006173,-0.474106,-264.373241,0.432072,62.12913
5.7184,-0.005633,2e-05,0.00699,0.0,0.0,0.0,-0.001389,-0.509611,0.007985,-0.474106,-264.373241,0.432072,62.12913
5.7386,-0.005728,-1e-05,0.008193,0.0,0.0,0.0,-0.001389,-0.509611,0.007985,-0.474106,-264.373241,0.432072,62.12913
5.7585,-0.005426,0.00022,0.007342,0.0,0.0,0.0,-0.00155,-0.509993,0.008193,-0.474106,-264.373241,0.432072,62.12913
5.7788,-0.005933,-0.000171,0.009106,0.0,0.0,0.0,-0.001605,-0.509899,0.007839,-0.474106,-264.373241,0.432072,62.12913
5.7983,-0.005654,0.00034,0.008002,0.0,0.0,0.0,-0.00129,-0.51015,0.009106,-0.474106,-264.373241,0.432072,62.12913
5.8182,-0.005436,-1.4e-05,0.007029,0.0,0.0,0.0,-0.001547,-0.509689,0.008101,-0.474106,-264.373241,0.432072,62.12913
5.8388,-0.005237,-9.6e-05,0.008199,0.0,0.0,0.0,-0.001547,-0.509689,0.008101,-0.474106,-264.373241,0.432072,62.12913
5.8583,-0.005565,0.00013,0.008235,0.0,0.0,0.0,-0.001055,-0.510079,0.008199,-0.474106,-264.373241,0.432072,62.12913
5.8783,-0.005556,7.5e-05,0.007815,0.0,0.0,0.0,-0.001181,-0.509987,0.008213,-0.474106,-264.373241,0.432072,62.12913
