mach0312/omni-docking-bench/src/icros_test_setup/results/MPPI_sample/timeseries/trial_043.csv
t,x,y,yaw,vx,vy,wz,bl_x,bl_y,bl_yaw,front_steering_joint,front_wheel_joint,rear_steering_joint,rear_wheel_joint
0.0,-0.069486,-0.001829,0.05817,-0.012502,0.000798,0.035769,-0.037615,-0.511079,0.051602,-1.066334,-262.291106,1.034809,71.526995
0.0003,-0.068907,-0.00208,0.056673,-0.011964,0.000764,0.03423,-0.037615,-0.511079,0.051602,-1.066334,-262.302787,1.034809,71.51594
0.0007,-0.071036,-0.001878,0.058557,-0.011362,0.000725,0.032508,-0.038186,-0.511282,0.053907,-1.066334,-262.313819,1.034809,71.505499
0.001,-0.07097,-0.001783,0.058648,-0.010685,0.000682,0.030571,-0.038953,-0.511335,0.053196,-1.066334,-262.324161,1.034809,71.49571
0.0013,-0.070711,-0.001983,0.059755,-0.009938,0.000635,0.028432,-0.038953,-0.511335,0.053196,-1.066334,-262.333004,1.034809,71.487341
0.0016,-0.071938,-0.001975,0.059731,-0.009118,0.000582,0.026087,-0.039634,-0.511178,0.053664,-1.066334,-262.340563,1.034809,71.480187
0.0019,-0.071963,-0.002134,0.060821,-0.008225,0.000525,0.023533,-0.039634,-0.511178,0.053664,-1.066334,-262.340563,1.034809,71.480187
0.0021,-0.073189,-0.002073,0.062566,-0.007266,0.000464,0.020788,-0.040044,-0.511285,0.054086,-1.066334,-262.340563,1.034809,71.480187
0.0024,-0.073219,-0.00228,0.061239,-0.006223,0.000397,0.017804,-0.040044,-0.511285,0.054086,-1.066334,-262.340563,1.034809,71.480187
0.0176,-0.072956,-0.001911,0.061369,0.0,0.0,0.0,-0.041311,-0.511085,0.062529,-1.066334,-262.340563,1.034809,71.480187
0.0374,-0.074329,-0.00187,0.063178,0.0,0.0,0.0,-0.041937,-0.51095,0.062113,-1.066334,-262.345711,1.034809,71.475315
0.0569,-0.074005,-0.002384,0.061379,0.0,0.0,0.0,-0.042046,-0.51091,0.062634,-1.066334,-262.345711,1.034809,71.475315
0.0771,-0.074056,-0.002254,0.06269,0.0,0.0,0.0,-0.042721,-0.511423,0.061379,-1.066334,-262.345711,1.034809,71.475315
0.0978,-0.07385,-0.002198,0.060881,0.0,0.0,0.0,-0.04216,-0.511268,0.062573,-1.066334,-262.345711,1.034809,71.475315
0.1172,-0.07391,-0.002111,0.063402,0.00297,-4.1e-05,0.003936,-0.04216,-0.511268,0.062573,-1.066334,-262.345711,1.034809,71.475315
0.1371,-0.07405,-0.002198,0.064437,0.003295,-3.9e-05,0.003668,-0.041597,-0.511086,0.063402,-1.066334,-262.345711,1.034809,71.475315
0.157,-0.074368,-0.002314,0.061957,0.003582,-4e-05,0.002655,-0.04144,-0.511108,0.063822,-1.066334,-262.345711,1.034809,71.475315
0.1766,-0.073928,-0.002133,0.060881,0.003833,-3.8e-05,0.001956,-0.04279,-0.511336,0.061957,-0.991386,-262.345711,0.959861,71.475315
0.1972,-0.074145,-0.002276,0.061621,0.004052,-3e-05,0.000754,-0.042888,-0.511201,0.060977,-0.991386,-262.345711,0.959861,71.475315
0.217,-0.073954,-0.001963,0.061657,0.004241,-1.9e-05,-0.000107,-0.042888,-0.511201,0.060977,-0.991386,-262.345711,0.959861,71.475315
0.237,-0.074005,-0.002184,0.062371,0.004405,-8e-06,-0.000718,-0.042529,-0.510994,0.061657,-0.916378,-262.345711,0.884853,71.475315
0.2569,-0.074086,-0.00214,0.061686,0.004546,1e-06,-0.001799,-0.042402,-0.511074,0.061946,-0.916378,-262.345711,0.884853,71.475315
0.2768,-0.074027,-0.002263,0.0619,0.004666,1.1e-05,-0.002597,-0.042646,-0.51117,0.061686,-0.84138,-262.345711,0.809855,71.475315
0.2968,-0.073871,-0.002017,0.060928,0.004768,2.7e-05,-0.0037,-0.042494,-0.511275,0.06188,-0.84138,-262.345711,0.809855,71.475315
0.3172,-0.074325,-0.002506,0.064172,0.004854,4.2e-05,-0.004544,-0.042494,-0.511275,0.06188,-0.84138,-262.345711,0.809855,71.475315
0.3372,-0.074586,-0.002281,0.061024,0.004928,5.7e-05,-0.005183,-0.041619,-0.511457,0.064172,-0.766383,-262.34571,0.734858,71.475316
0.3571,-0.074147,-0.002168,0.0624,0.004989,7.4e-05,-0.006073,-0.042378,-0.511406,0.062891,-0.766383,-262.34571,0.734858,71.475316
0.3767,-0.073739,-0.002174,0.061042,0.005041,8.9e-05,-0.006772,-0.042293,-0.511173,0.062333,-0.691374,-262.344901,0.659849,71.476133
0.3968,-0.073778,-0.002434,0.062265,0.005084,0.000102,-0.007634,-0.042594,-0.511219,0.061156,-0.691374,-262.344901,0.659849,71.476133
0.4171,-0.073744,-0.002352,0.061248,0.005118,0.000113,-0.008319,-0.042594,-0.511219,0.061156,-0.691374,-262.344901,0.659849,71.476133
0.4369,-0.073457,-0.001814,0.061404,0.005147,0.000124,-0.008863,-0.042322,-0.511379,0.060972,-0.676413,-262.342383,0.697589,71.478696
0.4568,-0.073623,-0.002033,0.061499,0.00517,0.000134,-0.009566,-0.042233,-0.511162,0.061116,-0.676413,-262.342383,0.697589,71.478696
0.4767,-0.073336,-0.001959,0.062095,0.005188,0.000143,-0.010131,-0.042173,-0.51106,0.061334,-0.751413,-262.340572,0.772589,71.480551
0.4969,-0.073402,-0.002169,0.062437,0.005202,0.000147,-0.010793,-0.041726,-0.510984,0.062019,-0.751413,-262.340572,0.772589,71.480551
0.5171,-0.072997,-0.001885,0.061742,0.005211,0.000151,-0.011335,-0.041726,-0.510984,0.062019,-0.751413,-262.340572,0.772589,71.480551
0.5368,-0.072351,-0.001926,0.060984,0.005218,0.000155,-0.011777,-0.041377,-0.5109,0.061465,-0.826469,-262.338425,0.847645,71.482757
0.5571,-0.0731,-0.002115,0.06231,0.005223,0.000158,-0.012238,-0.041315,-0.51093,0.061237,-0.826469,-262.338425,0.847645,71.482757
0.5771,-0.072335,-0.002135,0.061606,0.005226,0.000162,-0.012618,-0.041222,-0.511114,0.062054,-0.901406,-262.335977,0.922582,71.485274
0.5967,-0.072486,-0.002102,0.060789,0.005227,0.00017,-0.012965,-0.040955,-0.511162,0.061632,-0.901406,-262.335977,0.922582,71.485274
0.617,-0.072465,-0.00211,0.060944,0.005228,0.000178,-0.013253,-0.040955,-0.511162,0.061632,-0.901406,-262.335977,0.922582,71.485274
0.637,-0.071629,-0.001914,0.060126,0.005228,0.000184,-0.013491,-0.041211,-0.511145,0.060478,-0.965065,-262.332746,0.984545,71.4886
0.6569,-0.072002,-0.002214,0.060183,0.005227,0.000189,-0.013733,-0.041097,-0.511081,0.060282,-0.965065,-262.332746,0.984545,71.4886
0.6772,-0.071032,-0.001557,0.061483,0.005226,0.000193,-0.013933,-0.041166,-0.511275,0.059766,-0.995104,-262.329017,1.015329,71.492449
0.6971,-0.071931,-0.00179,0.05949,0.005224,0.000185,-0.014151,-0.039819,-0.510654,0.061308,-0.995104,-262.329017,1.015329,71.492449
0.717,-0.071281,-0.00179,0.059691,0.005221,0.000179,-0.014331,-0.039819,-0.510654,0.061308,-0.995104,-262.329017,1.015329,71.492449
0.7372,-0.070699,-0.001842,0.058992,0.005218,0.000174,-0.014481,-0.04064,-0.510861,0.059112,-1.009787,-262.325115,1.02999,71.496482
0.757,-0.070857,-0.001774,0.058474,0.005216,0.000177,-0.014652,-0.040611,-0.510897,0.058996,-1.009787,-262.325115,1.02999,71.496482
0.7771,-0.069981,-0.001827,0.059881,0.005214,0.00018,-0.014796,-0.040888,-0.510888,0.058018,-1.028987,-262.321112,1.046217,71.500604
0.7971,-0.070221,-0.00174,0.057368,0.005211,0.000183,-0.01496,-0.039586,-0.51091,0.05968,-1.028987,-262.321112,1.046217,71.500604
0.8171,-0.070146,-0.001737,0.057191,0.005209,0.000186,-0.015097,-0.039586,-0.51091,0.05968,-1.028987,-262.321112,1.046217,71.500604
0.8368,-0.069432,-0.001497,0.057188,0.005206,0.000188,-0.015212,-0.040777,-0.510884,0.056573,-1.038698,-262.317009,1.055981,71.504831
0.8571,-0.069538,-0.001833,0.056815,0.005203,0.000189,-0.01535,-0.040551,-0.510792,0.056753,-1.038698,-262.317009,1.055981,71.504831
0.877,-0.068464,-0.001759,0.056334,0.005201,0.000191,-0.015466,-0.040413,-0.510995,0.056332,-1.051282,-262.312836,1.06855,71.509135
0.897,-0.069049,-0.00162,0.056082,0.005198,0.000196,-0.015596,-0.039801,-0.510953,0.056309,-1.051282,-262.312836,1.06855,71.509135
0.9171,-0.068509,-0.001617,0.057883,0.005195,0.000201,-0.015706,-0.039801,-0.510953,0.056309,-1.051282,-262.312836,1.06855,71.509135
0.9368,-0.068188,-0.001527,0.056915,0.005193,0.000205,-0.015798,-0.038788,-0.510742,0.057236,-1.058857,-262.308597,1.075907,71.513507
0.9571,-0.068484,-0.001433,0.055793,0.00519,0.000203,-0.015899,-0.038921,-0.510723,0.057032,-1.058857,-262.308597,1.075907,71.513507
0.9768,-0.067663,-0.001207,0.053872,0.005187,0.000201,-0.015984,-0.03988,-0.510623,0.055291,-1.068036,-262.304299,1.085797,71.517949
0.9968,-0.067578,-0.001671,0.054674,0.005185,0.000195,-0.016082,-0.040164,-0.510481,0.053974,-1.068036,-262.304299,1.085797,71.517949
1.0172,-0.067585,-0.001657,0.055272,0.005182,0.00019,-0.016165,-0.040164,-0.510481,0.053974,-1.068036,-262.304299,1.085797,71.517949
1.0369,-0.067175,-0.001709,0.053563,0.005179,0.000186,-0.016235,-0.039195,-0.510858,0.054604,-1.073714,-262.299946,1.090749,71.522444
1.0569,-0.066814,-0.001798,0.056064,0.005178,0.000194,-0.016315,-0.039447,-0.510905,0.054099,-1.073714,-262.299946,1.090749,71.522444
1.0772,-0.066326,-0.001645,0.053939,0.005176,0.0002,-0.016383,-0.038072,-0.510982,0.055549,-1.081586,-262.29555,1.097024,71.526972
1.0971,-0.066476,-0.001842,0.054313,0.005174,0.000206,-0.01646,-0.038754,-0.51091,0.054057,-1.081586,-262.29555,1.097024,71.526972
1.1171,-0.066474,-0.001534,0.052147,0.005172,0.00021,-0.016524,-0.038754,-0.51091,0.054057,-1.081586,-262.29555,1.097024,71.526972
1.137,-0.065597,-0.001388,0.051106,0.00517,0.000214,-0.016579,-0.039675,-0.510821,0.05146,-1.085163,-262.291117,1.101466,71.531547
1.1571,-0.065805,-0.00162,0.053416,0.005168,0.000217,-0.016637,-0.039598,-0.510779,0.051238,-1.085163,-262.291117,1.101466,71.531547
1.1773,-0.064833,-0.00128,0.052833,0.005166,0.000219,-0.016686,-0.038411,-0.510877,0.052884,-1.089988,-262.286644,1.107147,71.536173
1.1971,-0.065073,-0.001755,0.051611,0.005164,0.000215,-0.016736,-0.037938,-0.510595,0.052811,-1.089988,-262.286644,1.107147,71.536173
1.2172,-0.064802,-0.001249,0.052352,0.005162,0.000212,-0.016779,-0.037938,-0.510595,0.052811,-1.089988,-262.286644,1.107147,71.536173
1.2369,-0.06421,-0.001825,0.049441,0.00516,0.000209,-0.016814,-0.0379,-0.510529,0.051654,-1.092803,-262.282159,1.110118,71.540814
1.2568,-0.064158,-0.001331,0.051095,0.005159,0.000214,-0.01685,-0.038322,-0.510799,0.050677,-1.092803,-262.282159,1.110118,71.540814
1.2769,-0.063405,-0.001454,0.049918,0.005158,0.000218,-0.01688,-0.037947,-0.510651,0.05056,-1.096831,-262.277621,1.113191,71.545501
1.2968,-0.063101,-0.001742,0.04991,0.005156,0.000223,-0.016912,-0.037949,-0.510804,0.049945,-1.096831,-262.277621,1.113191,71.545501
1.3168,-0.063456,-0.001176,0.051762,0.005155,0.000227,-0.016939,-0.037949,-0.510804,0.049945,-1.096831,-262.277621,1.113191,71.545501
1.3372,-0.062521,-0.001303,0.049001,0.005154,0.00023,-0.016961,-0.036855,-0.510473,0.051058,-1.098309,-262.2731,1.115266,71.550179
1.3573,-0.063236,-0.001622,0.049185,0.005153,0.000226,-0.016986,-0.037111,-0.51056,0.050133,-1.098309,-262.2731,1.115266,71.550179
1.3771,-0.062287,-0.00132,0.049137,0.005151,0.000224,-0.017007,-0.037998,-0.51099,0.048644,-1.100097,-262.26856,1.117808,71.554883
1.3975,-0.061974,-0.001556,0.050583,0.00515,0.000227,-0.017028,-0.037298,-0.51073,0.049063,-1.100097,-262.26856,1.117808,71.554883
1.417,-0.062011,-0.000982,0.047614,0.00515,0.000229,-0.017046,-0.037298,-0.51073,0.049063,-1.100097,-262.26856,1.117808,71.554883
1.4372,-0.061535,-0.001327,0.045288,0.005149,0.000231,-0.017062,-0.037522,-0.510384,0.046902,-1.101676,-262.264003,1.118816,71.559601
1.457,-0.061197,-0.00113,0.046854,0.005148,0.000231,-0.017079,-0.037873,-0.510553,0.046163,-1.101676,-262.264003,1.118816,71.559601
1.477,-0.060716,-0.001238,0.045741,0.005147,0.000231,-0.017093,-0.037147,-0.510556,0.046311,-1.102906,-262.259437,1.120534,71.564332
1.4972,-0.060902,-0.000906,0.047989,0.005147,0.000235,-0.017108,-0.037366,-0.510691,0.045765,-1.102906,-262.259437,1.120534,71.564332
1.5171,-0.060817,-0.000941,0.046298,0.005146,0.000238,-0.017121,-0.037366,-0.510691,0.045765,-1.102906,-262.259437,1.120534,71.564332
1.537,-0.060149,-0.001379,0.045611,0.005146,0.000241,-0.017132,-0.036998,-0.510375,0.045582,-1.103815,-262.254863,1.121337,71.569071
1.557,-0.060494,-0.001274,0.047283,0.005145,0.00024,-0.017144,-0.036932,-0.510565,0.045512,-1.103815,-262.254863,1.121337,71.569071
1.5769,-0.059288,-0.00109,0.044042,0.005144,0.00024,-0.017154,-0.036225,-0.510688,0.046737,-1.104454,-262.250271,1.122689,71.573837
1.5972,-0.059457,-0.000927,0.044726,0.005144,0.000242,-0.017165,-0.036776,-0.510602,0.044236,-1.104454,-262.250271,1.122689,71.573837
1.617,-0.059685,-0.000819,0.044053,0.005144,0.000244,-0.017174,-0.036776,-0.510602,0.044236,-1.104454,-262.250271,1.122689,71.573837
1.6377,-0.058646,-0.001119,0.046236,0.005143,0.000245,-0.017182,-0.037011,-0.510305,0.043336,-1.105121,-262.245703,1.123253,71.578577
1.6572,-0.058657,-0.000803,0.044208,0.005143,0.000241,-0.017191,-0.036206,-0.510411,0.044421,-1.105121,-262.245703,1.123253,71.578577
1.6767,-0.057988,-0.000763,0.04362,0.005142,0.000238,-0.017198,-0.035954,-0.510289,0.043659,-1.105675,-262.241109,1.124146,71.583347
1.6969,-0.058022,-0.000911,0.044107,0.005141,0.000233,-0.017206,-0.035758,-0.510279,0.043597,-1.105675,-262.241109,1.124146,71.583347
1.7169,-0.05825,-0.001046,0.044145,0.005141,0.000228,-0.017213,-0.035758,-0.510279,0.043597,-1.105675,-262.241109,1.124146,71.583347
1.7371,-0.05743,-0.000827,0.042898,0.00514,0.000224,-0.017219,-0.035529,-0.51053,0.043425,-1.106443,-262.236524,1.124346,71.588103
1.7571,-0.0572,-0.000611,0.042579,0.00514,0.000227,-0.017224,-0.035517,-0.510458,0.043129,-1.106443,-262.236524,1.124346,71.588103
1.7769,-0.056596,-0.001227,0.04297,0.00514,0.000229,-0.017229,-0.035328,-0.510135,0.042029,-1.107605,-262.231915,1.124437,71.592874
1.7973,-0.056775,-0.000804,0.042069,0.00514,0.000238,-0.017233,-0.034735,-0.510702,0.042863,-1.107605,-262.231915,1.124437,71.592874
1.817,-0.056295,-0.00093,0.041549,0.00514,0.000246,-0.017237,-0.034735,-0.510702,0.042863,-1.107605,-262.231915,1.124437,71.592874
1.8372,-0.056323,-0.001231,0.042191,0.00514,0.000252,-0.01724,-0.034896,-0.510472,0.040828,-1.107708,-262.227312,1.124845,71.59764
1.8572,-0.056092,-0.000765,0.040808,0.00514,0.000256,-0.017244,-0.034837,-0.510594,0.041299,-1.107708,-262.227312,1.124845,71.59764
1.8766,-0.055415,-0.000527,0.041063,0.00514,0.000259,-0.017247,-0.035123,-0.510325,0.040258,-1.107042,-262.222716,1.125931,71.602418
1.8976,-0.055087,-0.000791,0.041484,0.005139,0.000249,-0.017252,-0.034526,-0.510116,0.040968,-1.107042,-262.222716,1.125931,71.602418
1.9174,-0.055242,-0.000839,0.040023,0.005138,0.00024,-0.017256,-0.034526,-0.510116,0.040968,-1.107042,-262.222716,1.125931,71.602418
1.9368,-0.054465,-0.00114,0.0388,0.005138,0.000233,-0.017259,-0.034621,-0.510411,0.039302,-1.106941,-262.218102,1.126354,71.607219
1.9569,-0.054695,-0.000912,0.037905,0.005138,0.000241,-0.017261,-0.034622,-0.510554,0.039008,-1.106941,-262.218102,1.126354,71.607219
1.9772,-0.053701,-0.000708,0.037728,0.005138,0.000248,-0.017262,-0.035206,-0.510532,0.037358,-1.108404,-262.213509,1.1258,71.611979
1.9978,-0.053589,-0.000838,0.036785,0.005138,0.00025,-0.017265,-0.034522,-0.510361,0.037668,-1.108404,-262.213509,1.1258,71.611979
2.0169,-0.053712,-0.000743,0.038111,0.005138,0.000251,-0.017267,-0.034522,-0.510361,0.037668,-1.108404,-262.213509,1.1258,71.611979
2.0369,-0.05332,-0.000857,0.036848,0.005138,0.000252,-0.017268,-0.034066,-0.510354,0.037391,-1.10786,-262.208918,1.12639,71.616747
2.0573,-0.052928,-0.000902,0.036582,0.005138,0.000256,-0.01727,-0.03423,-0.510416,0.037087,-1.10786,-262.208918,1.12639,71.616747
2.0771,-0.052516,-0.000668,0.035898,0.005138,0.000258,-0.017271,-0.034112,-0.510546,0.03603,-1.107845,-262.204308,1.126685,71.62154
2.0968,-0.052462,-0.000763,0.037181,0.005138,0.00026,-0.017273,-0.034194,-0.510358,0.035881,-1.107845,-262.204308,1.126685,71.62154
2.1168,-0.052302,-0.000397,0.036745,0.005138,0.000262,-0.017274,-0.034194,-0.510358,0.035881,-1.107845,-262.204308,1.126685,71.62154
2.1367,-0.051865,-0.000388,0.034334,0.005138,0.000263,-0.017275,-0.033352,-0.510034,0.036023,-1.107679,-262.199716,1.126969,71.626317
2.157,-0.051682,-0.00069,0.035831,0.005138,0.000256,-0.017277,-0.033736,-0.510054,0.035253,-1.107679,-262.199716,1.126969,71.626317
2.1766,-0.051386,-0.000676,0.033444,0.005137,0.00025,-0.017279,-0.033249,-0.510348,0.03528,-1.107598,-262.195109,1.127238,71.631113
2.1968,-0.050704,-0.000527,0.035252,0.005138,0.000257,-0.01728,-0.034234,-0.510386,0.033573,-1.107598,-262.195109,1.127238,71.631113
2.2167,-0.050929,-0.000361,0.033782,0.005138,0.000262,-0.01728,-0.034234,-0.510386,0.033573,-1.107598,-262.195109,1.127238,71.631113
2.2369,-0.050226,-0.000272,0.033714,0.005138,0.000266,-0.017281,-0.033489,-0.510052,0.033061,-1.108251,-262.190501,1.12692,71.635902
2.257,-0.050139,-0.000546,0.032795,0.005137,0.00026,-0.017282,-0.033276,-0.510021,0.033248,-1.108251,-262.190501,1.12692,71.635902
2.2771,-0.049754,-0.000313,0.033028,0.005137,0.000254,-0.017283,-0.033254,-0.510258,0.032247,-1.107621,-262.185912,1.127482,71.640682
2.297,-0.049727,-0.000629,0.032605,0.005137,0.000251,-0.017285,-0.032935,-0.510054,0.03293,-1.107621,-262.185912,1.127482,71.640682
2.3169,-0.049545,-0.000798,0.03337,0.005137,0.000249,-0.017285,-0.032935,-0.510054,0.03293,-1.107621,-262.185912,1.127482,71.640682
2.3369,-0.049023,-0.000677,0.031477,0.005136,0.000246,-0.017286,-0.032314,-0.510497,0.032647,-1.108207,-262.181307,1.127182,71.645469
2.3569,-0.048988,-0.000861,0.031399,0.005137,0.000258,-0.017285,-0.032557,-0.510465,0.032088,-1.108207,-262.181307,1.127182,71.645469
2.3769,-0.048273,-0.000375,0.02998,0.005137,0.000268,-0.017285,-0.032813,-0.510597,0.030847,-1.108626,-262.176693,1.127001,71.650261
2.3971,-0.048404,-0.000674,0.031349,0.005137,0.000269,-0.017286,-0.032963,-0.510184,0.030027,-1.108626,-262.176693,1.127001,71.650261
2.4171,-0.048476,-0.000179,0.030852,0.005137,0.000271,-0.017286,-0.032963,-0.510184,0.030027,-1.108626,-262.176693,1.127001,71.650261
2.4367,-0.047441,-8e-05,0.030967,0.005137,0.000272,-0.017286,-0.032529,-0.509918,0.030129,-1.107719,-262.172093,1.127695,71.655054
2.4567,-0.047485,-0.000738,0.031845,0.005137,0.000263,-0.017288,-0.032143,-0.509882,0.03039,-1.107719,-262.172093,1.127695,71.655054
2.4769,-0.047062,-0.000538,0.02934,0.005136,0.000256,-0.017289,-0.031084,-0.510465,0.031296,-1.107596,-262.167484,1.127856,71.659858
2.497,-0.046746,-1.5e-05,0.028365,0.005137,0.000265,-0.017288,-0.032011,-0.51033,0.029473,-1.107596,-262.167484,1.127856,71.659858
2.5173,-0.046738,-0.000522,0.029017,0.005137,0.000272,-0.017288,-0.032011,-0.51033,0.029473,-1.107596,-262.167484,1.127856,71.659858
2.5372,-0.045766,-0.000594,0.028833,0.005137,0.000279,-0.017288,-0.031727,-0.51029,0.028297,-1.108336,-262.162889,1.127417,71.664637
2.5576,-0.045922,-0.000164,0.029735,0.005137,0.000285,-0.017287,-0.031429,-0.510326,0.028434,-1.108336,-262.162889,1.127417,71.664637
2.5774,-0.04549,-0.000588,0.029131,0.005137,0.00029,-0.017287,-0.030595,-0.509925,0.029182,-1.107378,-262.158288,1.128144,71.669439
2.5972,-0.045622,-0.000413,0.028879,0.005137,0.000295,-0.017287,-0.030624,-0.510333,0.029109,-1.107378,-262.158288,1.128144,71.669439
2.6174,-0.045052,-0.000226,0.027813,0.005137,0.000299,-0.017287,-0.030624,-0.510333,0.029109,-1.107378,-262.158288,1.128144,71.669439
2.6369,-0.04508,-0.000415,0.026416,0.005137,0.000302,-0.017287,-0.030655,-0.51001,0.02709,-1.106892,-262.153701,1.128547,71.674235
2.6569,-0.044445,-0.000349,0.027651,0.005137,0.000299,-0.017288,-0.031021,-0.510101,0.026731,-1.106892,-262.153701,1.128547,71.674235
2.6769,-0.043694,-0.000401,0.027179,0.005137,0.000297,-0.017289,-0.030182,-0.51014,0.027102,-1.106452,-262.149113,1.12897,71.67904
2.6969,-0.044466,-0.00016,0.026213,0.005137,0.000299,-0.017289,-0.029857,-0.510205,0.027144,-1.106452,-262.149113,1.12897,71.67904
2.7168,-0.044382,-0.000122,0.026357,0.005136,0.0003,-0.017289,-0.029857,-0.510205,0.027144,-1.106452,-262.149113,1.12897,71.67904
2.737,-0.043412,-0.000162,0.024384,0.005136,0.000301,-0.017289,-0.030728,-0.509927,0.025634,-1.106691,-262.144521,1.128849,71.683846
2.7568,-0.043387,-0.000275,0.025582,0.005136,0.000296,-0.01729,-0.030806,-0.509959,0.025036,-1.106691,-262.144521,1.128849,71.683846
2.7768,-0.042911,-0.000195,0.023785,0.005136,0.000292,-0.01729,-0.030179,-0.510094,0.025034,-1.106568,-262.139932,1.129032,71.688651
2.7974,-0.042468,-0.000147,0.024622,0.005136,0.000292,-0.017291,-0.030723,-0.510054,0.023864,-1.106568,-262.139932,1.129032,71.688651
2.8173,-0.042666,-0.000157,0.02203,0.005136,0.000293,-0.017291,-0.030723,-0.510054,0.023864,-1.106568,-262.139932,1.129032,71.688651
2.8373,-0.042231,-0.000552,0.022291,0.005136,0.000293,-0.017291,-0.031218,-0.510017,0.021308,-1.107008,-262.135347,1.12874,71.693446
2.8572,-0.042082,-0.000527,0.022428,0.005137,0.0003,-0.017289,-0.031049,-0.510182,0.021626,-1.107008,-262.135347,1.12874,71.693446
2.8766,-0.041383,-0.000278,0.023694,0.005137,0.000305,-0.017288,-0.030481,-0.510386,0.021878,-1.106953,-262.130725,1.128785,71.69828
2.8975,-0.041277,0.000246,0.023065,0.005137,0.000308,-0.017289,-0.02938,-0.510153,0.023536,-1.106953,-262.130725,1.128785,71.69828
2.9172,-0.041215,3.9e-05,0.020957,0.005137,0.00031,-0.017289,-0.02938,-0.510153,0.023536,-1.106953,-262.130725,1.128785,71.69828
2.937,-0.04056,1e-06,0.021459,0.005136,0.000311,-0.017289,-0.030314,-0.509832,0.020237,-1.106374,-262.126167,1.129122,71.703056
2.9572,-0.040788,-6.4e-05,0.02116,0.005136,0.000305,-0.017288,-0.030009,-0.50985,0.020645,-1.106374,-262.126167,1.129122,71.703056
2.9771,-0.039806,9.9e-05,0.020746,0.005136,0.0003,-0.017287,-0.029833,-0.509936,0.020608,-1.106175,-262.121582,1.129383,71.707865
2.9969,-0.039641,2e-05,0.020045,0.005136,0.000294,-0.017287,-0.029273,-0.509804,0.020705,-1.106175,-262.121582,1.129383,71.707865
3.0171,-0.040262,-0.000143,0.021264,0.005136,0.00029,-0.017286,-0.029273,-0.509804,0.020705,-1.106175,-262.121582,1.129383,71.707865
3.0368,-0.038881,-0.000215,0.018579,0.005136,0.000286,-0.017286,-0.029204,-0.510011,0.02054,-1.106571,-262.116994,1.128959,71.712669
3.0573,-0.039135,0.000292,0.020234,0.005136,0.000292,-0.017282,-0.029262,-0.510056,0.019659,-1.106571,-262.116994,1.128959,71.712669
3.077,-0.038555,-0.000102,0.019192,0.005136,0.000297,-0.01728,-0.028653,-0.509591,0.019683,-1.107157,-262.1124,1.128445,71.717469
3.0973,-0.038308,-0.000149,0.019588,0.005137,0.000299,-0.017276,-0.028749,-0.50997,0.019208,-1.107157,-262.1124,1.128445,71.717469
3.1173,-0.038418,3.1e-05,0.018557,0.005137,0.0003,-0.017274,-0.028749,-0.50997,0.019208,-1.107157,-262.1124,1.128445,71.717469
3.1372,-0.037657,3e-05,0.019733,0.005137,0.000302,-0.017272,-0.028739,-0.509865,0.017833,-1.106514,-262.107806,1.128667,71.722277
3.1571,-0.038012,-0.000298,0.018643,0.005138,0.0003,-0.017267,-0.028248,-0.509865,0.018524,-1.106514,-262.107806,1.128667,71.722277
3.1766,-0.037206,-0.000108,0.017967,0.005138,0.000298,-0.017263,-0.028341,-0.510196,0.018093,-1.106087,-262.1032,1.128621,71.7271
3.1973,-0.037311,2e-06,0.016508,0.005139,0.000303,-0.017255,-0.028059,-0.510038,0.017953,-1.106087,-262.1032,1.128621,71.7271
3.2171,-0.037128,-2.9e-05,0.019305,0.00514,0.000307,-0.017249,-0.028059,-0.510038,0.017953,-1.106087,-262.1032,1.128621,71.7271
3.2369,-0.036464,0.000255,0.016532,0.005141,0.000311,-0.017244,-0.02707,-0.509917,0.018588,-1.10597,-262.098634,1.128237,71.73188
3.2569,-0.036412,0.000388,0.01739,0.005141,0.000306,-0.017238,-0.027443,-0.509815,0.017655,-1.10597,-262.098634,1.128237,71.73188
3.2769,-0.035588,0.000143,0.016446,0.005141,0.000302,-0.017232,-0.027381,-0.509522,0.016843,-1.104791,-262.094065,1.128059,71.736671
3.2967,-0.035829,0.000112,0.016468,0.005142,0.000296,-0.017211,-0.027209,-0.509764,0.016454,-1.104791,-262.094065,1.128059,71.736671
3.3167,-0.035525,-0.000396,0.015015,0.005143,0.000292,-0.017194,-0.027209,-0.509764,0.016454,-1.104791,-262.094065,1.128059,71.736671
3.3367,-0.035308,-0.00012,0.015256,0.005143,0.000289,-0.01718,-0.027653,-0.510322,0.014294,-1.104796,-262.089488,1.127432,71.741466
3.3577,-0.035205,0.000108,0.016113,0.005147,0.000299,-0.017116,-0.027577,-0.510214,0.014605,-1.104796,-262.089488,1.127432,71.741466
3.3769,-0.034142,-0.000131,0.013416,0.00515,0.000309,-0.017064,-0.026824,-0.509814,0.015566,-1.103921,-262.084912,1.125667,71.746249
3.397,-0.034503,-7e-06,0.012819,0.005157,0.000309,-0.01697,-0.027251,-0.510061,0.013575,-1.103921,-262.084912,1.125667,71.746249
3.4169,-0.034439,0.000175,0.012851,0.005162,0.00031,-0.016896,-0.027251,-0.510061,0.013575,-1.103921,-262.084912,1.125667,71.746249
3.437,-0.033485,2.4e-05,0.013165,0.005165,0.000312,-0.016836,-0.02767,-0.509767,0.012137,-1.099753,-262.08038,1.123283,71.751002
3.457,-0.033456,5.8e-05,0.014296,0.005175,0.000303,-0.016712,-0.027281,-0.509832,0.012472,-1.099753,-262.08038,1.123283,71.751002
3.4771,-0.033007,0.00019,0.012529,0.005182,0.000296,-0.016613,-0.026001,-0.509878,0.013759,-1.092847,-262.075882,1.117164,71.755723
3.4971,-0.032975,0.000456,0.012001,0.005186,0.000289,-0.016545,-0.026558,-0.509778,0.012606,-1.092847,-262.075882,1.117164,71.755723
3.5173,-0.032928,0.000157,0.012447,0.005188,0.000283,-0.016492,-0.026558,-0.509778,0.012606,-1.092847,-262.075882,1.117164,71.755723
3.5372,-0.032496,-1.4e-05,0.012812,0.00519,0.000279,-0.016449,-0.026365,-0.509788,0.011755,-1.086537,-262.071437,1.110178,71.760378
3.5572,-0.032524,0.000199,0.011563,0.005195,0.000278,-0.016374,-0.026173,-0.509863,0.012113,-1.086537,-262.071437,1.110178,71.760378
3.5771,-0.031528,0.00027,0.009426,0.005198,0.000277,-0.016315,-0.026463,-0.509756,0.011042,-1.082365,-262.067017,1.105024,71.764997
3.5973,-0.031389,0.000294,0.010664,0.005222,0.000255,-0.015944,-0.026692,-0.509711,0.009535,-1.082365,-262.067017,1.105024,71.764997
3.6171,-0.031451,3.4e-05,0.011309,0.005237,0.00024,-0.015664,-0.026692,-0.509711,0.009535,-1.082365,-262.067017,1.105024,71.764997
3.6376,-0.030887,0.000291,0.010083,0.005247,0.000229,-0.015454,-0.025467,-0.509919,0.010629,-1.078323,-262.062631,1.101136,71.769578
3.657,-0.031136,0.000128,0.009879,0.005246,0.000231,-0.015403,-0.025555,-0.509821,0.010327,-1.078323,-262.062631,1.101136,71.769578
3.6768,-0.030167,-2.3e-05,0.009318,0.005245,0.000234,-0.015365,-0.025934,-0.509838,0.009398,-1.052922,-262.058481,1.073522,71.773885
3.6971,-0.030161,0.000463,0.008681,0.005252,0.000235,-0.015186,-0.025452,-0.509986,0.009301,-1.052922,-262.058481,1.073522,71.773885
3.717,-0.030272,0.000645,0.00904,0.005256,0.000237,-0.01505,-0.025452,-0.509986,0.009301,-1.052922,-262.058481,1.073522,71.773885
3.7371,-0.029775,6.3e-05,0.008839,0.005258,0.000239,-0.014947,-0.025442,-0.509323,0.008397,-1.050362,-262.054257,1.071583,71.778273
3.7569,-0.029553,9.9e-05,0.00894,0.005265,0.000218,-0.01473,-0.025345,-0.509567,0.008505,-1.050362,-262.054257,1.071583,71.778273
3.777,-0.02923,8.3e-05,0.008165,0.005269,0.000202,-0.014568,-0.024827,-0.509872,0.008469,-1.036684,-262.050137,1.059349,71.782558
3.7969,-0.029052,0.000364,0.007725,0.005275,0.0002,-0.014378,-0.025041,-0.509898,0.008167,-1.036684,-262.050137,1.059349,71.782558
3.817,-0.029214,0.000473,0.00761,0.005277,0.0002,-0.014237,-0.025041,-0.509898,0.008167,-1.036684,-262.050137,1.059349,71.782558
3.8372,-0.02846,3.8e-05,0.005459,0.005278,0.0002,-0.014132,-0.025115,-0.509503,0.007006,-1.026001,-262.04611,1.045919,71.786723
3.8572,-0.028204,0.000176,0.006071,0.005293,0.000172,-0.013627,-0.025317,-0.509684,0.00631,-1.026001,-262.04611,1.045919,71.786723
3.8771,-0.027441,0.000598,0.006763,0.005302,0.000153,-0.013258,-0.02494,-0.509807,0.005623,-1.011474,-262.042149,1.032136,71.790819
3.8974,-0.027658,8.8e-05,0.005246,0.005303,0.000136,-0.013072,-0.024063,-0.509424,0.006647,-1.011474,-262.042149,1.032136,71.790819
3.9169,-0.027694,0.00046,0.008148,0.005303,0.000123,-0.012935,-0.024063,-0.509424,0.006647,-1.011474,-262.042149,1.032136,71.790819
3.9368,-0.027056,0.000203,0.005476,0.005301,0.000115,-0.012835,-0.023323,-0.509516,0.007611,-0.982295,-262.038453,0.999666,71.794616
3.957,-0.027378,3.7e-05,0.00527,0.005299,0.000117,-0.012765,-0.023681,-0.509626,0.006681,-0.982295,-262.038453,0.999666,71.794616
3.9767,-0.02679,0.000304,0.003947,0.005296,0.00012,-0.012714,-0.024523,-0.509952,0.004863,-0.969333,-262.034725,0.982891,71.798418
3.9969,-0.026566,0.000638,0.004917,0.005295,0.000101,-0.011883,-0.024747,-0.509714,0.004006,-0.969333,-262.034725,0.982891,71.798418
4.017,-0.026479,0.000709,0.005756,0.005294,9.1e-05,-0.011289,-0.024747,-0.509714,0.004006,-0.969333,-262.034725,0.982891,71.798418
4.0368,-0.02581,0.000292,0.003495,0.005293,8.7e-05,-0.010861,-0.023322,-0.509276,0.005225,-0.964961,-262.031004,0.979355,71.802219
4.0568,-0.025756,0.000731,0.003368,0.005292,8e-05,-0.0107,-0.02359,-0.509453,0.004445,-0.964961,-262.031004,0.979355,71.802219
4.077,-0.025492,0.00043,0.003901,0.00529,7.5e-05,-0.010584,-0.023898,-0.509263,0.003079,-0.890922,-262.028195,0.904296,71.805073
4.097,-0.02551,0.000495,0.003763,0.005288,7e-05,-0.010286,-0.023531,-0.509539,0.003814,-0.890922,-262.028195,0.904296,71.805073
4.1173,-0.025591,-5e-05,0.004185,0.005285,6.9e-05,-0.010069,-0.023531,-0.509539,0.003814,-0.890922,-262.028195,0.904296,71.805073
4.1372,-0.025049,0.000395,0.003008,0.005283,6.9e-05,-0.009912,-0.023236,-0.510042,0.003743,-0.879178,-262.024892,0.890565,71.808422
4.1569,-0.02491,5.7e-05,0.003616,0.005279,8.2e-05,-0.009642,-0.023325,-0.509862,0.003392,-0.879178,-262.024892,0.890565,71.808422
4.1768,-0.02472,0.000274,0.003643,0.005275,9.5e-05,-0.009445,-0.022903,-0.509937,0.00331,-0.847613,-262.021799,0.858933,71.811556
4.197,-0.024639,0.000378,0.002926,0.005273,0.000104,-0.009378,-0.022858,-0.509741,0.003599,-0.847613,-262.021799,0.858933,71.811556
4.2167,-0.024153,0.000593,0.00193,0.005271,0.000111,-0.009329,-0.022858,-0.509741,0.003599,-0.847613,-262.021799,0.858933,71.811556
4.237,-0.024247,0.000753,0.001876,0.005269,0.000117,-0.009292,-0.022952,-0.509402,0.001542,-0.821726,-262.018755,0.83819,71.814655
4.2568,-0.024006,0.000218,0.00364,0.005252,9.7e-05,-0.00842,-0.023066,-0.509338,0.001634,-0.821726,-262.018755,0.83819,71.814655
4.2766,-0.023531,-0.000271,0.002383,0.005236,8.5e-05,-0.007787,-0.021982,-0.509774,0.003346,-0.812048,-262.015696,0.832663,71.817782
4.2969,-0.023384,-1.6e-05,0.001612,0.005232,0.000122,-0.007704,-0.022279,-0.510227,0.00245,-0.812048,-262.015696,0.832663,71.817782
4.3168,-0.023559,-0.000185,0.001797,0.005229,0.000153,-0.007642,-0.022279,-0.510227,0.00245,-0.812048,-262.015696,0.832663,71.817782
4.3368,-0.022823,0.000227,0.001497,0.005227,0.000179,-0.007597,-0.022471,-0.510181,0.001536,-0.737018,-262.013474,0.757633,71.820041
4.3572,-0.023054,0.000262,0.001752,0.005215,0.000188,-0.007121,-0.022283,-0.510013,0.00149,-0.737018,-262.013474,0.757633,71.820041
4.3771,-0.022808,0.000347,0.000798,0.005206,0.000198,-0.006772,-0.021997,-0.509731,0.001514,-0.706537,-262.010773,0.744757,71.822835
4.3971,-0.022499,0.000434,0.00061,0.005191,0.000191,-0.006204,-0.022356,-0.50966,0.000851,-0.706537,-262.010773,0.744757,71.822835
4.4173,-0.022684,0.000281,0.00205,0.005179,0.000187,-0.005785,-0.022356,-0.50966,0.000851,-0.706537,-262.010773,0.744757,71.822835
4.4371,-0.022252,0.000239,0.002416,0.005169,0.000187,-0.005477,-0.02144,-0.50971,0.001791,-0.647693,-262.008396,0.694295,71.825302
4.4571,-0.022556,0.000476,0.000418,0.005173,0.000194,-0.005818,-0.021248,-0.509729,0.002014,-0.647693,-262.008396,0.694295,71.825302
4.4769,-0.022136,0.000104,0.000531,0.005177,0.000198,-0.006067,-0.022223,-0.509519,0.000285,-0.572506,-262.006606,0.619109,71.827152
4.4972,-0.021906,0.00043,0.001573,0.005166,0.000202,-0.005513,-0.02189,-0.509863,0.000503,-0.572506,-262.006606,0.619109,71.827152
4.517,-0.021621,0.000736,0.002587,0.005157,0.000208,-0.005104,-0.02189,-0.509863,0.000503,-0.572506,-262.006606,0.619109,71.827152
4.5371,-0.021719,0.000544,0.00105,0.005149,0.000214,-0.004802,-0.02009,-0.509254,0.002339,-0.595486,-262.004155,0.646111,71.829693
4.5571,-0.021977,0.000362,-0.000604,0.005155,0.000199,-0.005215,-0.020516,-0.509336,0.001779,-0.595486,-262.004155,0.646111,71.829693
4.5771,-0.020973,-7e-06,-0.000926,0.00516,0.000183,-0.005516,-0.022171,-0.509634,-0.000717,-0.520511,-262.002506,0.571136,71.831402
4.5974,-0.021329,0.000776,-0.001206,0.005152,0.000192,-0.004492,-0.021502,-0.509975,-0.000914,-0.520511,-262.002506,0.571136,71.831402
4.6171,-0.021239,0.000248,0.000798,0.005142,0.000203,-0.003725,-0.021502,-0.509975,-0.000914,-0.520511,-262.002506,0.571136,71.831402
4.6371,-0.020976,0.000606,0.000243,0.005132,0.000214,-0.003151,-0.020623,-0.509745,0.000574,-0.553077,-262.000158,0.602886,71.833828
4.6571,-0.021133,0.000386,-0.000699,0.005128,0.000217,-0.00333,-0.020693,-0.5096,0.000413,-0.553077,-262.000158,0.602886,71.833828
4.6771,-0.020531,0.00024,0.000561,0.005125,0.000218,-0.003458,-0.021458,-0.509613,-0.000728,-0.478023,-261.999704,0.527833,71.834294
4.6977,-0.02094,0.000473,0.000367,0.005125,0.000224,-0.003571,-0.020348,-0.509747,0.000448,-0.478023,-261.999704,0.527833,71.834294
4.7174,-0.020781,0.000501,0.001855,0.005125,0.000229,-0.00365,-0.020348,-0.509747,0.000448,-0.478023,-261.999704,0.527833,71.834294
4.7374,-0.020586,0.000334,-0.000398,0.005125,0.000232,-0.003705,-0.019695,-0.509494,0.00175,-0.403096,-261.998257,0.452906,71.835785
4.7571,-0.021241,0.000512,-0.000925,0.005131,0.000226,-0.003962,-0.020123,-0.509563,0.000867,-0.403096,-261.998257,0.452906,71.835785
4.7771,-0.020248,0.000452,-0.001001,0.005135,0.000219,-0.004148,-0.021551,-0.50948,-0.001042,-0.377287,-261.996072,0.453011,71.838045
4.7971,-0.020292,0.000543,-0.000763,0.005129,0.000204,-0.003409,-0.020818,-0.509542,-0.00101,-0.377287,-261.996072,0.453011,71.838045
4.8172,-0.020601,0.00058,0.00029,0.005122,0.000195,-0.002858,-0.020818,-0.509542,-0.00101,-0.377287,-261.996072,0.453011,71.838045
4.8369,-0.019961,0.000283,-0.000817,0.005116,0.000191,-0.002447,-0.02025,-0.509412,0.000126,-0.423419,-261.993948,0.491979,71.840242
4.857,-0.020183,0.000413,-0.001167,0.005112,0.000194,-0.002464,-0.020279,-0.509536,-0.000278,-0.423419,-261.993948,0.491979,71.840242
4.8771,-0.019954,0.000531,-0.000842,0.005109,0.000195,-0.002472,-0.020719,-0.509584,-0.001206,-0.348451,-261.993148,0.417011,71.841058
4.8973,-0.019778,0.000756,-0.000719,0.005105,0.000191,-0.002207,-0.020409,-0.509478,-0.000874,-0.348451,-261.993148,0.417011,71.841058
4.9168,-0.019728,0.000353,-0.000514,0.005102,0.000188,-0.00201,-0.020409,-0.509478,-0.000874,-0.348451,-261.993148,0.417011,71.841058
4.9368,-0.019583,0.000524,-0.000172,0.0051,0.000186,-0.001862,-0.019833,-0.509641,-0.000597,-0.273397,-261.991579,0.341956,71.84266
4.9571,-0.019705,0.000358,-0.00174,0.0051,0.000193,-0.001951,-0.019749,-0.509573,-0.000434,-0.273397,-261.991579,0.341956,71.84266
4.9766,-0.019386,0.000194,-0.002295,0.005101,0.000198,-0.002014,-0.020467,-0.509637,-0.001789,-0.198561,-261.989965,0.267121,71.844299
4.997,-0.019233,0.000745,-0.003671,0.005102,0.000204,-0.001373,-0.020542,-0.50979,-0.002252,-0.198561,-261.989965,0.267121,71.844299
5.0172,-0.019348,0.000839,-0.000655,0.0051,0.000211,-0.000895,-0.020542,-0.50979,-0.002252,-0.198561,-261.989965,0.267121,71.844299
5.0371,-0.018727,0.000381,-0.001919,0.005098,0.000219,-0.000539,-0.019468,-0.509153,-0.000739,-0.199631,-261.987885,0.272983,71.846416
5.057,-0.01922,0.00052,-0.000512,0.005093,0.000211,-0.000639,-0.01954,-0.509342,-0.00123,-0.199631,-261.987885,0.272983,71.846416
5.077,-0.018998,0.00036,-0.002565,0.00509,0.000204,-0.000707,-0.01942,-0.509477,-0.000529,-0.124635,-261.987098,0.197987,71.847207
5.0973,-0.019271,0.00042,-0.001837,0.005089,0.000205,-0.000349,-0.020223,-0.509623,-0.002383,-0.124635,-261.987098,0.197987,71.847207
5.1172,-0.019013,0.000144,-0.003603,0.005087,0.000207,-8.3e-05,-0.020223,-0.509623,-0.002383,-0.124635,-261.987098,0.197987,71.847207
5.1372,-0.018689,0.00011,-0.001076,0.005085,0.00021,0.000115,-0.020675,-0.509847,-0.003628,-0.04959,-261.98541,0.124289,71.848907
5.1575,-0.018798,0.000827,-0.001463,0.005082,0.000225,0.000327,-0.020065,-0.509864,-0.002583,-0.04959,-261.98541,0.124289,71.848907
5.1769,-0.018484,0.000562,-0.001157,0.00508,0.000239,0.000484,-0.019427,-0.509168,-0.001465,0.025453,-261.98394,0.049246,71.850376
5.1976,-0.01887,0.000375,-0.00119,0.005077,0.000237,9.2e-05,-0.019099,-0.509413,-0.001184,0.025453,-261.98394,0.049246,71.850376
5.2174,-0.018506,0.000708,-0.001863,0.005076,0.000233,-0.000188,-0.019099,-0.509413,-0.001184,0.025453,-261.98394,0.049246,71.850376
5.2374,-0.018259,4.5e-05,-0.001633,0.005077,0.000228,-0.000389,-0.019274,-0.509283,-0.001846,0.100477,-261.982197,-0.011113,71.852108
5.2574,-0.017981,0.000548,-0.001878,0.005077,0.000226,-0.000307,-0.019179,-0.509557,-0.001757,0.100477,-261.982197,-0.011113,71.852108
5.2771,-0.018158,0.000857,-0.000859,0.005078,0.000225,-0.000244,-0.018824,-0.509446,-0.001882,0.025478,-261.980747,0.063886,71.853564
5.2974,-0.017996,0.000284,-0.000335,0.005079,0.000208,-0.000531,-0.01861,-0.509169,-0.000948,0.025478,-261.980747,0.063886,71.853564
5.3172,-0.017772,0.00059,-0.001133,0.00508,0.000192,-0.000736,-0.01861,-0.509169,-0.000948,0.025478,-261.980747,0.063886,71.853564
5.3372,-0.018092,0.000429,-0.000948,0.005082,0.000177,-0.000883,-0.018138,-0.5094,-0.001143,0.014938,-261.978722,0.073623,71.855595
5.3573,-0.017846,0.000504,0.000601,0.005084,0.00018,-0.000935,-0.018293,-0.509469,-0.001064,0.014938,-261.978722,0.073623,71.855595
5.377,-0.017694,0.000598,-0.001019,0.005087,0.000182,-0.000969,-0.017405,-0.50949,0.000579,-0.060104,-261.977029,0.139986,71.857301
5.3968,-0.017461,0.000661,-0.000122,0.00509,0.000181,-0.001072,-0.018138,-0.509409,-0.000884,-0.060104,-261.977029,0.139986,71.857301
5.417,-0.017654,0.000452,-0.000209,0.005092,0.000179,-0.001145,-0.018138,-0.509409,-0.000884,-0.060104,-261.977029,0.139986,71.857301
5.4369,-0.017513,0.000565,0.000169,0.005095,0.000176,-0.001196,-0.017549,-0.50954,-0.00025,-0.08038,-261.975014,0.150918,71.859332
5.4571,-0.017432,0.000638,-0.000359,0.005104,0.000183,-0.001621,-0.017476,-0.509497,-8.6e-05,-0.08038,-261.975014,0.150918,71.859332
5.477,-0.017177,0.000684,-0.002365,0.005111,0.000186,-0.001929,-0.017456,-0.509356,-0.000396,-0.108343,-261.97301,0.176184,71.861356
5.4973,-0.017111,0.000393,-0.00112,0.005111,0.000167,-0.00128,-0.018295,-0.509318,-0.002196,-0.108343,-261.97301,0.176184,71.861356
5.5175,-0.017193,0.000699,-0.001794,0.005109,0.000153,-0.000798,-0.018295,-0.509318,-0.002196,-0.108343,-261.97301,0.176184,71.861356
5.5372,-0.016706,0.000656,-0.001773,0.005106,0.000143,-0.000441,-0.017937,-0.509294,-0.001856,-0.183344,-261.971348,0.251185,71.863044
5.5572,-0.016497,0.000449,-0.001823,0.005102,0.000139,-0.000301,-0.017784,-0.509314,-0.001829,-0.183344,-261.971348,0.251185,71.863044
5.5771,-0.016806,0.000612,-0.001949,0.005099,0.000137,-0.000197,-0.017359,-0.509548,-0.001839,-0.108324,-261.970494,0.176164,71.8639
5.5974,-0.016555,0.000227,-0.00167,0.005096,0.000139,-7.8e-05,-0.017759,-0.509401,-0.001941,-0.108324,-261.970494,0.176164,71.8639
5.6172,-0.016409,0.000628,-0.003013,0.005094,0.000142,1e-05,-0.017759,-0.509401,-0.001941,-0.108324,-261.970494,0.176164,71.8639
5.6371,-0.016718,0.000662,-0.001849,0.005091,0.000145,7.7e-05,-0.017811,-0.509366,-0.003028,-0.033288,-261.969195,0.101129,71.865201
5.6571,-0.01679,0.000604,-0.001665,0.00509,0.00014,0.000322,-0.017733,-0.509353,-0.002537,-0.033288,-261.969195,0.101129,71.865201
5.6773,-0.016436,0.00049,-0.001714,0.005087,0.000137,0.000503,-0.017506,-0.509392,-0.001664,0.037573,-261.96751,0.025938,71.866886
5.6968,-0.016544,0.00042,-0.001465,0.005085,0.000151,0.00035,-0.01732,-0.5095,-0.00171,0.037573,-261.96751,0.025938,71.866886
5.7169,-0.016565,0.000637,-0.000632,0.005083,0.000162,0.00024,-0.01732,-0.5095,-0.00171,0.037573,-261.96751,0.025938,71.866886
5.7374,-0.015506,0.000616,-0.002531,0.005083,0.000169,0.000162,-0.016694,-0.509358,-0.000613,0.087101,-261.965654,-0.033384,71.868736
5.7573,-0.015965,0.000698,-0.001648,0.005082,0.000168,-1.8e-05,-0.016714,-0.509368,-0.001403,0.087101,-261.965654,-0.033384,71.868736
5.7771,-0.015684,0.000801,-0.002388,0.005082,0.000166,-0.000147,-0.016653,-0.509296,-0.001643,0.052755,-261.963726,0.013871,71.870661
5.7975,-0.015802,0.000764,-0.001742,0.005081,0.000147,9.2e-05,-0.016873,-0.509206,-0.002324,0.052755,-261.963726,0.013871,71.870661
5.8174,-0.015832,0.000564,0.000231,0.00508,0.000132,0.000268,-0.016873,-0.509206,-0.002324,0.052755,-261.963726,0.013871,71.870661
5.8373,-0.015588,0.000372,-0.0014,0.005079,0.000121,0.000396,-0.015511,-0.50943,0.000225,0.015045,-261.961783,0.050415,71.872607
5.8582,-0.016122,0.0008,-0.002009,0.005085,0.000145,-0.000297,-0.015812,-0.50951,-0.000443,0.015045,-261.961783,0.050415,71.872607
5.8771,-0.015648,0.000466,-0.000956,0.00509,0.00016,-0.000795,-0.017006,-0.509196,-0.001998,0.071378,-261.960013,-0.023755,71.874372
5.8971,-0.015089,0.000602,-0.00212,0.005091,0.000165,-0.000867,-0.016208,-0.509503,-0.001051,0.071378,-261.960013,-0.023755,71.874372
5.9175,-0.015352,0.000661,-0.001061,0.005092,0.000169,-0.000918,-0.016208,-0.509503,-0.001051,0.071378,-261.960013,-0.023755,71.874372
5.9369,-0.015886,0.000575,-0.001119,0.005093,0.000172,-0.000953,-0.015782,-0.509337,-0.001066,-0.003516,-261.958953,0.051139,71.875439
5.9576,-0.015125,0.000776,-0.00177,0.005093,0.000165,-0.000961,-0.016041,-0.509372,-0.001088,-0.003516,-261.958953,0.051139,71.875439
5.9773,-0.015132,0.000651,0.001206,0.005093,0.000159,-0.000967,-0.015899,-0.509221,-0.001791,-0.078561,-261.957345,0.126184,71.877059
5.9976,-0.015052,0.000553,-0.003225,0.005108,0.00016,-0.001963,-0.014629,-0.509338,0.000949,-0.078561,-261.957345,0.126184,71.877059
6.0175,-0.015113,0.000408,-0.001272,0.00512,0.000154,-0.002696,-0.014629,-0.509338,0.000949,-0.078561,-261.957345,0.126184,71.877059
6.0373,-0.014737,0.000477,-0.001612,0.00513,0.000143,-0.003235,-0.01555,-0.509585,-0.001313,-0.084549,-261.955315,0.146063,71.879103
6.0574,-0.01425,0.000179,-0.001652,0.005125,0.000139,-0.002512,-0.015529,-0.509559,-0.00144,-0.084549,-261.955315,0.146063,71.879103
6.0767,-0.014635,0.00067,-0.00114,0.005119,0.000139,-0.001975,-0.01507,-0.509819,-0.001659,-0.159512,-261.955037,0.221026,71.879387
6.0979,-0.014792,0.000435,-0.001187,0.005113,0.00013,-0.001678,-0.015203,-0.509372,-0.001186,-0.159512,-261.955037,0.221026,71.879387
6.1172,-0.014613,0.000835,-0.001467,0.005108,0.000125,-0.001457,-0.015203,-0.509372,-0.001186,-0.159512,-261.955037,0.221026,71.879387
6.1372,-0.01451,0.000729,-0.001941,0.005104,0.000121,-0.001293,-0.015159,-0.509159,-0.001545,-0.205543,-261.953055,0.256924,71.881392
6.1573,-0.01442,0.000583,-0.001812,0.005099,0.000103,-0.000965,-0.015275,-0.509204,-0.001716,-0.205543,-261.953055,0.256924,71.881392
6.177,-0.014054,0.000411,-0.001318,0.005095,9e-05,-0.000722,-0.01521,-0.509413,-0.001847,-0.130523,-261.951358,0.181903,71.883102
6.1974,-0.014306,0.000542,-0.000282,0.005092,0.000109,-0.000677,-0.014761,-0.509574,-0.001364,-0.130523,-261.951358,0.181903,71.883102
6.2171,-0.014423,0.001261,0.000321,0.00509,0.000125,-0.000642,-0.014761,-0.509574,-0.001364,-0.130523,-261.951358,0.181903,71.883102
6.2369,-0.014322,0.000828,-0.001133,0.005088,0.000138,-0.000615,-0.014078,-0.508735,0.000295,-0.068785,-261.949616,0.106809,71.884849
6.257,-0.013798,0.000789,-0.000659,0.00509,0.000106,-0.001097,-0.014392,-0.508913,-0.000291,-0.068785,-261.949616,0.106809,71.884849
6.2767,-0.013719,0.000517,0.00015,0.005091,7.6e-05,-0.001445,-0.013973,-0.509206,-0.000678,-0.046595,-261.947596,0.100658,71.886877
6.2968,-0.013502,0.000767,-0.000968,0.005098,9e-05,-0.00188,-0.013663,-0.509459,7.8e-05,-0.046595,-261.947596,0.100658,71.886877
6.317,-0.013686,0.000315,-0.001795,0.005103,9.9e-05,-0.002196,-0.013663,-0.509459,7.8e-05,-0.046595,-261.947596,0.100658,71.886877
6.337,-0.013568,0.000263,-0.000158,0.005107,0.000105,-0.002427,-0.014446,-0.50968,-0.001833,-0.121604,-261.946089,0.175667,71.888392
6.357,-0.013714,0.000843,-0.001621,0.005103,0.000122,-0.002014,-0.014102,-0.509703,-0.001153,-0.121604,-261.946089,0.175667,71.888392
6.377,-0.013377,0.000603,-0.002624,0.0051,0.000139,-0.001709,-0.014448,-0.509154,-0.001656,-0.196586,-261.944899,0.250649,71.889595
6.3969,-0.013364,0.000615,-0.001555,0.005099,0.000125,-0.001011,-0.014688,-0.509375,-0.002544,-0.196586,-261.944899,0.250649,71.889595
6.4171,-0.013361,0.000808,-0.001726,0.005095,0.000115,-0.00049,-0.014688,-0.509375,-0.002544,-0.196586,-261.944899,0.250649,71.889595
6.437,-0.012956,0.000602,0.000409,0.005091,0.00011,-0.000102,-0.014031,-0.509185,-0.001796,-0.175618,-261.942861,0.227869,71.891655
6.4571,-0.012984,0.000894,-0.000903,0.005085,0.000106,-0.000436,-0.013486,-0.509271,-0.000908,-0.175618,-261.942861,0.227869,71.891655
6.4768,-0.013109,0.000647,-0.00133,0.005081,0.000101,-0.000674,-0.013393,-0.509104,-0.000913,-0.100715,-261.942221,0.152967,71.892296
6.4978,-0.01296,0.000556,-0.001623,0.005077,9.9e-05,-0.000674,-0.013748,-0.50933,-0.001292,-0.100715,-261.942221,0.152967,71.892296
6.517,-0.012976,0.000207,-0.002232,0.005075,9.7e-05,-0.000672,-0.013748,-0.50933,-0.001292,-0.100715,-261.942221,0.152967,71.892296
6.5368,-0.012737,0.000701,-0.000951,0.005073,9.5e-05,-0.000669,-0.013916,-0.509788,-0.002258,-0.061,-261.940322,0.100569,71.8942
6.5572,-0.012686,0.001252,-0.00227,0.005072,0.00011,-0.000493,-0.013609,-0.509587,-0.001725,-0.061,-261.940322,0.100569,71.8942
6.5772,-0.01212,0.000944,-0.001216,0.00507,0.000124,-0.000363,-0.013682,-0.508744,-0.002292,-0.061781,-261.938288,0.098873,71.896241
6.597,-0.012424,0.000471,-0.001329,0.005064,9e-05,-0.000437,-0.012813,-0.509028,-0.001309,-0.061781,-261.938288,0.098873,71.896241
6.6169,-0.012163,0.000737,-0.002509,0.005059,6.2e-05,-0.00049,-0.012813,-0.509028,-0.001309,-0.061781,-261.938288,0.098873,71.896241
6.6367,-0.012449,0.000767,-0.00321,0.005055,3.8e-05,-0.000528,-0.01324,-0.509257,-0.002523,-0.019238,-261.93635,0.068203,71.898182
6.6572,-0.012287,0.000655,-0.003309,0.005058,3.2e-05,-4.5e-05,-0.013561,-0.509246,-0.002805,-0.019238,-261.93635,0.068203,71.898182
6.6766,-0.012209,0.00083,-0.002844,0.005057,2.9e-05,0.000312,-0.013817,-0.509341,-0.003326,-0.05611,-261.934369,0.071229,71.900165
6.6969,-0.011916,0.000482,-0.001596,0.005055,2.3e-05,0.000599,-0.013665,-0.509183,-0.002888,-0.05611,-261.934369,0.071229,71.900165
6.7172,-0.011866,0.000478,-0.002028,0.005052,1.9e-05,0.000811,-0.013665,-0.509183,-0.002888,-0.05611,-261.934369,0.071229,71.900165
6.7367,-0.011696,0.000351,-0.001463,0.005048,1.6e-05,0.000967,-0.012747,-0.509521,-0.002025,0.018886,-261.932913,-0.003768,71.901621
6.7569,-0.011786,0.000693,-0.002342,0.005043,5.4e-05,0.000719,-0.012605,-0.509573,-0.001795,0.018886,-261.932913,-0.003768,71.901621
6.7769,-0.01136,0.000839,-0.002906,0.00504,8.3e-05,0.000542,-0.012867,-0.509305,-0.002326,0.093889,-261.931487,-0.078771,71.903046
6.7969,-0.011495,0.00058,-0.002799,0.005038,6.4e-05,0.000761,-0.012839,-0.509172,-0.002854,0.093889,-261.931487,-0.078771,71.903046
6.8174,-0.011701,0.000943,-0.001688,0.005034,4.9e-05,0.000922,-0.012839,-0.509172,-0.002854,0.093889,-261.931487,-0.078771,71.903046
6.8368,-0.011365,0.000866,-0.002376,0.005031,3.8e-05,0.001039,-0.012354,-0.509053,-0.001666,0.081976,-261.929497,-0.049133,71.905031
6.8569,-0.011454,0.001061,-0.001859,0.005025,2.7e-05,0.000827,-0.012421,-0.509085,-0.001953,0.081976,-261.929497,-0.049133,71.905031
6.8769,-0.010977,0.00087,-0.002246,0.005021,1.6e-05,0.000675,-0.01226,-0.508937,-0.00183,0.132846,-261.927689,-0.118154,71.906836
6.8982,-0.01092,0.000554,-0.002415,0.005018,5e-06,0.000657,-0.012128,-0.509112,-0.002209,0.132846,-261.927689,-0.118154,71.906836
6.9169,-0.011202,0.000884,-0.002767,0.005016,-4e-06,0.000644,-0.012128,-0.509112,-0.002209,0.132846,-261.927689,-0.118154,71.906836
6.9371,-0.010849,0.000881,-0.003484,0.005014,-1.1e-05,0.000635,-0.012416,-0.509114,-0.00274,0.085179,-261.925796,-0.078734,71.908728
6.9572,-0.0106,0.000612,-0.001673,0.005015,-2.1e-05,0.000884,-0.012479,-0.509115,-0.00304,0.085179,-261.925796,-0.078734,71.908728
6.9771,-0.010486,0.000722,-0.00329,0.005015,-2.7e-05,0.001066,-0.011293,-0.509388,-0.001653,0.074929,-261.923789,-0.079457,71.910736
6.9979,-0.010209,0.000864,-0.00139,0.005013,-1.9e-05,0.00123,-0.012077,-0.509285,-0.003142,0.074929,-261.923789,-0.079457,71.910736
7.0171,-0.010827,0.000883,-0.000521,0.005011,-1.1e-05,0.001349,-0.012077,-0.509285,-0.003142,0.074929,-261.923789,-0.079457,71.910736
7.0369,-0.010511,0.000697,-0.003227,0.005009,-4e-06,0.001437,-0.010901,-0.509118,-0.000481,0.123773,-261.921932,-0.134456,71.912596
7.0569,-0.010654,0.00073,-0.001374,0.005003,2e-06,0.000976,-0.011395,-0.509193,-0.001606,0.123773,-261.921932,-0.134456,71.912596
7.0771,-0.010133,0.000879,-0.001832,0.004999,4e-06,0.000647,-0.011206,-0.50927,-0.001331,0.172721,-261.920024,-0.174169,71.914504
7.0968,-0.010254,0.000766,-0.00293,0.004995,-6e-06,0.000481,-0.011072,-0.509133,-0.001785,0.172721,-261.920024,-0.174169,71.914504
7.1172,-0.010016,0.000456,-0.003157,0.004992,-1.4e-05,0.000363,-0.011072,-0.509133,-0.001785,0.172721,-261.920024,-0.174169,71.914504
7.1369,-0.010108,0.000546,-0.001434,0.00499,-2.2e-05,0.000279,-0.011469,-0.509542,-0.003132,0.097752,-261.918519,-0.0992,71.916008
7.1571,-0.00997,0.001152,-0.001087,0.004993,4e-06,0.000446,-0.011194,-0.509506,-0.002435,0.097752,-261.918519,-0.0992,71.916008
7.1772,-0.010052,0.00085,-0.001124,0.004994,2.6e-05,0.000569,-0.010385,-0.508849,-0.001079,0.02961,-261.916771,-0.038588,71.917757
7.1967,-0.009749,0.000733,-0.000848,0.004991,1.2e-05,0.000153,-0.010597,-0.509123,-0.00112,0.02961,-261.916771,-0.038588,71.917757
7.2169,-0.009913,0.000742,-0.003831,0.004988,-3e-06,-0.000147,-0.010597,-0.509123,-0.00112,0.02961,-261.916771,-0.038588,71.917757
7.2368,-0.009444,0.000567,-0.000929,0.004987,-1.6e-05,-0.000362,-0.011667,-0.509254,-0.003808,0.074608,-261.914854,-0.064332,71.919673
7.2574,-0.009475,0.000397,-0.001681,0.004991,-1.4e-05,3.2e-05,-0.010933,-0.509327,-0.002636,0.074608,-261.914854,-0.064332,71.919673
7.2771,-0.009361,0.000723,-0.000401,0.004992,-1.1e-05,0.000322,-0.010227,-0.509602,-0.001682,-0.00032,-261.913538,0.010596,71.920988
7.2972,-0.009619,0.000495,-0.000438,0.004988,-1e-06,-0.000312,-0.009619,-0.509306,-0.000516,-0.00032,-261.913538,0.010596,71.920988
7.3171,-0.009531,0.000771,-0.00329,0.004986,3e-06,-0.000767,-0.009619,-0.509306,-0.000516,-0.00032,-261.913538,0.010596,71.920988
7.337,-0.009054,0.000733,0.000606,0.004984,4e-06,-0.001094,-0.011013,-0.509227,-0.003278,0.037325,-261.911668,-0.041527,71.922859
7.3571,-0.009325,0.000623,-0.001594,0.004982,-1e-05,-0.00082,-0.010067,-0.509243,-0.001695,0.037325,-261.911668,-0.041527,71.922859
7.3766,-0.009006,0.000446,-0.00303,0.00498,-2e-05,-0.000619,-0.010076,-0.509377,-0.001597,-0.037676,-261.910897,0.033473,71.92363
7.3967,-0.009522,0.000553,-0.001662,0.004986,3e-06,-8.7e-05,-0.010506,-0.509536,-0.002903,-0.037676,-261.910897,0.033473,71.92363
7.4169,-0.009058,0.000735,-0.001996,0.004988,2.4e-05,0.000309,-0.010506,-0.509536,-0.002903,-0.037676,-261.910897,0.033473,71.92363
7.437,-0.008631,0.000602,-0.000507,0.004988,4.2e-05,0.000603,-0.009878,-0.509266,-0.002021,-0.079676,-261.908998,0.071805,71.925528
7.457,-0.008929,0.000865,-0.001984,0.004975,3.9e-05,0.000296,-0.009449,-0.50932,-0.001402,-0.079676,-261.908998,0.071805,71.925528
7.4768,-0.008489,0.000814,-0.001033,0.004966,3.4e-05,7.7e-05,-0.009864,-0.509134,-0.001984,-0.004638,-261.908026,-0.003234,71.926499
7.4971,-0.008698,0.000373,-0.00096,0.004955,1e-05,-0.000203,-0.009085,-0.509181,-0.001114,-0.004638,-261.908026,-0.003234,71.926499
7.5171,-0.009022,0.00069,0.00059,0.004947,-1e-05,-0.000404,-0.009085,-0.509181,-0.001114,-0.004638,-261.908026,-0.003234,71.926499
7.5369,-0.00847,0.000654,-0.003104,0.004941,-2.8e-05,-0.000547,-0.008515,-0.509308,0.000593,0.016394,-261.906056,-0.002639,71.928468
7.5571,-0.008915,0.000987,-0.001425,0.004939,-2.4e-05,-0.000735,-0.009121,-0.509323,-0.00092,0.016394,-261.906056,-0.002639,71.928468
7.5767,-0.008416,0.000867,-0.000189,0.004938,-2.2e-05,-0.000869,-0.009512,-0.509012,-0.001437,-0.05852,-261.904426,0.061799,71.930097
7.597,-0.008572,0.000607,-0.003024,0.004933,-4.9e-05,-0.001265,-0.008597,-0.509122,-0.000304,-0.05852,-261.904426,0.061799,71.930097
7.6172,-0.008296,0.000177,-0.001733,0.004929,-7.3e-05,-0.001551,-0.008597,-0.509122,-0.000304,-0.05852,-261.904426,0.061799,71.930097
7.6368,-0.008159,0.000743,-0.002222,0.004925,-9.4e-05,-0.001758,-0.008988,-0.509823,-0.001767,-0.111527,-261.902573,0.102663,71.931949
7.6567,-0.007838,0.000785,-0.001466,0.00493,-5.6e-05,-0.001211,-0.00909,-0.50959,-0.001958,-0.111527,-261.902573,0.102663,71.931949
7.6767,-0.007745,0.000343,-0.001647,0.004932,-2.4e-05,-0.000806,-0.008477,-0.509215,-0.001499,-0.186651,-261.901186,0.177787,71.933325
7.6975,-0.007774,0.000287,-0.001911,0.004926,1e-05,-0.000622,-0.00857,-0.509617,-0.001635,-0.186651,-261.901186,0.177787,71.933325
7.7173,-0.007661,0.000481,-0.001467,0.00492,3.9e-05,-0.000485,-0.00857,-0.509617,-0.001635,-0.186651,-261.901186,0.177787,71.933325
7.7375,-0.007688,0.0005,-0.00196,0.004915,6.2e-05,-0.000383,-0.008244,-0.509519,-0.001496,-0.111776,-261.899593,0.102912,71.934916
7.7572,-0.007875,0.000678,-0.001459,0.004908,6.6e-05,-0.000289,-0.008405,-0.509511,-0.001688,-0.111776,-261.899593,0.102912,71.934916
7.7773,-0.007666,0.000723,-0.002914,0.004901,6.9e-05,-0.000219,-0.008481,-0.50932,-0.00147,-0.036772,-261.897854,0.060178,71.936657
7.7971,-0.007536,0.000284,-0.001807,0.004904,3.9e-05,0.000186,-0.009083,-0.509279,-0.002782,-0.036772,-261.897854,0.060178,71.936657
7.8171,-0.007644,0.000909,-0.000788,0.004905,1.7e-05,0.000484,-0.009083,-0.509279,-0.002782,-0.036772,-261.897854,0.060178,71.936657
7.8368,-0.007098,0.00048,-0.002031,0.004904,-0.0,0.000704,-0.007843,-0.509088,-0.000797,-0.013151,-261.895922,0.041295,71.93859
7.8569,-0.007031,0.000553,-0.002784,0.004883,-1.5e-05,0.000335,-0.007938,-0.509263,-0.0013,-0.013151,-261.895922,0.041295,71.93859
7.8767,-0.007003,0.00057,-0.001293,0.004868,-2.9e-05,7.1e-05,-0.008348,-0.509444,-0.002776,0.061848,-261.89464,-0.033704,71.939873
7.8973,-0.007087,0.000594,-0.000739,0.004852,-1.8e-05,-6.1e-05,-0.00772,-0.509431,-0.001428,0.061848,-261.89464,-0.033704,71.939873
7.9169,-0.007056,0.000564,-0.002064,0.004841,-1e-05,-0.000156,-0.00772,-0.509431,-0.001428,0.061848,-261.89464,-0.033704,71.939873
7.9368,-0.006498,0.000565,-0.001621,0.004831,-5e-06,-0.000223,-0.007917,-0.509437,-0.002061,0.003069,-261.892807,-0.014829,71.941705
7.9571,-0.006867,0.000495,-0.002483,0.004822,-3e-06,-9.6e-05,-0.007655,-0.509436,-0.001882,0.003069,-261.892807,-0.014829,71.941705
7.9766,-0.006624,0.000827,-0.002632,0.004814,-2e-06,-3e-06,-0.007986,-0.509504,-0.002489,-0.029077,-261.890959,0.027186,71.943554
7.997,-0.006885,0.000678,0.000357,0.004812,-3.8e-05,0.000303,-0.007961,-0.509201,-0.002619,-0.029077,-261.890959,0.027186,71.943554
8.0172,-0.006083,0.000589,-0.001499,0.004808,-6.6e-05,0.000527,-0.007961,-0.509201,-0.002619,-0.029077,-261.890959,0.027186,71.943554
8.0371,-0.00654,0.001002,-0.000711,0.004805,-8.7e-05,0.000692,-0.006649,-0.50941,-0.001499,-0.000757,-261.88908,1.5e-05,71.945433
8.0569,-0.006821,0.000624,-0.001931,0.004763,-9.9e-05,0.000283,-0.006728,-0.509245,-0.001184,-0.000757,-261.88908,1.5e-05,71.945433
8.0771,-0.006245,0.000614,-0.003715,0.004729,-0.00011,-1e-05,-0.007687,-0.509375,-0.001917,0.069741,-261.88759,-0.074988,71.946927
8.097,-0.006169,0.000659,-0.001502,0.004753,-9.7e-05,0.000543,-0.008095,-0.509382,-0.00356,0.069741,-261.88759,-0.074988,71.946927
8.1169,-0.00627,0.000665,-0.001124,0.004769,-8.5e-05,0.000956,-0.008095,-0.509382,-0.00356,0.069741,-261.88759,-0.074988,71.946927
8.1369,-0.006024,0.000834,-0.000473,0.004779,-7.5e-05,0.001263,-0.006679,-0.509337,-0.001122,-0.005378,-261.886024,-0.021985,71.948493
8.1567,-0.005911,0.000729,-0.003022,0.00473,-7.9e-05,0.000529,-0.006491,-0.509268,-0.000856,-0.005378,-261.886024,-0.021985,71.948493
8.1766,-0.005646,0.000779,-0.00228,0.004693,-8.8e-05,6e-06,-0.007379,-0.50927,-0.003012,0.069503,-261.885099,-0.096866,71.949423
8.1971,-0.005838,0.000582,-0.001032,0.004678,-0.000113,0.000214,-0.006851,-0.509224,-0.002339,0.069503,-261.885099,-0.096866,71.949423
8.217,-0.00607,0.000914,-0.0011,0.004665,-0.000133,0.000369,-0.006851,-0.509224,-0.002339,0.069503,-261.885099,-0.096866,71.949423
8.237,-0.005482,0.000656,-0.002617,0.004654,-0.000147,0.000485,-0.006474,-0.509088,-0.001098,-0.005736,-261.883592,-0.021627,71.950929
8.2571,-0.005692,0.000634,-0.002274,0.004632,-0.000161,0.000355,-0.006597,-0.509193,-0.001724,-0.005736,-261.883592,-0.021627,71.950929
8.2768,-0.005454,0.000652,-0.002885,0.004616,-0.000174,0.000263,-0.00672,-0.50937,-0.002261,0.032033,-261.881922,-0.094984,71.952606
8.297,-0.005411,0.000925,-0.002091,0.004621,-0.000161,0.000565,-0.006902,-0.509348,-0.002831,0.032033,-261.881922,-0.094984,71.952606
8.3177,-0.005367,0.000644,-0.00064,0.004624,-0.00015,0.000788,-0.006902,-0.509348,-0.002831,0.032033,-261.881922,-0.094984,71.952606
8.3368,-0.005069,0.000494,-0.002149,0.004624,-0.00014,0.000952,-0.005506,-0.509363,-0.00063,-0.002785,-261.88012,-0.072279,71.954413
8.3573,-0.005149,0.000667,-0.000798,0.004562,-0.00011,0.000512,-0.00576,-0.509424,-0.001265,-0.002785,-261.88012,-0.072279,71.954413
8.3769,-0.005118,0.00056,-0.001864,0.004513,-8.8e-05,0.000197,-0.005444,-0.509338,-0.000777,0.072466,-261.878692,-0.14753,71.955852
8.3971,-0.005629,0.000844,-0.00124,0.004491,-7.5e-05,0.000174,-0.006008,-0.509431,-0.001766,0.072466,-261.878692,-0.14753,71.955852
8.4174,-0.005159,0.000716,-0.001739,0.004474,-6.5e-05,0.000159,-0.006008,-0.509431,-0.001766,0.072466,-261.878692,-0.14753,71.955852
8.4373,-0.004765,0.000713,-0.001646,0.00446,-5.8e-05,0.00015,-0.005897,-0.509289,-0.001729,0.007069,-261.877269,-0.072574,71.957276
8.4569,-0.00505,0.000666,-0.002004,0.00443,-8.2e-05,0.000115,-0.005761,-0.509288,-0.001695,0.007069,-261.877269,-0.072574,71.957276
8.4768,-0.004799,0.000355,-0.002092,0.004407,-0.000101,9.1e-05,-0.005933,-0.509335,-0.001999,0.007458,-261.875528,-0.033493,71.959018
8.4971,-0.004788,0.000497,-0.001333,0.004401,-5.1e-05,0.00022,-0.005865,-0.509617,-0.002083,0.007458,-261.875528,-0.033493,71.959018
8.5171,-0.00444,0.000868,-0.002173,0.004395,-1.1e-05,0.000315,-0.005865,-0.509617,-0.002083,0.007458,-261.875528,-0.033493,71.959018
8.537,-0.004658,0.000928,-0.00098,0.00439,2e-05,0.000385,-0.005364,-0.509136,-0.002169,-0.010211,-261.873774,-0.035459,71.960773
8.5571,-0.004945,0.000347,-0.001007,0.004327,-6.3e-05,0.000281,-0.005259,-0.50911,-0.001685,-0.010211,-261.873774,-0.035459,71.960773
8.5769,-0.004226,0.00082,-0.001591,0.004278,-0.000128,0.000207,-0.005329,-0.509652,-0.000996,0.058036,-261.872147,-0.048972,71.9624
8.597,-0.004294,0.000485,-0.002612,0.004223,-0.000154,9.8e-05,-0.005057,-0.509223,-0.001536,0.058036,-261.872147,-0.048972,71.9624
8.6171,-0.004384,0.000767,-0.001967,0.00418,-0.000176,2e-05,-0.005057,-0.509223,-0.001536,0.058036,-261.872147,-0.048972,71.9624
8.637,-0.003796,0.000298,-0.002519,0.004147,-0.000193,-3.6e-05,-0.005217,-0.509238,-0.001958,-0.000369,-261.870529,-0.059498,71.96402
8.6571,-0.004216,0.000724,-0.001879,0.004134,-0.000165,0.000165,-0.005143,-0.509426,-0.002186,-0.000369,-261.870529,-0.059498,71.96402
8.6769,-0.003884,0.00055,-0.000783,0.004122,-0.000143,0.000312,-0.005048,-0.509281,-0.00188,-0.051803,-261.868946,-0.041279,71.965603
8.6975,-0.004041,0.000564,-0.002394,0.004019,-0.00011,-0.000107,-0.004346,-0.509435,-0.000882,-0.051803,-261.868946,-0.041279,71.965603
8.717,-0.004164,0.000754,-0.002394,0.00394,-8.9e-05,-0.000407,-0.004346,-0.509435,-0.000882,-0.051803,-261.868946,-0.041279,71.965603
8.7369,-0.003695,0.000574,-0.002321,0.003879,-7.4e-05,-0.000623,-0.005227,-0.509251,-0.002382,0.011578,-261.867437,-0.080655,71.967116
8.7569,-0.003695,0.000698,-0.002044,0.003913,-0.000103,-0.000216,-0.005067,-0.509322,-0.002356,0.011578,-261.867437,-0.080655,71.967116
8.7769,-0.00362,0.000325,-0.002043,0.003939,-0.000124,8.3e-05,-0.004673,-0.509304,-0.002047,-0.06342,-261.86664,-0.005657,71.967911
8.7973,-0.003639,0.000711,-0.000323,0.00392,-5.8e-05,0.000207,-0.00466,-0.509641,-0.002044,-0.06342,-261.86664,-0.005657,71.967911
8.8171,-0.003736,0.000534,-0.00049,0.003904,-7e-06,0.000299,-0.00466,-0.509641,-0.002044,-0.06342,-261.86664,-0.005657,71.967911
8.8369,-0.003642,0.000549,-0.001816,0.003892,3.2e-05,0.000367,-0.003831,-0.50947,-0.000487,-0.018577,-261.86515,-0.044202,71.969402
8.857,-0.00339,0.000387,-0.000664,0.003807,2.8e-05,1e-06,-0.004112,-0.509463,-0.001027,-0.018577,-261.86515,-0.044202,71.969402
8.8769,-0.003493,0.000555,-0.000257,0.003743,2.2e-05,-0.000261,-0.003618,-0.509612,-0.000654,0.056428,-261.863758,-0.049273,71.970792
8.897,-0.003303,0.000645,-0.000743,0.003615,2.3e-05,-0.000807,-0.003618,-0.50946,-0.000293,0.056428,-261.863758,-0.049273,71.970792
8.9176,-0.003101,0.000754,-0.001714,0.003519,1.8e-05,-0.001199,-0.003618,-0.50946,-0.000293,0.056428,-261.863758,-0.049273,71.970792
8.9373,-0.003323,0.000536,-0.000531,0.003446,1.1e-05,-0.001481,-0.003858,-0.509245,-0.001718,-0.018569,-261.862639,0.025724,71.971911
8.957,-0.003166,0.000452,-0.00098,0.003403,-3.8e-05,-0.00125,-0.003738,-0.509334,-0.001239,-0.018569,-261.862639,0.025724,71.971911
8.977,-0.003386,0.000631,-0.001233,0.003371,-7.6e-05,-0.001079,-0.003647,-0.509547,-0.000983,-0.093565,-261.862399,0.10072,71.972152
8.9973,-0.002995,0.000698,0.000965,0.003389,-9.1e-05,-0.000961,-0.003981,-0.509385,-0.001211,-0.093565,-261.862399,0.10072,71.972152
9.0176,-0.003165,0.000366,-0.001766,0.003402,-0.000103,-0.000873,-0.003981,-0.509385,-0.001211,-0.093565,-261.862399,0.10072,71.972152
9.037,-0.002974,0.000413,-0.000459,0.003413,-0.000112,-0.000807,-0.003962,-0.509633,-0.001795,-0.168575,-261.861392,0.17124,71.97315
9.057,-0.00324,0.00068,-0.000642,0.003372,-5.3e-05,-0.000735,-0.003642,-0.509614,-0.001253,-0.168575,-261.861392,0.17124,71.97315
9.0768,-0.002851,0.000392,-0.001476,0.003339,-8e-06,-0.000681,-0.003465,-0.509324,-0.000666,-0.17543,-261.860085,0.111111,71.974446
9.0972,-0.003023,0.000499,-0.002388,0.003305,1.7e-05,-0.000579,-0.003587,-0.509583,-0.001405,-0.17543,-261.860085,0.111111,71.974446
9.1172,-0.00279,0.000546,-0.001396,0.003278,3.6e-05,-0.000504,-0.003587,-0.509583,-0.001405,-0.17543,-261.860085,0.111111,71.974446
9.1371,-0.00245,0.00084,-0.002336,0.003257,5e-05,-0.000449,-0.003368,-0.509454,-0.001424,-0.126136,-261.858792,0.121585,71.975738
9.1571,-0.002652,0.000734,-0.002173,0.003213,-1.3e-05,-0.000267,-0.003463,-0.509335,-0.001795,-0.126136,-261.858792,0.121585,71.975738
9.177,-0.002672,0.000619,-0.002859,0.00318,-6e-05,-0.000133,-0.003662,-0.509263,-0.002186,-0.068515,-261.857564,0.0993,71.976969
9.1969,-0.002046,0.000933,-0.001745,0.003256,-9.2e-05,0.00029,-0.004081,-0.509368,-0.002797,-0.068515,-261.857564,0.0993,71.976969
9.2168,-0.002251,0.000862,-0.002631,0.003314,-0.000115,0.000603,-0.004081,-0.509368,-0.002797,-0.068515,-261.857564,0.0993,71.976969
9.237,-0.002291,0.000406,-0.000867,0.003357,-0.000131,0.000833,-0.003478,-0.509137,-0.002638,-0.044575,-261.856465,0.024306,71.978068
9.2572,-0.002602,0.000715,-0.002263,0.003228,-0.000149,0.000705,-0.003162,-0.509323,-0.00192,-0.044575,-261.856465,0.024306,71.978068
9.2771,-0.002105,0.000723,-0.001295,0.003131,-0.000165,0.000615,-0.003721,-0.509285,-0.002261,0.030422,-261.856025,-0.050691,71.978512
9.2971,-0.002157,0.000737,-0.00292,0.00299,-0.00019,0.000335,-0.002852,-0.509277,-0.001385,0.030422,-261.856025,-0.050691,71.978512
9.3171,-0.001812,0.00042,-0.0028,0.002884,-0.000211,0.000136,-0.002852,-0.509277,-0.001385,0.030422,-261.856025,-0.050691,71.978512
9.3373,-0.002224,0.000742,-0.001835,0.002805,-0.00023,-5e-06,-0.003138,-0.509581,-0.002783,0.067236,-261.855051,-0.125687,71.979499
9.3572,-0.002191,0.000501,-0.002385,0.002811,-0.0002,0.000271,-0.003135,-0.50945,-0.002396,0.067236,-261.855051,-0.125687,71.979499
9.3768,-0.002278,0.000425,-0.000716,0.002814,-0.000176,0.000473,-0.003347,-0.509501,-0.002381,-0.00782,-261.854292,-0.080747,71.980258
9.3974,-0.002415,0.000625,-0.000921,0.00273,-0.000107,1.7e-05,-0.002703,-0.509568,-0.000865,-0.00782,-261.854292,-0.080747,71.980258
9.4175,-0.001948,0.000659,-0.003256,0.002667,-5.8e-05,-0.00031,-0.002703,-0.509568,-0.000865,-0.00782,-261.854292,-0.080747,71.980258
9.4371,-0.00193,0.000742,-0.003958,0.00262,-2.4e-05,-0.000544,-0.003507,-0.509344,-0.00324,0.04012,-261.85332,-0.155702,71.981242
9.457,-0.001845,0.000187,-0.0022,0.002767,-8.9e-05,0.000164,-0.003673,-0.509309,-0.003527,0.04012,-261.85332,-0.155702,71.981242
9.4771,-0.001779,0.000435,-0.001116,0.002878,-0.000137,0.000694,-0.002952,-0.509813,-0.0022,-0.034862,-261.853127,-0.08072,71.981435
9.4972,-0.001866,0.000717,-0.002205,0.002701,-7e-05,0.000317,-0.002402,-0.509587,-0.001214,-0.034862,-261.853127,-0.08072,71.981435
9.5173,-0.002183,0.000113,-0.002775,0.002568,-2.3e-05,5e-05,-0.002402,-0.509587,-0.001214,-0.034862,-261.853127,-0.08072,71.981435
9.537,-0.002105,0.000762,-0.001509,0.00247,1e-05,-0.000138,-0.003524,-0.509889,-0.002763,0.04015,-261.852417,-0.155732,71.982154
9.5573,-0.001819,0.000804,-0.000931,0.002579,2.8e-05,0.000129,-0.00325,-0.509623,-0.002249,0.04015,-261.852417,-0.155732,71.982154
9.5772,-0.001734,0.000769,-0.001801,0.002662,4.3e-05,0.000325,-0.002254,-0.509198,-0.000929,-0.030082,-261.851917,-0.080613,71.982655
9.5972,-0.001652,0.000734,-0.001443,0.002584,-6.2e-05,0.000266,-0.002619,-0.509227,-0.001732,-0.030082,-261.851917,-0.080613,71.982655
9.6174,-0.001512,0.000762,-0.001782,0.002527,-0.000142,0.000225,-0.002619,-0.509227,-0.001732,-0.030082,-261.851917,-0.080613,71.982655
9.637,-0.001731,0.00031,-0.002239,0.002484,-0.000204,0.000199,-0.002333,-0.509237,-0.001775,0.045118,-261.851078,-0.058341,71.983491
9.6575,-0.001374,0.000355,-0.001307,0.002442,-0.00019,0.000273,-0.002546,-0.509424,-0.001966,0.045118,-261.851078,-0.058341,71.983491
9.6775,-0.001661,0.000758,-0.000863,0.00241,-0.000179,0.000329,-0.001975,-0.509649,-0.001301,-0.029794,-261.850248,-0.13014,71.984328
9.6976,-0.00172,0.000802,-0.001856,0.002266,-0.000216,-8.5e-05,-0.002088,-0.509276,-0.000899,-0.029794,-261.850248,-0.13014,71.984328
9.7176,-0.001349,0.000655,-0.002886,0.00216,-0.000248,-0.000381,-0.002088,-0.509276,-0.000899,-0.029794,-261.850248,-0.13014,71.984328
9.737,-0.001486,0.000661,-0.001311,0.00208,-0.000275,-0.000592,-0.002724,-0.50935,-0.002872,0.009067,-261.849316,-0.156511,71.985272
9.757,-0.001442,0.000564,-0.002076,0.002121,-0.000282,-0.000222,-0.002474,-0.509346,-0.002217,0.009067,-261.849316,-0.156511,71.985272
9.7771,-0.001464,0.00048,-0.002666,0.002151,-0.000285,5.1e-05,-0.002492,-0.509435,-0.002075,-0.066074,-261.849215,-0.081371,71.985368
9.7973,-0.001357,0.0007,-0.000617,0.00225,-0.000238,0.000386,-0.002794,-0.509511,-0.002614,-0.066074,-261.849215,-0.081371,71.985368
9.8171,-0.001501,0.000662,-0.002667,0.002323,-0.000199,0.000633,-0.002794,-0.509511,-0.002614,-0.066074,-261.849215,-0.081371,71.985368
9.8369,-0.001233,0.000504,-0.002042,0.002378,-0.000169,0.000814,-0.00278,-0.509348,-0.002665,-0.117778,-261.848438,-0.146006,71.986148
9.857,-0.001056,0.000713,-0.001931,0.002365,-0.000174,0.000875,-0.002562,-0.50941,-0.002407,-0.117778,-261.848438,-0.146006,71.986148
9.8769,-0.001649,0.000636,-0.002407,0.002355,-0.000178,0.00092,-0.00202,-0.509289,-0.001928,-0.042725,-261.84818,-0.221059,71.986414
9.8972,-0.001299,0.000261,-0.002441,0.002401,-0.000197,0.000941,-0.002803,-0.509356,-0.002366,-0.042725,-261.84818,-0.221059,71.986414
9.9173,-0.001418,0.000548,7.7e-05,0.002436,-0.000211,0.000957,-0.002803,-0.509356,-0.002366,-0.042725,-261.84818,-0.221059,71.986414
9.937,-0.001185,0.000729,-0.000632,0.002463,-0.000221,0.000969,-0.001333,-0.509458,8.9e-05,0.032244,-261.847745,-0.296027,71.986863
9.9571,-0.001438,0.000355,-0.002169,0.002102,-0.000206,4e-06,-0.001399,-0.509382,-0.000202,0.032244,-261.847745,-0.296027,71.986863
9.9771,-0.001382,0.000471,-0.001001,0.001838,-0.000205,-0.000686,-0.002482,-0.509651,-0.002147,0.107133,-261.84695,-0.318671,71.987691
9.9971,-0.000985,0.000529,-0.002709,0.001805,-0.000158,-0.000727,-0.001939,-0.50954,-0.001095,0.107133,-261.84695,-0.318671,71.987691
10.0171,-0.001023,0.0005,-0.001597,0.001781,-0.000125,-0.000753,-0.001939,-0.50954,-0.001095,0.107133,-261.84695,-0.318671,71.987691
10.0371,-0.001183,0.000564,-0.002366,0.001763,-0.000101,-0.000769,-0.001837,-0.5095,-0.001597,0.031924,-261.846949,-0.243462,71.987692
10.057,-0.000979,0.000495,-0.001213,0.001783,-0.000112,-0.000458,-0.002063,-0.509473,-0.001912,0.031924,-261.846949,-0.243462,71.987692
10.0766,-0.001284,0.001011,-0.002584,0.001798,-0.00012,-0.000229,-0.001597,-0.509504,-0.001213,-0.042973,-261.846945,-0.168564,71.987696
10.0976,-0.00121,0.000669,-0.000442,0.001906,-0.000269,0.000115,-0.002516,-0.509032,-0.002467,-0.042973,-261.846945,-0.168564,71.987696
10.1172,-0.0011,7.4e-05,-0.001205,0.001988,-0.000381,0.000369,-0.002516,-0.509032,-0.002467,-0.042973,-261.846945,-0.168564,71.987696
10.1371,-0.000907,0.000577,-0.002671,0.00205,-0.000465,0.000557,-0.001676,-0.50993,-0.001206,-0.117993,-261.846578,-0.093544,71.98806
10.1575,-0.001055,0.00057,-0.00149,0.001962,-0.000292,0.000484,-0.001916,-0.509721,-0.001809,-0.117993,-261.846578,-0.093544,71.98806
10.1771,-0.000845,0.000622,-0.000879,0.001897,-0.000162,0.000434,-0.001797,-0.509431,-0.001489,-0.061012,-261.846361,-0.168554,71.988292
10.1974,-0.001526,0.000345,-0.001385,0.0,0.0,0.0,-0.001338,-0.509383,-0.000934,-0.061012,-261.846361,-0.168554,71.988292
10.2171,-0.001326,0.000322,-0.001758,0.0,0.0,0.0,-0.001338,-0.509383,-0.000934,-0.061012,-261.846361,-0.168554,71.988292
