mach0312/omni-docking-bench/src/icros_test_setup/results/MPPI_sample/timeseries/trial_133.csv
t,x,y,yaw,vx,vy,wz,bl_x,bl_y,bl_yaw,front_steering_joint,front_wheel_joint,rear_steering_joint,rear_wheel_joint
0.0,-0.039463,-0.030769,0.067793,0.0,0.0,0.0,-0.005661,-0.539173,0.067707,-0.049639,-258.330124,-0.490415,68.242241
0.0004,-0.039295,-0.03049,0.067978,0.0,0.0,0.0,-0.005592,-0.53981,0.066864,-0.049639,-258.329067,-0.490415,68.243437
0.0007,-0.039312,-0.030881,0.067292,0.0,0.0,0.0,-0.005592,-0.53981,0.066864,-0.049639,-258.329067,-0.490415,68.243437
0.001,-0.039552,-0.030767,0.066497,0.0,0.0,0.0,-0.005592,-0.53981,0.066864,-0.049639,-258.329067,-0.490415,68.243437
0.0013,-0.039824,-0.030722,0.067571,0.0,0.0,0.0,-0.00475,-0.539312,0.067666,-0.049639,-258.329067,-0.490415,68.243437
0.0016,-0.039312,-0.030679,0.069172,0.0,0.0,0.0,-0.00475,-0.539312,0.067666,-0.049639,-258.329067,-0.490415,68.243437
0.0019,-0.039456,-0.030705,0.067464,0.0,0.0,0.0,-0.004802,-0.53937,0.067583,-0.049639,-258.329067,-0.490415,68.243437
0.0022,-0.039418,-0.030707,0.068028,0.0,0.0,0.0,-0.004802,-0.53937,0.067583,-0.049639,-258.329067,-0.490415,68.243437
0.0024,-0.03945,-0.030613,0.068626,9.8e-05,-2e-05,0.0,-0.005571,-0.539549,0.067083,-0.049639,-258.329067,-0.490415,68.243437
0.0165,-0.03938,-0.030784,0.065965,0.0,0.0,0.0,-0.004478,-0.539413,0.068626,-0.049639,-258.329067,-0.490415,68.243437
0.0368,-0.039191,-0.030897,0.065913,0.0,0.0,0.0,-0.005651,-0.539652,0.066196,-0.049639,-258.329067,-0.490415,68.243437
0.0571,-0.039593,-0.03082,0.066401,0.0,0.0,0.0,-0.005651,-0.539652,0.066196,-0.049639,-258.329067,-0.490415,68.243437
0.0768,-0.03945,-0.03098,0.067278,0.0,0.0,0.0,-0.005754,-0.539697,0.066401,-0.049639,-258.329067,-0.490415,68.243437
0.0967,-0.03968,-0.03062,0.066648,0.0,0.0,0.0,-0.005517,-0.539748,0.066753,-0.049639,-258.329067,-0.490415,68.243437
0.1166,-0.039249,-0.031006,0.068206,-0.00014,0.004041,-0.009819,-0.005715,-0.539488,0.066648,-0.049639,-258.329067,-0.490415,68.243437
0.1367,-0.039446,-0.03068,0.068456,-0.00018,0.004447,-0.0106,-0.004595,-0.539792,0.068074,-0.049639,-258.329067,-0.490415,68.243437
0.1567,-0.039273,-0.030798,0.069245,-0.000214,0.004798,-0.011226,-0.004595,-0.539792,0.068074,-0.049639,-258.329067,-0.490415,68.243437
0.1763,-0.039686,-0.030961,0.065344,-0.000243,0.005102,-0.011728,-0.003987,-0.539576,0.069245,0.025508,-258.329067,-0.565562,68.243437
0.1969,-0.039684,-0.030648,0.067043,-0.000255,0.005363,-0.012132,-0.004969,-0.539698,0.067647,0.025508,-258.329067,-0.565562,68.243437
0.2166,-0.039298,-0.030504,0.068906,-0.000266,0.005589,-0.012456,-0.005517,-0.539502,0.067043,0.10052,-258.329067,-0.640573,68.243437
0.2367,-0.039642,-0.030592,0.068187,-0.000293,0.005788,-0.012714,-0.004296,-0.539312,0.068748,0.10052,-258.329067,-0.640573,68.243437
0.2567,-0.039872,-0.031045,0.067777,-0.000317,0.00596,-0.01292,-0.004296,-0.539312,0.068748,0.10052,-258.329067,-0.640573,68.243437
0.2774,-0.039508,-0.030509,0.068328,-0.000337,0.006109,-0.013085,-0.005333,-0.539874,0.067777,0.175503,-258.329067,-0.715556,68.243437
0.2965,-0.03972,-0.030281,0.067066,-0.000333,0.006234,-0.01322,-0.005082,-0.539658,0.067991,0.175503,-258.329067,-0.715556,68.243437
0.3164,-0.039446,-0.030729,0.067717,-0.00033,0.006342,-0.013328,-0.005542,-0.539135,0.067066,0.250373,-258.329067,-0.790426,68.243437
0.3368,-0.039536,-0.030847,0.067079,-0.000331,0.006435,-0.013414,-0.004991,-0.539522,0.067659,0.250373,-258.329067,-0.790426,68.243437
0.3568,-0.039414,-0.030636,0.067996,-0.000333,0.006517,-0.013483,-0.004991,-0.539522,0.067659,0.250373,-258.329067,-0.790426,68.243437
0.3772,-0.039573,-0.03062,0.067969,-0.000335,0.006587,-0.013537,-0.004762,-0.539457,0.067996,0.325357,-258.329067,-0.86541,68.243437
0.3966,-0.039585,-0.031125,0.066685,-0.000342,0.006648,-0.01358,-0.004833,-0.539451,0.067985,0.325357,-258.329067,-0.86541,68.243437
0.4167,-0.039436,-0.030805,0.067769,-0.000349,0.006701,-0.013614,-0.005601,-0.539991,0.066685,0.400472,-258.329067,-0.940526,68.243437
0.437,-0.039646,-0.030717,0.066381,-0.000352,0.006747,-0.013642,-0.004968,-0.539669,0.067664,0.400472,-258.329067,-0.940526,68.243437
0.4571,-0.039268,-0.030347,0.067598,-0.000355,0.006786,-0.013664,-0.004968,-0.539669,0.067664,0.400472,-258.329067,-0.940526,68.243437
0.477,-0.039979,-0.030786,0.065262,-0.000358,0.00682,-0.013682,-0.004819,-0.539182,0.067598,0.475361,-258.329067,-1.015414,68.243437
0.4965,-0.039524,-0.030731,0.067812,-0.000341,0.006844,-0.013698,-0.005596,-0.539394,0.066642,0.475361,-258.329067,-1.015414,68.243437
0.5167,-0.039757,-0.030743,0.066253,-0.000327,0.006865,-0.013712,-0.004966,-0.539559,0.067812,0.55051,-258.329067,-1.090563,68.243437
0.5366,-0.039849,-0.030748,0.066835,-0.000308,0.006881,-0.013723,-0.005899,-0.539618,0.066395,0.55051,-258.329067,-1.090563,68.243437
0.5571,-0.039386,-0.030559,0.067511,-0.000292,0.006895,-0.013731,-0.005899,-0.539618,0.066395,0.55051,-258.329067,-1.090563,68.243437
0.5771,-0.039479,-0.031061,0.066882,-0.000278,0.006908,-0.013738,-0.004982,-0.539397,0.067511,0.625356,-258.329067,-1.165409,68.243437
0.5973,-0.039738,-0.030436,0.067811,-0.000289,0.006923,-0.01374,-0.005151,-0.539612,0.067253,0.625356,-258.329067,-1.165409,68.243437
0.6165,-0.039568,-0.030625,0.067701,-0.000299,0.006937,-0.013741,-0.005181,-0.539264,0.067811,0.7005,-258.329067,-1.240553,68.243437
0.6366,-0.039739,-0.030587,0.067324,-0.000308,0.006949,-0.013743,-0.005077,-0.53944,0.067711,0.7005,-258.329067,-1.240553,68.243437
0.6565,-0.039312,-0.030945,0.066182,-0.000315,0.00696,-0.013744,-0.005077,-0.53944,0.067711,0.7005,-258.329067,-1.240553,68.243437
0.6764,-0.039418,-0.030407,0.066809,-0.000322,0.006969,-0.013746,-0.005585,-0.539829,0.066181,0.775478,-258.329067,-1.315532,68.243437
0.6964,-0.039755,-0.031227,0.067932,-0.000317,0.006974,-0.013748,-0.005497,-0.539599,0.066439,0.775478,-258.329067,-1.315532,68.243437
0.7165,-0.039565,-0.030953,0.067854,-0.000312,0.006979,-0.013751,-0.005137,-0.540051,0.067931,0.850448,-258.329068,-1.390501,68.243427
0.7364,-0.039693,-0.030472,0.067457,-0.000324,0.006986,-0.01375,-0.004999,-0.539803,0.067861,0.850448,-258.329068,-1.390501,68.243427
0.7564,-0.039721,-0.030576,0.066911,-0.000334,0.006993,-0.01375,-0.004999,-0.539803,0.067861,0.850448,-258.329068,-1.390501,68.243427
0.7769,-0.039635,-0.030422,0.068264,-0.000342,0.006999,-0.01375,-0.005623,-0.539432,0.066905,0.925343,-258.329074,-1.465396,68.243368
0.7964,-0.039212,-0.030798,0.068027,-0.000337,0.007001,-0.013752,-0.005311,-0.539352,0.067452,0.925343,-258.329074,-1.465396,68.243368
0.8165,-0.03939,-0.030903,0.066091,-0.000333,0.007002,-0.013753,-0.004547,-0.539605,0.068002,1.000345,-258.329108,-1.540398,68.243001
0.8366,-0.039611,-0.030488,0.067547,-0.000324,0.007003,-0.013755,-0.005609,-0.539773,0.066253,1.000345,-258.329108,-1.540398,68.243001
0.857,-0.039156,-0.031191,0.06786,-0.000317,0.007003,-0.013756,-0.005609,-0.539773,0.066253,1.000345,-258.329108,-1.540398,68.243001
0.8763,-0.039392,-0.03065,0.066756,-0.000311,0.007003,-0.013757,-0.004581,-0.539971,0.06777,1.075478,-258.329199,-1.549176,68.242032
0.8972,-0.039495,-0.030134,0.066695,-0.000326,0.007008,-0.013755,-0.004901,-0.539781,0.06735,1.075478,-258.329199,-1.549176,68.242032
0.9165,-0.038877,-0.03057,0.067529,-0.000339,0.007012,-0.013753,-0.005515,-0.538935,0.066567,1.150365,-258.329364,-1.550639,68.240251
0.9366,-0.039142,-0.030301,0.067511,-0.000359,0.007018,-0.013751,-0.004558,-0.539362,0.067437,1.150365,-258.329364,-1.550639,68.240251
0.9564,-0.039274,-0.030344,0.065431,-0.000376,0.007023,-0.01375,-0.004558,-0.539362,0.067437,1.150365,-258.329364,-1.550639,68.240251
0.9764,-0.03928,-0.03028,0.06603,-0.00039,0.007027,-0.01375,-0.00595,-0.53908,0.065091,1.225455,-258.329702,-1.548777,68.236601
0.9967,-0.039168,-0.030154,0.066703,-0.000362,0.007021,-0.013855,-0.00582,-0.539097,0.065438,1.225455,-258.329702,-1.548777,68.236601
1.0166,-0.039001,-0.030326,0.065738,-0.000339,0.007016,-0.013938,-0.0052,-0.538814,0.066297,1.29389,-258.33023,-1.54555,68.230883
1.0368,-0.038748,-0.029892,0.066799,-0.00033,0.007015,-0.014075,-0.005473,-0.539178,0.065767,1.29389,-258.33023,-1.54555,68.230883
1.0566,-0.039038,-0.02989,0.065578,-0.000322,0.007014,-0.014185,-0.005473,-0.539178,0.065767,1.29389,-258.33023,-1.54555,68.230883
1.0769,-0.038678,-0.029579,0.06483,-0.000315,0.007013,-0.014272,-0.005649,-0.538515,0.065021,1.348156,-258.330816,-1.548986,68.224957
1.0972,-0.038656,-0.029592,0.064307,-0.0003,0.00701,-0.014415,-0.005648,-0.53848,0.064879,1.348156,-258.330816,-1.548986,68.224957
1.1166,-0.038286,-0.029099,0.065668,-0.000287,0.007008,-0.01453,-0.005906,-0.538321,0.063863,1.387679,-258.331491,-1.550744,68.218821
1.1368,-0.038106,-0.029394,0.064425,-0.000296,0.00701,-0.014686,-0.004921,-0.538018,0.065479,1.387679,-258.331491,-1.550744,68.218821
1.1567,-0.03825,-0.029095,0.065901,-0.000303,0.007013,-0.014812,-0.004921,-0.538018,0.065479,1.387679,-258.331491,-1.550744,68.218821
1.1772,-0.03768,-0.028905,0.063399,-0.000309,0.007015,-0.014914,-0.004696,-0.5377,0.0653,1.418072,-258.332236,-1.552709,68.21256
1.1969,-0.037937,-0.029032,0.065216,-0.000311,0.007017,-0.015057,-0.00497,-0.53774,0.064465,1.418072,-258.332236,-1.552709,68.21256
1.2169,-0.037517,-0.028308,0.062762,-0.000313,0.007018,-0.015174,-0.004725,-0.537722,0.064734,1.42412,-258.333082,-1.551619,68.206113
1.2376,-0.037678,-0.028735,0.063297,-0.000297,0.007015,-0.015325,-0.005455,-0.537332,0.062923,1.42412,-258.333082,-1.551619,68.206113
1.2568,-0.037752,-0.027934,0.063982,-0.000283,0.007013,-0.015448,-0.005455,-0.537332,0.062923,1.42412,-258.333082,-1.551619,68.206113
1.2771,-0.037531,-0.027708,0.062347,-0.000271,0.007011,-0.015549,-0.005175,-0.536599,0.063348,1.432451,-258.33399,-1.551571,68.199596
1.297,-0.037072,-0.028399,0.06324,-0.000256,0.007009,-0.01568,-0.005419,-0.536614,0.062861,1.432451,-258.33399,-1.551571,68.199596
1.3163,-0.037046,-0.027865,0.06188,-0.000244,0.007007,-0.015788,-0.004863,-0.537161,0.062753,1.462255,-258.334974,-1.554394,68.193094
1.3365,-0.036898,-0.027753,0.060786,-0.000235,0.007006,-0.015921,-0.005451,-0.536902,0.061933,1.462255,-258.334974,-1.554394,68.193094
1.3569,-0.036452,-0.027662,0.062351,-0.000228,0.007005,-0.01603,-0.005451,-0.536902,0.061933,1.462255,-258.334974,-1.554394,68.193094
1.3769,-0.03659,-0.027337,0.062216,-0.000222,0.007005,-0.016119,-0.004701,-0.53638,0.061693,1.47844,-258.33603,-1.556135,68.186453
1.3967,-0.036358,-0.02737,0.061246,-0.000235,0.00701,-0.016231,-0.004778,-0.536334,0.061832,1.47844,-258.33603,-1.556135,68.186453
1.4166,-0.036164,-0.026973,0.060018,-0.000247,0.007014,-0.016323,-0.005162,-0.536193,0.060736,1.49294,-258.337165,-1.55765,68.179737
1.4367,-0.035846,-0.026751,0.060038,-0.000228,0.007011,-0.016441,-0.005539,-0.536056,0.060055,1.49294,-258.337165,-1.55765,68.179737
1.4567,-0.036137,-0.026883,0.061507,-0.000213,0.007009,-0.016537,-0.005539,-0.536056,0.060055,1.49294,-258.337165,-1.55765,68.179737
1.4764,-0.036261,-0.026903,0.059888,-0.0002,0.007007,-0.016616,-0.004817,-0.535627,0.060825,1.487555,-258.338351,-1.556279,68.172945
1.4966,-0.035518,-0.026637,0.058659,-0.000198,0.007008,-0.016704,-0.005197,-0.535742,0.060362,1.487555,-258.338351,-1.556279,68.172945
1.5173,-0.035731,-0.026221,0.058536,-0.000197,0.007009,-0.016777,-0.005638,-0.535539,0.058134,1.507137,-258.339602,-1.559125,68.166129
1.5369,-0.035395,-0.026498,0.05812,-0.00017,0.007003,-0.016852,-0.005873,-0.535353,0.058475,1.507137,-258.339602,-1.559125,68.166129
1.5567,-0.035636,-0.026195,0.058151,-0.000147,0.006998,-0.016914,-0.005873,-0.535353,0.058475,1.507137,-258.339602,-1.559125,68.166129
1.5767,-0.035225,-0.025689,0.057145,-0.000127,0.006994,-0.016964,-0.006021,-0.535041,0.057449,1.510076,-258.340898,-1.55939,68.159233
1.5971,-0.03491,-0.025885,0.05736,-0.000102,0.006987,-0.017017,-0.006055,-0.534932,0.057245,1.510076,-258.340898,-1.55939,68.159233
1.6164,-0.034127,-0.025539,0.058018,-8e-05,0.006982,-0.017059,-0.005689,-0.534826,0.056823,1.533004,-258.342236,-1.563461,68.152341
1.6365,-0.034423,-0.025544,0.058318,-0.000111,0.006991,-0.017096,-0.004654,-0.534683,0.057888,1.533004,-258.342236,-1.563461,68.152341
1.6564,-0.03419,-0.025828,0.057296,-0.000136,0.006999,-0.017126,-0.004654,-0.534683,0.057888,1.533004,-258.342236,-1.563461,68.152341
1.6763,-0.034011,-0.025181,0.056214,-0.000158,0.007006,-0.017152,-0.005005,-0.534701,0.056587,1.547556,-258.343604,-1.566205,68.145416
1.6963,-0.034018,-0.025368,0.055265,-0.000157,0.007007,-0.017184,-0.005151,-0.534534,0.056352,1.547556,-258.343604,-1.566205,68.145416
1.7167,-0.033862,-0.024624,0.05587,-0.000157,0.007008,-0.017211,-0.005865,-0.534369,0.054723,1.525304,-258.344982,-1.561761,68.138479
1.7365,-0.033647,-0.024527,0.056743,-0.00014,0.007005,-0.017242,-0.005427,-0.533866,0.05574,1.525304,-258.344982,-1.561761,68.138479
1.7567,-0.034018,-0.024953,0.05507,-0.000126,0.007002,-0.017267,-0.005427,-0.533866,0.05574,1.525304,-258.344982,-1.561761,68.138479
1.7771,-0.033151,-0.023995,0.054714,-0.000115,0.007,-0.017288,-0.005969,-0.533887,0.054349,1.52607,-258.346385,-1.561847,68.131471
1.7965,-0.033438,-0.024179,0.0552,-9.4e-05,0.006994,-0.017312,-0.005686,-0.533589,0.054413,1.52607,-258.346385,-1.561847,68.131471
1.8166,-0.033458,-0.023902,0.053715,-7.6e-05,0.00699,-0.017332,-0.005316,-0.53318,0.05465,1.538556,-258.347805,-1.564259,68.124467
1.8365,-0.032968,-0.024332,0.054745,-4.4e-05,0.006981,-0.017356,-0.006009,-0.533157,0.053771,1.538556,-258.347805,-1.564259,68.124467
1.8565,-0.03269,-0.02365,0.055421,-1.8e-05,0.006973,-0.017375,-0.006009,-0.533157,0.053771,1.538556,-258.347805,-1.564259,68.124467
1.8767,-0.032325,-0.023517,0.050336,5e-06,0.006967,-0.017391,-0.004459,-0.532576,0.054697,1.549758,-258.349241,-1.566491,68.117452
1.8969,-0.032568,-0.023524,0.052996,2e-06,0.006968,-0.017404,-0.005355,-0.532662,0.052844,1.549758,-258.349241,-1.566491,68.117452
1.9167,-0.031849,-0.02329,0.05129,0.0,0.006968,-0.017416,-0.005564,-0.532588,0.052446,1.572053,-258.350691,-1.571057,68.110474
1.9367,-0.032106,-0.023525,0.051859,1.1e-05,0.006965,-0.017431,-0.00569,-0.532605,0.051366,1.572053,-258.350691,-1.571057,68.110474
1.9564,-0.032064,-0.0231,0.052503,2e-05,0.006963,-0.017442,-0.00569,-0.532605,0.051366,1.572053,-258.350691,-1.571057,68.110474
1.9766,-0.031811,-0.022905,0.050903,2.8e-05,0.006961,-0.017452,-0.005315,-0.532106,0.051774,1.570804,-258.352158,-1.570798,68.103433
1.9967,-0.031788,-0.022859,0.049725,3.4e-05,0.006959,-0.017463,-0.005538,-0.532128,0.051336,1.570804,-258.352158,-1.570798,68.103433
2.0163,-0.031482,-0.022866,0.048685,3.9e-05,0.006958,-0.017472,-0.006449,-0.532007,0.049169,1.578441,-258.353638,-1.572401,68.096383
2.0367,-0.03126,-0.022722,0.049484,8.4e-05,0.006943,-0.017488,-0.006644,-0.532229,0.0487,1.578441,-258.353638,-1.572401,68.096383
2.0566,-0.03139,-0.022653,0.050356,0.000121,0.006931,-0.017501,-0.006644,-0.532229,0.0487,1.578441,-258.353638,-1.572401,68.096383
2.0769,-0.030934,-0.022353,0.049557,0.000153,0.00692,-0.01751,-0.005732,-0.531716,0.049627,1.581308,-258.355127,-1.573011,68.089312
2.0971,-0.030771,-0.022412,0.048682,0.000149,0.006922,-0.017515,-0.005708,-0.531687,0.049512,1.581308,-258.355127,-1.573011,68.089312
2.1167,-0.030299,-0.021759,0.047858,0.000146,0.006923,-0.017518,-0.005959,-0.531592,0.048136,1.6112,-258.356612,-1.579457,68.082388
2.1367,-0.030556,-0.021972,0.048013,0.000157,0.006919,-0.017525,-0.005906,-0.531201,0.047855,1.6112,-258.356612,-1.579457,68.082388
2.1568,-0.03065,-0.021802,0.050359,0.000165,0.006916,-0.01753,-0.005906,-0.531201,0.047855,1.6112,-258.356612,-1.579457,68.082388
2.1765,-0.030061,-0.021658,0.047942,0.000173,0.006914,-0.017535,-0.004986,-0.530866,0.049627,1.609479,-258.358125,-1.579091,68.075331
2.1968,-0.030413,-0.021252,0.047167,0.000155,0.006919,-0.017536,-0.005249,-0.530918,0.048846,1.609479,-258.358125,-1.579091,68.075331
2.2167,-0.029547,-0.021031,0.046496,0.000141,0.006924,-0.017537,-0.006371,-0.530465,0.046612,1.616261,-258.359641,-1.580594,68.068299
2.2369,-0.029574,-0.02075,0.045307,0.00016,0.006918,-0.017545,-0.005889,-0.530468,0.046478,1.616261,-258.359641,-1.580594,68.068299
2.2569,-0.029506,-0.020975,0.04689,0.000176,0.006912,-0.017552,-0.005889,-0.530468,0.046478,1.616261,-258.359641,-1.580594,68.068299
2.2768,-0.028923,-0.020988,0.045399,0.00019,0.006908,-0.017556,-0.005609,-0.530125,0.046157,1.607979,-258.361155,-1.578785,68.061254
2.297,-0.028849,-0.020799,0.04595,0.000194,0.006906,-0.01756,-0.005679,-0.530229,0.045763,1.607979,-258.361155,-1.578785,68.061254
2.3165,-0.028701,-0.020203,0.046341,0.000198,0.006905,-0.017563,-0.005427,-0.530041,0.045391,1.62045,-258.362679,-1.581549,68.054217
2.3366,-0.028526,-0.020103,0.043993,0.000184,0.006909,-0.017564,-0.005106,-0.529678,0.046231,1.62045,-258.362679,-1.581549,68.054217
2.3572,-0.028319,-0.020111,0.046137,0.000171,0.006913,-0.017564,-0.005106,-0.529678,0.046231,1.62045,-258.362679,-1.581549,68.054217
2.3767,-0.028482,-0.020044,0.044725,0.000161,0.006916,-0.017565,-0.004803,-0.529278,0.045397,1.622642,-258.364215,-1.582044,68.047144
2.397,-0.028342,-0.019807,0.043971,0.000159,0.006917,-0.017568,-0.005162,-0.52935,0.045039,1.622642,-258.364215,-1.582044,68.047144
2.4169,-0.027889,-0.019468,0.042644,0.000156,0.006918,-0.017571,-0.005928,-0.529093,0.043409,1.613094,-258.365732,-1.579939,68.040127
2.4364,-0.027742,-0.019831,0.042881,0.000202,0.006902,-0.017581,-0.006124,-0.529001,0.042692,1.613094,-258.365732,-1.579939,68.040127
2.4568,-0.027798,-0.019514,0.043472,0.00024,0.006888,-0.017589,-0.006124,-0.529001,0.042692,1.613094,-258.365732,-1.579939,68.040127
2.4769,-0.026981,-0.019568,0.042372,0.000272,0.006876,-0.017595,-0.00564,-0.528743,0.042735,1.6118,-258.367259,-1.579661,68.033067
2.4971,-0.027087,-0.019016,0.041617,0.000273,0.006875,-0.017595,-0.005535,-0.528858,0.042504,1.6118,-258.367259,-1.579661,68.033067
2.5168,-0.027062,-0.018967,0.044179,0.000275,0.006875,-0.017595,-0.005869,-0.528358,0.041065,1.640881,-258.368788,-1.58621,68.026117
2.5369,-0.027098,-0.01869,0.040949,0.00024,0.006886,-0.01759,-0.004659,-0.528448,0.043867,1.640881,-258.368788,-1.58621,68.026117
2.5568,-0.027027,-0.018903,0.04207,0.000212,0.006895,-0.017586,-0.004659,-0.528448,0.043867,1.640881,-258.368788,-1.58621,68.026117
2.5768,-0.026374,-0.018431,0.039372,0.000188,0.006902,-0.017584,-0.005578,-0.528164,0.041333,1.641613,-258.370343,-1.586379,68.019057
2.5967,-0.026407,-0.018396,0.040543,0.000231,0.006888,-0.017593,-0.005876,-0.528078,0.04044,1.641613,-258.370343,-1.586379,68.019057
2.6164,-0.025856,-0.018365,0.039359,0.000266,0.006875,-0.017599,-0.005739,-0.527758,0.039986,1.619852,-258.371867,-1.581473,68.012059
2.6369,-0.026071,-0.018388,0.037912,0.000292,0.006865,-0.017604,-0.005784,-0.52794,0.039386,1.619852,-258.371867,-1.581473,68.012059
2.6566,-0.02605,-0.018078,0.039941,0.000314,0.006857,-0.017607,-0.005784,-0.52794,0.039386,1.619852,-258.371867,-1.581473,68.012059
2.6768,-0.025221,-0.017648,0.037939,0.000333,0.00685,-0.017609,-0.005686,-0.527386,0.039211,1.639313,-258.373411,-1.585879,68.00505
2.6965,-0.025594,-0.017628,0.039056,0.000358,0.006841,-0.017612,-0.005764,-0.527309,0.038604,1.639313,-258.373411,-1.585879,68.00505
2.7164,-0.025118,-0.01755,0.036585,0.000379,0.006832,-0.017614,-0.005678,-0.527022,0.038498,1.655869,-258.374971,-1.589707,67.998041
2.7366,-0.025132,-0.017178,0.037289,0.000428,0.006812,-0.017621,-0.006395,-0.527182,0.036726,1.655869,-258.374971,-1.589707,67.998041
2.7568,-0.02496,-0.017712,0.037546,0.000469,0.006795,-0.017624,-0.006395,-0.527182,0.036726,1.655869,-258.374971,-1.589707,67.998041
2.7767,-0.024843,-0.017286,0.036667,0.000503,0.006781,-0.017626,-0.005811,-0.527067,0.036811,1.667022,-258.376543,-1.592335,67.991026
2.7966,-0.024549,-0.016963,0.036484,0.000514,0.006776,-0.017625,-0.005946,-0.526984,0.036668,1.667022,-258.376543,-1.592335,67.991026
2.8165,-0.024511,-0.016635,0.035134,0.000523,0.006772,-0.017623,-0.005938,-0.52641,0.035931,1.69639,-258.378128,-1.599462,67.984099
2.8366,-0.024448,-0.01673,0.038173,0.000572,0.00675,-0.017628,-0.006539,-0.526317,0.035175,1.69639,-258.378128,-1.599462,67.984099
2.8569,-0.024552,-0.017133,0.036688,0.000613,0.006731,-0.017631,-0.006539,-0.526317,0.035175,1.69639,-258.378128,-1.599462,67.984099
2.8772,-0.02372,-0.01643,0.034221,0.000648,0.006715,-0.017632,-0.005834,-0.526506,0.03595,1.701093,-258.379736,-1.600615,67.977094
2.897,-0.023427,-0.016357,0.034199,0.00065,0.006714,-0.017628,-0.006009,-0.526322,0.035167,1.701093,-258.379736,-1.600615,67.977094
2.9163,-0.02333,-0.015915,0.032232,0.000652,0.006712,-0.017625,-0.005976,-0.525847,0.033644,1.729259,-258.381358,-1.607831,67.970179
2.9366,-0.023071,-0.016207,0.033927,0.000707,0.006686,-0.017631,-0.006816,-0.525656,0.032325,1.729259,-258.381358,-1.607831,67.970179
2.9569,-0.023096,-0.015984,0.034885,0.000752,0.006664,-0.017634,-0.006816,-0.525656,0.032325,1.729259,-258.381358,-1.607831,67.970179
2.9763,-0.022934,-0.015799,0.032343,0.00079,0.006645,-0.017635,-0.005291,-0.525393,0.034149,1.730455,-258.383,-1.608114,67.963182
2.9964,-0.022736,-0.015401,0.0335,0.000774,0.006651,-0.017628,-0.005764,-0.525418,0.033318,1.730455,-258.383,-1.608114,67.963182
3.0166,-0.023006,-0.015883,0.034023,0.000761,0.006657,-0.017622,-0.005654,-0.525115,0.0335,1.655456,-258.383,-1.616129,67.963182
3.0366,-0.022647,-0.015869,0.033337,0.000742,0.006665,-0.017564,-0.005657,-0.525547,0.033978,1.655456,-258.383,-1.616129,67.963182
3.0568,-0.023025,-0.01553,0.033579,0.000726,0.006672,-0.017517,-0.005657,-0.525547,0.033978,1.655456,-258.383,-1.616129,67.963182
3.0766,-0.022593,-0.015496,0.033161,0.000712,0.006678,-0.017479,-0.005902,-0.525242,0.033579,1.580454,-258.383,-1.614467,67.963181
3.0967,-0.023032,-0.015632,0.03294,0.000715,0.006676,-0.017397,-0.005813,-0.525231,0.033408,1.580454,-258.383,-1.614467,67.963181
3.1165,-0.02259,-0.015668,0.033813,0.000717,0.006675,-0.017329,-0.006236,-0.525355,0.03294,1.505595,-258.382999,-1.611815,67.96318
3.1366,-0.022793,-0.01591,0.034453,0.000694,0.006685,-0.017217,-0.005424,-0.525375,0.033739,1.505595,-258.382999,-1.611815,67.96318
3.1567,-0.022901,-0.016098,0.030072,0.000675,0.006693,-0.017125,-0.005424,-0.525375,0.033739,1.505595,-258.382999,-1.611815,67.96318
3.1767,-0.022766,-0.015559,0.03351,0.000659,0.006699,-0.017051,-0.007566,-0.525867,0.030072,1.430459,-258.382999,-1.612335,67.96318
3.1979,-0.022916,-0.016063,0.032941,0.000708,0.006677,-0.016947,-0.006793,-0.525624,0.03148,1.430459,-258.382999,-1.612335,67.96318
3.2165,-0.022754,-0.015472,0.033723,0.000749,0.006658,-0.01686,-0.006119,-0.525786,0.032941,1.355487,-258.382999,-1.60928,67.963179
3.2367,-0.023102,-0.015635,0.033623,0.000732,0.006664,-0.01672,-0.005607,-0.525235,0.033655,1.355487,-258.382999,-1.60928,67.963179
3.2568,-0.022823,-0.01576,0.034153,0.000718,0.00667,-0.016606,-0.005607,-0.525235,0.033655,1.355487,-258.382999,-1.60928,67.963179
3.277,-0.022915,-0.015375,0.032402,0.000706,0.006675,-0.016513,-0.005409,-0.525463,0.034153,1.280458,-258.382999,-1.614958,67.963178
3.2968,-0.02246,-0.015564,0.03258,0.000704,0.006675,-0.016368,-0.005813,-0.525317,0.033433,1.280458,-258.382999,-1.614958,67.963178
3.3167,-0.022507,-0.015791,0.032382,0.000703,0.006675,-0.01625,-0.005847,-0.525294,0.03258,1.205473,-258.382999,-1.612881,67.963178
3.3366,-0.022505,-0.015853,0.032914,0.000705,0.006673,-0.01607,-0.005982,-0.525503,0.0324,1.205473,-258.382999,-1.612881,67.963178
3.3568,-0.02289,-0.015589,0.033919,0.000706,0.006672,-0.015926,-0.005982,-0.525503,0.0324,1.205473,-258.382999,-1.612881,67.963178
3.3765,-0.022777,-0.016099,0.035031,0.000707,0.00667,-0.01581,-0.005595,-0.525296,0.033919,1.13049,-258.382999,-1.613107,67.963177
3.397,-0.022937,-0.015232,0.033393,0.000674,0.006682,-0.015615,-0.005314,-0.525498,0.034378,1.13049,-258.382999,-1.613107,67.963177
3.4164,-0.023041,-0.015957,0.031928,0.000645,0.006693,-0.015461,-0.005909,-0.524947,0.033393,1.055467,-258.382999,-1.614101,67.963176
3.4366,-0.022822,-0.015774,0.032922,0.000686,0.006673,-0.015242,-0.006684,-0.52563,0.032058,1.055467,-258.382999,-1.614101,67.963176
3.4569,-0.023002,-0.015636,0.03213,0.00072,0.006656,-0.015067,-0.006684,-0.52563,0.032058,1.055467,-258.382999,-1.614101,67.963176
3.4768,-0.022906,-0.015727,0.032877,0.000749,0.006641,-0.014928,-0.006618,-0.525373,0.03213,0.980581,-258.382998,-1.610763,67.963176
3.4965,-0.022709,-0.015465,0.03494,0.000765,0.006631,-0.014691,-0.006422,-0.525405,0.032438,0.980581,-258.382998,-1.610763,67.963176
3.5167,-0.022615,-0.015495,0.033087,0.000778,0.006623,-0.014505,-0.004893,-0.525154,0.03494,0.905413,-258.382998,-1.618266,67.963175
3.5367,-0.022776,-0.015372,0.032784,0.000754,0.00663,-0.014353,-0.00567,-0.525211,0.033247,0.905413,-258.382998,-1.618266,67.963175
3.5569,-0.023026,-0.015566,0.034266,0.000734,0.006636,-0.014234,-0.00567,-0.525211,0.033247,0.905413,-258.382998,-1.618266,67.963175
3.5767,-0.023166,-0.015999,0.034607,0.000718,0.006641,-0.01414,-0.005554,-0.525266,0.034266,0.830494,-258.382998,-1.620992,67.963174
3.5967,-0.022942,-0.015609,0.034298,0.000693,0.00665,-0.014065,-0.00554,-0.52544,0.034405,0.830494,-258.382998,-1.620992,67.963174
3.617,-0.022833,-0.015436,0.033469,0.000672,0.006657,-0.014006,-0.005453,-0.525309,0.034298,0.755588,-258.382998,-1.617752,67.963174
3.6369,-0.022765,-0.015712,0.034793,0.000671,0.006657,-0.013963,-0.005738,-0.525166,0.033546,0.755588,-258.382998,-1.617752,67.963174
3.6569,-0.023164,-0.015756,0.034246,0.000669,0.006656,-0.013929,-0.005738,-0.525166,0.033546,0.755588,-258.382998,-1.617752,67.963174
3.677,-0.022611,-0.015908,0.032005,0.000668,0.006655,-0.013902,-0.005702,-0.525457,0.034246,0.680591,-258.382998,-1.614972,67.963173
3.6966,-0.02295,-0.015787,0.034028,0.000669,0.006654,-0.013881,-0.005941,-0.525534,0.033336,0.680591,-258.382998,-1.614972,67.963173
3.7165,-0.022936,-0.015628,0.032962,0.00067,0.006652,-0.013864,-0.005599,-0.525491,0.034028,0.605594,-258.382998,-1.614849,67.963173
3.7367,-0.023076,-0.015737,0.033952,0.000682,0.006646,-0.013852,-0.00608,-0.525364,0.033059,0.605594,-258.382998,-1.614849,67.963173
3.7566,-0.023006,-0.01546,0.034822,0.000691,0.00664,-0.013842,-0.00608,-0.525364,0.033059,0.605594,-258.382998,-1.614849,67.963173
3.7767,-0.022494,-0.015795,0.033521,0.000699,0.006636,-0.013834,-0.005251,-0.525151,0.034822,0.530588,-258.382998,-1.615088,67.963172
3.7965,-0.022686,-0.015545,0.033619,0.000667,0.006648,-0.013821,-0.005311,-0.525294,0.0343,0.530588,-258.382998,-1.615088,67.963172
3.8167,-0.022584,-0.015623,0.032877,0.00064,0.006658,-0.013812,-0.005544,-0.525256,0.033619,0.455589,-258.382998,-1.617108,67.963171
3.8367,-0.022525,-0.01595,0.033004,0.000642,0.006657,-0.013809,-0.005795,-0.525339,0.032944,0.455589,-258.382998,-1.617108,67.963171
3.8567,-0.022789,-0.015781,0.031984,0.000643,0.006656,-0.013807,-0.005795,-0.525339,0.032944,0.455589,-258.382998,-1.617108,67.963171
3.8766,-0.022865,-0.015417,0.031839,0.000645,0.006655,-0.013805,-0.00648,-0.52552,0.031984,0.380482,-258.382998,-1.613181,67.963171
3.8969,-0.022895,-0.015383,0.033322,0.000682,0.006638,-0.013809,-0.00654,-0.525374,0.031925,0.380482,-258.382998,-1.613181,67.963171
3.9167,-0.022647,-0.01571,0.03327,0.000714,0.006623,-0.013811,-0.005904,-0.5251,0.033322,0.305574,-258.382998,-1.613494,67.96317
3.9367,-0.022673,-0.015828,0.033003,0.000697,0.006629,-0.013805,-0.005703,-0.525398,0.033274,0.305574,-258.382998,-1.613494,67.96317
3.9569,-0.02293,-0.015924,0.034785,0.000684,0.006635,-0.013801,-0.005703,-0.525398,0.033274,0.305574,-258.382998,-1.613494,67.96317
3.9765,-0.022511,-0.01557,0.032846,0.000672,0.006639,-0.013797,-0.005193,-0.525615,0.034785,0.230589,-258.382998,-1.618154,67.96317
3.9973,-0.023089,-0.015629,0.033465,0.000646,0.00665,-0.013792,-0.005423,-0.525486,0.034004,0.230589,-258.382998,-1.618154,67.96317
4.017,-0.023253,-0.015638,0.032581,0.000625,0.006659,-0.013789,-0.006024,-0.525343,0.033465,0.155566,-258.382998,-1.615384,67.963169
4.0375,-0.022769,-0.015887,0.032426,0.000669,0.006639,-0.013798,-0.006584,-0.525365,0.032661,0.155566,-258.382998,-1.615384,67.963169
4.057,-0.022835,-0.015464,0.032591,0.000706,0.006622,-0.013803,-0.006584,-0.525365,0.032661,0.155566,-258.382998,-1.615384,67.963169
4.0769,-0.022926,-0.015524,0.032679,0.000736,0.006608,-0.013806,-0.006216,-0.525194,0.032591,0.080562,-258.382997,-1.61221,67.963168
4.0968,-0.023088,-0.015531,0.035334,0.000747,0.006602,-0.013805,-0.006235,-0.525217,0.032627,0.080562,-258.382997,-1.61221,67.963168
4.117,-0.022706,-0.015576,0.033552,0.000757,0.006598,-0.013805,-0.005071,-0.525212,0.035334,0.005572,-258.382997,-1.619707,67.963168
4.1366,-0.022879,-0.015251,0.035304,0.000728,0.00661,-0.013798,-0.005551,-0.525282,0.03371,0.005572,-258.382997,-1.619707,67.963168
4.157,-0.022436,-0.015504,0.03285,0.000704,0.00662,-0.013793,-0.005551,-0.525282,0.03371,0.005572,-258.382997,-1.619707,67.963168
4.1771,-0.02307,-0.015906,0.033763,0.000684,0.006629,-0.01379,-0.005685,-0.525229,0.03285,-0.069443,-258.382997,-1.621115,67.963167
4.1971,-0.022805,-0.015619,0.034704,0.000676,0.006633,-0.013789,-0.005754,-0.525386,0.033222,-0.069443,-258.382997,-1.621115,67.963167
4.2165,-0.022896,-0.015821,0.03343,0.000669,0.006636,-0.013789,-0.00511,-0.525312,0.034704,-0.144426,-258.382997,-1.616214,67.963167
4.237,-0.02278,-0.015854,0.032245,0.000662,0.00664,-0.013788,-0.005784,-0.525516,0.033543,-0.144426,-258.382997,-1.616214,67.963167
4.2568,-0.022984,-0.015407,0.034384,0.000656,0.006643,-0.013788,-0.005784,-0.525516,0.033543,-0.144426,-258.382997,-1.616214,67.963167
4.2771,-0.022857,-0.016047,0.034804,0.000652,0.006645,-0.013788,-0.005452,-0.525106,0.034384,-0.219443,-258.382997,-1.615178,67.963166
4.2965,-0.022844,-0.015409,0.032952,0.000626,0.006656,-0.013785,-0.005312,-0.525364,0.034556,-0.219443,-258.382997,-1.615178,67.963166
4.3165,-0.022732,-0.015346,0.031624,0.000605,0.006665,-0.013784,-0.006041,-0.525132,0.032952,-0.294429,-258.382997,-1.614028,67.963165
4.3368,-0.022661,-0.015324,0.034107,0.000656,0.006642,-0.013795,-0.006556,-0.525095,0.031743,-0.294429,-258.382997,-1.614028,67.963165
4.3569,-0.022688,-0.015895,0.033245,0.000699,0.006622,-0.013802,-0.006556,-0.525095,0.031743,-0.294429,-258.382997,-1.614028,67.963165
4.3768,-0.022496,-0.015779,0.0331,0.000735,0.006605,-0.013806,-0.005736,-0.525613,0.033245,-0.369431,-258.382997,-1.61089,67.963165
4.397,-0.022746,-0.015368,0.033516,0.00071,0.006616,-0.013799,-0.005688,-0.525567,0.033186,-0.369431,-258.382997,-1.61089,67.963165
4.4163,-0.023052,-0.015316,0.034642,0.00069,0.006625,-0.013794,-0.005656,-0.525082,0.033516,-0.444422,-258.382997,-1.619623,67.963164
4.4367,-0.022597,-0.015592,0.033876,0.000671,0.006633,-0.013791,-0.005413,-0.525017,0.034538,-0.444422,-258.382997,-1.619623,67.963164
4.4568,-0.022723,-0.015742,0.033426,0.000655,0.00664,-0.01379,-0.005413,-0.525017,0.034538,-0.444422,-258.382997,-1.619623,67.963164
4.4763,-0.022434,-0.015764,0.0331,0.000642,0.006646,-0.013789,-0.005679,-0.525457,0.033426,-0.519413,-258.382997,-1.616622,67.963163
4.4967,-0.02292,-0.015661,0.034169,0.000632,0.006651,-0.013788,-0.005629,-0.525469,0.033292,-0.519413,-258.382997,-1.616622,67.963163
4.5168,-0.022597,-0.015516,0.033662,0.000624,0.006655,-0.013787,-0.005498,-0.525364,0.034169,-0.594404,-258.382997,-1.613386,67.963162
4.5367,-0.023199,-0.015489,0.032405,0.000612,0.006661,-0.013787,-0.005439,-0.525239,0.033707,-0.594404,-258.382997,-1.613386,67.963162
4.5571,-0.022494,-0.015737,0.031803,0.000602,0.006665,-0.013787,-0.005439,-0.525239,0.033707,-0.594404,-258.382997,-1.613386,67.963162
4.5766,-0.022604,-0.015748,0.032963,0.000593,0.006669,-0.013787,-0.006277,-0.525479,0.031803,-0.669406,-258.382996,-1.612155,67.963156
4.5964,-0.022827,-0.01586,0.03342,0.000614,0.006661,-0.013792,-0.00608,-0.525475,0.032277,-0.669406,-258.382996,-1.612155,67.963156
4.6162,-0.022601,-0.015765,0.033424,0.000631,0.006654,-0.013795,-0.005786,-0.525574,0.033419,-0.744428,-258.382993,-1.61008,67.963133
4.6364,-0.022878,-0.015844,0.032602,0.00062,0.006659,-0.013792,-0.005578,-0.525488,0.033424,-0.744428,-258.382993,-1.61008,67.963133
4.6563,-0.022813,-0.015473,0.03218,0.00061,0.006663,-0.013791,-0.005578,-0.525488,0.033424,-0.744428,-258.382993,-1.61008,67.963133
4.6764,-0.022592,-0.016054,0.034367,0.000602,0.006667,-0.01379,-0.006403,-0.525203,0.032168,-0.819431,-258.382978,-1.612623,67.963011
4.6966,-0.022922,-0.015853,0.034115,0.000611,0.006664,-0.013792,-0.005857,-0.525427,0.033067,-0.819431,-258.382978,-1.612623,67.963011
4.7169,-0.022685,-0.015665,0.033356,0.000619,0.00666,-0.013794,-0.005525,-0.525545,0.034092,-0.894405,-258.382938,-1.610686,67.962685
4.7366,-0.022628,-0.015799,0.034494,0.000616,0.006662,-0.013793,-0.005663,-0.525396,0.033422,-0.894405,-258.382938,-1.610686,67.962685
4.7568,-0.022573,-0.015525,0.033524,0.000614,0.006663,-0.013793,-0.005663,-0.525396,0.033422,-0.894405,-258.382938,-1.610686,67.962685
4.7769,-0.022358,-0.015514,0.03272,0.000612,0.006664,-0.013793,-0.005475,-0.525195,0.033437,-0.969428,-258.382823,-1.611817,67.961758
4.7966,-0.022612,-0.015481,0.033905,0.000608,0.006665,-0.013793,-0.005556,-0.525209,0.033134,-0.969428,-258.382823,-1.611817,67.961758
4.8164,-0.022707,-0.015871,0.034117,0.000605,0.006667,-0.013793,-0.005318,-0.52512,0.033768,-1.044407,-258.382588,-1.61131,67.959854
4.8365,-0.022458,-0.015846,0.033282,0.000583,0.006676,-0.013789,-0.005311,-0.52553,0.034078,-1.044407,-258.382588,-1.61131,67.959854
4.8565,-0.022344,-0.015323,0.032933,0.000564,0.006683,-0.013787,-0.005311,-0.52553,0.034078,-1.044407,-258.382588,-1.61131,67.959854
4.8765,-0.02229,-0.015333,0.032643,0.000549,0.00669,-0.013786,-0.00554,-0.524893,0.032622,-1.119409,-258.382185,-1.610836,67.95658
4.8971,-0.022508,-0.015251,0.032113,0.000562,0.006684,-0.013889,-0.005581,-0.524944,0.032595,-1.119409,-258.382185,-1.610836,67.95658
4.9164,-0.022316,-0.014704,0.033849,0.000573,0.00668,-0.01397,-0.006124,-0.524835,0.031799,-1.194423,-258.381665,-1.607133,67.952244
4.9366,-0.02202,-0.015309,0.031697,0.000571,0.00668,-0.014091,-0.005152,-0.524442,0.033648,-1.194423,-258.381665,-1.607133,67.952244
4.9568,-0.021917,-0.015344,0.032813,0.00057,0.00668,-0.014187,-0.005152,-0.524442,0.033648,-1.194423,-258.381665,-1.607133,67.952244
4.9769,-0.021824,-0.014793,0.030459,0.000569,0.006681,-0.014264,-0.005172,-0.524814,0.03228,-1.26941,-258.380957,-1.608453,67.94669
4.9976,-0.021722,-0.014939,0.032189,0.000589,0.006673,-0.014399,-0.00563,-0.524679,0.031471,-1.26941,-258.380957,-1.608453,67.94669
5.0168,-0.02143,-0.014766,0.030472,0.000605,0.006666,-0.014506,-0.005297,-0.524461,0.031736,-1.297758,-258.380126,-1.607734,67.940616
5.0367,-0.021354,-0.014369,0.031199,0.000634,0.006653,-0.014664,-0.005836,-0.524512,0.030566,-1.297758,-258.380126,-1.607734,67.940616
5.0569,-0.021246,-0.014364,0.03062,0.000659,0.006643,-0.014791,-0.005836,-0.524512,0.030566,-1.297758,-258.380126,-1.607734,67.940616
5.0764,-0.021161,-0.013969,0.02938,0.00068,0.006634,-0.014893,-0.005616,-0.523845,0.030013,-1.301577,-258.379215,-1.609759,67.934397
5.0968,-0.021158,-0.014021,0.030309,0.000716,0.006616,-0.015043,-0.005846,-0.523774,0.029682,-1.301577,-258.379215,-1.609759,67.934397
5.1168,-0.0206,-0.013999,0.029306,0.000747,0.006602,-0.015163,-0.005688,-0.523574,0.029834,-1.301471,-258.378194,-1.613976,67.928107
5.1369,-0.020937,-0.013772,0.027504,0.000763,0.006594,-0.015313,-0.005658,-0.52375,0.02933,-1.301471,-258.378194,-1.613976,67.928107
5.1568,-0.02046,-0.013671,0.029366,0.000776,0.006588,-0.015436,-0.005658,-0.52375,0.02933,-1.301471,-258.378194,-1.613976,67.928107
5.1765,-0.020036,-0.013391,0.028718,0.000788,0.006583,-0.015536,-0.005462,-0.523174,0.028731,-1.297009,-258.37709,-1.617836,67.921759
5.1965,-0.020438,-0.01319,0.029388,0.0008,0.006577,-0.015667,-0.005431,-0.523145,0.028653,-1.297009,-258.37709,-1.617836,67.921759
5.2166,-0.020014,-0.012883,0.028999,0.000811,0.006572,-0.015775,-0.005433,-0.522761,0.028895,-1.305992,-258.375888,-1.619771,67.915331
5.2369,-0.019825,-0.013225,0.026366,0.000823,0.006565,-0.015911,-0.005244,-0.522666,0.028964,-1.305992,-258.375888,-1.619771,67.915331
5.2569,-0.019722,-0.012771,0.028748,0.000833,0.00656,-0.016021,-0.005244,-0.522666,0.028964,-1.305992,-258.375888,-1.619771,67.915331
5.2768,-0.019541,-0.012587,0.027712,0.000842,0.006556,-0.016112,-0.005037,-0.522285,0.028088,-1.31193,-258.37462,-1.620799,67.908835
5.2968,-0.019612,-0.01258,0.026238,0.000856,0.006548,-0.01623,-0.005187,-0.522297,0.027857,-1.31193,-258.37462,-1.620799,67.908835
5.3166,-0.018989,-0.011841,0.02554,0.000868,0.006542,-0.016326,-0.006211,-0.522196,0.025727,-1.319848,-258.373264,-1.6221,67.902273
5.3365,-0.018963,-0.01237,0.0271,0.000947,0.006499,-0.016454,-0.005985,-0.521708,0.025531,-1.319848,-258.373264,-1.6221,67.902273
5.3568,-0.019094,-0.01237,0.025113,0.001012,0.006462,-0.016556,-0.005985,-0.521708,0.025531,-1.319848,-258.373264,-1.6221,67.902273
5.3765,-0.01872,-0.011847,0.024803,0.001066,0.006432,-0.016637,-0.006258,-0.521935,0.02443,-1.322726,-258.371852,-1.623338,67.895668
5.397,-0.018122,-0.011594,0.0251,0.001119,0.006403,-0.016731,-0.006179,-0.521804,0.024503,-1.322726,-258.371852,-1.623338,67.895668
5.4166,-0.018098,-0.011841,0.024465,0.001163,0.006378,-0.016806,-0.005294,-0.521231,0.024577,-1.292407,-258.370327,-1.634938,67.88913
5.4376,-0.018348,-0.011672,0.026011,0.00117,0.006375,-0.016882,-0.005591,-0.521638,0.024449,-1.292407,-258.370327,-1.634938,67.88913
5.4566,-0.017998,-0.011534,0.024229,0.001176,0.006372,-0.016944,-0.005591,-0.521638,0.024449,-1.292407,-258.370327,-1.634938,67.88913
5.4763,-0.017368,-0.011156,0.023953,0.001181,0.00637,-0.016994,-0.0056,-0.521116,0.023525,-1.279925,-258.368709,-1.640589,67.882477
5.4964,-0.017949,-0.011279,0.023395,0.001194,0.006362,-0.017051,-0.005415,-0.521043,0.023618,-1.279925,-258.368709,-1.640589,67.882477
5.5166,-0.01727,-0.010909,0.021872,0.001205,0.006355,-0.017097,-0.005986,-0.520936,0.022854,-1.284262,-258.367038,-1.641203,67.875763
5.5368,-0.016704,-0.011349,0.022252,0.001266,0.006317,-0.017153,-0.006101,-0.520791,0.021941,-1.284262,-258.367038,-1.641203,67.875763
5.557,-0.016923,-0.011127,0.023754,0.001317,0.006285,-0.017197,-0.006101,-0.520791,0.021941,-1.284262,-258.367038,-1.641203,67.875763
5.5766,-0.016722,-0.010781,0.021272,0.00136,0.006258,-0.017231,-0.004765,-0.520716,0.023039,-1.284052,-258.365334,-1.642418,67.869027
5.5966,-0.016652,-0.010661,0.021397,0.001341,0.006268,-0.017256,-0.005211,-0.520665,0.022238,-1.284052,-258.365334,-1.642418,67.869027
5.6166,-0.016121,-0.010429,0.020547,0.001326,0.006276,-0.017277,-0.005702,-0.520346,0.020853,-1.26224,-258.363559,-1.651635,67.862352
5.6364,-0.015948,-0.01032,0.020462,0.001356,0.006257,-0.017309,-0.005646,-0.520313,0.020546,-1.26224,-258.363559,-1.651635,67.862352
5.6569,-0.015797,-0.010511,0.020451,0.00138,0.006241,-0.017334,-0.005646,-0.520313,0.020546,-1.26224,-258.363559,-1.651635,67.862352
5.6764,-0.015719,-0.009806,0.020144,0.001401,0.006228,-0.017353,-0.005317,-0.52014,0.019727,-1.27009,-258.36177,-1.649423,67.855608
5.6964,-0.015285,-0.010165,0.019966,0.00141,0.006221,-0.017373,-0.005364,-0.519932,0.019814,-1.27009,-258.36177,-1.649423,67.855608
5.7166,-0.015149,-0.009877,0.020083,0.001417,0.006214,-0.017389,-0.005062,-0.519864,0.019415,-1.260597,-258.359938,-1.653861,67.848866
5.7367,-0.014702,-0.009812,0.019478,0.001397,0.006224,-0.017403,-0.004919,-0.519772,0.019991,-1.260597,-258.359938,-1.653861,67.848866
5.7565,-0.015264,-0.009724,0.019738,0.00138,0.006232,-0.017415,-0.004919,-0.519772,0.019991,-1.260597,-258.359938,-1.653861,67.848866
5.777,-0.014534,-0.009405,0.018438,0.001366,0.006239,-0.017426,-0.005145,-0.519364,0.01901,-1.259539,-258.358087,-1.65479,67.842108
5.7968,-0.014378,-0.009227,0.018231,0.00139,0.006221,-0.017441,-0.005133,-0.519315,0.018692,-1.259539,-258.358087,-1.65479,67.842108
5.8163,-0.013698,-0.009183,0.017546,0.00141,0.006206,-0.017453,-0.00504,-0.518943,0.017678,-1.269995,-258.356246,-1.651556,67.835347
5.8366,-0.013883,-0.008841,0.017279,0.001409,0.006205,-0.017452,-0.004775,-0.51908,0.017529,-1.269995,-258.356246,-1.651556,67.835347
5.8564,-0.013987,-0.009033,0.017423,0.001408,0.006204,-0.017452,-0.004775,-0.51908,0.017529,-1.269995,-258.356246,-1.651556,67.835347
5.8762,-0.013587,-0.008791,0.016609,0.001407,0.006203,-0.017451,-0.005047,-0.518695,0.016693,-1.264102,-258.354378,-1.654219,67.828581
5.8965,-0.01382,-0.008763,0.017162,0.001449,0.006174,-0.017447,-0.00507,-0.518675,0.016574,-1.264102,-258.354378,-1.654219,67.828581
5.9164,-0.013178,-0.00855,0.016284,0.001483,0.00615,-0.017442,-0.005027,-0.51849,0.016606,-1.264951,-258.352509,-1.654046,67.821813
5.9367,-0.013144,-0.008572,0.01593,0.001506,0.006132,-0.017434,-0.004885,-0.518473,0.016285,-1.264951,-258.352509,-1.654046,67.821813
5.9568,-0.013033,-0.008546,0.015261,0.001525,0.006118,-0.017427,-0.004885,-0.518473,0.016285,-1.264951,-258.352509,-1.654046,67.821813
5.9767,-0.012339,-0.008061,0.014618,0.001541,0.006105,-0.01742,-0.005192,-0.518229,0.014532,-1.252612,-258.350618,-1.658833,67.815085
5.9968,-0.012115,-0.008262,0.013496,0.001586,0.006079,-0.017348,-0.00506,-0.518109,0.014483,-1.252612,-258.350618,-1.658833,67.815085
6.0163,-0.011943,-0.008038,0.01312,0.001622,0.006057,-0.017292,-0.005186,-0.518021,0.012943,-1.243242,-258.348706,-1.662552,67.80837
6.0365,-0.011949,-0.007877,0.013844,0.001674,0.006035,-0.017141,-0.005244,-0.517986,0.013076,-1.243242,-258.348706,-1.662552,67.80837
6.0565,-0.011753,-0.007661,0.017334,0.001716,0.006015,-0.017026,-0.005244,-0.517986,0.013076,-1.243242,-258.348706,-1.662552,67.80837
6.0765,-0.011578,-0.007693,0.014257,0.00175,0.005996,-0.016938,-0.00285,-0.517332,0.016615,-1.225015,-258.346802,-1.668116,67.801729
6.0966,-0.01174,-0.007241,0.01341,0.001627,0.006035,-0.017002,-0.003436,-0.517428,0.015571,-1.225015,-258.346802,-1.668116,67.801729
6.1164,-0.010948,-0.007289,0.012266,0.001527,0.006066,-0.017056,-0.004849,-0.517008,0.012883,-1.188197,-258.34497,-1.677475,67.795306
6.1366,-0.011086,-0.006978,0.012773,0.001592,0.006032,-0.01689,-0.004704,-0.51722,0.012294,-1.188197,-258.34497,-1.677475,67.795306
6.1565,-0.010908,-0.0075,0.012157,0.001644,0.006003,-0.016764,-0.004704,-0.51722,0.012294,-1.188197,-258.34497,-1.677475,67.795306
6.1768,-0.010273,-0.0072,0.012503,0.001686,0.005978,-0.016668,-0.004649,-0.517217,0.011468,-1.233236,-258.34319,-1.663195,67.788917
6.1964,-0.010096,-0.00703,0.011139,0.001689,0.005981,-0.016531,-0.004338,-0.517165,0.011806,-1.233236,-258.34319,-1.663195,67.788917
6.2164,-0.010193,-0.006669,0.010343,0.001691,0.005981,-0.016431,-0.004365,-0.516813,0.010625,-1.189134,-258.341438,-1.674782,67.782632
6.2366,-0.009831,-0.006501,0.01041,0.001771,0.00593,-0.016151,-0.004866,-0.516648,0.010342,-1.189134,-258.341438,-1.674782,67.782632
6.2568,-0.009945,-0.00683,0.009895,0.001836,0.005884,-0.015947,-0.004866,-0.516648,0.010342,-1.189134,-258.341438,-1.674782,67.782632
6.2763,-0.00973,-0.006024,0.009391,0.001889,0.005845,-0.0158,-0.00483,-0.516554,0.009209,-1.175703,-258.339669,-1.675957,67.776143
6.2966,-0.009621,-0.006216,0.011004,0.001954,0.005797,-0.015486,-0.00487,-0.516286,0.009207,-1.175703,-258.339669,-1.675957,67.776143
6.3165,-0.009178,-0.005972,0.009155,0.002006,0.005755,-0.015263,-0.003956,-0.516014,0.010545,-1.109978,-258.338099,-1.692128,67.770375
6.3365,-0.009194,-0.005898,0.009843,0.002029,0.005713,-0.015109,-0.004463,-0.515948,0.009243,-1.109978,-258.338099,-1.692128,67.770375
6.3563,-0.008867,-0.006042,0.007939,0.002047,0.005676,-0.015,-0.004463,-0.515948,0.009243,-1.109978,-258.338099,-1.692128,67.770375
6.3767,-0.008654,-0.005701,0.008853,0.002061,0.005645,-0.014924,-0.004741,-0.515796,0.007331,-1.058619,-258.336539,-1.703053,67.764578
6.3968,-0.008636,-0.005843,0.006333,0.00209,0.005616,-0.014574,-0.004485,-0.515722,0.007884,-1.058619,-258.336539,-1.703053,67.764578
6.4163,-0.007985,-0.005249,0.008072,0.002112,0.005588,-0.014329,-0.005341,-0.515653,0.005857,-1.034783,-258.33494,-1.709566,67.758675
6.4366,-0.008244,-0.005735,0.007472,0.002102,0.005547,-0.014148,-0.004,-0.515262,0.007845,-1.034783,-258.33494,-1.709566,67.758675
6.4564,-0.008399,-0.005756,0.007872,0.002092,0.00551,-0.014024,-0.004,-0.515262,0.007845,-1.034783,-258.33494,-1.709566,67.758675
6.4767,-0.00771,-0.005092,0.006388,0.002084,0.005478,-0.01394,-0.004302,-0.515516,0.007298,-0.981977,-258.333487,-1.717043,67.753136
6.497,-0.007477,-0.004947,0.007845,0.002117,0.005449,-0.013635,-0.004353,-0.515313,0.006861,-0.981977,-258.333487,-1.717043,67.753136
6.5163,-0.006994,-0.005003,0.006361,0.002144,0.005422,-0.013425,-0.003411,-0.514756,0.007399,-0.969183,-258.332011,-1.718668,67.747466
6.5368,-0.007059,-0.004983,0.006022,0.002109,0.005406,-0.013154,-0.00372,-0.514966,0.006424,-0.969183,-258.332011,-1.718668,67.747466
6.5567,-0.006922,-0.004879,0.006779,0.00208,0.005388,-0.012968,-0.00372,-0.514966,0.006424,-0.969183,-258.332011,-1.718668,67.747466
6.5764,-0.006677,-0.004388,0.006723,0.002057,0.00537,-0.012844,-0.003381,-0.514652,0.006247,-0.91354,-258.330683,-1.726888,67.742247
6.5969,-0.006926,-0.003913,0.005623,0.002004,0.005321,-0.012746,-0.003318,-0.514516,0.006378,-0.91354,-258.330683,-1.726888,67.742247
6.6168,-0.006918,-0.004675,0.006097,0.001962,0.005279,-0.01268,-0.003995,-0.513737,0.005221,-0.87719,-258.329423,-1.725225,67.73701
6.6366,-0.006285,-0.004324,0.004914,0.001997,0.005224,-0.012531,-0.003822,-0.514574,0.005998,-0.87719,-258.329423,-1.725225,67.73701
6.6567,-0.006602,-0.004614,0.004774,0.002025,0.005177,-0.012429,-0.003822,-0.514574,0.005998,-0.87719,-258.329423,-1.725225,67.73701
6.6768,-0.006146,-0.004494,0.002959,0.002047,0.005138,-0.012358,-0.004087,-0.514389,0.004247,-0.898723,-258.328172,-1.720313,67.731783
6.6966,-0.005701,-0.003974,0.004978,0.002131,0.005089,-0.011512,-0.004303,-0.514406,0.003659,-0.898723,-258.328172,-1.720313,67.731783
6.7167,-0.00522,-0.004079,0.003968,0.002197,0.005041,-0.010929,-0.003099,-0.513807,0.004592,-0.866548,-258.326931,-1.730777,67.726736
6.7366,-0.005406,-0.004068,0.004356,0.002115,0.005008,-0.010654,-0.003185,-0.514042,0.004004,-0.866548,-258.326931,-1.730777,67.726736
6.7566,-0.005312,-0.003854,0.003895,0.002051,0.004977,-0.010471,-0.003185,-0.514042,0.004004,-0.866548,-258.326931,-1.730777,67.726736
6.7766,-0.005566,-0.003759,0.004567,0.002,0.004948,-0.010353,-0.003326,-0.51385,0.003895,-0.791535,-258.326931,-1.655764,67.726736
6.7965,-0.005955,-0.004241,0.004433,0.001989,0.004876,-0.010331,-0.00329,-0.513811,0.004167,-0.791535,-258.326931,-1.655764,67.726736
6.8165,-0.005894,-0.003538,0.002075,0.001981,0.004819,-0.010316,-0.003694,-0.514236,0.004433,-0.716564,-258.32693,-1.580793,67.726736
6.8366,-0.005905,-0.004084,0.00431,0.002155,0.004687,-0.009528,-0.004733,-0.513601,0.002289,-0.716564,-258.32693,-1.580793,67.726736
6.8565,-0.005446,-0.004076,0.004652,0.002296,0.004575,-0.008976,-0.004733,-0.513601,0.002289,-0.716564,-258.32693,-1.580793,67.726736
6.8768,-0.0055,-0.003879,0.003039,0.00241,0.004481,-0.008592,-0.003074,-0.51407,0.004652,-0.642396,-258.32693,-1.505785,67.726737
6.8966,-0.005451,-0.004016,0.004178,0.002323,0.004512,-0.008993,-0.00343,-0.513991,0.003996,-0.642396,-258.32693,-1.505785,67.726737
6.9166,-0.0053,-0.003731,0.004363,0.002256,0.004539,-0.009275,-0.00332,-0.514012,0.004178,-0.567418,-258.32693,-1.430807,67.726737
6.9366,-0.005697,-0.003593,0.003497,0.002163,0.004541,-0.009575,-0.003097,-0.513752,0.004346,-0.567418,-258.32693,-1.430807,67.726737
6.9564,-0.005451,-0.003833,0.002748,0.00209,0.004545,-0.009781,-0.003097,-0.513752,0.004346,-0.567418,-258.32693,-1.430807,67.726737
6.9768,-0.005365,-0.003708,0.005906,0.002034,0.004549,-0.009921,-0.00405,-0.513831,0.002748,-0.492398,-258.32693,-1.355787,67.726737
6.9973,-0.005827,-0.00367,0.002666,0.002033,0.004548,-0.009901,-0.003361,-0.513777,0.00403,-0.492398,-258.32693,-1.355787,67.726737
7.0164,-0.005322,-0.003759,0.004222,0.002032,0.004548,-0.009879,-0.004467,-0.513668,0.002666,-0.567426,-258.32693,-1.280759,67.726737
7.037,-0.00578,-0.004053,0.003176,0.002027,0.004546,-0.009861,-0.003287,-0.513746,0.00408,-0.567426,-258.32693,-1.280759,67.726737
7.0572,-0.005424,-0.004239,0.003976,0.002024,0.004544,-0.009839,-0.003287,-0.513746,0.00408,-0.567426,-258.32693,-1.280759,67.726737
7.0767,-0.005212,-0.004187,0.004227,0.002021,0.004544,-0.009816,-0.003396,-0.514235,0.003976,-0.631604,-258.32693,-1.205785,67.726738
7.0967,-0.005422,-0.003741,0.002335,0.001987,0.004617,-0.009765,-0.003257,-0.514214,0.004079,-0.631604,-258.32693,-1.205785,67.726738
7.117,-0.005101,-0.003849,0.003744,0.00196,0.004676,-0.009723,-0.004232,-0.513739,0.002335,-0.622779,-258.32693,-1.130644,67.726738
7.1367,-0.005593,-0.003597,0.004319,0.001962,0.004675,-0.009531,-0.003284,-0.513836,0.003618,-0.622779,-258.32693,-1.130644,67.726738
7.1569,-0.005362,-0.004268,0.002514,0.001964,0.004674,-0.009389,-0.003284,-0.513836,0.003618,-0.622779,-258.32693,-1.130644,67.726738
7.1764,-0.005502,-0.00403,0.001661,0.001965,0.004673,-0.009283,-0.00408,-0.514266,0.002514,-0.57243,-258.32693,-1.055759,67.726739
7.1965,-0.005313,-0.003967,0.004482,0.00207,0.004685,-0.008626,-0.004317,-0.514169,0.002162,-0.57243,-258.32693,-1.055759,67.726739
7.2166,-0.005146,-0.003855,0.004948,0.002154,0.004689,-0.008165,-0.003027,-0.513962,0.004482,-0.497302,-258.32693,-0.980631,67.726739
7.2369,-0.005555,-0.004418,0.003809,0.001994,0.004697,-0.008725,-0.002659,-0.513859,0.004905,-0.497302,-258.32693,-0.980631,67.726739
7.2569,-0.005588,-0.00388,0.004669,0.001871,0.004709,-0.009118,-0.002659,-0.513859,0.004905,-0.497302,-258.32693,-0.980631,67.726739
7.2772,-0.005769,-0.003704,0.003581,0.001775,0.004723,-0.009388,-0.003207,-0.513874,0.004669,-0.422441,-258.32693,-0.90577,67.726739
7.2969,-0.005481,-0.00363,0.003255,0.001843,0.004687,-0.009398,-0.003507,-0.513804,0.004226,-0.422441,-258.32693,-0.90577,67.726739
7.3165,-0.005246,-0.003911,0.005252,0.001897,0.00466,-0.009396,-0.00382,-0.513627,0.003255,-0.497448,-258.32693,-0.980777,67.726739
7.3368,-0.005416,-0.004046,0.005343,0.001794,0.00469,-0.009614,-0.002657,-0.513884,0.00511,-0.497448,-258.32693,-0.980777,67.726739
7.3566,-0.005528,-0.004173,0.00261,0.001712,0.004717,-0.009762,-0.002657,-0.513884,0.00511,-0.497448,-258.32693,-0.980777,67.726739
7.3772,-0.005495,-0.003732,0.003789,0.001648,0.004741,-0.00986,-0.004197,-0.514172,0.00261,-0.51698,-258.32693,-0.905247,67.726739
7.3972,-0.005602,-0.004058,0.00358,0.001784,0.004728,-0.009314,-0.003939,-0.513991,0.003089,-0.51698,-258.32693,-0.905247,67.726739
7.4164,-0.005806,-0.003854,0.002456,0.001893,0.004713,-0.008937,-0.003777,-0.514054,0.00358,-0.591418,-258.32693,-0.979685,67.726739
7.4366,-0.005493,-0.003882,0.004003,0.002044,0.004656,-0.008481,-0.004487,-0.513869,0.002552,-0.591418,-258.32693,-0.979685,67.726739
7.4564,-0.005746,-0.003811,0.003929,0.002166,0.004606,-0.008169,-0.004487,-0.513869,0.002552,-0.591418,-258.32693,-0.979685,67.726739
7.4765,-0.005726,-0.003806,0.003562,0.002266,0.004564,-0.007956,-0.003742,-0.513807,0.003929,-0.516249,-258.32693,-0.904516,67.726739
7.4964,-0.00547,-0.004048,0.004809,0.002274,0.00454,-0.008235,-0.003812,-0.513805,0.003775,-0.516249,-258.32693,-0.904516,67.726739
7.5163,-0.005694,-0.003654,0.003691,0.002282,0.004523,-0.008432,-0.003018,-0.514042,0.004809,-0.441062,-258.32693,-0.829328,67.726739
7.5367,-0.005439,-0.003979,0.001792,0.002286,0.004498,-0.008578,-0.00374,-0.513686,0.003793,-0.441062,-258.32693,-0.829328,67.726739
7.5567,-0.005491,-0.003982,0.002426,0.00229,0.004479,-0.008679,-0.00374,-0.513686,0.003793,-0.441062,-258.32693,-0.829328,67.726739
7.577,-0.005725,-0.00398,0.003106,0.002294,0.004465,-0.008748,-0.004254,-0.51398,0.002426,-0.366408,-258.326929,-0.754675,67.726739
7.5969,-0.006034,-0.003948,0.003517,0.002338,0.004487,-0.008411,-0.004208,-0.513979,0.002702,-0.366408,-258.326929,-0.754675,67.726739
7.6164,-0.005603,-0.004083,0.002684,0.002373,0.004501,-0.008179,-0.00424,-0.513945,0.003517,-0.36556,-258.326929,-0.679679,67.72674
7.6367,-0.005849,-0.003819,0.002492,0.002399,0.00452,-0.008039,-0.004235,-0.514069,0.002755,-0.36556,-258.326929,-0.679679,67.72674
7.657,-0.005351,-0.004257,0.004657,0.002421,0.004534,-0.007945,-0.004235,-0.514069,0.002755,-0.36556,-258.326929,-0.679679,67.72674
7.6769,-0.005608,-0.004054,0.003439,0.002439,0.004543,-0.007882,-0.002976,-0.514251,0.004657,-0.290416,-258.326929,-0.604535,67.72674
7.6966,-0.005388,-0.003663,0.004418,0.002325,0.004597,-0.008288,-0.003335,-0.514169,0.004159,-0.290416,-258.326929,-0.604535,67.72674
7.7167,-0.00553,-0.004001,0.003406,0.002237,0.004644,-0.008576,-0.003135,-0.513658,0.004418,-0.215552,-258.326929,-0.529671,67.72674
7.737,-0.005791,-0.004317,0.004849,0.002238,0.00464,-0.008584,-0.003733,-0.513967,0.003498,-0.215552,-258.326929,-0.529671,67.72674
7.7569,-0.005397,-0.004191,0.005149,0.002239,0.004638,-0.00859,-0.003733,-0.513967,0.003498,-0.215552,-258.326929,-0.529671,67.72674
7.7771,-0.005327,-0.003634,0.003803,0.002239,0.004636,-0.008593,-0.002771,-0.514184,0.005149,-0.259716,-258.326929,-0.454508,67.72674
7.797,-0.00537,-0.003734,0.004801,0.002128,0.004661,-0.008915,-0.003021,-0.51396,0.004603,-0.259716,-258.326929,-0.454508,67.72674
7.8165,-0.005524,-0.004122,0.004914,0.002041,0.004684,-0.00914,-0.002922,-0.513728,0.004801,-0.266573,-258.326929,-0.379675,67.726741
7.8367,-0.005836,-0.003649,0.004272,0.001962,0.004717,-0.009374,-0.00301,-0.514081,0.004903,-0.266573,-258.326929,-0.379675,67.726741
7.8567,-0.005499,-0.003448,0.00466,0.001901,0.004747,-0.009535,-0.00301,-0.514081,0.004903,-0.266573,-258.326929,-0.379675,67.726741
7.8769,-0.005435,-0.004015,0.004976,0.001852,0.004773,-0.009644,-0.003122,-0.513443,0.00466,-0.34169,-258.326929,-0.304557,67.726741
7.8974,-0.005879,-0.003968,0.003242,0.001838,0.004733,-0.009699,-0.003028,-0.513678,0.004792,-0.34169,-258.326929,-0.304557,67.726741
7.9165,-0.005667,-0.003679,0.004117,0.001826,0.004704,-0.009732,-0.004225,-0.513966,0.003242,-0.416853,-258.326929,-0.379719,67.726741
7.9367,-0.005526,-0.004175,0.003221,0.001907,0.004659,-0.00954,-0.003624,-0.5137,0.004041,-0.416853,-258.326929,-0.379719,67.726741
7.9566,-0.005284,-0.004084,0.002601,0.001972,0.004623,-0.009403,-0.003624,-0.5137,0.004041,-0.416853,-258.326929,-0.379719,67.726741
7.9764,-0.005407,-0.003716,0.003919,0.002023,0.004593,-0.009307,-0.003957,-0.514082,0.002601,-0.491682,-258.326929,-0.454548,67.726741
7.9967,-0.005313,-0.003952,0.003673,0.002066,0.004614,-0.008931,-0.003735,-0.513932,0.003135,-0.491682,-258.326929,-0.454548,67.726741
8.0169,-0.005792,-0.003562,0.00327,0.0021,0.004626,-0.008675,-0.00344,-0.513948,0.003673,-0.494386,-258.326929,-0.37966,67.726741
8.0368,-0.005677,-0.004118,0.004636,0.002185,0.004558,-0.008578,-0.004055,-0.513599,0.003311,-0.494386,-258.326929,-0.37966,67.726741
8.0568,-0.005571,-0.004072,0.004288,0.002254,0.004503,-0.008512,-0.004055,-0.513599,0.003311,-0.494386,-258.326929,-0.37966,67.726741
8.0773,-0.005615,-0.003913,0.004616,0.00231,0.004459,-0.008468,-0.003384,-0.514067,0.004288,-0.419257,-258.326929,-0.304531,67.726741
8.0967,-0.005838,-0.003916,0.005194,0.002231,0.004513,-0.008761,-0.003335,-0.514004,0.004418,-0.419257,-258.326929,-0.304531,67.726741
8.1163,-0.005262,-0.003431,0.004674,0.002169,0.004557,-0.008968,-0.003189,-0.513909,0.005194,-0.344385,-258.326929,-0.229659,67.726742
8.1365,-0.005232,-0.003888,0.004806,0.002076,0.004531,-0.009205,-0.002905,-0.513467,0.004718,-0.344385,-258.326929,-0.229659,67.726742
8.1564,-0.005803,-0.004025,0.003371,0.002004,0.004513,-0.009369,-0.002905,-0.513467,0.004718,-0.344385,-258.326929,-0.229659,67.726742
8.1763,-0.005872,-0.003762,0.00331,0.001947,0.0045,-0.00948,-0.004083,-0.514022,0.003371,-0.401082,-258.326929,-0.154516,67.726742
8.1967,-0.005257,-0.003897,0.004216,0.002053,0.004506,-0.009136,-0.004125,-0.513915,0.003346,-0.401082,-258.326929,-0.154516,67.726742
8.2165,-0.005455,-0.003835,0.004246,0.002139,0.004508,-0.008898,-0.003107,-0.513892,0.004216,-0.475938,-258.326929,-0.07966,67.726742
8.2365,-0.005449,-0.004073,0.003598,0.002097,0.004537,-0.00901,-0.003273,-0.513836,0.004244,-0.475938,-258.326929,-0.07966,67.726742
8.2572,-0.005321,-0.003828,0.004341,0.002064,0.004562,-0.009088,-0.003273,-0.513836,0.004244,-0.475938,-258.326929,-0.07966,67.726742
8.2767,-0.005529,-0.003955,0.003601,0.002038,0.004582,-0.009143,-0.003107,-0.513823,0.004341,-0.409021,-258.326928,-0.004638,67.726743
8.2968,-0.005676,-0.003582,0.003209,0.002028,0.004603,-0.00912,-0.003347,-0.513876,0.004039,-0.409021,-258.326928,-0.004638,67.726743
8.3164,-0.00569,-0.003956,0.004581,0.002019,0.00462,-0.009104,-0.004039,-0.51358,0.003209,-0.457059,-258.326928,0.070364,67.726743
8.3367,-0.005746,-0.003921,0.00365,0.002018,0.004628,-0.009221,-0.003412,-0.513919,0.004465,-0.457059,-258.326928,0.070364,67.726743
8.3567,-0.005738,-0.00367,0.00394,0.002018,0.004636,-0.009302,-0.003412,-0.513919,0.004465,-0.457059,-258.326928,0.070364,67.726743
8.3767,-0.005335,-0.004029,0.002161,0.002017,0.004643,-0.009357,-0.003728,-0.513666,0.00394,-0.435749,-258.326928,0.145491,67.726743
8.3969,-0.005561,-0.003858,0.005299,0.002094,0.00462,-0.009005,-0.003934,-0.513813,0.003216,-0.435749,-258.326928,0.145491,67.726743
8.417,-0.005907,-0.003756,0.003634,0.002155,0.004599,-0.008763,-0.002859,-0.513851,0.005299,-0.488521,-258.326928,0.220368,67.726744
8.4373,-0.005621,-0.003695,0.00304,0.002209,0.004561,-0.008787,-0.003954,-0.513761,0.003773,-0.488521,-258.326928,0.220368,67.726744
8.4579,-0.005458,-0.003428,0.003208,0.002253,0.004531,-0.008804,-0.003954,-0.513761,0.003773,-0.488521,-258.326928,0.220368,67.726744
8.4772,-0.005492,-0.003948,0.004299,0.002289,0.004508,-0.008816,-0.003822,-0.513426,0.003208,-0.413351,-258.326928,0.295538,67.726744
8.497,-0.005219,-0.004309,0.004378,0.002281,0.004493,-0.008777,-0.003619,-0.513627,0.003632,-0.413351,-258.326928,0.295538,67.726744
8.5162,-0.005448,-0.003648,0.004053,0.002275,0.004481,-0.008751,-0.002986,-0.514304,0.004378,-0.365693,-258.326928,0.370345,67.726745
8.5364,-0.005582,-0.003905,0.004805,0.002225,0.004493,-0.008868,-0.003345,-0.513704,0.004082,-0.365693,-258.326928,0.370345,67.726745
8.5563,-0.005778,-0.003591,0.003201,0.002185,0.004503,-0.00895,-0.003345,-0.513704,0.004082,-0.365693,-258.326928,0.370345,67.726745
8.5766,-0.005595,-0.003863,0.003831,0.002154,0.004512,-0.009006,-0.004145,-0.513589,0.003201,-0.362997,-258.326928,0.445336,67.726745
8.5966,-0.005476,-0.003789,0.003892,0.002212,0.004489,-0.008856,-0.003939,-0.513699,0.003459,-0.362997,-258.326928,0.445336,67.726745
8.6167,-0.005814,-0.003835,0.003747,0.002259,0.004471,-0.008752,-0.003491,-0.513786,0.003892,-0.430416,-258.326928,0.520336,67.726745
8.6365,-0.005652,-0.003593,0.004782,0.00228,0.004474,-0.008774,-0.003867,-0.513828,0.00376,-0.430416,-258.326928,0.520336,67.726745
8.6566,-0.005395,-0.003734,0.004768,0.002296,0.004478,-0.008791,-0.003867,-0.513828,0.00376,-0.430416,-258.326928,0.520336,67.726745
8.6765,-0.005708,-0.003937,0.004989,0.00231,0.00448,-0.008802,-0.002963,-0.513728,0.004768,-0.369307,-258.326928,0.595456,67.726746
8.6966,-0.00561,-0.0039,0.00409,0.002195,0.004514,-0.009116,-0.003046,-0.513811,0.004859,-0.369307,-258.326928,0.595456,67.726746
8.7166,-0.005385,-0.003804,0.004827,0.002106,0.004543,-0.009336,-0.003524,-0.513896,0.00409,-0.369878,-258.326928,0.670476,67.726746
8.7368,-0.005433,-0.0039,0.004201,0.002024,0.004574,-0.009461,-0.002975,-0.513806,0.004764,-0.369878,-258.326928,0.670476,67.726746
8.7568,-0.005684,-0.003567,0.003564,0.001959,0.0046,-0.009546,-0.002975,-0.513806,0.004764,-0.369878,-258.326928,0.670476,67.726746
8.7766,-0.005653,-0.004117,0.004314,0.001908,0.004622,-0.009604,-0.003867,-0.513564,0.003564,-0.444868,-258.326927,0.745466,67.726747
8.7965,-0.005504,-0.00392,0.0058,0.001979,0.004605,-0.00939,-0.003697,-0.513789,0.003871,-0.444868,-258.326927,0.745466,67.726747
8.8166,-0.005653,-0.003965,0.003554,0.002036,0.00459,-0.009241,-0.002546,-0.513911,0.0058,-0.519906,-258.326927,0.820504,67.72675
8.8366,-0.005335,-0.004312,0.005365,0.002076,0.004603,-0.009092,-0.003732,-0.513957,0.003742,-0.519906,-258.326927,0.820504,67.72675
8.8565,-0.005415,-0.004235,0.0044,0.002108,0.004612,-0.00899,-0.003732,-0.513957,0.003742,-0.519906,-258.326927,0.820504,67.72675
8.8767,-0.005871,-0.004137,0.003694,0.002134,0.004618,-0.008922,-0.00317,-0.514229,0.004398,-0.477435,-258.326922,0.895499,67.726773
8.8966,-0.005483,-0.003769,0.003863,0.002109,0.004665,-0.008981,-0.003502,-0.51419,0.004111,-0.477435,-258.326922,0.895499,67.726773
8.9167,-0.005358,-0.003835,0.004321,0.002089,0.004702,-0.009024,-0.00351,-0.513762,0.003858,-0.402609,-258.326901,0.970325,67.726866
8.9368,-0.005168,-0.004108,0.004775,0.002045,0.004697,-0.00911,-0.003186,-0.513824,0.004279,-0.402609,-258.326901,0.970325,67.726866
8.9567,-0.005473,-0.003722,0.00344,0.00201,0.004694,-0.00917,-0.003186,-0.513824,0.004279,-0.402609,-258.326901,0.970325,67.726866
8.9763,-0.005526,-0.00369,0.003822,0.001983,0.004692,-0.009211,-0.003707,-0.513707,0.003416,-0.369568,-258.326837,1.045474,67.727165
8.9968,-0.005556,-0.003511,0.003354,0.002038,0.004651,-0.009032,-0.003653,-0.513697,0.003578,-0.369568,-258.326837,1.045474,67.727165
9.0166,-0.00521,-0.003655,0.004157,0.002082,0.004618,-0.008908,-0.00383,-0.513488,0.003314,-0.440196,-258.326707,1.120349,67.727785
9.0366,-0.005423,-0.004018,0.002041,0.002043,0.004605,-0.008975,-0.003152,-0.513636,0.004083,-0.440196,-258.326707,1.120349,67.727785
9.0564,-0.005452,-0.004066,0.004317,0.002013,0.004596,-0.009023,-0.003152,-0.513636,0.004083,-0.440196,-258.326707,1.120349,67.727785
9.0764,-0.005323,-0.004041,0.003322,0.001989,0.004588,-0.009056,-0.003207,-0.513997,0.004192,-0.376326,-258.326394,1.195482,67.729225
9.0965,-0.005205,-0.004055,0.002445,0.001985,0.004629,-0.008992,-0.003374,-0.514006,0.003823,-0.376326,-258.326394,1.195482,67.729225
9.1164,-0.004724,-0.003546,0.00283,0.001982,0.004661,-0.008949,-0.003914,-0.513975,0.00229,-0.442489,-258.32591,1.270337,67.731493
9.1369,-0.004745,-0.003354,0.004379,0.001997,0.00464,-0.008565,-0.003336,-0.513579,0.002773,-0.442489,-258.32591,1.270337,67.731493
9.1568,-0.005106,-0.003548,0.00389,0.002007,0.004621,-0.008302,-0.003336,-0.513579,0.002773,-0.442489,-258.32591,1.270337,67.731493
9.1768,-0.005031,-0.003511,0.004198,0.002015,0.004602,-0.008125,-0.003052,-0.51339,0.003595,-0.385619,-258.325233,1.345338,67.734758
9.1966,-0.004762,-0.00353,0.003372,0.001971,0.004564,-0.008385,-0.002978,-0.513419,0.003805,-0.385619,-258.325233,1.345338,67.734758
9.2167,-0.004684,-0.003266,0.00374,0.001937,0.004535,-0.008575,-0.003012,-0.513457,0.003241,-0.310482,-258.324829,1.363155,67.736683
9.2366,-0.004668,-0.003193,0.001502,0.001887,0.004492,-0.008684,-0.002795,-0.513276,0.003691,-0.310482,-258.324829,1.363155,67.736683
9.2569,-0.004542,-0.003365,0.002829,0.001848,0.004459,-0.008765,-0.002795,-0.513276,0.003691,-0.310482,-258.324829,1.363155,67.736683
9.2767,-0.004278,-0.003078,0.002763,0.001818,0.004433,-0.008826,-0.003021,-0.513178,0.002478,-0.347575,-258.324025,1.375158,67.740572
9.2966,-0.004362,-0.003159,0.003997,0.001829,0.00439,-0.008459,-0.00295,-0.513115,0.002555,-0.347575,-258.324025,1.375158,67.740572
9.317,-0.004179,-0.00263,0.000384,0.001837,0.004353,-0.008208,-0.002281,-0.513049,0.003792,-0.422558,-258.323417,1.38778,67.743529
9.3371,-0.004047,-0.002609,0.001967,0.001996,0.00422,-0.007104,-0.003849,-0.512658,0.00064,-0.422558,-258.323417,1.38778,67.743529
9.357,-0.004239,-0.002999,0.002299,0.002121,0.004104,-0.006327,-0.003849,-0.512658,0.00064,-0.422558,-258.323417,1.38778,67.743529
9.3767,-0.004073,-0.00268,0.001383,0.002219,0.004005,-0.005785,-0.002997,-0.512834,0.00199,-0.34732,-258.322712,1.377143,67.746977
9.3967,-0.004061,-0.002544,-0.000301,0.002181,0.003955,-0.005971,-0.003142,-0.512751,0.001704,-0.34732,-258.322712,1.377143,67.746977
9.4172,-0.003819,-0.002737,0.002309,0.002152,0.003915,-0.006114,-0.004214,-0.512544,-0.000302,-0.272561,-258.322708,1.302384,67.746992
9.4367,-0.003981,-0.003026,0.001664,0.002064,0.003889,-0.0064,-0.002775,-0.512719,0.002087,-0.272561,-258.322708,1.302384,67.746992
9.4567,-0.003867,-0.002517,0.000769,0.001996,0.003869,-0.006609,-0.002775,-0.512719,0.002087,-0.272561,-258.322708,1.302384,67.746992
9.4768,-0.003549,-0.002185,0.001908,0.001943,0.003854,-0.006763,-0.003464,-0.512498,0.000734,-0.197551,-258.322599,1.296568,67.747391
9.4967,-0.003663,-0.002967,0.003368,0.001976,0.003765,-0.006445,-0.003101,-0.512368,0.001208,-0.197551,-258.322599,1.296568,67.747391
9.5167,-0.004071,-0.002524,-0.000929,0.002002,0.003693,-0.006223,-0.001889,-0.512856,0.003178,-0.141216,-258.321868,1.332064,67.75029
9.5366,-0.003616,-0.002283,0.0005,0.002181,0.003648,-0.005112,-0.004318,-0.512546,-0.000591,-0.141216,-258.321868,1.332064,67.75029
9.5567,-0.003676,-0.00258,0.001738,0.002325,0.003603,-0.004314,-0.004318,-0.512546,-0.000591,-0.141216,-258.321868,1.332064,67.75029
9.5766,-0.003428,-0.002616,6.7e-05,0.00244,0.003559,-0.003746,-0.002716,-0.512444,0.001509,-0.066197,-258.321165,1.309746,67.753009
9.5969,-0.003267,-0.002364,0.000403,0.002337,0.003542,-0.004159,-0.002982,-0.512498,0.000898,-0.066197,-258.321165,1.309746,67.753009
9.6166,-0.003709,-0.002357,0.001751,0.002258,0.00353,-0.004454,-0.003061,-0.512363,0.000402,0.008643,-258.32116,1.234906,67.753022
9.6368,-0.003317,-0.002623,0.000372,0.002176,0.003482,-0.005058,-0.002838,-0.512357,0.00163,0.008643,-258.32116,1.234906,67.753022
9.6569,-0.003422,-0.002132,-0.000193,0.002114,0.00345,-0.005486,-0.002838,-0.512357,0.00163,0.008643,-258.32116,1.234906,67.753022
9.6769,-0.003288,-0.002278,0.001691,0.002066,0.003427,-0.005788,-0.003505,-0.51211,-0.000226,0.083643,-258.321007,1.224115,67.753444
9.6971,-0.003286,-0.002375,0.001452,0.002077,0.003386,-0.005421,-0.003063,-0.512176,0.000552,0.083643,-258.321007,1.224115,67.753444
9.7167,-0.00294,-0.002047,0.001211,0.002086,0.003351,-0.00516,-0.002499,-0.512296,0.001324,0.008505,-258.320424,1.282407,67.75549
9.7369,-0.002987,-0.002197,0.001488,0.001948,0.003315,-0.005335,-0.002335,-0.512065,0.001215,0.008505,-258.320424,1.282407,67.75549
9.757,-0.003314,-0.002336,0.003026,0.001843,0.00329,-0.00546,-0.002335,-0.512065,0.001215,0.008505,-258.320424,1.282407,67.75549
9.7767,-0.002812,-0.00202,0.000754,0.001762,0.003271,-0.005548,-0.001695,-0.512211,0.002835,0.083487,-258.319689,1.260398,67.757889
9.7964,-0.002689,-0.001878,0.001904,0.001614,0.003274,-0.005979,-0.001983,-0.512119,0.001968,0.083487,-258.319689,1.260398,67.757889
9.8167,-0.002649,-0.002072,0.001795,0.001501,0.00328,-0.006283,-0.00168,-0.511806,0.001788,0.00859,-258.319216,1.312091,67.759733
9.8363,-0.002923,-0.002175,0.000285,0.001349,0.003287,-0.006409,-0.001727,-0.512045,0.001789,0.00859,-258.319216,1.312091,67.759733
9.8569,-0.002881,-0.001536,0.000943,0.001232,0.003296,-0.006498,-0.001727,-0.512045,0.001789,0.00859,-258.319216,1.312091,67.759733
9.8768,-0.002764,-0.001853,-0.000612,0.001142,0.003304,-0.006559,-0.002393,-0.511519,0.000916,-0.066534,-258.319146,1.362992,67.760051
9.8971,-0.0025,-0.002116,0.001302,0.001304,0.003199,-0.005823,-0.002667,-0.511652,0.000298,-0.066534,-258.319146,1.362992,67.760051
9.9166,-0.002693,-0.0022,-0.000343,0.00143,0.003112,-0.005295,-0.001836,-0.512113,0.001298,-0.141391,-258.319136,1.415841,67.760107
9.9368,-0.002803,-0.001844,0.00047,0.001532,0.003179,-0.004632,-0.002774,-0.512192,-0.000193,-0.141391,-258.319136,1.415841,67.760107
9.9569,-0.002815,-0.002284,-0.000938,0.001611,0.003225,-0.004163,-0.002774,-0.512192,-0.000193,-0.141391,-258.319136,1.415841,67.760107
9.9768,-0.002468,-0.002159,0.000147,0.001672,0.003255,-0.003831,-0.00324,-0.512169,-0.001134,-0.085047,-258.318627,1.349073,67.76241
9.9972,-0.002715,-0.001839,5.3e-05,0.001745,0.003267,-0.003365,-0.002888,-0.512151,-0.000634,-0.085047,-258.318627,1.349073,67.76241
10.0167,-0.002489,-0.001925,0.000162,0.001801,0.003272,-0.003036,-0.002688,-0.511839,5.3e-05,-0.010072,-258.318625,1.280376,67.762416
10.0367,-0.002103,-0.001917,-0.000247,0.001761,0.003222,-0.003244,-0.002431,-0.511918,0.000152,-0.010072,-258.318625,1.280376,67.762416
10.0567,-0.002281,-0.002009,0.00017,0.001731,0.003184,-0.003392,-0.002431,-0.511918,0.000152,-0.010072,-258.318625,1.280376,67.762416
10.0766,-0.002537,-0.001927,-0.001205,0.001708,0.003156,-0.003496,-0.002194,-0.512009,0.00017,0.064936,-258.318625,1.232857,67.762417
10.0969,-0.002439,-0.00166,-0.001269,0.001722,0.003158,-0.003262,-0.002589,-0.511975,-0.000397,0.064936,-258.318625,1.232857,67.762417
10.1168,-0.002289,-0.001612,0.000211,0.001733,0.003157,-0.003095,-0.003085,-0.511658,-0.001272,0.140019,-258.318606,1.258601,67.76247
10.1369,-0.00289,-0.002044,-0.00021,0.001679,0.003063,-0.003261,-0.002252,-0.511615,9.5e-05,0.140019,-258.318606,1.258601,67.76247
10.1571,-0.002316,-0.001561,0.00117,0.001638,0.002993,-0.003378,-0.002252,-0.511615,9.5e-05,0.140019,-258.318606,1.258601,67.76247
10.1767,-0.002833,-0.001864,0.000368,0.001607,0.00294,-0.003458,-0.001717,-0.511558,0.001168,0.215258,-258.318591,1.239978,67.762508
10.1971,-0.001956,-0.001676,0.000869,0.001544,0.002907,-0.003938,-0.002091,-0.511682,0.000845,0.215258,-258.318591,1.239978,67.762508
10.2167,-0.002522,-0.001755,0.002053,0.001497,0.002885,-0.004274,-0.001496,-0.511646,0.00083,0.289906,-258.318351,1.262801,67.76321
10.237,-0.002478,-0.001615,0.000986,0.001297,0.002905,-0.005042,-0.001476,-0.511743,0.001942,0.289906,-258.318351,1.262801,67.76321
10.2568,-0.002445,-0.001676,0.00103,0.001145,0.002929,-0.005588,-0.001476,-0.511743,0.001942,0.289906,-258.318351,1.262801,67.76321
10.2769,-0.002325,-0.00175,0.001526,0.001029,0.002954,-0.005974,-0.001869,-0.511577,0.000888,0.214886,-258.317861,1.304859,67.765043
10.2967,-0.002405,-0.001303,0.001004,0.001012,0.002956,-0.005851,-0.001734,-0.511636,0.001129,0.214886,-258.317861,1.304859,67.765043
10.3167,-0.002588,-0.00155,0.001038,0.000998,0.002957,-0.005762,-0.001893,-0.511303,0.001004,0.139899,-258.317861,1.379847,67.765043
10.3367,-0.002174,-0.001805,-0.00067,0.001065,0.002916,-0.005656,-0.002044,-0.511528,0.001035,0.139899,-258.317861,1.379847,67.765043
10.3568,-0.002581,-0.001607,-0.00075,0.001116,0.002883,-0.005577,-0.002044,-0.511528,0.001035,0.139899,-258.317861,1.379847,67.765043
10.3765,-0.002202,-0.002018,-0.001378,0.001156,0.002858,-0.005519,-0.002964,-0.511606,-0.000751,0.064879,-258.317861,1.417934,67.765045
10.3967,-0.002163,-0.0018,0.000893,0.001359,0.002901,-0.00439,-0.00294,-0.511772,-0.001004,0.064879,-258.317861,1.417934,67.765045
