mach0312/omni-docking-bench/src/icros_test_setup/results/MPPI_sample/timeseries/trial_075.csv
t,x,y,yaw,vx,vy,wz,bl_x,bl_y,bl_yaw,front_steering_joint,front_wheel_joint,rear_steering_joint,rear_wheel_joint
0.0,0.009519,-0.000356,0.033438,0.005041,-0.000397,0.002847,0.025348,-0.510083,0.033591,0.260062,-260.618049,-0.400802,66.460899
0.0004,0.00969,-0.000666,0.034957,0.004453,-0.000351,0.002515,0.025348,-0.510083,0.033591,0.260062,-260.615531,-0.400802,66.463541
0.0007,0.009545,-0.000425,0.035651,0.003819,-0.000301,0.002156,0.025348,-0.510083,0.033591,0.260062,-260.613444,-0.400802,66.465733
0.0011,0.009432,-0.000577,0.034943,0.003143,-0.000248,0.001775,0.025348,-0.510083,0.033591,0.260062,-260.612143,-0.400802,66.467098
0.0013,0.009317,-0.000621,0.03556,0.002422,-0.000191,0.001368,0.027171,-0.510262,0.035688,0.260062,-260.612143,-0.400802,66.467098
0.0016,0.009756,-0.000353,0.036055,0.001658,-0.000131,0.000936,0.026954,-0.510249,0.035178,0.260062,-260.612143,-0.400802,66.467098
0.0018,0.009842,-0.000726,0.034549,0.000854,-6.7e-05,0.000482,0.026954,-0.510249,0.035178,0.260062,-260.612143,-0.400802,66.467098
0.0145,0.009465,-0.000772,0.034149,0.0,0.0,0.0,0.027511,-0.510424,0.034578,0.260062,-260.611458,-0.400802,66.467817
0.0347,0.009929,-0.000959,0.034611,0.0,0.0,0.0,0.026938,-0.51047,0.034189,0.260062,-260.611458,-0.400802,66.467817
0.0548,0.009685,-0.000384,0.034829,0.0,0.0,0.0,0.026938,-0.51047,0.034189,0.260062,-260.611458,-0.400802,66.467817
0.0748,0.00932,-0.000677,0.034784,0.0,0.0,0.0,0.027444,-0.510074,0.034829,0.260062,-260.611458,-0.400802,66.467817
0.095,0.009351,-0.000622,0.036195,0.0,0.0,0.0,0.027285,-0.510195,0.034811,0.260062,-260.611458,-0.400802,66.467817
0.1146,0.010315,-0.000573,0.034871,-0.004396,-0.001344,-0.003191,0.027806,-0.510288,0.036195,0.260062,-260.611458,-0.400802,66.467817
0.1347,0.009516,-0.000869,0.034685,-0.004804,-0.001448,-0.003373,0.028071,-0.510265,0.034984,0.260062,-260.611458,-0.400802,66.467817
0.1549,0.009738,-0.000514,0.034381,-0.005153,-0.00153,-0.003505,0.028071,-0.510265,0.034984,0.260062,-260.611458,-0.400802,66.467817
0.1749,0.009603,-0.000513,0.037174,-0.00545,-0.001597,-0.003598,0.027263,-0.510213,0.034377,0.335077,-260.611522,-0.325787,66.467765
0.195,0.00989,-0.000805,0.03492,-0.005704,-0.001652,-0.003679,0.027794,-0.510192,0.035526,0.335077,-260.611522,-0.325787,66.467765
0.2151,0.009659,-0.000658,0.035357,-0.005921,-0.001696,-0.003737,0.02767,-0.510498,0.034905,0.410038,-260.611895,-0.250826,66.467457
0.235,0.00957,-0.000315,0.033649,-0.006106,-0.001725,-0.003794,0.027684,-0.510353,0.035317,0.410038,-260.611895,-0.250826,66.467457
0.2549,0.009848,-0.000867,0.034259,-0.006264,-0.001748,-0.003836,0.027684,-0.510353,0.035317,0.410038,-260.611895,-0.250826,66.467457
0.2749,0.009568,-0.000895,0.033191,-0.006398,-0.001767,-0.003867,0.027214,-0.51059,0.034199,0.484943,-260.613052,-0.175921,66.466492
0.2948,0.009695,-0.000366,0.03503,-0.006512,-0.001773,-0.003905,0.026909,-0.510603,0.033782,0.484943,-260.613052,-0.175921,66.466492
0.3148,0.009245,-0.000529,0.034996,-0.006609,-0.001777,-0.003933,0.027396,-0.510101,0.034933,0.559926,-260.615462,-0.100938,66.464459
0.3348,0.009462,-0.00083,0.03405,-0.006692,-0.001794,-0.003981,0.027108,-0.510209,0.034986,0.559926,-260.615462,-0.100938,66.464459
0.3549,0.009252,-0.000686,0.033871,-0.006762,-0.001808,-0.004018,0.027108,-0.510209,0.034986,0.559926,-260.615462,-0.100938,66.464459
0.3748,0.009039,-0.000554,0.035213,-0.006822,-0.001819,-0.004047,0.02625,-0.510477,0.033707,0.563862,-260.618587,-0.094287,66.461805
0.3947,0.009011,-0.000707,0.034412,-0.006873,-0.001821,-0.004069,0.026526,-0.510388,0.034309,0.563862,-260.618587,-0.094287,66.461805
0.4149,0.009056,-0.000524,0.033039,-0.006916,-0.001823,-0.004086,0.026343,-0.510471,0.034283,0.561462,-260.621806,-0.095389,66.459068
0.435,0.009134,-0.000876,0.032598,-0.006953,-0.001829,-0.004119,0.025931,-0.510269,0.033143,0.561462,-260.621806,-0.095389,66.459068
0.4547,0.008641,-0.00078,0.034334,-0.006984,-0.001834,-0.004146,0.025931,-0.510269,0.033143,0.561462,-260.621806,-0.095389,66.459068
0.4747,0.008776,-0.000958,0.035067,-0.007011,-0.001838,-0.004167,0.025862,-0.510566,0.034163,0.558149,-260.625072,-0.097004,66.456285
0.4947,0.00869,-0.000824,0.034443,-0.007034,-0.001825,-0.004194,0.026156,-0.510608,0.034516,0.558149,-260.625072,-0.097004,66.456285
0.5148,0.008416,-0.000785,0.032849,-0.007054,-0.001814,-0.004216,0.026032,-0.510587,0.03431,0.55871,-260.628379,-0.100529,66.453466
0.5349,0.008413,-0.001025,0.034175,-0.00707,-0.00181,-0.004242,0.025229,-0.51052,0.032966,0.55871,-260.628379,-0.100529,66.453466
0.5548,0.008517,-0.001063,0.03294,-0.007084,-0.001806,-0.004262,0.025229,-0.51052,0.032966,0.55871,-260.628379,-0.100529,66.453466
0.5747,0.008392,-0.001029,0.034036,-0.007096,-0.001802,-0.004279,0.025022,-0.510871,0.032764,0.556663,-260.631694,-0.107427,66.450635
0.5952,0.007782,-0.001345,0.032863,-0.007106,-0.001783,-0.004298,0.025285,-0.510825,0.033264,0.556663,-260.631694,-0.107427,66.450635
0.6146,0.008331,-0.001545,0.033084,-0.007115,-0.001767,-0.004314,0.024316,-0.511135,0.032727,0.556616,-260.635034,-0.113855,66.447781
0.635,0.007926,-0.0012,0.033845,-0.007121,-0.001734,-0.004333,0.025109,-0.511258,0.033045,0.556616,-260.635034,-0.113855,66.447781
0.655,0.008361,-0.001312,0.033435,-0.007127,-0.001706,-0.004349,0.025109,-0.511258,0.033045,0.556616,-260.635034,-0.113855,66.447781
0.6749,0.007821,-0.001566,0.032369,-0.007132,-0.001683,-0.004362,0.025115,-0.511111,0.033255,0.55406,-260.638378,-0.12143,66.444916
0.6955,0.007797,-0.001021,0.034038,-0.007135,-0.001665,-0.004378,0.024762,-0.511197,0.032876,0.55406,-260.638378,-0.12143,66.444916
0.7149,0.007578,-0.001329,0.031478,-0.007138,-0.00165,-0.004392,0.024928,-0.510786,0.033899,0.547414,-260.641704,-0.136655,66.442049
0.7348,0.007362,-0.001996,0.033334,-0.007141,-0.001643,-0.004408,0.023733,-0.511054,0.031686,0.547414,-260.641704,-0.136655,66.442049
0.7547,0.006975,-0.001583,0.032709,-0.007143,-0.001637,-0.004422,0.023733,-0.511054,0.031686,0.547414,-260.641704,-0.136655,66.442049
0.775,0.007041,-0.001774,0.032087,-0.007145,-0.001631,-0.004433,0.023358,-0.511389,0.032526,0.54554,-260.645046,-0.143571,66.439163
0.7956,0.007497,-0.00153,0.032842,-0.007145,-0.001606,-0.004446,0.023342,-0.511448,0.032325,0.54554,-260.645046,-0.143571,66.439163
0.8145,0.006739,-0.00163,0.032941,-0.007146,-0.001585,-0.004458,0.024017,-0.511315,0.032701,0.545786,-260.648389,-0.149526,66.436273
0.8346,0.007012,-0.002036,0.033773,-0.007146,-0.001572,-0.004469,0.023565,-0.511353,0.032914,0.545786,-260.648389,-0.149526,66.436273
0.8547,0.006747,-0.001402,0.032066,-0.007147,-0.001561,-0.004479,0.023565,-0.511353,0.032914,0.545786,-260.648389,-0.149526,66.436273
0.8746,0.006653,-0.001683,0.031804,-0.007147,-0.001552,-0.004487,0.022802,-0.511216,0.03188,0.542482,-260.651717,-0.157828,66.433387
0.8946,0.006699,-0.001634,0.033153,-0.007147,-0.001545,-0.004494,0.022796,-0.51131,0.031828,0.542482,-260.651717,-0.157828,66.433387
0.915,0.006401,-0.001894,0.032593,-0.007147,-0.00154,-0.004501,0.023378,-0.511411,0.03301,0.540866,-260.655055,-0.164804,66.430486
0.9346,0.006641,-0.001826,0.030864,-0.007146,-0.001521,-0.004506,0.02304,-0.511607,0.032622,0.540866,-260.655055,-0.164804,66.430486
0.9546,0.007084,-0.001951,0.034217,-0.007145,-0.001505,-0.004511,0.02304,-0.511607,0.032622,0.540866,-260.655055,-0.164804,66.430486
0.9749,0.006177,-0.002067,0.030714,-0.007145,-0.001492,-0.004515,0.024236,-0.511727,0.034029,0.540476,-260.658388,-0.167585,66.427588
0.9946,0.006064,-0.001559,0.032615,-0.007144,-0.001473,-0.004519,0.023206,-0.511777,0.032631,0.540476,-260.658388,-0.167585,66.427588
1.0145,0.005936,-0.001668,0.032518,-0.007143,-0.001458,-0.004523,0.02247,-0.511342,0.032472,0.536543,-260.66171,-0.17538,66.424688
1.0348,0.006571,-0.001766,0.03161,-0.007142,-0.001461,-0.004526,0.022502,-0.511396,0.032507,0.536543,-260.66171,-0.17538,66.424688
1.0546,0.006108,-0.001928,0.031124,-0.007142,-0.001464,-0.004529,0.022502,-0.511396,0.032507,0.536543,-260.66171,-0.17538,66.424688
1.0752,0.005515,-0.002095,0.032128,-0.007142,-0.001466,-0.004532,0.021683,-0.511751,0.030936,0.533626,-260.665019,-0.18064,66.421792
1.0951,0.005712,-0.00204,0.031487,-0.00714,-0.001447,-0.004533,0.021736,-0.511792,0.031399,0.533626,-260.665019,-0.18064,66.421792
1.1149,0.00557,-0.002303,0.029596,-0.007139,-0.00143,-0.004535,0.021542,-0.511841,0.031343,0.53517,-260.668344,-0.18025,66.418885
1.135,0.005297,-0.001955,0.031598,-0.007136,-0.001399,-0.004536,0.020726,-0.512062,0.02974,0.53517,-260.668344,-0.18025,66.418885
1.1548,0.005388,-0.002319,0.031476,-0.007134,-0.001373,-0.004536,0.020726,-0.512062,0.02974,0.53517,-260.668344,-0.18025,66.418885
1.175,0.00531,-0.00237,0.031789,-0.007131,-0.001352,-0.004537,0.021142,-0.512136,0.031286,0.531795,-260.671656,-0.185467,66.415981
1.195,0.00529,-0.002513,0.031165,-0.007129,-0.001332,-0.004539,0.021262,-0.512134,0.03147,0.531795,-260.671656,-0.185467,66.415981
1.2146,0.00521,-0.00243,0.029644,-0.007127,-0.001315,-0.00454,0.020957,-0.512315,0.031021,0.524225,-260.674938,-0.196425,66.413083
1.235,0.005223,-0.002208,0.031148,-0.007124,-0.001293,-0.004541,0.020372,-0.512218,0.029762,0.524225,-260.674938,-0.196425,66.413083
1.255,0.005256,-0.002279,0.031161,-0.007122,-0.001275,-0.004541,0.020372,-0.512218,0.029762,0.524225,-260.674938,-0.196425,66.413083
1.2747,0.005016,-0.002402,0.031023,-0.00712,-0.00126,-0.004542,0.020849,-0.512096,0.030971,0.520725,-260.678221,-0.20178,66.410176
1.2949,0.004603,-0.002843,0.030745,-0.007118,-0.001254,-0.004543,0.02081,-0.512128,0.03097,0.520725,-260.678221,-0.20178,66.410176
1.3148,0.004521,-0.002175,0.031097,-0.007117,-0.001248,-0.004545,0.020054,-0.512649,0.0306,0.515467,-260.681494,-0.209574,66.407266
1.3352,0.004599,-0.002414,0.030798,-0.007116,-0.001249,-0.004546,0.020339,-0.511993,0.031047,0.515467,-260.681494,-0.209574,66.407266
1.3551,0.004681,-0.002325,0.029764,-0.007115,-0.001249,-0.004547,0.020339,-0.511993,0.031047,0.515467,-260.681494,-0.209574,66.407266
1.3751,0.004545,-0.002537,0.031494,-0.007115,-0.00125,-0.004547,0.019563,-0.51216,0.029574,0.514596,-260.684759,-0.211374,66.404358
1.3951,0.004488,-0.002193,0.03066,-0.007113,-0.001236,-0.004548,0.019952,-0.512217,0.030332,0.514596,-260.684759,-0.211374,66.404358
1.4149,0.004197,-0.002508,0.028646,-0.007111,-0.001224,-0.004548,0.019897,-0.512,0.030515,0.515049,-260.688033,-0.211515,66.401444
1.4353,0.004045,-0.002367,0.030705,-0.007109,-0.001206,-0.004547,0.01889,-0.512275,0.028803,0.515049,-260.688033,-0.211515,66.401444
1.4554,0.004472,-0.002459,0.029336,-0.007106,-0.00119,-0.004547,0.01889,-0.512275,0.028803,0.515049,-260.688033,-0.211515,66.401444
1.4752,0.004036,-0.002786,0.029729,-0.007104,-0.001178,-0.004547,0.019136,-0.512299,0.029146,0.512587,-260.691299,-0.215046,66.398531
1.4949,0.003917,-0.002485,0.029256,-0.007102,-0.00116,-0.004547,0.019126,-0.512414,0.029364,0.512587,-260.691299,-0.215046,66.398531
1.5152,0.003205,-0.002886,0.028541,-0.007099,-0.001146,-0.004547,0.018611,-0.51231,0.029112,0.507938,-260.694553,-0.221438,66.395616
1.5348,0.00369,-0.002656,0.029049,-0.007094,-0.001108,-0.004545,0.017827,-0.512645,0.028587,0.507938,-260.694553,-0.221438,66.395616
1.5548,0.003564,-0.002762,0.028851,-0.007089,-0.001078,-0.004544,0.017827,-0.512645,0.028587,0.507938,-260.694553,-0.221438,66.395616
1.5752,0.003468,-0.002455,0.028717,-0.007085,-0.001053,-0.004544,0.017982,-0.512606,0.028661,0.504778,-260.697793,-0.225879,66.392707
1.595,0.003819,-0.002734,0.029991,-0.007083,-0.001045,-0.004544,0.018001,-0.512463,0.028662,0.504778,-260.697793,-0.225879,66.392707
1.615,0.003062,-0.00257,0.027914,-0.007081,-0.001039,-0.004544,0.018889,-0.512544,0.029848,0.495315,-260.700999,-0.238476,66.389804
1.6351,0.00288,-0.002694,0.028264,-0.007079,-0.001034,-0.004544,0.017421,-0.512388,0.028073,0.495315,-260.700999,-0.238476,66.389804
1.655,0.00304,-0.003151,0.0309,-0.007077,-0.00103,-0.004544,0.017421,-0.512388,0.028073,0.495315,-260.700999,-0.238476,66.389804
1.6748,0.002972,-0.003161,0.02778,-0.007076,-0.001027,-0.004544,0.018502,-0.51296,0.03071,0.494112,-260.704219,-0.240482,66.386885
1.6951,0.002653,-0.003112,0.027905,-0.007071,-0.00099,-0.004544,0.017904,-0.512968,0.029476,0.494112,-260.704219,-0.240482,66.386885
1.7151,0.00287,-0.002472,0.028107,-0.007066,-0.00096,-0.004544,0.016659,-0.512953,0.027761,0.493104,-260.707428,-0.242257,66.383973
1.7347,0.002657,-0.002511,0.028651,-0.007066,-0.00097,-0.004544,0.017145,-0.512332,0.02807,0.493104,-260.707428,-0.242257,66.383973
1.7546,0.002889,-0.002929,0.028469,-0.007066,-0.000979,-0.004545,0.017145,-0.512332,0.02807,0.493104,-260.707428,-0.242257,66.383973
1.7749,0.00276,-0.002765,0.027841,-0.007065,-0.000986,-0.004545,0.017113,-0.51277,0.02828,0.486249,-260.710614,-0.251427,66.381065
1.795,0.002647,-0.002559,0.0296,-0.007062,-0.000966,-0.004545,0.017015,-0.512693,0.028078,0.486249,-260.710614,-0.251427,66.381065
1.8145,0.002026,-0.00303,0.028272,-0.007059,-0.00095,-0.004544,0.017516,-0.512374,0.029455,0.489286,-260.713819,-0.248109,66.378147
1.8349,0.00192,-0.003024,0.028532,-0.007055,-0.000924,-0.004543,0.016524,-0.512789,0.028366,0.489286,-260.713819,-0.248109,66.378147
1.8549,0.002423,-0.002867,0.028058,-0.007051,-0.000902,-0.004543,0.016524,-0.512789,0.028366,0.489286,-260.713819,-0.248109,66.378147
1.8748,0.001694,-0.002724,0.027156,-0.007047,-0.000885,-0.004542,0.016438,-0.512714,0.027869,0.485583,-260.717005,-0.253029,66.375236
1.8952,0.0022,-0.003118,0.027587,-0.007044,-0.000875,-0.004542,0.016039,-0.512647,0.027557,0.485583,-260.717005,-0.253029,66.375236
1.9153,0.001902,-0.003054,0.027373,-0.007042,-0.000867,-0.004542,0.016045,-0.512958,0.027443,0.478869,-260.72018,-0.261975,66.372319
1.935,0.001637,-0.003077,0.026684,-0.007037,-0.000842,-0.004541,0.015865,-0.512873,0.027372,0.478869,-260.72018,-0.261975,66.372319
1.9551,0.001567,-0.003097,0.026913,-0.007032,-0.000822,-0.00454,0.015865,-0.512873,0.027372,0.478869,-260.72018,-0.261975,66.372319
1.975,0.00167,-0.003503,0.028742,-0.007029,-0.000805,-0.00454,0.014998,-0.512956,0.026724,0.477202,-260.723352,-0.26442,66.3694
1.9952,0.001583,-0.002853,0.027338,-0.007021,-0.000769,-0.004539,0.015516,-0.513101,0.027541,0.477202,-260.723352,-0.26442,66.3694
2.0149,0.001589,-0.003322,0.02674,-0.007015,-0.00074,-0.004538,0.015302,-0.512694,0.027194,0.470898,-260.726503,-0.272962,66.366484
2.0351,0.00137,-0.003625,0.026928,-0.007009,-0.000716,-0.004538,0.015221,-0.513104,0.026771,0.470898,-260.726503,-0.272962,66.366484
2.0554,0.001235,-0.003256,0.025546,-0.007004,-0.000696,-0.004538,0.015221,-0.513104,0.026771,0.470898,-260.726503,-0.272962,66.366484
2.0753,0.001151,-0.003096,0.027467,-0.006999,-0.000679,-0.004538,0.013971,-0.513128,0.025357,0.464161,-260.729627,-0.281917,66.363576
2.095,0.000805,-0.003363,0.028446,-0.006993,-0.000658,-0.004537,0.01442,-0.513041,0.026194,0.464161,-260.729627,-0.281917,66.363576
2.1145,0.000454,-0.00352,0.026842,-0.006987,-0.00064,-0.004536,0.015088,-0.513184,0.028302,0.458056,-260.732748,-0.290486,66.360654
2.1348,0.000971,-0.003039,0.027789,-0.006977,-0.000598,-0.004535,0.014212,-0.513325,0.026959,0.458056,-260.732748,-0.290486,66.360654
2.1547,0.000838,-0.003485,0.025716,-0.006968,-0.000564,-0.004534,0.014212,-0.513325,0.026959,0.458056,-260.732748,-0.290486,66.360654
2.1748,0.000674,-0.003321,0.026019,-0.00696,-0.000535,-0.004534,0.013661,-0.513351,0.025526,0.454113,-260.735855,-0.295949,66.357735
2.1952,0.000742,-0.003468,0.026866,-0.006952,-0.000509,-0.004534,0.013743,-0.513271,0.025708,0.454113,-260.735855,-0.295949,66.357735
2.215,-0.000243,-0.00307,0.025393,-0.006945,-0.000487,-0.004534,0.014223,-0.513307,0.026723,0.443261,-260.738921,-0.310557,66.354826
2.2354,0.000475,-0.003268,0.027175,-0.006939,-0.000479,-0.004532,0.012826,-0.512941,0.025501,0.443261,-260.738921,-0.310557,66.354826
2.2549,0.000402,-0.003241,0.025693,-0.006933,-0.000472,-0.004532,0.012826,-0.512941,0.025501,0.443261,-260.738921,-0.310557,66.354826
2.2747,0.000373,-0.003226,0.025742,-0.006929,-0.000467,-0.004532,0.013214,-0.5131,0.025503,0.438361,-260.741981,-0.317468,66.35191
2.2952,-0.000124,-0.003863,0.027222,-0.006925,-0.00046,-0.004533,0.013297,-0.513086,0.025578,0.438361,-260.741981,-0.317468,66.35191
2.3149,0.000172,-0.003033,0.026786,-0.006922,-0.000454,-0.004534,0.013537,-0.513695,0.027078,0.436764,-260.745043,-0.320625,66.348986
2.3352,-0.000157,-0.00338,0.026125,-0.006925,-0.000472,-0.004536,0.013795,-0.512924,0.026804,0.436764,-260.745043,-0.320625,66.348986
2.3551,-0.000348,-0.003561,0.025634,-0.006927,-0.000487,-0.004539,0.013795,-0.512924,0.026804,0.436764,-260.745043,-0.320625,66.348986
2.3746,-0.000205,-0.003643,0.026592,-0.006929,-0.000499,-0.00454,0.012435,-0.51342,0.025445,0.435771,-260.748093,-0.322692,66.346071
2.3946,-0.000414,-0.003268,0.026054,-0.006915,-0.000442,-0.004537,0.012776,-0.513441,0.025889,0.435771,-260.748093,-0.322692,66.346071
2.4146,-0.000649,-0.003355,0.024859,-0.006903,-0.000395,-0.004535,0.012652,-0.513117,0.02591,0.441192,-260.751155,-0.317076,66.343157
2.435,-0.00014,-0.003656,0.026424,-0.006891,-0.000363,-0.004532,0.012072,-0.513191,0.024946,0.441192,-260.751155,-0.317076,66.343157
2.4549,-0.000698,-0.0034,0.026158,-0.006882,-0.000337,-0.004531,0.012072,-0.513191,0.024946,0.441192,-260.751155,-0.317076,66.343157
2.4748,-0.000833,-0.003602,0.025643,-0.006874,-0.000316,-0.00453,0.012354,-0.513249,0.025969,0.429906,-260.754177,-0.331282,66.340252
2.4951,-0.000722,-0.003376,0.024303,-0.006865,-0.000291,-0.004531,0.012275,-0.513328,0.025814,0.429906,-260.754177,-0.331282,66.340252
2.5147,-0.00095,-0.003605,0.026654,-0.006858,-0.00027,-0.004531,0.011453,-0.513241,0.024159,0.421666,-260.757197,-0.342462,66.337327
2.5349,-0.001527,-0.003682,0.025771,-0.006853,-0.000252,-0.004532,0.012541,-0.51341,0.026457,0.421666,-260.757197,-0.342462,66.337327
2.555,-0.00103,-0.00357,0.025049,-0.006848,-0.000238,-0.004534,0.012541,-0.51341,0.026457,0.421666,-260.757197,-0.342462,66.337327
2.5748,-0.00134,-0.00342,0.026007,-0.006844,-0.000226,-0.004535,0.011459,-0.513429,0.024861,0.416939,-260.760201,-0.349168,66.334404
2.595,-0.001173,-0.003539,0.024133,-0.006833,-0.000197,-0.004533,0.011624,-0.513353,0.025331,0.416939,-260.760201,-0.349168,66.334404
2.6149,-0.001491,-0.003627,0.024191,-0.006823,-0.000174,-0.004533,0.010919,-0.513402,0.023991,0.412579,-260.763172,-0.355906,66.3315
2.6349,-0.001087,-0.003958,0.024541,-0.006801,-0.000118,-0.004528,0.010841,-0.513472,0.024168,0.412579,-260.763172,-0.355906,66.3315
2.655,-0.001449,-0.003571,0.02449,-0.006783,-7.3e-05,-0.004526,0.010841,-0.513472,0.024168,0.412579,-260.763172,-0.355906,66.3315
2.6747,-0.002146,-0.004012,0.022692,-0.006767,-3.7e-05,-0.004525,0.010755,-0.513433,0.024301,0.407071,-260.766145,-0.363404,66.328579
2.6947,-0.001793,-0.003524,0.024201,-0.006737,3.3e-05,-0.004521,0.01017,-0.51362,0.02361,0.407071,-260.766145,-0.363404,66.328579
2.7151,-0.001882,-0.003642,0.023937,-0.006711,8.9e-05,-0.004519,0.010337,-0.513381,0.02406,0.392444,-260.769039,-0.383004,66.325696
2.7349,-0.001991,-0.003541,0.022598,-0.006698,0.000113,-0.00452,0.010316,-0.513486,0.023941,0.392444,-260.769039,-0.383004,66.325696
2.7548,-0.00163,-0.003119,0.024585,-0.006686,0.000132,-0.004521,0.010316,-0.513486,0.023941,0.392444,-260.769039,-0.383004,66.325696
2.775,-0.001907,-0.003951,0.02361,-0.006676,0.000147,-0.004523,0.010629,-0.512968,0.024397,0.378755,-260.771898,-0.401425,66.32281
2.7954,-0.002251,-0.003863,0.023926,-0.006674,0.000137,-0.004526,0.010395,-0.513311,0.024055,0.378755,-260.771898,-0.401425,66.32281
2.815,-0.002648,-0.003794,0.023283,-0.006673,0.000128,-0.004529,0.009736,-0.513717,0.023782,0.373381,-260.774761,-0.411049,66.319902
2.8354,-0.002506,-0.004176,0.023747,-0.006632,0.000209,-0.004522,0.00926,-0.513662,0.02332,0.373381,-260.774761,-0.411049,66.319902
2.8553,-0.002404,-0.003755,0.024246,-0.006599,0.000274,-0.004518,0.00926,-0.513662,0.02332,0.373381,-260.774761,-0.411049,66.319902
2.8752,-0.002338,-0.003712,0.021024,-0.006571,0.000325,-0.004516,0.009681,-0.513606,0.024057,0.376513,-260.77763,-0.409216,66.316994
2.895,-0.002546,-0.003429,0.024161,-0.006546,0.000364,-0.004515,0.009124,-0.513604,0.022807,0.376513,-260.77763,-0.409216,66.316994
2.9146,-0.002991,-0.00351,0.022571,-0.006525,0.000394,-0.004516,0.009569,-0.513275,0.024019,0.354694,-260.780374,-0.438677,66.314152
2.935,-0.002679,-0.003218,0.022748,-0.0065,0.000415,-0.004513,0.008604,-0.51337,0.022695,0.354694,-260.780374,-0.438677,66.314152
2.9551,-0.002683,-0.003458,0.022406,-0.006479,0.00043,-0.004512,0.008604,-0.51337,0.022695,0.354694,-260.780374,-0.438677,66.314152
2.975,-0.00313,-0.003506,0.024671,-0.006461,0.000441,-0.004513,0.00847,-0.513319,0.022218,0.347512,-260.783141,-0.450046,66.311262
2.9951,-0.002972,-0.003651,0.022295,-0.006456,0.000433,-0.004516,0.008837,-0.513331,0.023193,0.347512,-260.783141,-0.450046,66.311262
3.0151,-0.003137,-0.003439,0.023136,-0.006452,0.000427,-0.004519,0.008192,-0.513515,0.022152,0.344012,-260.785882,-0.459516,66.308383
3.035,-0.003356,-0.003621,0.023523,-0.006441,0.000431,-0.004519,0.008609,-0.513321,0.023041,0.344012,-260.785882,-0.459516,66.308383
3.0551,-0.002958,-0.003839,0.021392,-0.006431,0.000433,-0.00452,0.008609,-0.513321,0.023041,0.344012,-260.785882,-0.459516,66.308383
3.0749,-0.003191,-0.003419,0.022661,-0.006424,0.000435,-0.004521,0.00768,-0.513711,0.021203,0.347049,-260.788637,-0.458767,66.305494
3.0951,-0.003635,-0.003774,0.022568,-0.006379,0.000501,-0.004513,0.007933,-0.513534,0.021785,0.347049,-260.788637,-0.458767,66.305494
3.1145,-0.003732,-0.003745,0.021305,-0.006342,0.000551,-0.004507,0.007669,-0.513635,0.022425,0.347462,-260.791358,-0.461758,66.302636
3.1349,-0.003665,-0.003559,0.02139,-0.00626,0.000652,-0.00449,0.007171,-0.513629,0.021399,0.347462,-260.791358,-0.461758,66.302636
3.155,-0.003509,-0.003915,0.023482,-0.006193,0.000729,-0.004479,0.007171,-0.513629,0.021399,0.347462,-260.791358,-0.461758,66.302636
3.175,-0.003949,-0.003175,0.021487,-0.006139,0.000788,-0.004473,0.008201,-0.513758,0.023295,0.334104,-260.794025,-0.480333,66.299795
3.1953,-0.003893,-0.00331,0.022453,-0.006134,0.00078,-0.00448,0.007686,-0.513471,0.022538,0.334104,-260.794025,-0.480333,66.299795
3.2148,-0.003814,-0.00349,0.022743,-0.00613,0.000772,-0.004487,0.007367,-0.513162,0.022315,0.306605,-260.7965,-0.520671,66.297075
3.2352,-0.004018,-0.003348,0.021983,-0.006135,0.000744,-0.004493,0.007736,-0.513339,0.022697,0.306605,-260.7965,-0.520671,66.297075
3.255,-0.004843,-0.003395,0.02142,-0.00614,0.000721,-0.004499,0.007736,-0.513339,0.022697,0.306605,-260.7965,-0.520671,66.297075
3.2751,-0.004262,-0.003474,0.021016,-0.006143,0.000703,-0.004503,0.005823,-0.513252,0.021232,0.310652,-260.799075,-0.520316,66.294249
3.2952,-0.004411,-0.003303,0.021344,-0.006017,0.000791,-0.004464,0.006048,-0.513293,0.021123,0.310652,-260.799075,-0.520316,66.294249
3.315,-0.004316,-0.003384,0.021383,-0.005916,0.000854,-0.004439,0.006277,-0.513169,0.0212,0.321584,-260.801661,-0.51213,66.291435
3.3348,-0.004378,-0.003068,0.0206,-0.005886,0.000861,-0.004438,0.006548,-0.513257,0.021357,0.321584,-260.801661,-0.51213,66.291435
3.3548,-0.004241,-0.003633,0.021729,-0.005861,0.000864,-0.004439,0.006548,-0.513257,0.021357,0.321584,-260.801661,-0.51213,66.291435
3.3749,-0.004579,-0.003515,0.021678,-0.005841,0.000865,-0.004441,0.006596,-0.513483,0.021547,0.304066,-260.80409,-0.542386,66.288729
3.395,-0.004813,-0.003661,0.020439,-0.005812,0.000897,-0.004441,0.00652,-0.513444,0.021579,0.304066,-260.80409,-0.542386,66.288729
3.4152,-0.004569,-0.003573,0.020041,-0.005788,0.000921,-0.004443,0.005423,-0.513531,0.020298,0.306267,-260.806541,-0.549581,66.285989
3.4349,-0.004874,-0.0031,0.0206,-0.005674,0.001008,-0.004415,0.005622,-0.513474,0.020056,0.306267,-260.806541,-0.549581,66.285989
3.455,-0.004859,-0.003502,0.022315,-0.005584,0.001072,-0.004398,0.005622,-0.513474,0.020056,0.306267,-260.806541,-0.549581,66.285989
3.475,-0.004816,-0.003452,0.022281,-0.005511,0.001119,-0.004388,0.006278,-0.513342,0.022129,0.30025,-260.808958,-0.560752,66.283262
3.495,-0.004995,-0.003315,0.020243,-0.005537,0.00108,-0.004408,0.006359,-0.513331,0.022169,0.30025,-260.808958,-0.560752,66.283262
3.5147,-0.004965,-0.003499,0.020629,-0.005557,0.001049,-0.004424,0.005159,-0.51318,0.020108,0.275944,-260.81116,-0.603515,66.280689
3.5352,-0.004967,-0.002869,0.021227,-0.005483,0.00109,-0.004407,0.005511,-0.51337,0.020575,0.275944,-260.81116,-0.603515,66.280689
3.5551,-0.004905,-0.002988,0.020252,-0.005424,0.00112,-0.004396,0.005511,-0.51337,0.020575,0.275944,-260.81116,-0.603515,66.280689
3.5752,-0.005104,-0.003439,0.019648,-0.005377,0.001141,-0.004391,0.00519,-0.512845,0.020068,0.289123,-260.813471,-0.593722,66.278016
3.5952,-0.005364,-0.003048,0.020362,-0.005299,0.00113,-0.004371,0.005051,-0.513044,0.019874,0.289123,-260.813471,-0.593722,66.278016
3.6148,-0.005234,-0.003383,0.020944,-0.005237,0.001118,-0.004358,0.00485,-0.51291,0.020224,0.279117,-260.815684,-0.618034,66.275406
3.6351,-0.005412,-0.003293,0.02075,-0.005222,0.001117,-0.004364,0.005387,-0.513238,0.020875,0.279117,-260.815684,-0.618034,66.275406
3.6551,-0.005638,-0.002967,0.020469,-0.005209,0.001116,-0.00437,0.005387,-0.513238,0.020875,0.279117,-260.815684,-0.618034,66.275406
3.675,-0.005687,-0.002746,0.018598,-0.005199,0.001114,-0.004375,0.004581,-0.512818,0.020287,0.286625,-260.817865,-0.625094,66.272826
3.6952,-0.005425,-0.002983,0.020899,-0.005041,0.001104,-0.004325,0.004234,-0.512747,0.019573,0.286625,-260.817865,-0.625094,66.272826
3.7149,-0.005939,-0.003328,0.018639,-0.00492,0.00109,-0.004292,0.005067,-0.51284,0.020759,0.291107,-260.820035,-0.629521,66.270254
3.7348,-0.005992,-0.003544,0.019045,-0.004697,0.001215,-0.004242,0.003687,-0.513203,0.018815,0.291107,-260.820035,-0.629521,66.270254
3.7548,-0.005977,-0.003034,0.019731,-0.004524,0.001305,-0.004212,0.003687,-0.513203,0.018815,0.291107,-260.820035,-0.629521,66.270254
3.7752,-0.005538,-0.003131,0.020032,-0.004391,0.001369,-0.004194,0.00388,-0.512893,0.019553,0.301764,-260.822082,-0.646364,66.267806
3.7948,-0.005918,-0.003118,0.01918,-0.004396,0.00132,-0.004214,0.004185,-0.512944,0.01973,0.301764,-260.822082,-0.646364,66.267806
3.8154,-0.00594,-0.002834,0.019123,-0.004399,0.00128,-0.004229,0.00374,-0.512989,0.019065,0.265187,-260.823674,-0.72134,66.265744
3.8349,-0.006005,-0.002922,0.019944,-0.004344,0.001228,-0.004219,0.003799,-0.512761,0.019112,0.265187,-260.823674,-0.72134,66.265744
3.8553,-0.006172,-0.002996,0.019617,-0.004302,0.001186,-0.004213,0.003799,-0.512761,0.019112,0.265187,-260.823674,-0.72134,66.265744
3.8748,-0.006191,-0.002437,0.019631,-0.004269,0.00115,-0.004211,0.003648,-0.512848,0.019442,0.287928,-260.825494,-0.720533,66.263421
3.8951,-0.006112,-0.002808,0.020546,-0.004232,0.0011,-0.004204,0.003698,-0.512632,0.0195,0.287928,-260.825494,-0.720533,66.263421
3.915,-0.005739,-0.002997,0.018766,-0.004203,0.001058,-0.004201,0.004233,-0.512667,0.020415,0.321367,-260.827261,-0.717035,66.261198
3.935,-0.006381,-0.002702,0.019858,-0.004201,0.001066,-0.00421,0.003859,-0.512885,0.018902,0.321367,-260.827261,-0.717035,66.261198
3.9551,-0.005947,-0.00278,0.019223,-0.004199,0.001071,-0.004218,0.003859,-0.512885,0.018902,0.321367,-260.827261,-0.717035,66.261198
3.9746,-0.006389,-0.002399,0.01853,-0.004197,0.001075,-0.004224,0.003681,-0.512646,0.019049,0.344344,-260.829031,-0.711584,66.258997
3.995,-0.005978,-0.003063,0.018241,-0.004123,0.001027,-0.004201,0.003405,-0.512503,0.018815,0.344344,-260.829031,-0.711584,66.258997
4.0146,-0.007009,-0.002347,0.018355,-0.004067,0.000987,-0.004186,0.003191,-0.512946,0.018107,0.344368,-260.830814,-0.716388,66.256772
4.035,-0.006372,-0.00294,0.018288,-0.003784,0.00099,-0.00412,0.002417,-0.512319,0.018327,0.344368,-260.830814,-0.716388,66.256772
4.0548,-0.006424,-0.002927,0.018187,-0.003571,0.000986,-0.004078,0.002417,-0.512319,0.018327,0.344368,-260.830814,-0.716388,66.256772
4.0748,-0.006735,-0.002695,0.018563,-0.003411,0.000978,-0.004052,0.002682,-0.512804,0.018014,0.368268,-260.832543,-0.716784,66.254632
4.0951,-0.006272,-0.002727,0.017623,-0.003347,0.001042,-0.004055,0.002683,-0.512719,0.01822,0.368268,-260.832543,-0.716784,66.254632
4.1153,-0.006596,-0.002628,0.018071,-0.003296,0.001088,-0.00406,0.002619,-0.512622,0.017509,0.413505,-260.83386,-0.791338,66.252917
4.1352,-0.006792,-0.002243,0.01814,-0.003249,0.001088,-0.00406,0.002615,-0.512551,0.01801,0.413505,-260.83386,-0.791338,66.252917
4.155,-0.006742,-0.002469,0.018455,-0.003212,0.001086,-0.004062,0.002615,-0.512551,0.01801,0.413505,-260.83386,-0.791338,66.252917
4.175,-0.007063,-0.002488,0.018182,-0.003183,0.001083,-0.004065,0.002534,-0.51234,0.018289,0.399314,-260.835264,-0.82496,66.25101
4.1947,-0.00663,-0.002409,0.018218,-0.003108,0.00105,-0.004055,0.002384,-0.512361,0.018225,0.399314,-260.835264,-0.82496,66.25101
4.2152,-0.006542,-0.002303,0.018219,-0.003052,0.001023,-0.004049,0.00256,-0.512292,0.01809,0.414372,-260.83664,-0.84212,66.249119
4.235,-0.006775,-0.002469,0.017601,-0.003107,0.000934,-0.004067,0.002727,-0.512223,0.018201,0.414372,-260.83664,-0.84212,66.249119
4.2549,-0.006821,-0.002727,0.016185,-0.003149,0.000865,-0.004079,0.002727,-0.512223,0.018201,0.414372,-260.83664,-0.84212,66.249119
4.2752,-0.006392,-0.002221,0.018287,-0.003181,0.000813,-0.004087,0.001307,-0.51262,0.016018,0.443406,-260.837971,-0.853158,66.247291
4.295,-0.006993,-0.002257,0.017098,-0.002992,0.000887,-0.004047,0.001953,-0.512419,0.016921,0.443406,-260.837971,-0.853158,66.247291
4.3149,-0.007141,-0.002959,0.016216,-0.002849,0.00094,-0.004022,0.001632,-0.51216,0.016977,0.486616,-260.83932,-0.805216,66.24557
4.3349,-0.006785,-0.002158,0.017123,-0.00251,0.001116,-0.003974,0.00117,-0.512825,0.016278,0.486616,-260.83932,-0.805216,66.24557
4.3553,-0.006364,-0.002984,0.016356,-0.002248,0.001248,-0.003945,0.00117,-0.512825,0.016278,0.486616,-260.83932,-0.805216,66.24557
4.3752,-0.007105,-0.002189,0.016302,-0.002044,0.001347,-0.003929,0.001865,-0.512881,0.016199,0.489242,-260.840518,-0.872831,66.243925
4.3955,-0.007131,-0.002526,0.016663,-0.002014,0.001348,-0.003939,0.00159,-0.512574,0.016222,0.489242,-260.840518,-0.872831,66.243925
4.415,-0.006982,-0.002307,0.016297,-0.001988,0.001348,-0.003948,0.001328,-0.512436,0.0166,0.475409,-260.841003,-0.947709,66.243023
4.4353,-0.006856,-0.00219,0.017658,-0.001896,0.001284,-0.003939,0.001327,-0.512256,0.016321,0.475409,-260.841003,-0.947709,66.243023
4.455,-0.006889,-0.002305,0.017895,-0.001825,0.001233,-0.003934,0.001327,-0.512256,0.016321,0.475409,-260.841003,-0.947709,66.243023
4.475,-0.006912,-0.002222,0.016721,-0.001771,0.001193,-0.003932,0.002171,-0.512185,0.017777,0.490986,-260.841669,-1.022711,66.241768
4.4951,-0.006789,-0.002124,0.015086,-0.001918,0.001089,-0.003967,0.001936,-0.512167,0.017331,0.490986,-260.841669,-1.022711,66.241768
4.5146,-0.006822,-0.002272,0.015468,-0.002029,0.001012,-0.003989,0.000862,-0.512039,0.014996,0.565983,-260.842294,-1.097708,66.2406
4.5347,-0.006987,-0.00235,0.017065,-0.001845,0.001023,-0.003947,0.001046,-0.512194,0.015421,0.565983,-260.842294,-1.097708,66.2406
4.555,-0.006859,-0.002199,0.015482,-0.001706,0.001028,-0.003919,0.001046,-0.512194,0.015421,0.565983,-260.842294,-1.097708,66.2406
4.5752,-0.006659,-0.001872,0.015714,-0.001601,0.001029,-0.0039,0.000958,-0.5121,0.015329,0.612115,-260.843202,-1.038908,66.239134
4.5954,-0.006906,-0.001971,0.016538,-0.001547,0.000964,-0.00389,0.001112,-0.511977,0.01547,0.612115,-260.843202,-1.038908,66.239134
4.6148,-0.007381,-0.002223,0.016139,-0.001506,0.000913,-0.003883,0.001488,-0.511877,0.016444,0.687198,-260.843845,-1.113991,66.237978
4.635,-0.00701,-0.002108,0.017683,-0.001407,0.000929,-0.003875,0.0009,-0.512132,0.01616,0.687198,-260.843845,-1.113991,66.237978
4.6547,-0.006997,-0.002174,0.017672,-0.001331,0.000939,-0.003871,0.0009,-0.512132,0.01616,0.687198,-260.843845,-1.113991,66.237978
4.6748,-0.006832,-0.002357,0.016331,-0.001272,0.000945,-0.00387,0.001959,-0.512061,0.017529,0.76234,-260.844588,-1.140854,66.236699
4.695,-0.006568,-0.002307,0.016075,-0.001495,0.000889,-0.00392,0.001762,-0.512151,0.01702,0.76234,-260.844588,-1.140854,66.236699
4.7148,-0.006381,-0.002011,0.014208,-0.001663,0.000851,-0.003952,0.001595,-0.512215,0.015969,0.837192,-260.845237,-1.203656,66.235492
4.7354,-0.00654,-0.002054,0.015195,-0.001538,0.000833,-0.003902,0.00093,-0.511982,0.014364,0.837192,-260.845237,-1.203656,66.235492
4.7552,-0.006871,-0.002273,0.015314,-0.001444,0.000819,-0.003865,0.00093,-0.511982,0.014364,0.837192,-260.845237,-1.203656,66.235492
4.7747,-0.006717,-0.002067,0.015942,-0.001374,0.000806,-0.003837,0.000888,-0.512186,0.015188,0.762307,-260.845924,-1.128772,66.234388
4.7952,-0.007294,-0.001932,0.015487,-0.001378,0.00082,-0.003842,0.001097,-0.512108,0.015482,0.762307,-260.845924,-1.128772,66.234388
4.8154,-0.00679,-0.002027,0.01741,-0.00138,0.000831,-0.003846,0.000564,-0.511848,0.015378,0.837344,-260.84666,-1.159471,66.233163
4.8351,-0.006106,-0.002044,0.016238,-0.001639,0.000726,-0.003903,0.001929,-0.511938,0.017194,0.837344,-260.84666,-1.159471,66.233163
4.8554,-0.006895,-0.002035,0.01602,-0.001836,0.000652,-0.00394,0.001929,-0.511938,0.017194,0.837344,-260.84666,-1.159471,66.233163
4.8752,-0.006698,-0.001954,0.01508,-0.001988,0.000599,-0.003961,0.001216,-0.511936,0.01586,0.832955,-260.847479,-1.161219,66.231778
4.8953,-0.006585,-0.001852,0.014647,-0.001857,0.000615,-0.003924,0.001118,-0.511916,0.015522,0.832955,-260.847479,-1.161219,66.231778
4.9152,-0.006788,-0.001974,0.015355,-0.001761,0.000626,-0.003898,0.000854,-0.511786,0.014575,0.758017,-260.848063,-1.08628,66.230995
4.9351,-0.00646,-0.002182,0.014615,-0.001658,0.000634,-0.003874,0.001024,-0.511903,0.015284,0.758017,-260.848063,-1.08628,66.230995
4.9551,-0.006702,-0.001924,0.013208,-0.001582,0.000639,-0.003857,0.001024,-0.511903,0.015284,0.758017,-260.848063,-1.08628,66.230995
4.9749,-0.006883,-0.002002,0.016034,-0.001524,0.000642,-0.003847,-3.7e-05,-0.511855,0.013053,0.783825,-260.849014,-1.040987,66.229663
4.9956,-0.007119,-0.002095,0.013597,-0.001303,0.000663,-0.003803,0.000499,-0.511886,0.014255,0.783825,-260.849014,-1.040987,66.229663
5.0151,-0.006587,-0.002137,0.015493,-0.001135,0.000678,-0.003773,-0.000229,-0.51203,0.013486,0.842184,-260.849834,-1.099533,66.228459
5.0351,-0.006698,-0.002051,0.016391,-0.001228,0.000699,-0.003803,0.00117,-0.512071,0.015303,0.842184,-260.849834,-1.099533,66.228459
5.0551,-0.00673,-0.001835,0.014352,-0.001298,0.000717,-0.003823,0.00117,-0.512071,0.015303,0.842184,-260.849834,-1.099533,66.228459
5.075,-0.006274,-0.001923,0.014232,-0.00135,0.000731,-0.003837,0.000555,-0.511764,0.01425,0.917177,-260.850358,-1.174526,66.227617
5.0952,-0.006674,-0.002056,0.014317,-0.001243,0.000694,-0.003806,0.000727,-0.511806,0.014231,0.917177,-260.850358,-1.174526,66.227617
5.1146,-0.006624,-0.001966,0.014858,-0.001163,0.000664,-0.003784,0.000586,-0.511982,0.014199,0.873723,-260.85117,-1.157186,66.22632
5.1355,-0.006617,-0.002287,0.013931,-0.001169,0.000661,-0.003789,0.000918,-0.511915,0.014792,0.873723,-260.85117,-1.157186,66.22632
5.1547,-0.006635,-0.001909,0.012974,-0.001172,0.000659,-0.003792,0.000918,-0.511915,0.014792,0.873723,-260.85117,-1.157186,66.22632
5.1749,-0.006763,-0.001687,0.013155,-0.001174,0.000657,-0.003795,-6.2e-05,-0.511842,0.012836,0.948729,-260.851875,-1.198015,66.225203
5.195,-0.006602,-0.001988,0.014571,-0.00084,0.000641,-0.003716,-6.4e-05,-0.511758,0.012951,0.948729,-260.851875,-1.198015,66.225203
5.2149,-0.006337,-0.001688,0.013436,-0.000584,0.000627,-0.00366,0.000791,-0.511913,0.01445,0.955443,-260.852688,-1.194813,66.223925
5.2348,-0.006519,-0.001849,0.014584,-0.000596,0.000568,-0.003659,0.000537,-0.511665,0.013519,0.955443,-260.852688,-1.194813,66.223925
5.2551,-0.006402,-0.002044,0.012807,-0.000603,0.000523,-0.003658,0.000537,-0.511665,0.013519,0.955443,-260.852688,-1.194813,66.223925
5.2751,-0.006403,-0.001498,0.014357,-0.000609,0.000489,-0.003655,0.000122,-0.511997,0.012779,1.030423,-260.852821,-1.269793,66.223699
5.2952,-0.006624,-0.001888,0.014556,-0.000584,0.000497,-0.003644,0.00045,-0.511769,0.013426,1.030423,-260.852821,-1.269793,66.223699
5.3146,-0.006249,-0.001323,0.013436,-0.000565,0.000503,-0.003635,0.000789,-0.511827,0.014504,1.105647,-260.853158,-1.345018,66.223189
5.335,-0.006363,-0.002157,0.014064,-0.00061,0.000356,-0.003639,0.000619,-0.511325,0.013529,1.105647,-260.853158,-1.345018,66.223189
5.3548,-0.006599,-0.001662,0.013774,-0.000646,0.000245,-0.003639,0.000619,-0.511325,0.013529,1.105647,-260.853158,-1.345018,66.223189
5.3752,-0.006436,-0.00164,0.014311,-0.000674,0.000161,-0.003637,0.000406,-0.511598,0.013668,1.180391,-260.853667,-1.366342,66.222406
5.395,-0.006594,-0.001646,0.014594,-0.000707,0.000184,-0.003643,0.000596,-0.511592,0.013927,1.180391,-260.853667,-1.366342,66.222406
5.4149,-0.006716,-0.001817,0.013945,-0.000731,0.000202,-0.003647,0.00083,-0.511588,0.014497,1.254577,-260.854396,-1.29507,66.221573
5.435,-0.006897,-0.001878,0.013404,-0.000692,0.000272,-0.003645,0.000431,-0.511752,0.013986,1.254577,-260.854396,-1.29507,66.221573
5.4549,-0.006505,-0.002103,0.014261,-0.000662,0.000325,-0.003646,0.000431,-0.511752,0.013986,1.254577,-260.854396,-1.29507,66.221573
5.4748,-0.006329,-0.001806,0.014005,-0.000638,0.000365,-0.003647,0.000738,-0.512043,0.014111,1.22455,-260.85524,-1.278508,66.220579
5.495,-0.006355,-0.001376,0.012804,-0.000733,0.000425,-0.003666,0.000765,-0.511926,0.014051,1.22455,-260.85524,-1.278508,66.220579
5.515,-0.006362,-0.00186,0.012416,-0.000804,0.000473,-0.003678,0.000155,-0.511323,0.012693,1.240828,-260.855993,-1.329486,66.219559
5.5353,-0.006544,-0.001537,0.014634,-0.000589,0.000495,-0.003603,-1.4e-05,-0.511777,0.012435,1.240828,-260.855993,-1.329486,66.219559
5.5551,-0.006171,-0.001551,0.01169,-0.000424,0.000511,-0.003548,-1.4e-05,-0.511777,0.012435,1.240828,-260.855993,-1.329486,66.219559
5.5751,-0.006256,-0.001635,0.012403,-0.000298,0.000522,-0.003507,-0.000237,-0.5115,0.011561,1.1658,-260.856644,-1.283261,66.218611
5.595,-0.006401,-0.002125,0.013289,-0.000155,0.000458,-0.003447,-0.000115,-0.511538,0.01189,1.1658,-260.856644,-1.283261,66.218611
5.6148,-0.006208,-0.001566,0.013458,-4.7e-05,0.000409,-0.003402,0.000372,-0.512075,0.013259,1.240898,-260.856822,-1.358358,66.21832
5.6348,-0.006387,-0.001753,0.012545,-0.000235,0.00035,-0.003459,0.00063,-0.51157,0.013439,1.240898,-260.856822,-1.358358,66.21832
5.6549,-0.006439,-0.001828,0.012624,-0.000377,0.000308,-0.003498,0.00063,-0.51157,0.013439,1.240898,-260.856822,-1.358358,66.21832
5.6746,-0.006205,-0.001654,0.011343,-0.000485,0.000278,-0.003526,-3e-06,-0.511785,0.012606,1.315768,-260.856906,-1.433228,66.218196
5.695,-0.006329,-0.001595,0.013679,-0.000286,0.000328,-0.00346,-0.000176,-0.511717,0.01208,1.315768,-260.856906,-1.433228,66.218196
5.715,-0.006235,-0.001957,0.013682,-0.000134,0.000364,-0.003411,0.000632,-0.511539,0.013573,1.317951,-260.857637,-1.374112,66.21726
5.735,-0.006155,-0.001549,0.011851,-0.000332,0.000402,-0.00347,0.000732,-0.511876,0.013667,1.317951,-260.857637,-1.374112,66.21726
5.7554,-0.006076,-0.001952,0.014709,-0.000482,0.000434,-0.003512,0.000732,-0.511876,0.013667,1.317951,-260.857637,-1.374112,66.21726
5.7748,-0.006105,-0.00216,0.013094,-0.000595,0.000461,-0.003541,0.001419,-0.51189,0.014646,1.392846,-260.857942,-1.449007,66.216827
5.7951,-0.006331,-0.001825,0.012483,-0.000791,0.000489,-0.003588,0.001074,-0.511981,0.014007,1.392846,-260.857942,-1.449007,66.216827
5.8148,-0.005914,-0.001833,0.013232,-0.000941,0.000515,-0.00362,2.6e-05,-0.511778,0.012418,1.317882,-260.858351,-1.374042,66.216217
5.8352,-0.006024,-0.001918,0.013242,-0.000953,0.000501,-0.003601,0.000762,-0.511787,0.013156,1.317882,-260.858351,-1.374042,66.216217
5.8551,-0.006103,-0.001877,0.012862,-0.000964,0.000492,-0.003586,0.000762,-0.511787,0.013156,1.317882,-260.858351,-1.374042,66.216217
5.8754,-0.006056,-0.001909,0.013849,-0.000975,0.000486,-0.003573,0.000449,-0.51183,0.01282,1.242897,-260.858555,-1.299057,66.215913
5.8949,-0.006037,-0.001286,0.01445,-0.000953,0.000504,-0.003559,0.000672,-0.511841,0.013229,1.242897,-260.858555,-1.299057,66.215913
5.9148,-0.006026,-0.001557,0.01238,-0.000938,0.000518,-0.003549,0.001318,-0.511226,0.014392,1.167898,-260.858943,-1.224058,66.21535
5.9347,-0.006109,-0.001525,0.012247,-0.000819,0.000434,-0.003504,0.000379,-0.511492,0.012556,1.167898,-260.858943,-1.224058,66.21535
5.9547,-0.006111,-0.001679,0.014053,-0.000731,0.00037,-0.00347,0.000379,-0.511492,0.012556,1.167898,-260.858943,-1.224058,66.21535
5.9748,-0.005631,-0.001828,0.012913,-0.000667,0.000321,-0.003445,0.001025,-0.511613,0.013931,1.092901,-260.859558,-1.234749,66.214428
5.9948,-0.005968,-0.00154,0.012684,-0.000835,0.000306,-0.003486,0.000993,-0.51168,0.013506,1.092901,-260.859558,-1.234749,66.214428
6.015,-0.005871,-0.001519,0.012205,-0.000963,0.000297,-0.003513,0.000484,-0.511492,0.012604,1.167895,-260.86012,-1.302543,66.213686
6.0349,-0.006243,-0.002068,0.011263,-0.000836,0.000264,-0.003455,0.000363,-0.511481,0.012235,1.167895,-260.86012,-1.302543,66.213686
6.0548,-0.005425,-0.00138,0.011857,-0.000742,0.000238,-0.003411,0.000363,-0.511481,0.012235,1.167895,-260.86012,-1.302543,66.213686
6.0749,-0.005774,-0.001688,0.013287,-0.000671,0.000218,-0.003378,0.000593,-0.511334,0.011746,1.092758,-260.86075,-1.227406,66.212892
6.0951,-0.005901,-0.001467,0.011146,-0.000761,0.000171,-0.003377,0.000758,-0.51146,0.012367,1.092758,-260.86075,-1.227406,66.212892
6.1152,-0.006229,-0.001461,0.011816,-0.000829,0.000137,-0.003372,-0.000233,-0.51143,0.011069,1.167721,-260.86132,-1.284746,66.212202
6.1351,-0.005847,-0.001352,0.010518,-0.000536,0.000138,-0.003307,-0.000206,-0.511425,0.011749,1.167721,-260.86132,-1.284746,66.212202
6.155,-0.005952,-0.001775,0.012365,-0.000311,0.000137,-0.00326,-0.000206,-0.511425,0.011749,1.167721,-260.86132,-1.284746,66.212202
6.1752,-0.006211,-0.001395,0.012501,-0.000139,0.000134,-0.003228,0.000322,-0.511731,0.012236,1.16352,-260.862085,-1.209848,66.211344
6.195,-0.005655,-0.001713,0.011761,-0.000175,0.000165,-0.003251,0.000254,-0.511576,0.01233,1.16352,-260.862085,-1.209848,66.211344
6.2149,-0.005964,-0.001644,0.011697,-0.000201,0.000188,-0.003269,0.000343,-0.511677,0.011757,1.238514,-260.862115,-1.284842,66.21131
6.235,-0.00597,-0.001518,0.011098,-0.00014,0.000224,-0.003239,3.2e-05,-0.511615,0.011702,1.238514,-260.862115,-1.284842,66.21131
6.2551,-0.005618,-0.001561,0.011107,-9.2e-05,0.00025,-0.003216,3.2e-05,-0.511615,0.011702,1.238514,-260.862115,-1.284842,66.21131
6.2751,-0.005776,-0.001487,0.010856,-5.5e-05,0.00027,-0.003199,4.2e-05,-0.511528,0.011074,1.313391,-260.862294,-1.359719,66.211094
6.2952,-0.005328,-0.00161,0.013231,1.6e-05,0.000248,-0.003133,-7.3e-05,-0.511499,0.010982,1.313391,-260.862294,-1.359719,66.211094
6.3151,-0.005838,-0.001572,0.011668,7e-05,0.000231,-0.003083,0.001417,-0.511563,0.013205,1.388393,-260.862464,-1.434721,66.21087
6.3349,-0.005625,-0.001697,0.013133,0.0,0.000222,-0.003108,0.000234,-0.51154,0.011809,1.388393,-260.862464,-1.434721,66.21087
6.355,-0.006269,-0.001537,0.012077,-5.2e-05,0.000217,-0.003126,0.000234,-0.51154,0.011809,1.388393,-260.862464,-1.434721,66.21087
6.3753,-0.005542,-0.001453,0.010691,-9.1e-05,0.000213,-0.003139,-0.000112,-0.511497,0.012041,1.463435,-260.862648,-1.509764,66.210634
6.3954,-0.005967,-0.001394,0.011448,4e-06,0.000198,-0.003119,-0.000103,-0.511467,0.011488,1.463435,-260.862648,-1.509764,66.210634
6.415,-0.005865,-0.001639,0.011894,7.5e-05,0.000186,-0.003105,-0.000131,-0.511354,0.011353,1.517694,-260.863296,-1.528305,66.209824
6.4351,-0.005874,-0.001432,0.013312,2.8e-05,0.000203,-0.003126,0.000171,-0.511581,0.011841,1.517694,-260.863296,-1.528305,66.209824
6.455,-0.006021,-0.001467,0.012141,-7e-06,0.000217,-0.003141,0.000171,-0.511581,0.011841,1.517694,-260.863296,-1.528305,66.209824
6.4754,-0.005826,-0.00146,0.011858,-3.3e-05,0.000227,-0.003152,0.000173,-0.511423,0.012039,1.592739,-260.863829,-1.60335,66.209175
6.4956,-0.006163,-0.001443,0.011149,-5.7e-05,0.000185,-0.003168,0.000193,-0.511423,0.011955,1.592739,-260.863829,-1.60335,66.209175
6.5149,-0.005794,-0.00177,0.011941,-7.6e-05,0.000153,-0.003179,-0.000478,-0.511404,0.011055,1.551345,-260.864466,-1.555455,66.208368
6.5348,-0.005724,-0.001637,0.011955,-0.000108,0.000214,-0.003183,0.000226,-0.511703,0.011857,1.551345,-260.864466,-1.555455,66.208368
6.5551,-0.005579,-0.001489,0.012661,-0.000132,0.000261,-0.003186,0.000226,-0.511703,0.011857,1.551345,-260.864466,-1.555455,66.208368
6.575,-0.005333,-0.001465,0.011154,-0.000149,0.000297,-0.003188,0.000874,-0.511441,0.01253,1.528191,-260.865171,-1.534403,66.207543
6.595,-0.005132,-0.001499,0.011453,-0.000319,0.000216,-0.003216,0.000664,-0.511437,0.011959,1.528191,-260.865171,-1.534403,66.207543
6.6148,-0.005348,-0.001826,0.010444,-0.000448,0.000158,-0.003232,0.000704,-0.511457,0.011357,1.480512,-260.865801,-1.504344,66.206687
6.635,-0.005453,-0.001296,0.011369,-0.000334,0.000239,-0.003113,4.4e-05,-0.511767,0.010521,1.480512,-260.865801,-1.504344,66.206687
6.6549,-0.005802,-0.001091,0.011518,-0.000246,0.000301,-0.003024,4.4e-05,-0.511767,0.010521,1.480512,-260.865801,-1.504344,66.206687
6.6752,-0.00524,-0.001597,0.010711,-0.000179,0.000349,-0.002957,6.6e-05,-0.511054,0.011449,1.405509,-260.866179,-1.429341,66.206247
6.6948,-0.005446,-0.001358,0.010232,-0.000144,0.000229,-0.00296,0.000131,-0.51127,0.01113,1.405509,-260.866179,-1.429341,66.206247
6.7146,-0.005348,-0.001424,0.01128,-0.000119,0.000139,-0.002962,-0.000233,-0.511321,0.010146,1.448452,-260.866716,-1.487831,66.205456
6.735,-0.005238,-0.001059,0.010986,-0.000184,9.9e-05,-0.002975,0.000345,-0.511385,0.011171,1.448452,-260.866716,-1.487831,66.205456
6.755,-0.005277,-0.001682,0.012952,-0.000233,7e-05,-0.002984,0.000345,-0.511385,0.011171,1.448452,-260.866716,-1.487831,66.205456
6.7747,-0.005531,-0.001606,0.010708,-0.000271,4.9e-05,-0.002989,0.001324,-0.511634,0.012835,1.499546,-260.867357,-1.509668,66.204709
6.795,-0.005631,-0.001516,0.009811,-0.000441,8.3e-05,-0.003058,0.000736,-0.511609,0.011924,1.499546,-260.867357,-1.509668,66.204709
6.8153,-0.005737,-0.001117,0.009844,-0.000569,0.000111,-0.003107,-0.000635,-0.51149,0.009734,1.424154,-260.867937,-1.434276,66.204098
6.8353,-0.005423,-0.0016,0.011462,-0.000155,5e-06,-0.002939,-0.00071,-0.511126,0.009831,1.424154,-260.867937,-1.434276,66.204098
6.8552,-0.005304,-0.001438,0.01033,0.000163,-7.7e-05,-0.002817,-0.00071,-0.511126,0.009831,1.424154,-260.867937,-1.434276,66.204098
6.8749,-0.005106,-0.001721,0.011263,0.000408,-0.00014,-0.002728,-4.4e-05,-0.511409,0.010266,1.349386,-260.868297,-1.359509,66.203698
6.895,-0.005457,-0.00176,0.012752,0.000253,-7.4e-05,-0.002768,0.000232,-0.511523,0.010665,1.349386,-260.868297,-1.359509,66.203698
6.915,-0.005368,-0.001657,0.011177,0.000137,-2.2e-05,-0.002795,0.001046,-0.511718,0.012752,1.274455,-260.868297,-1.284578,66.203698
6.9352,-0.005035,-0.001589,0.013026,-8e-06,4.7e-05,-0.002864,0.000396,-0.511633,0.011318,1.274455,-260.868297,-1.284578,66.203698
6.9549,-0.00555,-0.001474,0.011791,-0.000117,0.000102,-0.002915,0.000396,-0.511633,0.011318,1.274455,-260.868297,-1.284578,66.203698
6.9751,-0.00551,-0.001348,0.012022,-0.000199,0.000146,-0.002952,0.000463,-0.511438,0.011789,1.349369,-260.868305,-1.359491,66.20369
6.9956,-0.004991,-0.001466,0.010415,-0.000307,9.6e-05,-0.003016,0.000526,-0.511387,0.011883,1.349369,-260.868305,-1.359491,66.20369
7.0154,-0.005432,-0.00153,0.01089,-0.000391,5.9e-05,-0.003064,0.000314,-0.511435,0.010349,1.424358,-260.86877,-1.43448,66.203144
7.0352,-0.005146,-0.001406,0.011981,-0.000315,8.3e-05,-0.003016,0.000138,-0.511494,0.010839,1.424358,-260.86877,-1.43448,66.203144
7.0551,-0.005137,-0.001357,0.011158,-0.000258,0.000101,-0.00298,0.000138,-0.511494,0.010839,1.424358,-260.86877,-1.43448,66.203144
7.0751,-0.004741,-0.001607,0.010414,-0.000216,0.000115,-0.002953,0.000539,-0.511323,0.011046,1.358323,-260.869418,-1.37104,66.202455
7.0956,-0.005198,-0.001424,0.009437,-0.000333,8.2e-05,-0.002943,0.00055,-0.511427,0.010775,1.358323,-260.869418,-1.37104,66.202455
7.1154,-0.005099,-0.001462,0.010016,-0.000423,5.9e-05,-0.002932,-0.000392,-0.511398,0.009363,1.433311,-260.869954,-1.446029,66.201848
7.1349,-0.005364,-0.001297,0.010586,-0.000283,6.4e-05,-0.002823,-2.7e-05,-0.511433,0.009953,1.433311,-260.869954,-1.446029,66.201848
7.155,-0.004936,-0.001266,0.01071,-0.000178,6.8e-05,-0.002741,-2.7e-05,-0.511433,0.009953,1.433311,-260.869954,-1.446029,66.201848
7.1748,-0.005132,-0.001578,0.010892,-9.7e-05,7.1e-05,-0.00268,0.000515,-0.511235,0.010621,1.358304,-260.870467,-1.371021,66.201301
7.1952,-0.005155,-0.001039,0.010095,-0.00022,3.2e-05,-0.002723,0.000476,-0.511361,0.01072,1.358304,-260.870467,-1.371021,66.201301
7.2152,-0.004534,-0.001031,0.012353,-0.000312,4e-06,-0.002754,-1e-05,-0.511012,0.010052,1.433286,-260.870782,-1.446003,66.200958
7.2352,-0.004964,-0.001608,0.008443,-0.000771,-0.00022,-0.002921,0.001604,-0.510994,0.012142,1.433286,-260.870782,-1.446003,66.200958
7.2549,-0.005334,-0.00131,0.011603,-0.001124,-0.000382,-0.003037,0.001604,-0.510994,0.012142,1.433286,-260.870782,-1.446003,66.200958
7.2757,-0.004535,-0.001506,0.009177,-0.001396,-0.0005,-0.003117,0.000571,-0.511275,0.011498,1.386881,-260.871406,-1.387713,66.200331
7.2955,-0.004907,-0.001644,0.009913,-0.001184,-0.000385,-0.00301,0.000397,-0.511361,0.010542,1.386881,-260.871406,-1.387713,66.200331
7.3149,-0.005132,-0.001495,0.010706,-0.001026,-0.000297,-0.002932,0.000149,-0.511619,0.009913,1.311931,-260.871407,-1.312763,66.200331
7.3351,-0.004617,-0.001495,0.010432,-0.000878,-0.000189,-0.002877,0.000312,-0.511479,0.010634,1.311931,-260.871407,-1.312763,66.200331
7.3551,-0.004806,-0.001306,0.010079,-0.000766,-0.000108,-0.002838,0.000312,-0.511479,0.010634,1.311931,-260.871407,-1.312763,66.200331
7.3746,-0.005049,-0.001539,0.00897,-0.000679,-4.7e-05,-0.00281,0.000332,-0.511281,0.010068,1.236929,-260.871478,-1.237761,66.200275
7.3949,-0.004843,-0.001652,0.008775,-0.000502,-3.3e-05,-0.002679,5e-06,-0.511377,0.009622,1.236929,-260.871478,-1.237761,66.200275
7.4149,-0.00533,-0.001509,0.009847,-0.000367,-2.2e-05,-0.002582,-0.000388,-0.511634,0.008691,1.203061,-260.872188,-1.184205,66.199598
7.4349,-0.004924,-0.001525,0.009696,-0.000157,3e-05,-0.002518,-0.000316,-0.511498,0.009743,1.203061,-260.872188,-1.184205,66.199598
7.4547,-0.004671,-0.001425,0.010279,6e-06,6.8e-05,-0.002473,-0.000316,-0.511498,0.009743,1.203061,-260.872188,-1.184205,66.199598
7.4747,-0.004754,-0.001349,0.008729,0.000133,9.6e-05,-0.002442,0.000562,-0.511399,0.010227,1.278153,-260.87251,-1.259298,66.199285
7.4949,-0.005293,-0.00162,0.009579,4.8e-05,5.8e-05,-0.002423,0.000208,-0.511371,0.009609,1.278153,-260.87251,-1.259298,66.199285
7.5149,-0.004876,-0.001381,0.00991,-1.6e-05,3.1e-05,-0.002407,-0.000407,-0.511596,0.009579,1.353168,-260.872514,-1.334312,66.199281
7.535,-0.005191,-0.00164,0.00842,-3.2e-05,1.9e-05,-0.002418,0.000127,-0.511376,0.009881,1.353168,-260.872514,-1.334312,66.199281
7.5548,-0.005046,-0.001385,0.0108,-4.4e-05,1.1e-05,-0.002426,0.000127,-0.511376,0.009881,1.353168,-260.872514,-1.334312,66.199281
7.5749,-0.004929,-0.001653,0.009628,-5.3e-05,5e-06,-0.002432,0.000459,-0.511355,0.010778,1.42817,-260.87264,-1.409315,66.199149
7.595,-0.004907,-0.001653,0.009359,-0.000109,2.7e-05,-0.002479,0.000263,-0.511467,0.010303,1.42817,-260.87264,-1.409315,66.199149
7.6149,-0.004789,-0.001464,0.009763,-0.000152,4.5e-05,-0.002515,-0.000137,-0.511631,0.009309,1.503177,-260.873022,-1.484321,66.198764
7.6348,-0.005048,-0.00167,0.009436,-0.000147,5.5e-05,-0.00248,0.000161,-0.511456,0.009721,1.503177,-260.873022,-1.484321,66.198764
7.6555,-0.004355,-0.001603,0.010438,-0.000143,6.2e-05,-0.002453,0.000161,-0.511456,0.009721,1.503177,-260.873022,-1.484321,66.198764
7.6751,-0.004679,-0.001112,0.01008,-0.000141,6.8e-05,-0.002432,0.000962,-0.511574,0.010335,1.469487,-260.87361,-1.475223,66.198142
7.6955,-0.004593,-0.001313,0.009563,-0.000355,1.4e-05,-0.002492,0.000756,-0.511373,0.010218,1.469487,-260.87361,-1.475223,66.198142
7.7151,-0.004898,-0.001489,0.008471,-0.000517,-2.3e-05,-0.002532,0.00028,-0.511288,0.009486,1.471758,-260.874179,-1.480391,66.197518
7.7351,-0.00502,-0.001422,0.010922,-0.000206,3e-06,-0.002322,-0.000504,-0.511455,0.008554,1.471758,-260.874179,-1.480391,66.197518
7.7553,-0.004735,-0.000861,0.009132,3.4e-05,2.4e-05,-0.002169,-0.000504,-0.511455,0.008554,1.471758,-260.874179,-1.480391,66.197518
7.7751,-0.00466,-0.001447,0.009831,0.000218,3.9e-05,-0.002058,-8e-05,-0.51084,0.009111,1.396713,-260.874302,-1.405346,66.197398
7.7954,-0.004605,-0.001519,0.009697,0.000161,-8e-05,-0.002103,9.8e-05,-0.51108,0.009406,1.396713,-260.874302,-1.405346,66.197398
7.8151,-0.004536,-0.00139,0.0098,0.000118,-0.000169,-0.002136,0.000341,-0.511495,0.009697,1.321722,-260.874302,-1.480336,66.197398
7.8352,-0.005105,-0.00122,0.009089,-5.2e-05,-0.00015,-0.002213,0.000452,-0.511377,0.009791,1.321722,-260.874302,-1.480336,66.197398
7.8548,-0.004966,-0.001514,0.009241,-0.000179,-0.000134,-0.002268,0.000452,-0.511377,0.009791,1.321722,-260.874302,-1.480336,66.197398
7.8751,-0.004967,-0.00158,0.010704,-0.000275,-0.000119,-0.002307,-0.000254,-0.511493,0.009232,1.39676,-260.874358,-1.555373,66.197355
7.8948,-0.004814,-0.001263,0.008184,-0.000208,-4.3e-05,-0.002326,5.9e-05,-0.511517,0.009848,1.39676,-260.874358,-1.555373,66.197355
7.915,-0.004882,-0.0016,0.00752,-0.000156,1.4e-05,-0.002343,-0.000643,-0.511247,0.008144,1.392761,-260.874693,-1.480128,66.19707
7.9354,-0.004442,-0.00153,0.011386,0.000207,4e-05,-0.002006,-0.001012,-0.511556,0.007572,1.392761,-260.874693,-1.480128,66.19707
7.9554,-0.004868,-0.001275,0.009441,0.000491,6.2e-05,-0.001763,-0.001012,-0.511556,0.007572,1.392761,-260.874693,-1.480128,66.19707
7.9752,-0.00423,-0.00168,0.008009,0.000712,8e-05,-0.00159,-5.9e-05,-0.511252,0.009351,1.461209,-260.87522,-1.463259,66.196534
7.995,-0.004226,-0.001968,0.008018,0.0006,6.3e-05,-0.001675,-9.5e-05,-0.511419,0.008794,1.461209,-260.87522,-1.463259,66.196534
8.0149,-0.004452,-0.001168,0.009317,0.000517,5.1e-05,-0.001738,-0.000137,-0.511952,0.008018,1.386212,-260.87522,-1.388262,66.196534
8.0351,-0.004373,-0.001564,0.009652,0.000327,-3.7e-05,-0.001848,0.000262,-0.511217,0.009203,1.386212,-260.87522,-1.388262,66.196534
8.0549,-0.004632,-0.001518,0.009975,0.000183,-0.000102,-0.001928,0.000262,-0.511217,0.009203,1.386212,-260.87522,-1.388262,66.196534
8.0748,-0.004387,-0.001128,0.009048,7.4e-05,-0.000149,-0.001985,0.000455,-0.511493,0.009975,1.311222,-260.87522,-1.313273,66.196534
8.095,-0.004296,-0.001445,0.009189,-4.7e-05,-0.000145,-0.002071,0.000361,-0.511333,0.009592,1.311222,-260.87522,-1.313273,66.196534
8.1148,-0.004772,-0.001551,0.009252,-0.000139,-0.00014,-0.002134,0.00039,-0.511424,0.009187,1.386235,-260.875239,-1.388286,66.196518
8.1349,-0.004674,-0.001543,0.00931,0.0,0.0,0.0,-1.5e-05,-0.51152,0.009247,1.386235,-260.875239,-1.388286,66.196518
8.1547,-0.004633,-0.001306,0.00935,0.0,0.0,0.0,-1.5e-05,-0.51152,0.009247,1.386235,-260.875239,-1.388286,66.196518
8.1747,-0.004665,-0.001395,0.009655,0.0,0.0,0.0,0.000131,-0.511288,0.009277,1.461253,-260.875718,-1.452244,66.196132
8.1946,-0.004437,-0.001734,0.008853,0.0,0.0,0.0,0.000183,-0.511323,0.009424,1.461253,-260.875718,-1.452244,66.196132
8.2147,-0.005014,-0.001327,0.010074,0.0,0.0,0.0,7.8e-05,-0.511714,0.008853,1.461253,-260.875718,-1.452244,66.196132
8.2349,-0.004629,-0.001565,0.007882,0.0,0.0,0.0,0.00012,-0.511337,0.009968,1.461253,-260.875718,-1.452244,66.196132
8.2547,-0.004479,-0.001666,0.010277,0.0,0.0,0.0,0.00012,-0.511337,0.009968,1.461253,-260.875718,-1.452244,66.196132
8.2751,-0.004713,-0.001482,0.008421,0.0,0.0,0.0,0.000762,-0.511639,0.010277,1.461253,-260.875718,-1.452244,66.196132
8.2951,-0.004497,-0.001331,0.008455,0.0,0.0,0.0,0.000281,-0.511568,0.009521,1.461253,-260.875718,-1.452244,66.196132
8.3149,-0.004729,-0.00149,0.010423,0.0,0.0,0.0,-0.000185,-0.511312,0.008455,1.461253,-260.875718,-1.452244,66.196132
8.3348,-0.004788,-0.001416,0.00821,0.0,0.0,0.0,0.000513,-0.511448,0.010235,1.461253,-260.875718,-1.452244,66.196132
8.3549,-0.005178,-0.001589,0.010263,0.0,0.0,0.0,0.000513,-0.511448,0.010235,1.461253,-260.875718,-1.452244,66.196132
8.3748,-0.004703,-0.001669,0.008885,0.0,0.0,0.0,5.6e-05,-0.511562,0.010263,1.461253,-260.875718,-1.452244,66.196132
8.3948,-0.004587,-0.00158,0.009053,0.0,0.0,0.0,-3.8e-05,-0.511598,0.009694,1.461253,-260.875718,-1.452244,66.196132
8.415,-0.004636,-0.001558,0.009113,0.0,0.0,0.0,3e-05,-0.511559,0.009053,1.461253,-260.875718,-1.452244,66.196132
8.4349,-0.004499,-0.001633,0.009683,0.0,0.0,0.0,1.3e-05,-0.511539,0.009108,1.461253,-260.875718,-1.452244,66.196132
8.4547,-0.004442,-0.001066,0.009074,0.0,0.0,0.0,1.3e-05,-0.511539,0.009108,1.461253,-260.875718,-1.452244,66.196132
8.4752,-0.004657,-0.001237,0.0098,0.0,0.0,0.0,0.000186,-0.511045,0.009074,1.461253,-260.875718,-1.452244,66.196132
8.4951,-0.00467,-0.001649,0.008992,0.0,0.0,0.0,0.00025,-0.511114,0.009374,1.461253,-260.875718,-1.452244,66.196132
8.5152,-0.004584,-0.001704,0.008542,0.0,0.0,0.0,-8.4e-05,-0.511628,0.008992,1.461253,-260.875718,-1.452244,66.196132
8.5346,-0.004698,-0.001329,0.008058,0.0,0.0,0.0,-0.000211,-0.511679,0.008594,1.461253,-260.875718,-1.452244,66.196132
8.5545,-0.004791,-0.001676,0.009055,0.0,0.0,0.0,-0.000211,-0.511679,0.008594,1.461253,-260.875718,-1.452244,66.196132
8.5751,-0.004613,-0.001467,0.00873,0.0,0.0,0.0,-0.000173,-0.511655,0.009055,1.461253,-260.875718,-1.452244,66.196132
8.5952,-0.00432,-0.001285,0.01131,0.0,0.0,0.0,-0.000168,-0.511569,0.008921,1.461253,-260.875718,-1.452244,66.196132
8.6148,-0.004516,-0.001536,0.009347,0.0,0.0,0.0,0.001448,-0.511253,0.01131,1.461253,-260.875718,-1.452244,66.196132
8.635,-0.004398,-0.001643,0.008175,0.0,0.0,0.0,0.000358,-0.51149,0.009523,1.461253,-260.875718,-1.452244,66.196132
8.655,-0.004927,-0.001318,0.008144,0.0,0.0,0.0,0.000358,-0.51149,0.009523,1.461253,-260.875718,-1.452244,66.196132
8.6747,-0.004213,-0.001315,0.008828,0.0,0.0,0.0,-0.000773,-0.511301,0.008144,1.461253,-260.875718,-1.452244,66.196132
8.6947,-0.004545,-0.001474,0.009433,0.0,0.0,0.0,-0.000342,-0.511298,0.008422,1.461253,-260.875718,-1.452244,66.196132
8.7148,-0.004381,-0.001498,0.008883,0.0,0.0,0.0,0.000265,-0.511451,0.009433,1.461253,-260.875718,-1.452244,66.196132
8.735,-0.004535,-0.001717,0.009782,0.0,0.0,0.0,0.000159,-0.511476,0.00893,1.461253,-260.875718,-1.452244,66.196132
8.7549,-0.004443,-0.001241,0.007675,0.0,0.0,0.0,0.000159,-0.511476,0.00893,1.461253,-260.875718,-1.452244,66.196132
8.7748,-0.004329,-0.001505,0.010019,0.0,0.0,0.0,-0.000529,-0.511226,0.007675,1.461253,-260.875718,-1.452244,66.196132
8.7954,-0.00469,-0.001388,0.009856,0.0,0.0,0.0,1e-05,-0.511331,0.00864,1.461253,-260.875718,-1.452244,66.196132
8.8149,-0.00458,-0.001562,0.010368,0.0,0.0,0.0,0.000336,-0.511363,0.009856,1.461253,-260.875718,-1.452244,66.196132
8.8348,-0.004604,-0.001436,0.008374,0.0,0.0,0.0,0.000674,-0.511519,0.010322,1.461253,-260.875718,-1.452244,66.196132
8.855,-0.004317,-0.001277,0.010452,0.0,0.0,0.0,0.000674,-0.511519,0.010322,1.461253,-260.875718,-1.452244,66.196132
8.875,-0.004799,-0.00113,0.009023,0.0,0.0,0.0,0.001013,-0.51125,0.010452,1.461253,-260.875718,-1.452244,66.196132
8.8951,-0.004828,-0.001377,0.010125,0.0,0.0,0.0,0.000516,-0.511192,0.009865,1.461253,-260.875718,-1.452244,66.196132
8.9148,-0.004558,-0.001436,0.008184,0.0,0.0,0.0,0.000336,-0.511351,0.010125,1.461253,-260.875718,-1.452244,66.196132
8.9349,-0.004348,-0.001498,0.00944,0.0,0.0,0.0,-0.00032,-0.511413,0.008358,1.461253,-260.875718,-1.452244,66.196132
8.9551,-0.004569,-0.001387,0.01078,0.0,0.0,0.0,-0.00032,-0.511413,0.008358,1.461253,-260.875718,-1.452244,66.196132
8.9749,-0.004776,-0.001904,0.008122,0.0,0.0,0.0,0.000929,-0.511358,0.01078,1.461253,-260.875718,-1.452244,66.196132
8.995,-0.004331,-0.001507,0.009278,0.0,0.0,0.0,0.000287,-0.511575,0.009688,1.461253,-260.875718,-1.452244,66.196132
9.015,-0.004273,-0.001522,0.008073,0.0,0.0,0.0,0.000401,-0.511485,0.009278,1.461253,-260.875718,-1.452244,66.196132
9.0348,-0.004326,-0.001659,0.010576,0.0,0.0,0.0,-0.000107,-0.511503,0.008179,1.461253,-260.875718,-1.452244,66.196132
9.0549,-0.004883,-0.001234,0.010289,0.0,0.0,0.0,-0.000107,-0.511503,0.008179,1.461253,-260.875718,-1.452244,66.196132
9.0747,-0.004746,-0.001623,0.010298,0.0,0.0,0.0,0.000364,-0.511207,0.010289,1.461253,-260.875718,-1.452244,66.196132
9.0949,-0.004369,-0.001707,0.010776,0.0,0.0,0.0,0.000422,-0.511366,0.010292,1.461253,-260.875718,-1.452244,66.196132
9.1151,-0.004681,-0.001215,0.010674,0.0,0.0,0.0,0.001126,-0.511678,0.010776,1.461253,-260.875718,-1.452244,66.196132
9.1352,-0.004278,-0.001393,0.010857,0.0,0.0,0.0,0.000795,-0.51123,0.010683,1.461253,-260.875718,-1.452244,66.196132
9.1553,-0.00466,-0.001512,0.010088,0.0,0.0,0.0,0.000795,-0.51123,0.010683,1.461253,-260.875718,-1.452244,66.196132
9.1753,-0.004409,-0.001309,0.009206,0.0,0.0,0.0,0.000485,-0.511486,0.010088,1.461253,-260.875718,-1.452244,66.196132
9.195,-0.004538,-0.002048,0.008971,0.0,0.0,0.0,0.000403,-0.511404,0.009725,1.461253,-260.875718,-1.452244,66.196132
9.215,-0.004515,-0.001457,0.00935,0.0,0.0,0.0,3.7e-05,-0.512028,0.008971,1.461253,-260.875718,-1.452244,66.196132
9.2351,-0.004478,-0.001496,0.008924,0.0,0.0,0.0,0.000235,-0.511485,0.009318,1.461253,-260.875718,-1.452244,66.196132
9.2553,-0.004793,-0.001297,0.010007,0.0,0.0,0.0,0.000235,-0.511485,0.009318,1.461253,-260.875718,-1.452244,66.196132
9.2748,-0.00465,-0.001416,0.008412,0.0,0.0,0.0,0.000311,-0.511271,0.010007,1.461253,-260.875718,-1.452244,66.196132
9.2951,-0.004567,-0.001369,0.008717,0.0,0.0,0.0,3e-05,-0.511324,0.009339,1.461253,-260.875718,-1.452244,66.196132
9.3152,-0.004413,-0.001604,0.008745,0.0,0.0,0.0,-0.000122,-0.51135,0.008717,1.461253,-260.875718,-1.452244,66.196132
9.3349,-0.004761,-0.001242,0.007782,0.0,0.0,0.0,3.2e-05,-0.511563,0.008743,1.461253,-260.875718,-1.452244,66.196132
9.3549,-0.004593,-0.001472,0.009551,0.0,0.0,0.0,3.2e-05,-0.511563,0.008743,1.461253,-260.875718,-1.452244,66.196132
9.3745,-0.004152,-0.001472,0.009511,0.0,0.0,0.0,0.000279,-0.511449,0.009551,1.461253,-260.875718,-1.452244,66.196132
9.3946,-0.00464,-0.001314,0.0089,0.0,0.0,0.0,0.000453,-0.511449,0.009534,1.461253,-260.875718,-1.452244,66.196132
9.4145,-0.004941,-0.001271,0.008574,0.0,0.0,0.0,-0.000101,-0.511294,0.0089,1.461253,-260.875718,-1.452244,66.196132
9.4347,-0.004681,-0.001362,0.008835,0.0,0.0,0.0,-0.000528,-0.511256,0.008602,1.461253,-260.875718,-1.452244,66.196132
9.4547,-0.004204,-0.001609,0.008423,0.0,0.0,0.0,-0.000528,-0.511256,0.008602,1.461253,-260.875718,-1.452244,66.196132
9.4746,-0.004422,-0.001638,0.008478,0.0,0.0,0.0,9.1e-05,-0.511591,0.008423,1.461253,-260.875718,-1.452244,66.196132
9.4947,-0.004663,-0.001108,0.010533,0.0,0.0,0.0,1.3e-05,-0.511603,0.008446,1.461253,-260.875718,-1.452244,66.196132
9.5148,-0.004935,-0.001665,0.008303,0.0,0.0,0.0,0.000709,-0.511079,0.010533,1.461253,-260.875718,-1.452244,66.196132
9.5348,-0.004267,-0.001433,0.010901,0.0,0.0,0.0,-0.000574,-0.511596,0.008504,1.461253,-260.875718,-1.452244,66.196132
9.5546,-0.004441,-0.001348,0.010307,0.0,0.0,0.0,-0.000574,-0.511596,0.008504,1.461253,-260.875718,-1.452244,66.196132
9.5748,-0.004897,-0.00153,0.009641,0.0,0.0,0.0,0.000815,-0.51132,0.010307,1.461253,-260.875718,-1.452244,66.196132
9.5948,-0.004329,-0.001263,0.00941,0.0,0.0,0.0,0.000489,-0.511397,0.010034,1.461253,-260.875718,-1.452244,66.196132
9.615,-0.004733,-0.001753,0.009023,0.0,0.0,0.0,0.00047,-0.511241,0.00941,1.461253,-260.875718,-1.452244,66.196132
9.6349,-0.004512,-0.00141,0.010081,0.0,0.0,0.0,-7.7e-05,-0.511688,0.009058,1.461253,-260.875718,-1.452244,66.196132
9.6546,-0.004481,-0.001403,0.008874,0.0,0.0,0.0,-7.7e-05,-0.511688,0.009058,1.461253,-260.875718,-1.452244,66.196132
9.6751,-0.004752,-0.001562,0.009712,0.0,0.0,0.0,4.4e-05,-0.511383,0.008874,1.461253,-260.875718,-1.452244,66.196132
9.6952,-0.004565,-0.001198,0.008862,0.0,0.0,0.0,0.000109,-0.511447,0.00922,1.461253,-260.875718,-1.452244,66.196132
9.7148,-0.004727,-0.001822,0.008998,0.0,0.0,0.0,-4.5e-05,-0.511178,0.008862,1.461253,-260.875718,-1.452244,66.196132
9.7347,-0.004541,-0.00193,0.008518,0.0,0.0,0.0,-0.00013,-0.511745,0.008986,1.461253,-260.875718,-1.452244,66.196132
9.7549,-0.00448,-0.001458,0.009204,0.0,0.0,0.0,-0.00013,-0.511745,0.008986,1.461253,-260.875718,-1.452244,66.196132
9.775,-0.004768,-0.001387,0.009255,0.0,0.0,0.0,0.000214,-0.511436,0.009204,1.461253,-260.875718,-1.452244,66.196132
9.7951,-0.004784,-0.001709,0.009012,0.0,0.0,0.0,0.000107,-0.511407,0.009225,1.461253,-260.875718,-1.452244,66.196132
9.815,-0.004502,-0.001129,0.010221,0.0,0.0,0.0,-0.000188,-0.511689,0.009012,1.461253,-260.875718,-1.452244,66.196132
9.8347,-0.004752,-0.001339,0.008758,0.0,0.0,0.0,0.000634,-0.511152,0.010117,1.461253,-260.875718,-1.452244,66.196132
9.8546,-0.004594,-0.001237,0.010168,0.0,0.0,0.0,0.000634,-0.511152,0.010117,1.461253,-260.875718,-1.452244,66.196132
9.8748,-0.004385,-0.001386,0.010346,0.0,0.0,0.0,0.000591,-0.511211,0.010168,1.461253,-260.875718,-1.452244,66.196132
9.895,-0.004541,-0.00174,0.010119,0.0,0.0,0.0,0.00072,-0.511274,0.010244,1.461253,-260.875718,-1.452244,66.196132
9.9148,-0.004666,-0.002023,0.008667,0.0,0.0,0.0,0.00062,-0.511714,0.010119,1.461253,-260.875718,-1.452244,66.196132
9.9348,-0.00454,-0.001175,0.009902,0.0,0.0,0.0,-0.000167,-0.511977,0.0088,1.461253,-260.875718,-1.452244,66.196132
9.9548,-0.00421,-0.001673,0.009927,0.0,0.0,0.0,-0.000167,-0.511977,0.0088,1.461253,-260.875718,-1.452244,66.196132
9.9746,-0.004483,-0.001593,0.008304,0.0,0.0,0.0,0.000853,-0.511648,0.009927,1.461253,-260.875718,-1.452244,66.196132
9.9948,-0.004648,-0.001843,0.009605,0.0,0.0,0.0,0.000399,-0.511618,0.009257,1.461253,-260.875718,-1.452244,66.196132
10.0152,-0.004586,-0.001617,0.008939,0.0,0.0,0.0,0.000251,-0.511819,0.009605,1.461253,-260.875718,-1.452244,66.196132
10.0346,-0.004549,-0.001463,0.008991,0.0,0.0,0.0,4e-06,-0.511622,0.009015,1.461253,-260.875718,-1.452244,66.196132
10.0546,-0.004464,-0.001368,0.007557,0.0,0.0,0.0,4e-06,-0.511622,0.009015,1.461253,-260.875718,-1.452244,66.196132
10.0751,-0.004896,-0.001236,0.009323,0.0,0.0,0.0,-0.00061,-0.511353,0.007557,1.461253,-260.875718,-1.452244,66.196132
10.0952,-0.004696,-0.001457,0.008519,0.0,0.0,0.0,-0.000417,-0.511296,0.008284,1.461253,-260.875718,-1.452244,66.196132
10.1149,-0.004717,-0.001464,0.010728,0.0,0.0,0.0,-0.000351,-0.511438,0.008519,1.461253,-260.875718,-1.452244,66.196132
10.1348,-0.004647,-0.0016,0.010233,0.0,0.0,0.0,0.00066,-0.511435,0.010541,1.461253,-260.875718,-1.452244,66.196132
10.1552,-0.004564,-0.001238,0.009761,0.0,0.0,0.0,0.00066,-0.511435,0.010541,1.461253,-260.875718,-1.452244,66.196132
10.1751,-0.0049,-0.001222,0.009803,0.0,0.0,0.0,0.000414,-0.511214,0.009761,1.461253,-260.875718,-1.452244,66.196132
10.1952,-0.004322,-0.001369,0.009211,0.0,0.0,0.0,0.000284,-0.511207,0.009778,1.461253,-260.875718,-1.452244,66.196132
10.2148,-0.004489,-0.001482,0.010271,0.0,0.0,0.0,0.000376,-0.511347,0.009211,1.461253,-260.875718,-1.452244,66.196132
10.235,-0.004631,-0.001713,0.009754,0.0,0.0,0.0,0.000716,-0.511445,0.010176,1.461253,-260.875718,-1.452244,66.196132
10.2549,-0.005069,-0.001565,0.009785,0.0,0.0,0.0,0.000716,-0.511445,0.010176,1.461253,-260.875718,-1.452244,66.196132
10.2748,-0.004155,-0.001405,0.008631,0.0,0.0,0.0,-7.9e-05,-0.51154,0.009785,1.461253,-260.875718,-1.452244,66.196132
10.2949,-0.004696,-0.001489,0.010607,0.0,0.0,0.0,5.5e-05,-0.511477,0.009309,1.461253,-260.875718,-1.452244,66.196132
10.3146,-0.004707,-0.001234,0.00833,0.0,0.0,0.0,0.000713,-0.51146,0.010607,1.461253,-260.875718,-1.452244,66.196132
10.3348,-0.004628,-0.001558,0.009854,0.0,0.0,0.0,-0.000353,-0.511239,0.008536,1.461253,-260.875718,-1.452244,66.196132
10.355,-0.004365,-0.001358,0.008164,0.0,0.0,0.0,-0.000353,-0.511239,0.008536,1.461253,-260.875718,-1.452244,66.196132
10.3749,-0.004704,-0.001311,0.011506,0.0,0.0,0.0,-0.000201,-0.511341,0.008164,1.461253,-260.875718,-1.452244,66.196132
10.395,-0.004436,-0.001137,0.008963,0.0,0.0,0.0,0.000358,-0.511315,0.009533,1.461253,-260.875718,-1.452244,66.196132
10.4148,-0.004611,-0.001578,0.009803,0.0,0.0,0.0,0.000135,-0.511116,0.008963,1.461253,-260.875718,-1.452244,66.196132
10.4348,-0.004468,-0.001515,0.008643,0.0,0.0,0.0,0.000365,-0.511515,0.009727,1.461253,-260.875718,-1.452244,66.196132
10.4546,-0.004372,-0.001301,0.008909,0.0,0.0,0.0,0.000365,-0.511515,0.009727,1.461253,-260.875718,-1.452244,66.196132
10.4746,-0.004793,-0.001195,0.009248,0.0,0.0,0.0,0.000171,-0.511281,0.008909,1.461253,-260.875718,-1.452244,66.196132
10.4947,-0.004798,-0.001362,0.009809,0.0,0.0,0.0,6.6e-05,-0.511236,0.009052,1.461253,-260.875718,-1.452244,66.196132
10.515,-0.004477,-0.001201,0.009204,0.0,0.0,0.0,0.000204,-0.511338,0.009809,1.461253,-260.875718,-1.452244,66.196132
10.535,-0.004462,-0.00164,0.010448,0.0,0.0,0.0,0.000216,-0.511193,0.009255,1.461253,-260.875718,-1.452244,66.196132
10.5548,-0.004873,-0.00155,0.008174,0.0,0.0,0.0,0.000216,-0.511193,0.009255,1.461253,-260.875718,-1.452244,66.196132
10.5747,-0.0049,-0.001663,0.009527,0.0,0.0,0.0,-0.000704,-0.511533,0.008174,1.461253,-260.875718,-1.452244,66.196132
10.5949,-0.004562,-0.001452,0.010351,0.0,0.0,0.0,-0.000428,-0.511578,0.008739,1.461253,-260.875718,-1.452244,66.196132
10.615,-0.004553,-0.001263,0.008874,0.0,0.0,0.0,0.000717,-0.511425,0.010351,1.461253,-260.875718,-1.452244,66.196132
10.6348,-0.004391,-0.001184,0.009535,0.0,0.0,0.0,3.6e-05,-0.511258,0.009,1.461253,-260.875718,-1.452244,66.196132
10.6548,-0.004535,-0.001209,0.010092,0.0,0.0,0.0,3.6e-05,-0.511258,0.009,1.461253,-260.875718,-1.452244,66.196132
10.6752,-0.004661,-0.00137,0.008425,0.0,0.0,0.0,0.000612,-0.511183,0.010092,1.461253,-260.875718,-1.452244,66.196132
10.695,-0.004837,-0.001192,0.009138,0.0,0.0,0.0,0.000198,-0.511254,0.009385,1.461253,-260.875718,-1.452244,66.196132
10.715,-0.004566,-0.001372,0.009705,0.0,0.0,0.0,-0.000177,-0.511171,0.009138,1.461253,-260.875718,-1.452244,66.196132
10.7351,-0.00472,-0.001431,0.009812,0.0,0.0,0.0,0.000338,-0.511334,0.009658,1.461253,-260.875718,-1.452244,66.196132
10.755,-0.004731,-0.001475,0.00923,0.0,0.0,0.0,0.000338,-0.511334,0.009658,1.461253,-260.875718,-1.452244,66.196132
10.7748,-0.004986,-0.001319,0.008676,0.0,0.0,0.0,-2.4e-05,-0.511453,0.00923,1.461253,-260.875718,-1.452244,66.196132
10.7955,-0.00466,-0.001369,0.009738,0.0,0.0,0.0,-0.000246,-0.511389,0.009001,1.461253,-260.875718,-1.452244,66.196132
10.8146,-0.004419,-0.00105,0.008459,0.0,0.0,0.0,0.000307,-0.511345,0.009738,1.461253,-260.875718,-1.452244,66.196132
10.8347,-0.004544,-0.001465,0.008031,0.0,0.0,0.0,-6.9e-05,-0.511059,0.00857,1.461253,-260.875718,-1.452244,66.196132
10.8551,-0.004444,-0.00137,0.009795,0.0,0.0,0.0,-6.9e-05,-0.511059,0.00857,1.461253,-260.875718,-1.452244,66.196132
10.8752,-0.005184,-0.000999,0.008345,0.0,0.0,0.0,0.000551,-0.511345,0.009795,1.461253,-260.875718,-1.452244,66.196132
10.8951,-0.004266,-0.001538,0.008081,0.0,0.0,0.0,-5.9e-05,-0.511195,0.009197,1.461253,-260.875718,-1.452244,66.196132
10.915,-0.004539,-0.001426,0.009967,0.0,0.0,0.0,-0.000145,-0.511522,0.008081,1.461253,-260.875718,-1.452244,66.196132
10.9352,-0.004544,-0.001741,0.009006,0.0,0.0,0.0,0.000485,-0.511411,0.009806,1.461253,-260.875718,-1.452244,66.196132
10.9551,-0.00459,-0.001374,0.008929,0.0,0.0,0.0,0.000485,-0.511411,0.009806,1.461253,-260.875718,-1.452244,66.196132
10.9751,-0.004959,-0.001061,0.009498,0.0,0.0,0.0,-3.7e-05,-0.511353,0.008929,1.461253,-260.875718,-1.452244,66.196132
10.9954,-0.004615,-0.001037,0.009463,0.0,0.0,0.0,-7.2e-05,-0.511213,0.009182,1.461253,-260.875718,-1.452244,66.196132
11.015,-0.005048,-0.001502,0.009876,0.0,0.0,0.0,0.000211,-0.511015,0.009463,1.461253,-260.875718,-1.452244,66.196132
11.0354,-0.004813,-0.001255,0.009212,0.0,0.0,0.0,4e-06,-0.511445,0.009848,1.461253,-260.875718,-1.452244,66.196132
11.0549,-0.004987,-0.001775,0.008776,0.0,0.0,0.0,4e-06,-0.511445,0.009848,1.461253,-260.875718,-1.452244,66.196132
11.0751,-0.004502,-0.001697,0.008973,0.0,0.0,0.0,-0.000511,-0.511756,0.008776,1.461253,-260.875718,-1.452244,66.196132
11.0953,-0.004528,-0.001239,0.009691,0.0,0.0,0.0,-0.000273,-0.511723,0.008856,1.461253,-260.875718,-1.452244,66.196132
11.1152,-0.004204,-0.00153,0.009648,0.0,0.0,0.0,0.000414,-0.511215,0.009691,1.461253,-260.875718,-1.452244,66.196132
11.1349,-0.004955,-0.001657,0.009595,0.0,0.0,0.0,0.000691,-0.511481,0.009652,1.461253,-260.875718,-1.452244,66.196132
11.155,-0.00472,-0.001424,0.008439,0.0,0.0,0.0,0.000691,-0.511481,0.009652,1.461253,-260.875718,-1.452244,66.196132
11.1748,-0.004373,-0.001469,0.007669,0.0,0.0,0.0,-0.000416,-0.511406,0.008439,1.461253,-260.875718,-1.452244,66.196132
11.1949,-0.004448,-0.001279,0.007888,0.0,0.0,0.0,-0.000435,-0.511425,0.008125,1.461253,-260.875718,-1.452244,66.196132
11.2146,-0.004816,-0.001188,0.007659,0.0,0.0,0.0,-0.000425,-0.511263,0.007888,1.461253,-260.875718,-1.452244,66.196132
11.2348,-0.004615,-0.001455,0.008011,0.0,0.0,0.0,-0.000867,-0.511181,0.007679,1.461253,-260.875718,-1.452244,66.196132
11.2547,-0.004437,-0.001005,0.010148,0.0,0.0,0.0,-0.000867,-0.511181,0.007679,1.461253,-260.875718,-1.452244,66.196132
11.275,-0.004641,-0.001386,0.008065,0.0,0.0,0.0,0.000738,-0.510978,0.010148,1.461253,-260.875718,-1.452244,66.196132
11.2951,-0.004561,-0.001337,0.008749,0.0,0.0,0.0,0.000216,-0.511139,0.009289,1.461253,-260.875718,-1.452244,66.196132
11.3152,-0.004823,-0.001537,0.007853,0.0,0.0,0.0,-9.8e-05,-0.511318,0.008749,1.461253,-260.875718,-1.452244,66.196132
11.3353,-0.004512,-0.001559,0.009139,0.0,0.0,0.0,-0.000753,-0.511503,0.007933,1.461253,-260.875718,-1.452244,66.196132
11.3552,-0.004506,-0.001443,0.009189,0.0,0.0,0.0,-0.000753,-0.511503,0.007933,1.461253,-260.875718,-1.452244,66.196132
11.375,-0.004578,-0.00153,0.009326,0.0,0.0,0.0,0.00018,-0.511422,0.009189,1.461253,-260.875718,-1.452244,66.196132
11.395,-0.00454,-0.001619,0.008363,0.0,0.0,0.0,0.000179,-0.511458,0.009247,1.461253,-260.875718,-1.452244,66.196132
11.4146,-0.004677,-0.001321,0.01049,0.0,0.0,0.0,-0.000275,-0.511601,0.008363,1.461253,-260.875718,-1.452244,66.196132
11.4348,-0.004348,-0.001533,0.009007,0.0,0.0,0.0,0.000587,-0.511321,0.010299,1.461253,-260.875718,-1.452244,66.196132
11.4547,-0.00471,-0.00165,0.010896,0.0,0.0,0.0,0.000587,-0.511321,0.010299,1.461253,-260.875718,-1.452244,66.196132
11.4748,-0.00482,-0.001528,0.008568,0.0,0.0,0.0,0.000847,-0.51162,0.010896,1.461253,-260.875718,-1.452244,66.196132
11.4947,-0.004808,-0.001529,0.009426,0.0,0.0,0.0,0.000313,-0.511574,0.009938,1.461253,-260.875718,-1.452244,66.196132
11.515,-0.004574,-0.001371,0.008986,0.0,0.0,0.0,-0.0,-0.511507,0.009426,1.461253,-260.875718,-1.452244,66.196132
11.5351,-0.004833,-0.001558,0.009279,0.0,0.0,0.0,8e-06,-0.511363,0.009023,1.461253,-260.875718,-1.452244,66.196132
11.555,-0.004451,-0.001601,0.011131,0.0,0.0,0.0,8e-06,-0.511363,0.009023,1.461253,-260.875718,-1.452244,66.196132
11.5747,-0.004579,-0.001282,0.009218,0.0,0.0,0.0,0.001226,-0.511569,0.011131,1.461253,-260.875718,-1.452244,66.196132
11.5948,-0.004335,-0.001236,0.008514,0.0,0.0,0.0,0.00077,-0.511442,0.010342,1.461253,-260.875718,-1.452244,66.196132
11.6156,-0.004342,-0.001681,0.010754,0.0,0.0,0.0,7e-06,-0.511218,0.008514,1.461253,-260.875718,-1.452244,66.196132
11.635,-0.004842,-0.001575,0.009475,0.0,0.0,0.0,0.00104,-0.511612,0.010553,1.461253,-260.875718,-1.452244,66.196132
11.655,-0.004484,-0.001583,0.010407,0.0,0.0,0.0,0.00104,-0.511612,0.010553,1.461253,-260.875718,-1.452244,66.196132
11.6748,-0.004322,-0.001533,0.00915,0.0,0.0,0.0,0.000823,-0.511556,0.010407,1.461253,-260.875718,-1.452244,66.196132
11.6953,-0.004651,-0.001465,0.009284,0.0,0.0,0.0,0.000628,-0.511538,0.009895,1.461253,-260.875718,-1.452244,66.196132
11.715,-0.004689,-0.00174,0.009431,0.0,0.0,0.0,8.4e-05,-0.511443,0.009284,1.461253,-260.875718,-1.452244,66.196132
11.7349,-0.005025,-0.001038,0.008606,0.0,0.0,0.0,0.000118,-0.511692,0.009417,1.461253,-260.875718,-1.452244,66.196132
11.7549,-0.004202,-0.001328,0.008462,0.0,0.0,0.0,0.000118,-0.511692,0.009417,1.461253,-260.875718,-1.452244,66.196132
11.7751,-0.004474,-0.001052,0.009909,0.0,0.0,0.0,0.000113,-0.51131,0.008462,1.461253,-260.875718,-1.452244,66.196132
11.795,-0.004657,-0.001319,0.009518,0.0,0.0,0.0,0.000303,-0.511194,0.009052,1.461253,-260.875718,-1.452244,66.196132
11.8148,-0.004879,-0.001748,0.00938,0.0,0.0,0.0,0.000197,-0.511296,0.009518,1.461253,-260.875718,-1.452244,66.196132
11.8353,-0.004648,-0.001446,0.008938,0.0,0.0,0.0,-7e-05,-0.511689,0.009392,1.461253,-260.875718,-1.452244,66.196132
11.8546,-0.004861,-0.001309,0.010891,0.0,0.0,0.0,-7e-05,-0.511689,0.009392,1.461253,-260.875718,-1.452244,66.196132
11.875,-0.004345,-0.001302,0.009522,0.0,0.0,0.0,0.000694,-0.511279,0.010891,1.461253,-260.875718,-1.452244,66.196132
11.8952,-0.004615,-0.001114,0.009318,0.0,0.0,0.0,0.000619,-0.511279,0.010329,1.461253,-260.875718,-1.452244,66.196132
11.9147,-0.004518,-0.001497,0.00999,0.0,0.0,0.0,0.000137,-0.511091,0.009318,1.461253,-260.875718,-1.452244,66.196132
11.9349,-0.004654,-0.001085,0.010376,0.0,0.0,0.0,0.000539,-0.511439,0.009932,1.461253,-260.875718,-1.452244,66.196132
11.9552,-0.004762,-0.001394,0.009565,0.0,0.0,0.0,0.000539,-0.511439,0.009932,1.461253,-260.875718,-1.452244,66.196132
11.9751,-0.004848,-0.001847,0.006341,0.0,0.0,0.0,0.000116,-0.51137,0.009565,1.461253,-260.875718,-1.452244,66.196132
11.9949,-0.004662,-0.001414,0.008707,0.0,0.0,0.0,-0.00059,-0.51156,0.008251,1.461253,-260.875718,-1.452244,66.196132
12.015,-0.004507,-0.001429,0.010896,0.0,0.0,0.0,-0.000221,-0.511394,0.008707,1.461253,-260.875718,-1.452244,66.196132
12.0349,-0.004646,-0.001276,0.009718,0.0,0.0,0.0,0.000934,-0.511399,0.010696,1.461253,-260.875718,-1.452244,66.196132
12.0549,-0.004376,-0.000988,0.009532,0.0,0.0,0.0,0.000934,-0.511399,0.010696,1.461253,-260.875718,-1.452244,66.196132
12.0752,-0.004195,-0.001327,0.009808,0.0,0.0,0.0,0.000486,-0.510965,0.009532,1.461253,-260.875718,-1.452244,66.196132
12.0953,-0.004508,-0.001398,0.009967,0.0,0.0,0.0,0.000616,-0.511101,0.009644,1.461253,-260.875718,-1.452244,66.196132
12.1147,-0.004837,-0.001325,0.009688,0.0,0.0,0.0,0.000575,-0.511372,0.009967,1.461253,-260.875718,-1.452244,66.196132
12.135,-0.004571,-0.001416,0.008873,0.0,0.0,0.0,0.000147,-0.511308,0.009714,1.461253,-260.875718,-1.452244,66.196132
12.1549,-0.004358,-0.001624,0.008718,0.0,0.0,0.0,0.000147,-0.511308,0.009714,1.461253,-260.875718,-1.452244,66.196132
12.1749,-0.00437,-0.001352,0.009217,0.0,0.0,0.0,8.8e-05,-0.511604,0.008718,1.461253,-260.875718,-1.452244,66.196132
12.1949,-0.004643,-0.001373,0.009442,0.0,0.0,0.0,0.000186,-0.511494,0.00892,1.461253,-260.875718,-1.452244,66.196132
12.2148,-0.004453,-0.001445,0.008347,0.0,0.0,0.0,0.000172,-0.511351,0.009442,1.461253,-260.875718,-1.452244,66.196132
12.2347,-0.004715,-0.00148,0.007671,0.0,0.0,0.0,-0.000162,-0.51142,0.008447,1.461253,-260.875718,-1.452244,66.196132
12.2548,-0.004657,-0.001378,0.007454,0.0,0.0,0.0,-0.000162,-0.51142,0.008447,1.461253,-260.875718,-1.452244,66.196132
12.2752,-0.004911,-0.001483,0.009149,0.0,0.0,0.0,-0.000855,-0.511364,0.007454,1.461253,-260.875718,-1.452244,66.196132
12.2955,-0.004535,-0.001403,0.009583,0.0,0.0,0.0,-0.000605,-0.511404,0.00815,1.461253,-260.875718,-1.452244,66.196132
12.3152,-0.004392,-0.001387,0.008709,0.0,0.0,0.0,0.000352,-0.51138,0.009583,1.461253,-260.875718,-1.452244,66.196132
12.3349,-0.004596,-0.001826,0.010042,0.0,0.0,0.0,7.6e-05,-0.511369,0.008785,1.461253,-260.875718,-1.452244,66.196132
12.3547,-0.004333,-0.001375,0.006801,0.0,0.0,0.0,7.6e-05,-0.511369,0.008785,1.461253,-260.875718,-1.452244,66.196132
12.3747,-0.004555,-0.001383,0.010547,0.0,0.0,0.0,-0.000865,-0.511363,0.006801,1.461253,-260.875718,-1.452244,66.196132
12.3949,-0.004587,-0.001182,0.009887,0.0,0.0,0.0,-0.000171,-0.51136,0.00834,1.461253,-260.875718,-1.452244,66.196132
12.4146,-0.004424,-0.001737,0.009255,0.0,0.0,0.0,0.000455,-0.511157,0.009887,1.461253,-260.875718,-1.452244,66.196132
12.4348,-0.004535,-0.001487,0.008526,0.0,0.0,0.0,0.00031,-0.511667,0.00931,1.461253,-260.875718,-1.452244,66.196132
12.4547,-0.0045,-0.001507,0.010571,0.0,0.0,0.0,0.00031,-0.511667,0.00931,1.461253,-260.875718,-1.452244,66.196132
12.4751,-0.004798,-0.001518,0.008976,0.0,0.0,0.0,0.000891,-0.511479,0.010571,1.461253,-260.875718,-1.452244,66.196132
12.4949,-0.004219,-0.001387,0.009903,0.0,0.0,0.0,0.000433,-0.511486,0.009914,1.461253,-260.875718,-1.452244,66.196132
12.515,-0.004828,-0.001142,0.00931,0.0,0.0,0.0,0.000831,-0.511362,0.009903,1.461253,-260.875718,-1.452244,66.196132
12.5352,-0.004581,-0.001255,0.00992,0.0,0.0,0.0,-3e-06,-0.51114,0.00936,1.461253,-260.875718,-1.452244,66.196132
12.5551,-0.004453,-0.001372,0.009734,0.0,0.0,0.0,-3e-06,-0.51114,0.00936,1.461253,-260.875718,-1.452244,66.196132
12.5751,-0.004496,-0.001669,0.007964,0.0,0.0,0.0,0.000511,-0.511348,0.009734,1.461253,-260.875718,-1.452244,66.196132
12.5951,-0.00496,-0.001512,0.009522,0.0,0.0,0.0,0.000126,-0.511473,0.009012,1.461253,-260.875718,-1.452244,66.196132
12.6151,-0.00467,-0.001254,0.009164,0.0,0.0,0.0,-0.000103,-0.511489,0.009522,1.461253,-260.875718,-1.452244,66.196132
12.6351,-0.004702,-0.001512,0.008853,0.0,0.0,0.0,-5e-06,-0.511255,0.009196,1.461253,-260.875718,-1.452244,66.196132
12.6551,-0.004436,-0.001644,0.009081,0.0,0.0,0.0,-5e-06,-0.511255,0.009196,1.461253,-260.875718,-1.452244,66.196132
12.6749,-0.004416,-0.001678,0.009547,0.0,0.0,0.0,0.000196,-0.511623,0.009081,1.461253,-260.875718,-1.452244,66.196132
12.695,-0.004765,-0.001286,0.009468,0.0,0.0,0.0,0.000301,-0.511636,0.009272,1.461253,-260.875718,-1.452244,66.196132
12.7145,-0.004842,-0.001333,0.009385,0.0,0.0,0.0,6.4e-05,-0.511263,0.009468,1.461253,-260.875718,-1.452244,66.196132
12.7346,-0.004544,-0.001496,0.010061,0.0,0.0,0.0,-4.6e-05,-0.511307,0.009392,1.461253,-260.875718,-1.452244,66.196132
12.7549,-0.00447,-0.001256,0.007185,0.0,0.0,0.0,-4.6e-05,-0.511307,0.009392,1.461253,-260.875718,-1.452244,66.196132
12.7752,-0.004728,-0.001323,0.008571,0.0,0.0,0.0,-0.000806,-0.511243,0.007185,1.461253,-260.875718,-1.452244,66.196132
12.7952,-0.004596,-0.001403,0.00826,0.0,0.0,0.0,-0.000622,-0.511268,0.007752,1.461253,-260.875718,-1.452244,66.196132
12.815,-0.004527,-0.001516,0.009272,0.0,0.0,0.0,-0.000383,-0.511386,0.00826,1.461253,-260.875718,-1.452244,66.196132
12.835,-0.004538,-0.00132,0.008549,0.0,0.0,0.0,0.000152,-0.511485,0.009186,1.461253,-260.875718,-1.452244,66.196132
12.8552,-0.004478,-0.00161,0.009416,0.0,0.0,0.0,0.000152,-0.511485,0.009186,1.461253,-260.875718,-1.452244,66.196132
12.8751,-0.004456,-0.001437,0.010169,0.0,0.0,0.0,0.000324,-0.511587,0.009416,1.461253,-260.875718,-1.452244,66.196132
12.8951,-0.004509,-0.001479,0.007849,0.0,0.0,0.0,0.00049,-0.511515,0.009724,1.461253,-260.875718,-1.452244,66.196132
12.9149,-0.004649,-0.001412,0.008742,0.0,0.0,0.0,-0.000506,-0.511463,0.007849,1.461253,-260.875718,-1.452244,66.196132
12.9351,-0.00453,-0.001477,0.009411,0.0,0.0,0.0,-0.000217,-0.511399,0.008668,1.461253,-260.875718,-1.452244,66.196132
12.955,-0.004853,-0.001656,0.009169,0.0,0.0,0.0,-0.000217,-0.511399,0.008668,1.461253,-260.875718,-1.452244,66.196132
12.9748,-0.004523,-0.001836,0.010214,0.0,0.0,0.0,-0.000177,-0.511634,0.009169,1.461253,-260.875718,-1.452244,66.196132
12.9947,-0.004507,-0.001521,0.010957,0.0,0.0,0.0,0.000178,-0.511707,0.009599,1.461253,-260.875718,-1.452244,66.196132
13.0146,-0.004351,-0.001109,0.00674,0.0,0.0,0.0,0.001081,-0.511491,0.010957,1.461253,-260.875718,-1.452244,66.196132
13.0347,-0.004601,-0.001685,0.009146,0.0,0.0,0.0,-0.000743,-0.511131,0.007101,1.461253,-260.875718,-1.452244,66.196132
13.0549,-0.00481,-0.001251,0.010264,0.0,0.0,0.0,-0.000743,-0.511131,0.007101,1.461253,-260.875718,-1.452244,66.196132
13.0749,-0.004427,-0.001273,0.009777,0.0,0.0,0.0,0.000424,-0.511224,0.010264,1.461253,-260.875718,-1.452244,66.196132
13.0951,-0.004774,-0.001379,0.008862,0.0,0.0,0.0,0.000479,-0.511234,0.010065,1.461253,-260.875718,-1.452244,66.196132
13.115,-0.00477,-0.001456,0.009763,0.0,0.0,0.0,-0.000255,-0.511359,0.008862,1.461253,-260.875718,-1.452244,66.196132
13.135,-0.004158,-0.001308,0.010141,0.0,0.0,0.0,0.000171,-0.511425,0.009689,1.461253,-260.875718,-1.452244,66.196132
