mach0312/omni-docking-bench/src/icros_test_setup/results/MPPI_sample/timeseries/trial_127.csv
t,x,y,yaw,vx,vy,wz,bl_x,bl_y,bl_yaw,front_steering_joint,front_wheel_joint,rear_steering_joint,rear_wheel_joint
0.0,-0.00131,-0.02948,-0.00039,0.00397,-0.001259,-0.000323,-0.002064,-0.539,0.000866,-0.351583,-259.625678,-0.261338,70.211403
0.0004,-0.001159,-0.029258,-0.00044,0.002695,-0.000855,-0.000219,-0.001601,-0.538607,7e-06,-0.351583,-259.621773,-0.261338,70.215198
0.0007,-0.000701,-0.029577,-0.001263,0.001387,-0.00044,-0.000113,-0.001601,-0.538607,7e-06,-0.351583,-259.619106,-0.261338,70.21779
0.001,-0.000935,-0.029381,-0.001601,0.0,0.0,0.0,-0.001277,-0.538824,0.000454,-0.351583,-259.617414,-0.261338,70.219434
0.0013,-0.000935,-0.029412,-0.001274,0.0,0.0,0.0,-0.001277,-0.538824,0.000454,-0.351583,-259.617414,-0.261338,70.219434
0.0016,-0.001158,-0.029562,-0.000259,0.0,0.0,0.0,-0.001685,-0.539258,-0.001342,-0.351583,-259.617414,-0.261338,70.219434
0.0018,-0.000786,-0.029571,0.000404,0.0,0.0,0.0,-0.001685,-0.539258,-0.001342,-0.351583,-259.617414,-0.261338,70.219434
0.002,-0.000928,-0.029271,0.000385,0.0,0.0,0.0,-0.001997,-0.539116,-0.001245,-0.351583,-259.617414,-0.261338,70.219434
0.0022,-0.001018,-0.029401,-0.000283,0.0,0.0,0.0,-0.001997,-0.539116,-0.001245,-0.351583,-259.617414,-0.261338,70.219434
0.0153,-0.000664,-0.02963,-0.000305,0.0,0.0,0.0,-0.000718,-0.539298,0.000386,-0.351583,-259.617414,-0.261338,70.219434
0.0357,-0.00142,-0.029114,0.000726,0.0,0.0,0.0,-0.00082,-0.53963,-0.000305,-0.351583,-259.617414,-0.261338,70.219434
0.0556,-0.000508,-0.029215,0.001103,0.0,0.0,0.0,-0.000914,-0.539419,0.000116,-0.351583,-259.617414,-0.261338,70.219434
0.0761,-0.000754,-0.029082,0.000745,0.0,0.0,0.0,5.5e-05,-0.539215,0.001103,-0.351583,-259.617414,-0.261338,70.219434
0.0954,-0.000807,-0.029245,-0.000505,0.0,0.0,0.0,-0.000338,-0.539094,0.000775,-0.351583,-259.617414,-0.261338,70.219434
0.1156,-0.000634,-0.029266,-0.000996,-0.000296,0.002333,-0.000508,-0.000338,-0.539094,0.000775,-0.351583,-259.617414,-0.261338,70.219434
0.1359,-0.000921,-0.029303,-0.001121,-0.000338,0.002524,-0.000656,-0.001142,-0.539266,-0.000996,-0.351583,-259.617414,-0.261338,70.219434
0.1554,-0.000769,-0.029485,-0.000895,-0.000373,0.002684,0.000315,-0.001283,-0.539281,-0.001046,-0.351583,-259.617414,-0.261338,70.219434
0.1756,-0.000652,-0.029083,-0.001308,-0.000395,0.002819,0.001,-0.001225,-0.539484,-0.000895,-0.42647,-259.617414,-0.336226,70.219434
0.1954,-0.000812,-0.029444,0.000929,-0.000411,0.00293,0.001604,-0.001311,-0.539117,-0.001273,-0.42647,-259.617414,-0.336226,70.219434
0.2154,-0.000736,-0.029562,-0.000143,-0.000419,0.003023,0.002028,-0.001311,-0.539117,-0.001273,-0.42647,-259.617414,-0.336226,70.219434
0.2354,-0.001237,-0.029535,-0.001551,-0.000422,0.0031,0.002325,-0.000809,-0.539562,-0.000143,-0.50162,-259.617414,-0.411375,70.219434
0.2553,-0.000912,-0.029781,0.000416,-0.000413,0.003162,0.002219,-0.001308,-0.539551,-0.000718,-0.50162,-259.617414,-0.411375,70.219434
0.2758,-0.00065,-0.02912,-0.000918,-0.000406,0.003214,0.002148,-0.000699,-0.539781,0.000416,-0.576487,-259.617414,-0.486243,70.219434
0.2951,-0.000798,-0.029205,-0.001247,-0.000408,0.003257,0.002153,-0.001082,-0.539177,-0.000803,-0.576487,-259.617414,-0.486243,70.219434
0.316,-0.00126,-0.029634,0.001626,-0.000409,0.003293,0.002158,-0.001082,-0.539177,-0.000803,-0.576487,-259.617414,-0.486243,70.219434
0.3357,-0.000616,-0.029293,-0.00077,-0.000411,0.003322,0.002164,-0.000431,-0.539633,0.001626,-0.651559,-259.617414,-0.561314,70.219434
0.3555,-0.000737,-0.029381,0.001274,-0.000407,0.003334,0.001335,-0.00067,-0.539493,0.000634,-0.651559,-259.617414,-0.561314,70.219434
0.3754,-0.000962,-0.02949,-0.0014,-0.000408,0.003347,0.00075,-8.7e-05,-0.53938,0.001274,-0.726633,-259.617414,-0.636388,70.219434
0.3957,-0.000602,-0.029404,-0.000183,-0.000411,0.003365,0.001392,-0.001541,-0.53948,-0.001173,-0.726633,-259.617414,-0.636388,70.219434
0.4153,-0.000611,-0.029289,0.000207,-0.000409,0.00338,0.001843,-0.001541,-0.53948,-0.001173,-0.726633,-259.617414,-0.636388,70.219434
0.4357,-0.000523,-0.029407,0.000122,-0.000403,0.003393,0.002159,-0.000505,-0.539289,0.000207,-0.801586,-259.617414,-0.711341,70.219434
0.4556,-0.000689,-0.029251,0.000333,-0.00041,0.003398,0.001598,-0.000487,-0.539337,0.000172,-0.801586,-259.617414,-0.711341,70.219434
0.4755,-0.001063,-0.029041,3.7e-05,-0.00042,0.003403,0.001206,-0.000519,-0.539251,0.000333,-0.876482,-259.617414,-0.786237,70.219434
0.4958,-0.00062,-0.029495,-0.000393,-0.000415,0.003408,0.000995,-0.000998,-0.539059,6.3e-05,-0.876482,-259.617414,-0.786237,70.219434
0.5157,-0.001032,-0.029582,-0.001095,-0.000412,0.003414,0.00085,-0.000998,-0.539059,6.3e-05,-0.876482,-259.617414,-0.786237,70.219434
0.5355,-0.000942,-0.029188,0.0003,-0.000411,0.003418,0.000751,-0.00159,-0.539581,-0.001095,-0.951586,-259.617415,-0.861341,70.219434
0.556,-0.001154,-0.029495,0.000675,-0.00041,0.003424,0.001037,-0.00126,-0.539419,-0.00052,-0.951586,-259.617415,-0.861341,70.219434
0.5754,-0.001041,-0.029635,-0.000158,-0.000408,0.003429,0.001239,-0.00081,-0.539495,0.000675,-1.026569,-259.617415,-0.936325,70.219434
0.5956,-0.000934,-0.029382,-0.000598,-0.000403,0.003432,0.001119,-0.001094,-0.539623,-8.6e-05,-1.026569,-259.617415,-0.936325,70.219434
0.6155,-0.000827,-0.029302,-0.000156,-0.0004,0.003434,0.001036,-0.001094,-0.539623,-8.6e-05,-1.026569,-259.617415,-0.936325,70.219434
0.6359,-0.000937,-0.029097,-0.00107,-0.000398,0.003436,0.00098,-0.000907,-0.539302,-0.000156,-1.101605,-259.617416,-1.01136,70.219433
0.6554,-0.001149,-0.029302,0.000706,-0.000402,0.003439,0.001211,-0.001143,-0.539218,-0.00053,-1.101605,-259.617416,-1.01136,70.219433
0.6755,-0.000678,-0.029548,0.000345,-0.000403,0.003442,0.001373,-0.000789,-0.539301,0.000706,-1.176587,-259.617425,-1.086342,70.219427
0.6957,-0.000908,-0.029246,-0.000391,-0.000411,0.003439,0.000946,-0.000527,-0.539526,0.000377,-1.176587,-259.617425,-1.086342,70.219427
0.7155,-0.001223,-0.029466,-0.001532,-0.000421,0.003437,0.000646,-0.000527,-0.539526,0.000377,-1.176587,-259.617425,-1.086342,70.219427
0.7356,-0.000867,-0.029374,-0.000347,-0.000431,0.003436,0.000436,-0.002006,-0.53946,-0.00153,-1.251465,-259.617492,-1.16122,70.219386
0.7557,-0.000474,-0.029634,-0.001558,-0.000429,0.003438,0.001129,-0.001617,-0.539424,-0.001051,-1.251465,-259.617492,-1.16122,70.219386
0.7752,-0.00063,-0.029236,0.000799,-0.000421,0.003439,0.001613,-0.001273,-0.539617,-0.001556,-1.32646,-259.617717,-1.236215,70.219192
0.7955,-0.001059,-0.029378,-0.000696,-0.000429,0.003433,0.000998,-0.000317,-0.539269,0.000589,-1.32646,-259.617717,-1.236215,70.219192
0.8155,-0.000893,-0.029372,-0.000234,-0.000439,0.00343,0.000563,-0.000317,-0.539269,0.000589,-1.32646,-259.617717,-1.236215,70.219192
0.8352,-0.000998,-0.029463,-0.001127,-0.000451,0.003428,0.000258,-0.001026,-0.539308,-0.000203,-1.401455,-259.618519,-1.31121,70.218743
0.8553,-0.000616,-0.029372,-0.001127,-0.00045,0.003432,0.000738,-0.00125,-0.539363,-0.000576,-1.401455,-259.618519,-1.31121,70.218743
0.8752,-0.000755,-0.028864,0.000686,-0.000445,0.003435,0.001073,-0.001204,-0.539288,-0.00112,-1.445548,-259.619622,-1.386237,70.217735
0.8953,-0.000577,-0.029237,-0.000622,-0.000448,0.003432,0.000651,-0.000475,-0.538897,0.00053,-1.445548,-259.619622,-1.386237,70.217735
0.9153,-0.001009,-0.02937,-0.001324,-0.000454,0.00343,0.000355,-0.000475,-0.538897,0.00053,-1.445548,-259.619622,-1.386237,70.217735
0.9354,-0.001028,-0.028873,-0.000783,-0.00046,0.003429,0.000147,-0.001703,-0.539228,-0.00128,-1.462503,-259.621243,-1.412167,70.216626
0.9556,-0.000985,-0.029043,0.000771,-0.000457,0.003431,0.000941,-0.001592,-0.539066,-0.001071,-1.462503,-259.621243,-1.412167,70.216626
0.9752,-0.000862,-0.028754,-0.000328,-0.000447,0.003433,0.001496,-0.000606,-0.538936,0.000775,-1.440703,-259.622639,-1.433795,70.2153
0.9955,-0.001388,-0.028616,-1e-06,-0.000439,0.003435,0.001392,-0.000992,-0.538765,-0.000229,-1.440703,-259.622639,-1.433795,70.2153
1.0155,-0.000813,-0.028714,5.2e-05,-0.000433,0.003437,0.001319,-0.000992,-0.538765,-0.000229,-1.440703,-259.622639,-1.433795,70.2153
1.0358,-0.001267,-0.028855,-0.001039,-0.000428,0.003438,0.001268,-0.000804,-0.538575,0.000112,-1.468301,-259.624328,-1.395187,70.214311
1.0557,-0.000862,-0.028865,0.000987,-0.000419,0.00344,0.001302,-0.001208,-0.538672,-0.000347,-1.468301,-259.624328,-1.395187,70.214311
1.0751,-0.001143,-0.028114,2e-05,-0.000411,0.003441,0.001326,-0.000372,-0.538756,0.001028,-1.469433,-259.626015,-1.411328,70.213236
1.0953,-0.001187,-0.028262,0.000288,-0.000403,0.003439,0.001068,-0.001069,-0.538163,0.000107,-1.469433,-259.626015,-1.411328,70.213236
1.1156,-0.00118,-0.028433,-5.7e-05,-0.000398,0.003438,0.000889,-0.001069,-0.538163,0.000107,-1.469433,-259.626015,-1.411328,70.213236
1.1355,-0.001462,-0.028245,0.001502,-0.000395,0.003437,0.000764,-0.001226,-0.538289,-1e-06,-1.474304,-259.627722,-1.41568,70.212171
1.1554,-0.000962,-0.028221,0.000571,-0.000389,0.003432,0.000375,-0.00101,-0.538254,0.000625,-1.474304,-259.627722,-1.41568,70.212171
1.1753,-0.000954,-0.028116,-0.001602,-0.000386,0.00343,0.000102,-0.000683,-0.538113,0.000595,-1.46998,-259.629281,-1.438646,70.210981
1.1952,-0.001152,-0.028441,0.001138,-0.000396,0.003429,0.001093,-0.001682,-0.53811,-0.001418,-1.46998,-259.629281,-1.438646,70.210981
1.2151,-0.001081,-0.027955,-0.000203,-0.000397,0.00343,0.001786,-0.001682,-0.53811,-0.001418,-1.46998,-259.629281,-1.438646,70.210981
1.2354,-0.001709,-0.028051,-0.002071,-0.000391,0.003432,0.002267,-0.001201,-0.537813,-0.000198,-1.460622,-259.630674,-1.456576,70.209636
1.2556,-0.001537,-0.028223,0.000145,-0.000368,0.003434,0.002357,-0.001851,-0.537894,-0.000974,-1.460622,-259.630674,-1.456576,70.209636
1.2752,-0.001652,-0.027948,-0.000815,-0.000348,0.003435,0.002419,-0.001474,-0.538124,0.00021,-1.489753,-259.632418,-1.381995,70.208885
1.2956,-0.001099,-0.027932,-0.000468,-0.00032,0.003435,0.002314,-0.002017,-0.537958,-0.000724,-1.489753,-259.632418,-1.381995,70.208885
1.3155,-0.001572,-0.027813,0.000914,-0.000298,0.003435,0.002241,-0.002017,-0.537958,-0.000724,-1.489753,-259.632418,-1.381995,70.208885
1.3355,-0.001671,-0.02788,0.001227,-0.00028,0.003435,0.002191,-0.00112,-0.53767,0.001015,-1.500168,-259.634379,-1.395111,70.208093
1.3557,-0.0013,-0.027046,0.001246,-0.000276,0.003419,0.00114,-0.001091,-0.53774,0.001114,-1.500168,-259.634379,-1.395111,70.208093
1.3752,-0.001657,-0.02758,0.000716,-0.000277,0.003409,0.000387,-0.000673,-0.536939,0.001314,-1.512224,-259.636232,-1.4381,70.207273
1.3953,-0.001306,-0.027566,0.000612,-0.000281,0.003407,2.5e-05,-0.00124,-0.537521,0.00077,-1.512224,-259.636232,-1.4381,70.207273
1.4156,-0.001378,-0.027805,0.000752,-0.000287,0.003407,-0.000228,-0.00124,-0.537521,0.00077,-1.512224,-259.636232,-1.4381,70.207273
1.4354,-0.001131,-0.027284,0.001043,-0.000293,0.003407,-0.000402,-0.001006,-0.537667,0.000768,-1.49485,-259.637639,-1.483575,70.206047
1.4556,-0.001469,-0.027005,-0.000774,-0.000312,0.003408,-0.000579,-0.00084,-0.537494,0.000883,-1.49485,-259.637639,-1.483575,70.206047
1.4759,-0.001817,-0.026907,0.0017,-0.000328,0.003409,-0.000701,-0.001873,-0.536896,-0.000787,-1.47837,-259.638903,-1.490742,70.204588
1.4955,-0.001261,-0.026847,-0.000611,-0.000328,0.003404,-0.001087,-0.001029,-0.5369,0.001486,-1.47837,-259.638903,-1.490742,70.204588
1.5158,-0.001415,-0.027038,-0.000327,-0.00033,0.003401,-0.001358,-0.001029,-0.5369,0.001486,-1.47837,-259.638903,-1.490742,70.204588
1.5355,-0.001497,-0.02675,-0.001185,-0.000334,0.0034,-0.001547,-0.001596,-0.536896,-0.000356,-1.461148,-259.640094,-1.485484,70.203058
1.5556,-0.001504,-0.026929,0.001159,-0.000345,0.003403,-0.000421,-0.001803,-0.536821,-0.000696,-1.461148,-259.640094,-1.485484,70.203058
1.5752,-0.001274,-0.026455,0.001116,-0.000347,0.003408,0.000364,-0.000923,-0.536821,0.00111,-1.435786,-259.641076,-1.494186,70.201333
1.5956,-0.001303,-0.026906,0.000647,-0.000354,0.003405,-0.000135,-0.000724,-0.53648,0.001113,-1.435786,-259.641076,-1.494186,70.201333
1.6155,-0.001479,-0.026771,0.000366,-0.000364,0.003403,-0.000492,-0.000724,-0.53648,0.001113,-1.435786,-259.641076,-1.494186,70.201333
1.6359,-0.001393,-0.026972,0.001081,-0.000373,0.003403,-0.000747,-0.001306,-0.536634,0.00038,-1.475527,-259.642477,-1.462342,70.200101
1.6556,-0.001609,-0.02627,-0.000689,-0.000375,0.003407,-0.000686,-0.001119,-0.536755,0.000667,-1.475527,-259.642477,-1.462342,70.200101
1.6753,-0.001654,-0.026277,-0.000819,-0.000375,0.003409,-0.000644,-0.001972,-0.536163,-0.000712,-1.444723,-259.643641,-1.47433,70.198582
1.6955,-0.001677,-0.026342,0.0001,-0.000365,0.003411,0.00026,-0.002064,-0.536261,-0.000811,-1.444723,-259.643641,-1.47433,70.198582
1.7155,-0.001742,-0.026307,-0.000422,-0.000349,0.003413,0.000891,-0.002064,-0.536261,-0.000811,-1.444723,-259.643641,-1.47433,70.198582
1.7358,-0.001483,-0.026437,7.2e-05,-0.00033,0.003416,0.001329,-0.001973,-0.536164,-0.000449,-1.446966,-259.644856,-1.472406,70.197053
1.7557,-0.001648,-0.025788,-0.001755,-0.000312,0.003419,0.001295,-0.001762,-0.536258,-0.000242,-1.446966,-259.644856,-1.472406,70.197053
1.7752,-0.001251,-0.026117,-0.000309,-0.000297,0.003421,0.001268,-0.002553,-0.535683,-0.001714,-1.49285,-259.646477,-1.44467,70.19605
1.7954,-0.001511,-0.026185,0.001114,-0.000296,0.003424,0.001367,-0.001512,-0.536073,-0.000433,-1.49285,-259.646477,-1.44467,70.19605
1.8155,-0.001895,-0.026028,0.000207,-0.000294,0.003427,0.001434,-0.001512,-0.536073,-0.000433,-1.49285,-259.646477,-1.44467,70.19605
1.8351,-0.00151,-0.026039,0.000628,-0.000292,0.003429,0.001479,-0.001802,-0.535886,0.00026,-1.500151,-259.648154,-1.459075,70.194988
1.8553,-0.001804,-0.026091,0.00065,-0.000278,0.003424,0.000998,-0.00155,-0.535933,0.000418,-1.500151,-259.648154,-1.459075,70.194988
1.8755,-0.001641,-0.025622,-0.000383,-0.00027,0.003421,0.000659,-0.001482,-0.535983,0.000697,-1.503403,-259.64989,-1.455563,70.193971
1.8958,-0.001554,-0.02581,0.001075,-0.000263,0.003423,0.000847,-0.001807,-0.535648,-0.000289,-1.503403,-259.64989,-1.455563,70.193971
1.9155,-0.001822,-0.026176,-0.00042,-0.000256,0.003425,0.000978,-0.001807,-0.535648,-0.000289,-1.503403,-259.64989,-1.455563,70.193971
1.9354,-0.001679,-0.025738,-0.001764,-0.00025,0.003426,0.001069,-0.002048,-0.536034,-0.000393,-1.500352,-259.651405,-1.481659,70.192774
1.9555,-0.001931,-0.025846,0.000744,-0.000238,0.003427,0.001518,-0.002266,-0.535897,-0.000949,-1.500352,-259.651405,-1.481659,70.192774
1.9754,-0.001665,-0.025478,0.000455,-0.000225,0.003427,0.00183,-0.001559,-0.535736,0.000778,-1.509681,-259.65304,-1.481036,70.19166
1.9956,-0.001904,-0.025641,-0.0009,-0.000222,0.003421,0.001207,-0.001444,-0.535495,0.000484,-1.509681,-259.65304,-1.481036,70.19166
2.0154,-0.001973,-0.02511,-0.000517,-0.000223,0.003417,0.000768,-0.001444,-0.535495,0.000484,-1.509681,-259.65304,-1.481036,70.19166
2.0357,-0.001801,-0.024977,0.001205,-0.000226,0.003415,0.000459,-0.002246,-0.534967,-0.000441,-1.52132,-259.654852,-1.473647,70.190736
2.0558,-0.001795,-0.0249,6.3e-05,-0.000219,0.003415,0.000384,-0.001815,-0.534955,0.00024,-1.52132,-259.654852,-1.473647,70.190736
2.0758,-0.001934,-0.025134,0.000881,-0.000214,0.003415,0.000333,-0.00177,-0.534793,7.7e-05,-1.509629,-259.656317,-1.498718,70.189493
2.0957,-0.001639,-0.024994,0.000252,-0.000214,0.003411,-2.8e-05,-0.001509,-0.535099,0.000813,-1.509629,-259.656317,-1.498718,70.189493
2.1155,-0.001907,-0.025043,0.000355,-0.000217,0.003408,-0.000282,-0.001509,-0.535099,0.000813,-1.509629,-259.656317,-1.498718,70.189493
2.1359,-0.00203,-0.02499,0.000424,-0.000221,0.003407,-0.00046,-0.001735,-0.534901,0.000369,-1.511791,-259.657766,-1.504334,70.188206
2.1555,-0.001834,-0.024888,0.000925,-0.00022,0.003409,-0.000342,-0.001768,-0.53492,0.000393,-1.511791,-259.657766,-1.504334,70.188206
2.1758,-0.001399,-0.024393,0.000927,-0.000219,0.00341,-0.000258,-0.001369,-0.534779,0.00091,-1.500085,-259.659016,-1.510836,70.186732
2.1954,-0.001691,-0.024401,0.001226,-0.000241,0.003409,-0.000494,-0.000964,-0.534421,0.000925,-1.500085,-259.659016,-1.510836,70.186732
2.2155,-0.001978,-0.024375,0.001499,-0.000261,0.003408,-0.00066,-0.000964,-0.534421,0.000925,-1.500085,-259.659016,-1.510836,70.186732
2.2354,-0.001645,-0.024502,-0.000161,-0.000279,0.003408,-0.000776,-0.001223,-0.534232,0.001489,-1.5036,-259.660319,-1.509518,70.185304
2.2557,-0.001948,-0.024676,0.001302,-0.000278,0.003408,-0.000798,-0.001432,-0.534327,0.000809,-1.5036,-259.660319,-1.509518,70.185304
2.2756,-0.001695,-0.024428,-0.000945,-0.000277,0.003408,-0.000813,-0.001293,-0.534568,0.001278,-1.475971,-259.66148,-1.499039,70.18377
2.2953,-0.001457,-0.024025,0.000807,-0.000275,0.003409,9.8e-05,-0.002095,-0.534435,-0.00074,-1.475971,-259.66148,-1.499039,70.18377
2.3155,-0.001632,-0.024209,0.001476,-0.000267,0.00341,0.000735,-0.002095,-0.534435,-0.00074,-1.475971,-259.66148,-1.499039,70.18377
2.3356,-0.0017,-0.024165,0.000651,-0.000254,0.003413,0.001179,-0.000891,-0.534066,0.001442,-1.476015,-259.662651,-1.500024,70.182202
2.3552,-0.002044,-0.024341,-0.000521,-0.000255,0.003404,0.000433,-0.001087,-0.53409,0.001115,-1.476015,-259.662651,-1.500024,70.182202
2.3752,-0.00236,-0.024217,-0.000627,-0.000261,0.003399,-0.0001,-0.002317,-0.534236,-0.000484,-1.509425,-259.664262,-1.476756,70.18115
2.3951,-0.001776,-0.024156,0.001398,-0.000232,0.003399,0.000515,-0.002648,-0.534213,-0.000613,-1.509425,-259.664262,-1.476756,70.18115
2.4152,-0.001553,-0.02414,-0.000587,-0.000202,0.0034,0.000944,-0.002648,-0.534213,-0.000613,-1.509425,-259.664262,-1.476756,70.18115
2.4351,-0.001831,-0.023779,0.000312,-0.000174,0.003401,0.001243,-0.001863,-0.533999,-0.000591,-1.492851,-259.665588,-1.4956,70.179776
2.456,-0.001611,-0.024242,0.000928,-0.000174,0.003405,0.001222,-0.001786,-0.533893,-0.000222,-1.492851,-259.665588,-1.4956,70.179776
2.4753,-0.001755,-0.023563,0.000454,-0.000174,0.003409,0.001206,-0.001143,-0.534136,0.000966,-1.529116,-259.667216,-1.505231,70.178741
2.4955,-0.001601,-0.023724,0.001779,-0.000178,0.003406,0.000765,-0.00149,-0.533609,0.000502,-1.529116,-259.667216,-1.505231,70.178741
2.5155,-0.002086,-0.023565,0.001574,-0.000183,0.003405,0.000454,-0.00149,-0.533609,0.000502,-1.529116,-259.667216,-1.505231,70.178741
2.5359,-0.002378,-0.023684,0.000818,-0.00019,0.003405,0.000235,-0.001291,-0.533422,0.001625,-1.528774,-259.668876,-1.505659,70.177669
2.5552,-0.001995,-0.023657,0.000377,-0.000185,0.003397,-0.000342,-0.001564,-0.533512,0.001303,-1.528774,-259.668876,-1.505659,70.177669
2.5751,-0.00197,-0.023529,-0.00031,-0.000183,0.003392,-0.000753,-0.001809,-0.533549,0.000384,-1.517289,-259.670293,-1.512581,70.176367
2.5959,-0.002247,-0.02325,0.001033,-0.000183,0.003396,-0.000151,-0.0021,-0.533526,-0.000247,-1.517289,-259.670293,-1.512581,70.176367
2.6154,-0.001884,-0.023324,0.00044,-0.000179,0.003399,0.000269,-0.0021,-0.533526,-0.000247,-1.517289,-259.670293,-1.512581,70.176367
2.636,-0.002028,-0.022896,0.001216,-0.000172,0.003403,0.000562,-0.001668,-0.533183,0.000409,-1.508414,-259.671472,-1.523278,70.17482
2.6556,-0.002099,-0.023184,0.000878,-0.000173,0.0034,0.000182,-0.001559,-0.533046,0.000744,-1.508414,-259.671472,-1.523278,70.17482
2.6754,-0.001803,-0.022865,1.1e-05,-0.000176,0.003398,-8.7e-05,-0.001657,-0.533078,0.000896,-1.524885,-259.672957,-1.514598,70.173606
2.6957,-0.001901,-0.02326,0.000385,-0.000178,0.003401,0.000108,-0.001785,-0.532879,9.1e-05,-1.524885,-259.672957,-1.514598,70.173606
2.7159,-0.001804,-0.023061,0.000425,-0.000179,0.003404,0.000244,-0.001785,-0.532879,9.1e-05,-1.524885,-259.672957,-1.514598,70.173606
2.7352,-0.001533,-0.023065,0.001204,-0.000178,0.003406,0.000339,-0.001594,-0.532919,0.000421,-1.518218,-259.674296,-1.519826,70.172226
2.7556,-0.001794,-0.023093,-0.000219,-0.000189,0.003404,2.6e-05,-0.001317,-0.532963,0.000743,-1.518218,-259.674296,-1.519826,70.172226
2.7754,-0.002099,-0.022788,-0.000327,-0.000201,0.003403,-0.000194,-0.001911,-0.532985,-0.000208,-1.521563,-259.675742,-1.515208,70.170945
2.7957,-0.00221,-0.022557,0.000504,-0.000187,0.003404,0.000276,-0.002236,-0.532799,-0.000317,-1.521563,-259.675742,-1.515208,70.170945
2.816,-0.001958,-0.022835,0.001177,-0.000172,0.003405,0.000605,-0.002236,-0.532799,-0.000317,-1.521563,-259.675742,-1.515208,70.170945
2.8353,-0.002024,-0.022856,0.000538,-0.000157,0.003406,0.000834,-0.001366,-0.532693,0.001168,-1.509816,-259.677055,-1.51392,70.169537
2.8557,-0.001994,-0.022164,0.000755,-0.000157,0.0034,0.000285,-0.001524,-0.532743,0.00091,-1.509816,-259.677055,-1.51392,70.169537
2.8753,-0.002046,-0.022463,0.001639,-0.000161,0.003397,-0.000105,-0.001614,-0.532056,0.000781,-1.530822,-259.678612,-1.51679,70.168384
2.8953,-0.001961,-0.022187,0.000403,-0.00017,0.003389,-0.000698,-0.001244,-0.532423,0.001568,-1.530822,-259.678612,-1.51679,70.168384
2.9154,-0.001731,-0.02232,0.000513,-0.000181,0.003384,-0.001121,-0.001244,-0.532423,0.001568,-1.530822,-259.678612,-1.51679,70.168384
2.9356,-0.001709,-0.022463,0.001893,-0.000192,0.003382,-0.001422,-0.001476,-0.532179,0.000508,-1.522529,-259.679943,-1.524314,70.167002
2.9557,-0.001881,-0.022336,0.00029,-0.000213,0.003386,-0.001385,-0.001176,-0.532279,0.001077,-1.522529,-259.679943,-1.524314,70.167002
2.9753,-0.002391,-0.022123,0.001733,-0.000229,0.003389,-0.001358,-0.00174,-0.532229,0.000245,-1.494388,-259.680939,-1.525552,70.16532
2.9952,-0.001751,-0.022158,0.000425,-0.000221,0.003385,-0.001606,-0.001529,-0.532127,0.001598,-1.494388,-259.680939,-1.525552,70.16532
3.0156,-0.00243,-0.021769,0.000493,-0.000215,0.003383,-0.001779,-0.001529,-0.532127,0.001598,-1.494388,-259.680939,-1.525552,70.16532
3.0352,-0.001985,-0.021857,0.000686,-0.000211,0.003382,-0.001899,-0.002188,-0.531627,0.000436,-1.481475,-259.681963,-1.516513,70.163636
3.0552,-0.002018,-0.021623,-0.001083,-0.000202,0.003386,-0.001402,-0.001964,-0.531705,0.000531,-1.481475,-259.681963,-1.516513,70.163636
3.0757,-0.002002,-0.021598,-0.0004,-0.000191,0.003388,-0.001058,-0.002577,-0.531516,-0.001143,-1.476063,-259.682854,-1.524337,70.161822
3.0953,-0.001902,-0.021797,0.00169,-0.000185,0.00339,-0.000216,-0.002239,-0.531586,-0.000468,-1.476063,-259.682854,-1.524337,70.161822
3.1156,-0.001716,-0.021739,-0.000161,-0.000173,0.003392,0.000371,-0.002239,-0.531586,-0.000468,-1.476063,-259.682854,-1.524337,70.161822
3.1355,-0.002106,-0.021241,0.00196,-0.000158,0.003394,0.000777,-0.001806,-0.531599,-0.000205,-1.501119,-259.683943,-1.523401,70.160222
3.1553,-0.00213,-0.0217,-0.000306,-0.000159,0.003392,0.000381,-0.00152,-0.531435,0.000679,-1.501119,-259.683943,-1.523401,70.160222
3.1755,-0.001881,-0.021578,-0.000542,-0.000162,0.003391,9.8e-05,-0.002291,-0.531594,-0.000282,-1.530049,-259.68547,-1.51682,70.159069
3.196,-0.002063,-0.021463,0.001213,-0.000155,0.003394,0.000611,-0.002169,-0.531574,-0.000518,-1.530049,-259.68547,-1.51682,70.159069
3.2162,-0.002496,-0.021347,0.000788,-0.000145,0.003396,0.000966,-0.002169,-0.531574,-0.000518,-1.530049,-259.68547,-1.51682,70.159069
3.2353,-0.001913,-0.02106,0.00147,-0.000133,0.003398,0.001211,-0.002101,-0.531204,0.000793,-1.523888,-259.686851,-1.522199,70.157736
3.2559,-0.001675,-0.021376,-0.001191,-0.000121,0.003388,0.000475,-0.001722,-0.53113,0.001067,-1.523888,-259.686851,-1.522199,70.157736
3.2754,-0.002033,-0.021219,0.00182,-0.000115,0.003383,-5.1e-05,-0.002286,-0.531268,-0.001153,-1.538648,-259.688501,-1.520777,70.156676
3.2956,-0.001899,-0.020998,-0.000139,-0.000132,0.003377,-0.000656,-0.001205,-0.531217,0.00157,-1.538648,-259.688501,-1.520777,70.156676
3.3158,-0.002141,-0.021086,-0.000237,-0.000148,0.003373,-0.001089,-0.001205,-0.531217,0.00157,-1.538648,-259.688501,-1.520777,70.156676
3.3355,-0.001963,-0.020665,0.001274,-0.000165,0.003372,-0.001397,-0.002266,-0.530946,-0.000239,-1.536393,-259.689836,-1.53702,70.155315
3.3553,-0.002041,-0.020879,-6.2e-05,-0.000163,0.003377,-0.000973,-0.001874,-0.530813,0.000385,-1.536393,-259.689836,-1.53702,70.155315
3.375,-0.002105,-0.020719,0.000732,-0.000159,0.003381,-0.000678,-0.002077,-0.530773,-0.000106,-1.505571,-259.690831,-1.531874,70.15365
3.3958,-0.001861,-0.02124,0.000746,-0.000156,0.003383,-0.000635,-0.001761,-0.530718,0.000659,-1.505571,-259.690831,-1.531874,70.15365
3.4153,-0.002141,-0.020754,-0.000461,-0.000152,0.003384,-0.000605,-0.001761,-0.530718,0.000659,-1.505571,-259.690831,-1.531874,70.15365
3.4353,-0.001847,-0.020384,0.001157,-0.00015,0.003385,-0.000585,-0.002382,-0.530613,-0.000489,-1.517306,-259.692017,-1.528964,70.152133
3.4557,-0.002127,-0.020927,9.7e-05,-0.000145,0.003388,-0.00029,-0.001921,-0.530503,0.000184,-1.517306,-259.692017,-1.528964,70.152133
3.4753,-0.001635,-0.020232,-0.001364,-0.000139,0.003389,-8.4e-05,-0.002083,-0.53082,7.8e-05,-1.521388,-259.693229,-1.530817,70.150636
3.4957,-0.002267,-0.020265,0.001167,-0.000139,0.003387,0.000884,-0.002309,-0.530278,-0.001237,-1.521388,-259.693229,-1.530817,70.150636
3.5155,-0.002077,-0.020701,0.00066,-0.000131,0.003388,0.001559,-0.002309,-0.530278,-0.001237,-1.521388,-259.693229,-1.530817,70.150636
3.5355,-0.00188,-0.02025,0.001182,-0.000118,0.003389,0.002025,-0.001746,-0.530559,0.000656,-1.529285,-259.694564,-1.530523,70.14926
3.5553,-0.00195,-0.020468,4.1e-05,-0.000112,0.003379,0.001148,-0.001554,-0.530415,0.000872,-1.529285,-259.694564,-1.530523,70.14926
3.5759,-0.00182,-0.020067,0.000339,-0.000112,0.003375,0.000523,-0.001933,-0.530361,0.000105,-1.545264,-259.696398,-1.515951,70.148406
3.5958,-0.00182,-0.019871,-0.000559,-0.000115,0.003377,0.00039,-0.001673,-0.530088,0.000321,-1.545264,-259.696398,-1.515951,70.148406
3.6158,-0.001587,-0.019954,0.001071,-0.000119,0.003379,0.000297,-0.001673,-0.530088,0.000321,-1.545264,-259.696398,-1.515951,70.148406
3.6359,-0.002114,-0.019997,0.00029,-0.000122,0.003382,0.000232,-0.001046,-0.529813,0.001092,-1.540582,-259.69787,-1.534273,70.147187
3.6554,-0.002091,-0.019722,6.3e-05,-0.000132,0.003381,-6.9e-05,-0.001418,-0.529871,0.000771,-1.540582,-259.69787,-1.534273,70.147187
3.6756,-0.002096,-0.019767,-0.000341,-0.000142,0.00338,-0.000282,-0.002062,-0.529615,7.1e-05,-1.536146,-259.699277,-1.533114,70.145894
3.6953,-0.002141,-0.019689,-0.00053,-0.000125,0.003381,0.000203,-0.002251,-0.529747,-0.000304,-1.536146,-259.699277,-1.533114,70.145894
3.7155,-0.0026,-0.019605,0.001611,-0.000107,0.003382,0.000543,-0.002251,-0.529747,-0.000304,-1.536146,-259.699277,-1.533114,70.145894
3.7355,-0.002208,-0.019314,0.00085,-8.9e-05,0.003383,0.00078,-0.001785,-0.529463,0.001599,-1.526674,-259.700562,-1.530949,70.144471
3.7553,-0.001796,-0.019587,-0.00117,-7.6e-05,0.003373,5.7e-05,-0.001781,-0.529386,0.00129,-1.526674,-259.700562,-1.530949,70.144471
3.7752,-0.001868,-0.019052,-0.000293,-6.9e-05,0.003366,-0.00046,-0.002395,-0.52948,-0.001146,-1.547707,-259.702093,-1.540143,70.143318
3.7953,-0.00231,-0.019054,-0.000271,-7.3e-05,0.00337,0.000127,-0.00205,-0.529083,-0.000365,-1.547707,-259.702093,-1.540143,70.143318
3.8154,-0.00196,-0.019577,0.000168,-7.2e-05,0.003374,0.000536,-0.00205,-0.529083,-0.000365,-1.547707,-259.702093,-1.540143,70.143318
3.8355,-0.001749,-0.019022,0.000397,-6.8e-05,0.003377,0.000821,-0.001877,-0.529437,0.000148,-1.548566,-259.703323,-1.551989,70.141864
3.8553,-0.001962,-0.018887,0.00261,-7.1e-05,0.003378,0.000649,-0.001743,-0.529251,0.000248,-1.548566,-259.703323,-1.551989,70.141864
3.8751,-0.001974,-0.018625,0.00257,-7.5e-05,0.00338,0.000527,-0.000634,-0.528778,0.002636,-1.553212,-259.704876,-1.547085,70.140712
3.8955,-0.002208,-0.0188,0.00086,-0.000112,0.00336,-0.000588,-0.000661,-0.528631,0.002577,-1.553212,-259.704876,-1.547085,70.140712
3.9154,-0.002237,-0.019107,0.001581,-0.000146,0.003349,-0.001409,-0.000661,-0.528631,0.002577,-1.553212,-259.704876,-1.547085,70.140712
3.9352,-0.002136,-0.019009,0.001671,-0.000178,0.003343,-0.002006,-0.001434,-0.528965,0.001603,-1.550647,-259.706357,-1.546404,70.139489
3.9555,-0.001787,-0.018643,0.002284,-0.000181,0.003347,-0.00206,-0.001373,-0.528966,0.001634,-1.550647,-259.706357,-1.546404,70.139489
3.9752,-0.002135,-0.019144,0.000783,-0.000184,0.00335,-0.002098,-0.000627,-0.528543,0.002225,-1.486975,-259.707151,-1.531874,70.13778
3.9957,-0.002332,-0.01903,0.001277,-0.000183,0.003356,-0.001743,-0.001643,-0.529088,0.000901,-1.486975,-259.707151,-1.531874,70.13778
4.0153,-0.001556,-0.018527,0.001029,-0.000179,0.003361,-0.001498,-0.001643,-0.529088,0.000901,-1.486975,-259.707151,-1.531874,70.13778
4.0351,-0.001993,-0.018401,-0.001446,-0.000175,0.003365,-0.001331,-0.001038,-0.528387,0.000942,-1.481933,-259.707985,-1.531023,70.13592
4.0558,-0.002046,-0.018864,0.000126,-0.000176,0.00337,-0.000628,-0.001757,-0.528377,-8.1e-05,-1.481933,-259.707985,-1.531023,70.13592
4.0753,-0.001734,-0.018662,0.000775,-0.000172,0.003374,-0.000141,-0.001987,-0.528758,8.4e-05,-1.502351,-259.708995,-1.528945,70.134268
4.0951,-0.002149,-0.018233,-0.001376,-0.000175,0.003376,-0.000276,-0.001397,-0.528665,0.000711,-1.502351,-259.708995,-1.528945,70.134268
4.1152,-0.00197,-0.018513,-0.000689,-0.000178,0.003377,-0.000374,-0.001397,-0.528665,0.000711,-1.502351,-259.708995,-1.528945,70.134268
4.1351,-0.001952,-0.018355,0.002004,-0.000182,0.003378,-0.000446,-0.002328,-0.528373,-0.000695,-1.518558,-259.710305,-1.521149,70.13289
4.1555,-0.002475,-0.0183,0.000652,-0.000168,0.003378,-0.000324,-0.001759,-0.528349,0.000404,-1.518558,-259.710305,-1.521149,70.13289
4.1754,-0.001611,-0.018243,-0.000265,-0.000156,0.003378,-0.00024,-0.002148,-0.528193,0.000638,-1.512327,-259.711551,-1.521037,70.131426
4.1955,-0.002023,-0.018082,0.000369,-0.000152,0.003381,0.00018,-0.001781,-0.528233,-0.000188,-1.512327,-259.711551,-1.521037,70.131426
4.2153,-0.001836,-0.018042,-0.000231,-0.000146,0.003383,0.000471,-0.001781,-0.528233,-0.000188,-1.512327,-259.711551,-1.521037,70.131426
4.2356,-0.002012,-0.017682,0.001364,-0.000138,0.003385,0.000673,-0.00196,-0.527902,-0.000241,-1.522524,-259.71284,-1.526535,70.13002
4.2556,-0.002198,-0.017703,0.000522,-0.000126,0.003382,0.000446,-0.001697,-0.527795,0.000414,-1.522524,-259.71284,-1.526535,70.13002
4.2754,-0.002304,-0.017277,0.000465,-0.000117,0.00338,0.000286,-0.001936,-0.527596,0.000543,-1.534433,-259.714364,-1.5244,70.128826
4.2958,-0.001773,-0.017864,0.001789,-8.8e-05,0.003375,0.000133,-0.002056,-0.527297,0.000472,-1.534433,-259.714364,-1.5244,70.128826
4.3155,-0.0022,-0.0178,-0.000703,-6.4e-05,0.003371,2.5e-05,-0.002056,-0.527297,0.000472,-1.534433,-259.714364,-1.5244,70.128826
4.3357,-0.001875,-0.017563,0.001431,-4.5e-05,0.003367,-5e-05,-0.002563,-0.527659,-0.000691,-1.537907,-259.715778,-1.534321,70.12755
4.3553,-0.002163,-0.017619,-0.000319,-3.8e-05,0.003368,7.1e-05,-0.001978,-0.527603,0.000187,-1.537907,-259.715778,-1.534321,70.12755
4.3754,-0.002123,-0.017479,-0.00206,-3.2e-05,0.003369,0.000157,-0.002327,-0.527514,-0.00032,-1.557385,-259.717094,-1.557624,70.126211
4.3955,-0.002025,-0.017186,0.000854,1e-06,0.003353,0.001361,-0.003101,-0.527476,-0.001912,-1.557385,-259.717094,-1.557624,70.126211
4.4157,-0.001896,-0.017131,0.000447,3.7e-05,0.003343,0.002207,-0.003101,-0.527476,-0.001912,-1.557385,-259.717094,-1.557624,70.126211
4.4351,-0.002073,-0.017449,0.001634,7.4e-05,0.003337,0.002797,-0.00167,-0.526991,0.000453,-1.561694,-259.718479,-1.561162,70.124902
4.4553,-0.002055,-0.017272,0.000445,6e-05,0.003329,0.001657,-0.001492,-0.527164,0.000942,-1.561694,-259.718479,-1.561162,70.124902
4.4751,-0.002284,-0.01702,-0.000693,4.2e-05,0.003325,0.000842,-0.001826,-0.527172,0.000529,-1.585462,-259.720381,-1.61619,70.124288
4.4951,-0.002106,-0.017082,0.000761,6.6e-05,0.003328,0.001134,-0.002565,-0.527029,-0.00058,-1.585462,-259.720381,-1.61619,70.124288
4.5151,-0.001642,-0.017056,-0.000105,8.8e-05,0.00333,0.00134,-0.002565,-0.527029,-0.00058,-1.585462,-259.720381,-1.61619,70.124288
4.535,-0.002068,-0.016772,0.000797,0.000108,0.003332,0.001485,-0.001694,-0.526919,-7e-05,-1.581774,-259.721894,-1.585791,70.12318
4.5555,-0.00217,-0.017126,0.00111,8.7e-05,0.003335,0.001078,-0.00168,-0.526843,0.000289,-1.581774,-259.721894,-1.585791,70.12318
4.5754,-0.00189,-0.016589,0.000476,6.7e-05,0.003339,0.000792,-0.001601,-0.527021,0.001156,-1.596243,-259.723561,-1.61525,70.122225
4.5954,-0.001783,-0.017196,-0.00075,5.1e-05,0.00334,0.000447,-0.001642,-0.526622,0.00054,-1.596243,-259.723561,-1.61525,70.122225
4.6156,-0.002276,-0.016495,0.00119,3.5e-05,0.003342,0.000205,-0.001642,-0.526622,0.00054,-1.596243,-259.723561,-1.61525,70.122225
4.6352,-0.002224,-0.016844,0.001198,2e-05,0.003344,3.7e-05,-0.001666,-0.526355,0.001223,-1.588426,-259.725079,-1.594397,70.121092
4.6552,-0.002298,-0.016448,0.000507,1.5e-05,0.00334,-0.000444,-0.001644,-0.526537,0.001216,-1.588426,-259.725079,-1.594397,70.121092
4.675,-0.002206,-0.016489,0.001387,8e-06,0.003337,-0.000783,-0.002039,-0.526342,0.000508,-1.576748,-259.726416,-1.576829,70.119772
4.6952,-0.001932,-0.016506,-4.2e-05,-4e-06,0.003336,-0.001067,-0.001546,-0.52647,0.001309,-1.576748,-259.726416,-1.576829,70.119772
4.7152,-0.001877,-0.01608,0.000161,-1.5e-05,0.003336,-0.001266,-0.001546,-0.52647,0.001309,-1.576748,-259.726416,-1.576829,70.119772
4.7354,-0.002229,-0.016315,0.001682,-2.6e-05,0.003336,-0.001405,-0.001795,-0.52594,0.000128,-1.573678,-259.72756,-1.572955,70.118245
4.7556,-0.002205,-0.016049,0.000985,-3.6e-05,0.00334,-0.001202,-0.001622,-0.526077,0.000758,-1.573678,-259.72756,-1.572955,70.118245
4.7754,-0.002454,-0.01565,-8.1e-05,-4.3e-05,0.003343,-0.001059,-0.001703,-0.525943,0.00094,-1.560505,-259.728547,-1.564716,70.116576
4.7957,-0.002338,-0.016024,0.000819,-7e-06,0.00334,-0.000522,-0.002424,-0.525671,9e-06,-1.560505,-259.728547,-1.564716,70.116576
4.8155,-0.002181,-0.015917,0.001127,2.7e-05,0.003337,-0.000146,-0.002424,-0.525671,9e-06,-1.560505,-259.728547,-1.564716,70.116576
4.8356,-0.002319,-0.016166,0.000224,5.7e-05,0.003335,0.000116,-0.001609,-0.525777,0.001082,-1.554821,-259.729624,-1.56,70.114981
4.8556,-0.002482,-0.016164,0.001709,5.6e-05,0.003334,-0.000118,-0.001853,-0.52592,0.000726,-1.554821,-259.729624,-1.56,70.114981
4.8757,-0.002192,-0.015785,0.00059,5.3e-05,0.003334,-0.000284,-0.001609,-0.52606,0.001712,-1.58751,-259.730946,-1.588232,70.113714
4.8961,-0.001803,-0.015891,-0.00054,5.1e-05,0.003334,-0.000382,-0.001865,-0.525805,0.000693,-1.58751,-259.730946,-1.588232,70.113714
4.9157,-0.002213,-0.015803,0.001075,4.9e-05,0.003335,-0.000452,-0.001865,-0.525805,0.000693,-1.58751,-259.730946,-1.588232,70.113714
4.9352,-0.001988,-0.015569,-0.000472,4.7e-05,0.003335,-0.0005,-0.001663,-0.525663,0.001063,-1.587643,-259.732211,-1.585977,70.112311
4.9555,-0.002369,-0.015615,0.000165,4.5e-05,0.003337,-0.000386,-0.001893,-0.525609,0.000438,-1.587643,-259.732211,-1.585977,70.112311
4.9752,-0.001839,-0.015468,0.000896,4.4e-05,0.003338,-0.000306,-0.002284,-0.525509,0.000149,-1.586262,-259.733423,-1.583665,70.110854
4.9956,-0.00191,-0.015159,0.001941,2.2e-05,0.003339,-0.000469,-0.001463,-0.525466,0.000828,-1.586262,-259.733423,-1.583665,70.110854
5.0155,-0.002263,-0.015564,-0.000445,2e-06,0.00334,-0.000584,-0.001463,-0.525466,0.000828,-1.586262,-259.733423,-1.583665,70.110854
5.0357,-0.002344,-0.0152,-4.9e-05,-1.5e-05,0.003341,-0.000665,-0.002488,-0.525425,-0.000458,-1.58474,-259.734683,-1.583261,70.109444
5.0553,-0.001688,-0.015316,-0.000852,1.8e-05,0.003337,-6.6e-05,-0.00244,-0.525317,-0.000293,-1.58474,-259.734683,-1.583261,70.109444
5.0753,-0.00197,-0.014686,3.9e-05,5e-05,0.003334,0.000353,-0.002123,-0.52521,-0.000873,-1.565837,-259.735847,-1.566913,70.107959
5.0952,-0.002161,-0.014882,-0.000167,5.7e-05,0.003335,0.000498,-0.001965,-0.524726,-4.1e-05,-1.565837,-259.735847,-1.566913,70.107959
5.1155,-0.002102,-0.015257,0.000368,6.4e-05,0.003335,0.000597,-0.001965,-0.524726,-4.1e-05,-1.565837,-259.735847,-1.566913,70.107959
5.1357,-0.002348,-0.015075,0.00043,7.1e-05,0.003336,0.000665,-0.001913,-0.525119,0.000382,-1.584865,-259.737248,-1.586811,70.106728
5.1558,-0.001786,-0.014905,0.000524,8.2e-05,0.003333,0.000443,-0.002,-0.525085,0.000403,-1.584865,-259.737248,-1.586811,70.106728
5.1754,-0.001844,-0.014613,-0.000642,8.9e-05,0.003332,0.000287,-0.001516,-0.524799,0.000546,-1.589763,-259.738745,-1.595018,70.105555
5.1954,-0.0021,-0.015007,0.000937,9.2e-05,0.003332,0.000747,-0.002115,-0.524624,-0.00054,-1.589763,-259.738745,-1.595018,70.105555
5.2155,-0.002111,-0.014501,-0.000624,9.8e-05,0.003333,0.001067,-0.002115,-0.524624,-0.00054,-1.589763,-259.738745,-1.595018,70.105555
5.2354,-0.002435,-0.014353,-0.000573,0.000105,0.003333,0.001289,-0.002425,-0.524362,-0.000612,-1.596129,-259.740147,-1.598946,70.104294
5.2553,-0.001843,-0.014611,-7.5e-05,0.000144,0.003327,0.001466,-0.002549,-0.524342,-0.000594,-1.596129,-259.740147,-1.598946,70.104294
5.2751,-0.002299,-0.014351,0.00069,0.000177,0.003322,0.001588,-0.001878,-0.524505,-3.4e-05,-1.596387,-259.741791,-1.612205,70.103277
5.2956,-0.001881,-0.014538,0.000153,0.00018,0.003316,0.000959,-0.001941,-0.524358,0.00063,-1.596387,-259.741791,-1.612205,70.103277
5.3152,-0.001938,-0.014505,-0.001171,0.000178,0.003312,0.000515,-0.001941,-0.524358,0.00063,-1.596387,-259.741791,-1.612205,70.103277
5.3352,-0.00236,-0.014166,-0.000716,0.000174,0.00331,0.000203,-0.002527,-0.524369,-0.001106,-1.612129,-259.743471,-1.646104,70.102355
5.3552,-0.001843,-0.014318,0.001169,0.000191,0.003306,0.000904,-0.002608,-0.52427,-0.000938,-1.612129,-259.743471,-1.646104,70.102355
5.3754,-0.002001,-0.013974,0.000451,0.000211,0.003304,0.001394,-0.001241,-0.524214,0.001175,-1.62135,-259.744835,-1.625269,70.101089
5.3954,-0.002225,-0.014114,-0.000217,0.000193,0.003303,0.000892,-0.001725,-0.523989,0.000513,-1.62135,-259.744835,-1.625269,70.101089
5.4152,-0.002043,-0.014095,-0.00065,0.000175,0.003304,0.000537,-0.001725,-0.523989,0.000513,-1.62135,-259.744835,-1.625269,70.101089
5.4354,-0.002264,-0.013951,-0.000433,0.000157,0.003306,0.000288,-0.002366,-0.523958,-0.000593,-1.621428,-259.746471,-1.656463,70.100121
5.4555,-0.00202,-0.014013,-0.001688,0.000176,0.003304,0.000726,-0.002413,-0.52394,-0.000521,-1.621428,-259.746471,-1.656463,70.100121
5.4755,-0.002086,-0.013814,0.000571,0.000195,0.003303,0.001032,-0.002876,-0.523909,-0.001679,-1.615958,-259.747837,-1.62103,70.098893
5.4955,-0.002114,-0.013769,0.002018,0.000189,0.003303,0.000719,-0.001894,-0.523817,0.000365,-1.615958,-259.747837,-1.62103,70.098893
5.5151,-0.0022,-0.013479,0.000847,0.000181,0.003303,0.0005,-0.001894,-0.523817,0.000365,-1.615958,-259.747837,-1.62103,70.098893
5.5356,-0.001823,-0.013446,8.8e-05,0.000174,0.003304,0.000347,-0.00176,-0.523342,0.00089,-1.620273,-259.749405,-1.643529,70.097826
5.5551,-0.002432,-0.013405,-0.001346,0.000163,0.003303,0.000127,-0.001767,-0.523369,0.00056,-1.620273,-259.749405,-1.643529,70.097826
5.5754,-0.002113,-0.01347,-0.000494,0.000153,0.003303,-2.7e-05,-0.003113,-0.5233,-0.001335,-1.620225,-259.750804,-1.626982,70.096595
5.5957,-0.002462,-0.013799,0.000541,0.000175,0.003299,0.000533,-0.002429,-0.52345,-0.000566,-1.620225,-259.750804,-1.626982,70.096595
5.6156,-0.002087,-0.013517,0.000652,0.000198,0.003296,0.000925,-0.002429,-0.52345,-0.000566,-1.620225,-259.750804,-1.626982,70.096595
5.6355,-0.00251,-0.012914,0.000588,0.00022,0.003294,0.001199,-0.001749,-0.52338,0.000651,-1.61737,-259.752118,-1.616914,70.095268
5.6554,-0.001875,-0.013455,0.001494,0.000222,0.003289,0.00069,-0.001938,-0.523172,0.000625,-1.61737,-259.752118,-1.616914,70.095268
5.6754,-0.002096,-0.013013,0.001623,0.00022,0.003287,0.00033,-0.001107,-0.523352,0.001531,-1.625381,-259.753687,-1.656455,70.094268
5.6959,-0.002257,-0.013331,0.000405,0.000176,0.003282,-0.000399,-0.001253,-0.523037,0.001617,-1.625381,-259.753687,-1.656455,70.094268
5.7155,-0.002339,-0.013185,0.001353,0.000136,0.00328,-0.000922,-0.001253,-0.523037,0.001617,-1.625381,-259.753687,-1.656455,70.094268
5.7357,-0.002114,-0.013024,0.001002,0.0001,0.00328,-0.001296,-0.00164,-0.523048,0.001367,-1.63382,-259.755085,-1.642035,70.09303
5.7556,-0.002356,-0.012917,0.001457,9.2e-05,0.003282,-0.001375,-0.001623,-0.523022,0.001215,-1.63382,-259.755085,-1.642035,70.09303
5.7752,-0.002323,-0.012998,-0.001164,8.5e-05,0.003283,-0.001429,-0.00161,-0.522817,0.001418,-1.611129,-259.756035,-1.595453,70.091477
5.7955,-0.002283,-0.012627,0.002075,0.000133,0.003269,-0.000231,-0.002799,-0.522977,-0.000933,-1.611129,-259.756035,-1.595453,70.091477
5.8153,-0.002162,-0.012633,0.000812,0.000182,0.00326,0.000608,-0.002799,-0.522977,-0.000933,-1.611129,-259.756035,-1.595453,70.091477
5.8354,-0.002042,-0.012718,-0.000287,0.000229,0.003254,0.001193,-0.001744,-0.522495,0.000753,-1.606182,-259.756999,-1.591326,70.089816
5.8552,-0.001881,-0.012771,0.00039,0.000229,0.003257,0.000868,-0.001925,-0.522571,0.000321,-1.606182,-259.756999,-1.591326,70.089816
5.8751,-0.002083,-0.01282,0.000684,0.000227,0.00326,0.000638,-0.001676,-0.522675,0.000425,-1.628157,-259.758464,-1.661117,70.088885
5.8954,-0.001809,-0.012232,0.002596,0.000211,0.003263,0.000283,-0.001728,-0.522802,0.000663,-1.628157,-259.758464,-1.661117,70.088885
5.9154,-0.001796,-0.012253,-0.000163,0.000195,0.003266,3.2e-05,-0.001728,-0.522802,0.000663,-1.628157,-259.758464,-1.661117,70.088885
5.9355,-0.001884,-0.012149,0.001313,0.000181,0.003269,-0.000145,-0.001869,-0.522117,-0.000136,-1.632855,-259.759924,-1.649647,70.087735
5.9553,-0.002352,-0.012395,0.001518,0.000161,0.003273,-0.000148,-0.001602,-0.522114,0.000456,-1.632855,-259.759924,-1.649647,70.087735
5.9752,-0.002423,-0.012256,-4e-05,0.000144,0.003275,-0.000151,-0.001573,-0.522292,0.001513,-1.62755,-259.761186,-1.624556,70.086403
5.9956,-0.002363,-0.012505,0.00047,0.000187,0.003269,5e-05,-0.002369,-0.522254,9.1e-05,-1.62755,-259.761186,-1.624556,70.086403
6.0155,-0.002007,-0.012201,0.00012,0.000224,0.003263,0.000192,-0.002369,-0.522254,9.1e-05,-1.62755,-259.761186,-1.624556,70.086403
6.0356,-0.002061,-0.011922,0.00148,0.000255,0.003259,0.000292,-0.00194,-0.522065,0.000114,-1.616028,-259.762455,-1.613559,70.085061
6.0555,-0.001831,-0.011604,-0.000192,0.000235,0.003261,3.2e-05,-0.001679,-0.52199,0.000675,-1.616028,-259.762455,-1.613559,70.085061
6.0757,-0.001885,-0.012103,0.001968,0.000217,0.003262,-0.000152,-0.001921,-0.521504,-0.000183,-1.644961,-259.763779,-1.653495,70.083873
6.0954,-0.001859,-0.011887,0.000611,0.000153,0.003261,-0.000804,-0.000975,-0.522043,0.001775,-1.644961,-259.763779,-1.653495,70.083873
6.1158,-0.002089,-0.011422,0.001452,9.8e-05,0.003261,-0.001272,-0.000975,-0.522043,0.001775,-1.644961,-259.763779,-1.653495,70.083873
6.1355,-0.002007,-0.011533,0.001247,5.1e-05,0.003263,-0.001607,-0.001339,-0.521286,0.001446,-1.639034,-259.765047,-1.635275,70.082531
6.1557,-0.002045,-0.011528,-0.001366,4.1e-05,0.003262,-0.001659,-0.001351,-0.521373,0.001362,-1.639034,-259.765047,-1.635275,70.082531
6.1757,-0.0021,-0.011248,-0.001075,3.2e-05,0.003262,-0.001696,-0.00274,-0.521432,-0.001413,-1.593086,-259.765889,-1.582781,70.080966
6.1952,-0.001852,-0.011246,-1e-05,0.0001,0.003238,-0.000326,-0.002656,-0.52126,-0.001108,-1.593086,-259.765889,-1.582781,70.080966
6.2155,-0.002169,-0.011174,0.000983,0.000165,0.003222,0.000636,-0.002656,-0.52126,-0.001108,-1.593086,-259.765889,-1.582781,70.080966
6.2355,-0.002103,-0.01152,0.000281,0.000226,0.003212,0.001308,-0.001667,-0.521038,0.000912,-1.584989,-259.766778,-1.578148,70.07925
6.2552,-0.001849,-0.011415,0.002921,0.000232,0.003212,0.000765,-0.001787,-0.521219,0.000645,-1.584989,-259.766778,-1.578148,70.07925
6.275,-0.002091,-0.011427,-6e-06,0.000233,0.003213,0.00038,-0.000353,-0.521324,0.002956,-1.627067,-259.768165,-1.653147,70.078412
6.2956,-0.001791,-0.01112,0.000966,0.000239,0.003218,0.000329,-0.001936,-0.521413,0.000264,-1.627067,-259.768165,-1.653147,70.078412
6.3158,-0.002014,-0.011411,0.000774,0.000243,0.003222,0.000292,-0.001936,-0.521413,0.000264,-1.627067,-259.768165,-1.653147,70.078412
6.3354,-0.001964,-0.010606,0.000397,0.000247,0.003225,0.000266,-0.001609,-0.521276,0.00079,-1.638359,-259.769543,-1.648847,70.077219
6.3556,-0.001928,-0.010877,-0.000806,0.000235,0.003227,3.4e-05,-0.001669,-0.520994,0.000635,-1.638359,-259.769543,-1.648847,70.077219
6.375,-0.002173,-0.011207,0.000696,0.000223,0.003228,-0.000129,-0.002331,-0.520774,-0.000798,-1.643598,-259.770901,-1.651291,70.075991
6.3952,-0.002195,-0.01084,0.000919,0.000228,0.003228,-0.000207,-0.001864,-0.521163,0.000562,-1.643598,-259.770901,-1.651291,70.075991
6.4154,-0.001984,-0.011199,-0.000267,0.000232,0.003229,-0.00026,-0.001864,-0.521163,0.000562,-1.643598,-259.770901,-1.651291,70.075991
6.4352,-0.001788,-0.01039,-0.001264,0.000234,0.003229,-0.000297,-0.002111,-0.521064,-0.000272,-1.641648,-259.772163,-1.638271,70.074666
6.4552,-0.001765,-0.010706,0.001098,0.000257,0.003223,0.000411,-0.002239,-0.520777,-0.000672,-1.641648,-259.772163,-1.638271,70.074666
6.4752,-0.001982,-0.010584,0.000414,0.00028,0.003219,0.000906,-0.001198,-0.520603,0.001088,-1.647561,-259.773383,-1.639421,70.073302
6.4952,-0.002095,-0.01071,-0.00054,0.000273,0.003218,0.000574,-0.001717,-0.52058,0.000477,-1.647561,-259.773383,-1.639421,70.073302
6.5155,-0.001755,-0.010646,0.00186,0.000266,0.003218,0.000339,-0.001717,-0.52058,0.000477,-1.647561,-259.773383,-1.639421,70.073302
6.5359,-0.001507,-0.010557,0.002151,0.000258,0.003218,0.000173,-0.000795,-0.520513,0.001897,-1.645009,-259.774864,-1.675644,70.072252
6.5556,-0.002092,-0.010418,0.001574,0.000163,0.003216,-0.000646,-0.000641,-0.520515,0.002002,-1.645009,-259.774864,-1.675644,70.072252
6.5752,-0.002348,-0.010231,0.001859,8.1e-05,0.003217,-0.001241,-0.001281,-0.520316,0.001579,-1.648174,-259.776189,-1.653419,70.071012
6.5953,-0.00191,-0.010499,0.001109,8.5e-05,0.00321,-0.001624,-0.001389,-0.520232,0.001835,-1.648174,-259.776189,-1.653419,70.071012
6.6154,-0.002038,-0.010599,0.000606,8.7e-05,0.003206,-0.001894,-0.001389,-0.520232,0.001835,-1.648174,-259.776189,-1.653419,70.071012
6.6355,-0.001953,-0.010219,0.001134,8.6e-05,0.003203,-0.002083,-0.001726,-0.520476,0.000559,-1.603664,-259.777083,-1.59113,70.069566
6.6553,-0.001883,-0.009657,0.000577,8.9e-05,0.003207,-0.001673,-0.001584,-0.520358,0.000785,-1.603664,-259.777083,-1.59113,70.069566
6.6755,-0.002098,-0.009739,-0.000386,9.5e-05,0.00321,-0.00139,-0.001586,-0.519555,0.00051,-1.615435,-259.777855,-1.590066,70.067779
6.6955,-0.002173,-0.009535,0.001332,0.000157,0.003194,-0.000554,-0.002231,-0.519717,-0.00031,-1.615435,-259.777855,-1.590066,70.067779
6.7157,-0.001789,-0.010041,0.001173,0.000214,0.003181,2.9e-05,-0.002231,-0.519717,-0.00031,-1.615435,-259.777855,-1.590066,70.067779
6.7356,-0.001961,-0.009734,0.000129,0.000265,0.003172,0.000435,-0.001187,-0.519905,0.001115,-1.610835,-259.778799,-1.594091,70.066156
6.7556,-0.001807,-0.009722,0.000865,0.000242,0.003176,0.000125,-0.001468,-0.519822,0.000717,-1.610835,-259.778799,-1.594091,70.066156
6.7753,-0.001527,-0.009944,0.000745,0.000222,0.00318,-9.7e-05,-0.001358,-0.519629,0.000878,-1.647751,-259.780055,-1.661746,70.065093
6.7956,-0.001906,-0.009853,-0.000391,0.000172,0.003188,-0.000268,-0.001164,-0.519912,0.000757,-1.647751,-259.780055,-1.661746,70.065093
6.8156,-0.002113,-0.009396,-0.000546,0.000131,0.003195,-0.000393,-0.001164,-0.519912,0.000757,-1.647751,-259.780055,-1.661746,70.065093
6.8355,-0.001586,-0.009719,-0.000722,9.6e-05,0.003201,-0.000482,-0.002383,-0.519264,-0.00055,-1.641828,-259.781295,-1.639248,70.063806
6.8552,-0.001419,-0.009358,-0.000298,0.000162,0.003183,0.000246,-0.002208,-0.519433,-0.00062,-1.641828,-259.781295,-1.639248,70.063806
6.8757,-0.001604,-0.008873,0.000157,0.000222,0.003169,0.000757,-0.001568,-0.519261,-0.000313,-1.603913,-259.782403,-1.598336,70.062474
6.8954,-0.001915,-0.009379,-0.000122,0.00022,0.003167,0.000684,-0.001527,-0.518901,0.000117,-1.603913,-259.782403,-1.598336,70.062474
6.9154,-0.001672,-0.009324,0.001737,0.000217,0.003164,0.000631,-0.001527,-0.518901,0.000117,-1.603913,-259.782403,-1.598336,70.062474
6.9357,-0.001557,-0.008787,0.000278,0.000215,0.003162,0.000593,-0.000778,-0.519198,0.001767,-1.631854,-259.783773,-1.652615,70.061451
6.9559,-0.001936,-0.009448,0.000752,0.000167,0.003161,-2e-06,-0.001035,-0.519017,0.001166,-1.631854,-259.783773,-1.652615,70.061451
6.9753,-0.001648,-0.009025,-1.6e-05,0.000124,0.003161,-0.000426,-0.001546,-0.519348,0.00077,-1.631688,-259.785183,-1.647371,70.06033
6.9954,-0.001646,-0.008837,-0.000337,0.000143,0.003159,-0.000111,-0.001646,-0.519049,5.6e-05,-1.631688,-259.785183,-1.647371,70.06033
7.0155,-0.001696,-0.008896,0.000776,0.00016,0.003157,0.000109,-0.001646,-0.519049,5.6e-05,-1.631688,-259.785183,-1.647371,70.06033
7.0356,-0.001941,-0.009203,5.6e-05,0.000176,0.003156,0.000262,-0.001296,-0.518768,0.000759,-1.613535,-259.786318,-1.607037,70.058992
7.0553,-0.001649,-0.008941,0.001578,0.000186,0.003152,0.000129,-0.001556,-0.518937,0.000459,-1.613535,-259.786318,-1.607037,70.058992
7.0758,-0.001692,-0.009038,0.000557,0.000192,0.00315,3.5e-05,-0.000839,-0.518842,0.001586,-1.623868,-259.787622,-1.629534,70.057813
7.0955,-0.002028,-0.008809,0.001359,0.000176,0.003152,-0.000135,-0.001356,-0.519015,0.00065,-1.623868,-259.787622,-1.629534,70.057813
7.1156,-0.001677,-0.00883,0.002578,0.000162,0.003153,-0.000255,-0.001356,-0.519015,0.00065,-1.623868,-259.787622,-1.629534,70.057813
7.1356,-0.001571,-0.00836,0.001806,0.000149,0.003155,-0.00034,-0.000354,-0.518696,0.002579,-1.63142,-259.788893,-1.632245,70.056559
7.156,-0.001743,-0.008432,-0.000183,5.3e-05,0.003146,-0.001114,-0.000474,-0.518543,0.002263,-1.63142,-259.788893,-1.632245,70.056559
7.1753,-0.00211,-0.008555,0.000472,-2.8e-05,0.003142,-0.001676,-0.001832,-0.518332,-0.000194,-1.621344,-259.790066,-1.615105,70.055221
7.1954,-0.001505,-0.008112,-0.000708,5.1e-05,0.003126,-0.001196,-0.001866,-0.518531,0.000414,-1.621344,-259.790066,-1.615105,70.055221
7.2156,-0.002027,-0.008328,0.00071,0.000117,0.003114,-0.000863,-0.001866,-0.518531,0.000414,-1.621344,-259.790066,-1.615105,70.055221
7.2351,-0.001502,-0.008038,0.001237,0.000173,0.003105,-0.000631,-0.001667,-0.518209,0.000647,-1.557792,-259.790828,-1.564183,70.053723
7.2552,-0.001713,-0.00816,0.000363,0.000167,0.003101,-0.000725,-0.001341,-0.518125,0.000882,-1.557792,-259.790828,-1.564183,70.053723
7.2754,-0.001756,-0.008292,0.000447,0.000161,0.003098,-0.000791,-0.001523,-0.518075,0.000346,-1.632795,-259.791771,-1.620342,70.052513
7.2955,-0.001797,-0.008169,0.001078,0.000173,0.003096,-0.000587,-0.001527,-0.518269,0.000438,-1.632795,-259.791771,-1.620342,70.052513
7.3156,-0.001497,-0.008082,0.001135,0.000183,0.003095,-0.000445,-0.001527,-0.518269,0.000438,-1.632795,-259.791771,-1.620342,70.052513
7.3356,-0.001371,-0.007774,0.00082,0.000193,0.003093,-0.000347,-0.000912,-0.517953,0.001102,-1.632325,-259.792819,-1.615742,70.051079
7.3553,-0.0019,-0.007488,0.000855,0.000134,0.003093,-0.000566,-0.000928,-0.517864,0.000982,-1.632325,-259.792819,-1.615742,70.051079
7.3755,-0.001819,-0.007973,0.000303,8.6e-05,0.003093,-0.000723,-0.001458,-0.51739,0.000844,-1.637544,-259.793971,-1.629014,70.049759
7.3953,-0.002001,-0.007715,0.000751,0.000132,0.003081,-0.000497,-0.001647,-0.51792,0.000347,-1.637544,-259.793971,-1.629014,70.049759
7.4153,-0.001863,-0.007747,0.001435,0.000171,0.003072,-0.000339,-0.001647,-0.51792,0.000347,-1.637544,-259.793971,-1.629014,70.049759
7.4356,-0.001725,-0.007285,0.001581,0.000203,0.003064,-0.000228,-0.001128,-0.517622,0.001406,-1.603072,-259.794992,-1.595013,70.048397
7.4557,-0.001963,-0.007764,8.5e-05,0.000167,0.003053,-0.000733,-0.001041,-0.517469,0.001474,-1.603072,-259.794992,-1.595013,70.048397
7.4756,-0.001754,-0.007484,-6.9e-05,0.000136,0.003046,-0.001094,-0.001914,-0.517671,7.8e-05,-1.640142,-259.79611,-1.634118,70.047173
7.4955,-0.001741,-0.007618,-0.000504,0.000194,0.003029,-0.000511,-0.0018,-0.517497,-5.6e-05,-1.640142,-259.79611,-1.634118,70.047173
7.5154,-0.001882,-0.00731,-7.9e-05,0.000243,0.003016,-0.000103,-0.0018,-0.517497,-5.6e-05,-1.640142,-259.79611,-1.634118,70.047173
7.5355,-0.00111,-0.007495,-0.000313,0.000286,0.003006,0.000182,-0.001916,-0.517184,-0.000125,-1.627934,-259.797051,-1.607393,70.045705
7.5552,-0.001664,-0.007099,-0.000453,0.000304,0.002998,0.000479,-0.00165,-0.517297,-0.000207,-1.627934,-259.797051,-1.607393,70.045705
7.5755,-0.001814,-0.00682,0.000177,0.000321,0.002992,0.000684,-0.001887,-0.51701,-0.000448,-1.662422,-259.798207,-1.669422,70.044631
7.5956,-0.001491,-0.007393,0.000202,0.000364,0.002967,0.000618,-0.001738,-0.516833,0.000119,-1.662422,-259.798207,-1.669422,70.044631
7.6156,-0.001457,-0.007164,0.001548,0.000399,0.002947,0.000572,-0.001738,-0.516833,0.000119,-1.662422,-259.798207,-1.669422,70.044631
7.6354,-0.001239,-0.006907,-0.000683,0.000426,0.002931,0.000541,-0.000654,-0.51704,0.001576,-1.664702,-259.799562,-1.694925,70.043605
7.6554,-0.001677,-0.006903,0.000723,0.000347,0.002938,0.000242,-0.001038,-0.516971,0.000648,-1.664702,-259.799562,-1.694925,70.043605
7.676,-0.001463,-0.006899,0.000659,0.000281,0.002944,2.8e-05,-0.001295,-0.516814,0.000739,-1.70069,-259.800818,-1.733148,70.042598
7.6957,-0.001426,-0.007106,-0.000173,0.000245,0.002943,-0.000143,-0.001145,-0.516884,0.000669,-1.70069,-259.800818,-1.733148,70.042598
7.7153,-0.001503,-0.00676,0.001332,0.000214,0.002942,-0.000265,-0.001145,-0.516884,0.000669,-1.70069,-259.800818,-1.733148,70.042598
7.7356,-0.001632,-0.006974,0.000783,0.000189,0.002941,-0.000351,-0.000813,-0.516647,0.001333,-1.665431,-259.801905,-1.666518,70.041524
7.7552,-0.001751,-0.006802,0.000478,0.00015,0.002936,-0.000646,-0.000983,-0.516767,0.001109,-1.665431,-259.801905,-1.666518,70.041524
7.7755,-0.001328,-0.00671,9.6e-05,0.000118,0.002932,-0.000855,-0.001501,-0.516711,0.000467,-1.63996,-259.802966,-1.630577,70.040296
7.7957,-0.001265,-0.0064,0.0006,0.000128,0.002925,-0.000447,-0.001298,-0.516705,0.000127,-1.63996,-259.802966,-1.630577,70.040296
7.8153,-0.001368,-0.006485,0.000695,0.000138,0.00292,-0.000162,-0.001298,-0.516705,0.000127,-1.63996,-259.802966,-1.630577,70.040296
7.8353,-0.001393,-0.007063,-0.000296,0.000148,0.002915,3.7e-05,-0.001008,-0.516365,0.00066,-1.619558,-259.803915,-1.604828,70.038936
7.8552,-0.001623,-0.006405,0.001452,0.000149,0.002909,9.8e-05,-0.001231,-0.516641,0.000259,-1.619558,-259.803915,-1.604828,70.038936
7.8751,-0.001565,-0.005967,2.3e-05,0.000151,0.002905,0.00014,-0.000878,-0.516312,0.001453,-1.621162,-259.805086,-1.621943,70.037784
7.8958,-0.001618,-0.006611,0.001398,0.00021,0.002862,0.000221,-0.001496,-0.515992,0.000143,-1.621162,-259.805086,-1.621943,70.037784
7.916,-0.001568,-0.006732,0.000429,0.000257,0.002828,0.00028,-0.001496,-0.515992,0.000143,-1.621162,-259.805086,-1.621943,70.037784
7.9355,-0.001598,-0.006346,0.000585,0.000295,0.002801,0.000323,-0.001343,-0.516609,0.000435,-1.621094,-259.806283,-1.624129,70.036654
7.9557,-0.001139,-0.00655,2.8e-05,0.000289,0.002806,0.000154,-0.001325,-0.516489,0.000496,-1.621094,-259.806283,-1.624129,70.036654
7.9757,-0.001376,-0.005976,0.001082,0.000283,0.002811,3.5e-05,-0.001116,-0.516469,3.7e-05,-1.668834,-259.807379,-1.683553,70.035701
7.9959,-0.001884,-0.006292,0.000797,0.000213,0.002799,-0.000298,-0.00085,-0.516015,0.00099,-1.668834,-259.807379,-1.683553,70.035701
8.0157,-0.001562,-0.005904,0.00117,0.000156,0.00279,-0.000535,-0.00085,-0.516015,0.00099,-1.668834,-259.807379,-1.683553,70.035701
8.0355,-0.001439,-0.006284,-0.001606,0.00011,0.002782,-0.000704,-0.000954,-0.515786,0.001171,-1.670261,-259.808515,-1.671769,70.034582
8.0558,-0.001411,-0.006065,0.000573,0.000168,0.002761,-0.000301,-0.001484,-0.515975,4.1e-05,-1.670261,-259.808515,-1.671769,70.034582
8.0752,-0.00158,-0.006092,-0.000213,0.000217,0.002745,-1.7e-05,-0.001116,-0.515986,0.000553,-1.617394,-259.809353,-1.604924,70.033437
8.096,-0.001687,-0.005813,0.000466,0.000277,0.002733,0.000289,-0.001637,-0.516078,-0.000145,-1.617394,-259.809353,-1.604924,70.033437
8.1159,-0.0012,-0.005719,0.00061,0.000327,0.002724,0.000503,-0.001637,-0.516078,-0.000145,-1.617394,-259.809353,-1.604924,70.033437
8.1358,-0.001076,-0.005547,-0.000295,0.000369,0.002717,0.000654,-0.00088,-0.515609,0.000609,-1.650114,-259.810398,-1.649503,70.032384
8.1553,-0.001228,-0.005841,0.000547,0.000313,0.002699,0.000557,-0.001018,-0.515572,0.000247,-1.650114,-259.810398,-1.649503,70.032384
8.1751,-0.001439,-0.005664,0.001083,0.000269,0.002684,0.000487,-0.000939,-0.515765,0.000565,-1.688587,-259.811507,-1.724532,70.031555
8.1954,-0.001403,-0.005224,0.000921,0.000218,0.002673,-1e-06,-0.000891,-0.515669,0.001037,-1.688587,-259.811507,-1.724532,70.031555
8.2153,-0.001769,-0.005383,0.002087,0.000174,0.002664,-0.00035,-0.000891,-0.515669,0.001037,-1.688587,-259.811507,-1.724532,70.031555
8.2354,-0.001497,-0.005619,0.000888,0.000138,0.002658,-0.000599,-0.000694,-0.515274,0.002107,-1.660786,-259.812658,-1.683037,70.030632
8.2554,-0.001475,-0.005443,-0.000691,0.000109,0.002631,-0.001051,-0.000835,-0.515402,0.001613,-1.660786,-259.812658,-1.683037,70.030632
8.2753,-0.001545,-0.005267,-0.000833,8.3e-05,0.00261,-0.001373,-0.001824,-0.515365,-0.000709,-1.63085,-259.813501,-1.61635,70.029521
8.2951,-0.001035,-0.00527,0.000461,0.000233,0.002548,-0.000275,-0.001957,-0.515272,-0.000823,-1.63085,-259.813501,-1.61635,70.029521
8.3152,-0.001122,-0.005357,0.000216,0.000358,0.002502,0.000499,-0.001957,-0.515272,-0.000823,-1.63085,-259.813501,-1.61635,70.029521
8.3351,-0.001551,-0.005028,7.8e-05,0.000463,0.002468,0.001045,-0.001009,-0.515249,0.000159,-1.617744,-259.814204,-1.594926,70.028153
8.3553,-0.001474,-0.004798,-0.000508,0.000434,0.002461,0.000907,-0.001216,-0.515145,0.000119,-1.617744,-259.814204,-1.594926,70.028153
8.375,-0.001302,-0.004843,-0.000213,0.00041,0.002455,0.000807,-0.001733,-0.514798,-0.000508,-1.692814,-259.814204,-1.519856,70.028153
8.3952,-0.001539,-0.005252,-0.001161,0.000438,0.002419,0.000939,-0.001437,-0.51484,-0.000237,-1.692814,-259.814204,-1.519856,70.028153
8.4151,-0.001189,-0.005427,-0.000813,0.000461,0.00239,0.001031,-0.001437,-0.51484,-0.000237,-1.692814,-259.814204,-1.519856,70.028153
8.4351,-0.001612,-0.005528,-0.000229,0.000481,0.002367,0.001095,-0.001604,-0.515427,-0.000813,-1.709004,-259.814204,-1.444818,70.028153
8.4556,-0.001495,-0.005131,0.000197,0.000509,0.002391,0.001331,-0.001655,-0.515468,-0.000574,-1.709004,-259.814204,-1.444818,70.028153
8.4752,-0.001347,-0.004886,0.001551,0.000534,0.002411,0.001494,-0.001395,-0.515131,0.000197,-1.727766,-259.814204,-1.369924,70.028153
8.4952,-0.001508,-0.00526,-0.000212,0.000396,0.002398,0.000572,-0.000632,-0.514907,0.001428,-1.727766,-259.814204,-1.369924,70.028153
8.5154,-0.001457,-0.005589,0.001738,0.000284,0.002389,-9.5e-05,-0.000632,-0.514907,0.001428,-1.727766,-259.814204,-1.369924,70.028153
8.5356,-0.001718,-0.005284,0.000771,0.000193,0.002384,-0.000578,-0.00057,-0.515588,0.001738,-1.730044,-259.814205,-1.294909,70.028153
8.5553,-0.001072,-0.005079,-0.000162,0.000156,0.002416,-0.000906,-0.000879,-0.515464,0.001343,-1.730044,-259.814205,-1.294909,70.028153
8.5752,-0.00133,-0.005625,-0.001198,0.000125,0.002444,-0.001141,-0.001155,-0.51507,-0.000164,-1.665516,-259.814312,-1.369953,70.028008
8.5954,-0.001414,-0.005337,-0.000111,0.000232,0.002442,5.3e-05,-0.001875,-0.515577,-0.001111,-1.665516,-259.814312,-1.369953,70.028008
8.6152,-0.001552,-0.005331,-0.000737,0.000324,0.002445,0.000892,-0.001875,-0.515577,-0.001111,-1.665516,-259.814312,-1.369953,70.028008
8.6356,-0.001566,-0.004953,-0.000682,0.000405,0.002451,0.001479,-0.00193,-0.515291,-0.000755,-1.64236,-259.814585,-1.445003,70.02752
8.6555,-0.001512,-0.004761,-0.000365,0.000506,0.002425,0.001666,-0.001923,-0.515147,-0.000727,-1.64236,-259.814585,-1.445003,70.02752
8.6756,-0.001304,-0.005164,0.000585,0.000588,0.002406,0.001797,-0.001698,-0.514761,-0.000365,-1.690805,-259.814585,-1.369993,70.02752
8.6956,-0.00136,-0.005202,0.000718,0.000511,0.002417,0.001214,-0.001066,-0.515128,0.000502,-1.690805,-259.814585,-1.369993,70.02752
8.7156,-0.001462,-0.005263,0.000617,0.000448,0.002427,0.000799,-0.001066,-0.515128,0.000502,-1.690805,-259.814585,-1.369993,70.02752
8.736,-0.001382,-0.005035,-0.000771,0.000395,0.002436,0.000505,-0.001147,-0.515263,0.000617,-1.737132,-259.814585,-1.295039,70.02752
8.7554,-0.001282,-0.004984,0.000153,0.000409,0.00244,0.000543,-0.001403,-0.51517,5.2e-05,-1.737132,-259.814585,-1.295039,70.02752
8.7756,-0.001541,-0.005696,-4.6e-05,0.00042,0.002443,0.000571,-0.001204,-0.514984,0.000153,-1.713892,-259.814585,-1.220122,70.02752
8.7956,-0.001281,-0.005432,-0.00043,0.000437,0.002472,0.000632,-0.001532,-0.515631,-2.8e-05,-1.713892,-259.814585,-1.220122,70.02752
8.8158,-0.001382,-0.005283,-0.000359,0.000451,0.002496,0.000675,-0.001532,-0.515631,-2.8e-05,-1.713892,-259.814585,-1.220122,70.02752
8.8352,-0.001328,-0.005434,-0.000211,0.000463,0.002516,0.000705,-0.001565,-0.515283,-0.000359,-1.720287,-259.814585,-1.14515,70.02752
8.8556,-0.001463,-0.005004,3.1e-05,0.000475,0.002516,0.000893,-0.001512,-0.515345,-0.000298,-1.720287,-259.814585,-1.14515,70.02752
8.8755,-0.00103,-0.005007,0.001499,0.000485,0.002516,0.001024,-0.001448,-0.515004,3.1e-05,-1.726728,-259.814585,-1.070101,70.02752
8.8954,-0.00147,-0.004767,9.3e-05,0.000305,0.002503,0.000272,-0.000373,-0.515006,0.001366,-1.726728,-259.814585,-1.070101,70.02752
8.9154,-0.001442,-0.004897,0.000389,0.000159,0.002494,-0.000273,-0.000373,-0.515006,0.001366,-1.726728,-259.814585,-1.070101,70.02752
8.9356,-0.001233,-0.005311,0.000322,4e-05,0.002487,-0.000668,-0.001244,-0.514897,0.000389,-1.723978,-259.814585,-0.99516,70.02752
8.9561,-0.00125,-0.005106,0.00047,8.5e-05,0.002477,-0.000453,-0.001172,-0.515067,0.000361,-1.723978,-259.814585,-0.99516,70.02752
8.9756,-0.001126,-0.004726,0.001834,0.000121,0.002468,-0.000302,-0.00101,-0.515106,0.00047,-1.648933,-259.814587,-1.070205,70.027518
8.9961,-0.001523,-0.005175,-3.9e-05,-9e-06,0.002444,-0.000835,-0.000264,-0.514759,0.001711,-1.648933,-259.814587,-1.070205,70.027518
9.0155,-0.001288,-0.00516,-0.001294,-0.000113,0.002426,-0.001222,-0.000264,-0.514759,0.001711,-1.648933,-259.814587,-1.070205,70.027518
9.0356,-0.001157,-0.005149,0.001305,-0.000198,0.002412,-0.0015,-0.001949,-0.515159,-0.001294,-1.623785,-259.814593,-1.145177,70.027511
9.0556,-0.001271,-0.005315,-0.000801,-9.1e-05,0.002412,-0.00068,-0.001349,-0.515155,-0.000225,-1.623785,-259.814593,-1.145177,70.027511
9.0754,-0.001457,-0.004838,-0.000162,-1e-06,0.002415,-0.000107,-0.00168,-0.51531,-0.000804,-1.54874,-259.814632,-1.220221,70.027425
9.0953,-0.001562,-0.005144,-0.00074,0.000121,0.002389,0.000275,-0.001553,-0.514879,-0.000219,-1.54874,-259.814632,-1.220221,70.027425
9.1155,-0.001002,-0.005177,-0.000485,0.00022,0.00237,0.000545,-0.001553,-0.514879,-0.000219,-1.54874,-259.814632,-1.220221,70.027425
9.1354,-0.001535,-0.005155,-0.001355,0.0003,0.002356,0.000734,-0.001252,-0.515164,-0.000486,-1.5702,-259.814758,-1.295229,70.027292
9.1553,-0.001247,-0.005436,0.000581,0.000362,0.002364,0.001233,-0.001652,-0.515158,-0.000842,-1.5702,-259.814758,-1.295229,70.027292
9.1752,-0.001542,-0.005094,0.001158,0.000415,0.002372,0.001581,-0.000951,-0.515433,0.000582,-1.645229,-259.814801,-1.370258,70.027262
9.1956,-0.001164,-0.005079,-0.000204,0.000356,0.002385,0.000752,-0.000952,-0.515123,0.001108,-1.645229,-259.814801,-1.370258,70.027262
9.2157,-0.000898,-0.005158,-0.000634,0.000305,0.002398,0.000156,-0.000952,-0.515123,0.001108,-1.645229,-259.814801,-1.370258,70.027262
9.2355,-0.00112,-0.005153,0.001238,0.000263,0.002409,-0.00027,-0.001221,-0.515158,-0.000634,-1.694637,-259.814802,-1.295242,70.027262
9.2553,-0.001578,-0.005113,0.000236,0.000209,0.00243,-1e-05,-0.000922,-0.515156,0.000132,-1.694637,-259.814802,-1.295242,70.027262
9.2755,-0.001676,-0.005042,0.000339,0.000169,0.002447,0.000168,-0.001458,-0.515105,0.000235,-1.687293,-259.814889,-1.370245,70.027162
9.2956,-0.00132,-0.005239,-3.2e-05,0.000251,0.00243,0.000131,-0.001499,-0.515047,0.00033,-1.687293,-259.814889,-1.370245,70.027162
9.3156,-0.001505,-0.005107,0.00021,0.000315,0.002419,0.000107,-0.001499,-0.515047,0.00033,-1.687293,-259.814889,-1.370245,70.027162
9.3353,-0.000844,-0.005222,-0.00039,0.000366,0.00241,9.3e-05,-0.001399,-0.515077,0.000213,-1.637002,-259.815183,-1.445284,70.026891
9.3553,-0.00135,-0.004862,-0.000516,0.000354,0.002422,0.000325,-0.001253,-0.515133,-3.4e-05,-1.637002,-259.815183,-1.445284,70.026891
9.3753,-0.001381,-0.005457,-0.000573,0.000346,0.002432,0.000485,-0.001613,-0.514843,-0.000516,-1.711945,-259.815436,-1.520227,70.02665
9.3956,-0.001232,-0.004721,0.000737,0.000399,0.002443,0.000896,-0.001668,-0.515403,-0.000568,-1.711945,-259.815436,-1.520227,70.02665
9.4151,-0.001489,-0.004696,-0.000825,0.000444,0.002454,0.001183,-0.001668,-0.515403,-0.000568,-1.711945,-259.815436,-1.520227,70.02665
9.4352,-0.0012,-0.005118,-0.000219,0.000482,0.002463,0.001382,-0.001906,-0.514646,-0.000815,-1.696982,-259.815969,-1.595246,70.026231
9.4552,-0.001547,-0.005037,0.001452,0.000534,0.002428,0.001522,-0.001662,-0.514833,-0.00057,-1.696982,-259.815969,-1.595246,70.026231
9.4753,-0.001289,-0.004839,-0.00088,0.000576,0.0024,0.00162,-0.000806,-0.515036,0.001452,-1.715486,-259.815969,-1.520348,70.026231
9.4954,-0.001383,-0.004905,-0.000939,0.000606,0.00238,0.00175,-0.001654,-0.514857,-0.00067,-1.715486,-259.815969,-1.520348,70.026231
9.5158,-0.001421,-0.005175,0.000832,0.000631,0.002365,0.001841,-0.001654,-0.514857,-0.00067,-1.715486,-259.815969,-1.520348,70.026231
9.5358,-0.001299,-0.00473,-0.000656,0.000652,0.002353,0.001904,-0.000997,-0.515175,0.000832,-1.739151,-259.815969,-1.445341,70.026231
9.5554,-0.001165,-0.005028,-0.0002,0.000599,0.002363,0.00143,-0.001253,-0.514996,0.000234,-1.739151,-259.815969,-1.445341,70.026231
9.5754,-0.001132,-0.004869,-0.001048,0.000556,0.002372,0.001094,-0.001267,-0.515028,-0.0002,-1.663989,-259.815969,-1.370179,70.026231
9.5952,-0.001411,-0.004809,-0.000928,0.000577,0.00236,0.001554,-0.00163,-0.514883,-0.000972,-1.663989,-259.815969,-1.370179,70.026231
9.6153,-0.00106,-0.005106,0.001506,0.000597,0.002352,0.001876,-0.00163,-0.514883,-0.000972,-1.663989,-259.815969,-1.370179,70.026231
9.6353,-0.001689,-0.00522,0.000483,0.000616,0.002345,0.0021,-0.000293,-0.515106,0.001506,-1.589154,-259.815969,-1.295344,70.026231
9.6556,-0.001355,-0.004784,0.000796,0.000484,0.002368,0.001142,-0.000756,-0.515152,0.001094,-1.589154,-259.815969,-1.295344,70.026231
9.6756,-0.001307,-0.005201,0.000131,0.000375,0.002389,0.000452,-0.000948,-0.514784,0.000796,-1.664148,-259.815969,-1.22035,70.026231
9.6952,-0.001333,-0.004956,0.00068,0.000361,0.002406,0.000433,-0.001215,-0.515166,0.000187,-1.664148,-259.815969,-1.22035,70.026231
9.7157,-0.001531,-0.005107,-0.000572,0.00035,0.00242,0.00042,-0.001215,-0.515166,0.000187,-1.664148,-259.815969,-1.22035,70.026231
9.7356,-0.001316,-0.005188,-0.000624,0.00034,0.002431,0.00041,-0.001823,-0.515107,-0.000572,-1.710729,-259.815969,-1.145186,70.026231
9.7558,-0.001074,-0.005146,8.1e-05,0.000419,0.00242,0.000845,-0.001746,-0.51514,-0.000593,-1.710729,-259.815969,-1.145186,70.026231
9.7756,-0.001269,-0.004783,0.000161,0.000484,0.002413,0.001151,-0.001033,-0.515146,8.1e-05,-1.697078,-259.815973,-1.220143,70.026228
9.7958,-0.001683,-0.004952,-0.001675,0.000451,0.0024,0.000951,-0.001173,-0.514816,0.000154,-1.697078,-259.815973,-1.220143,70.026228
9.8157,-0.001583,-0.004826,0.000746,0.000423,0.00239,0.00081,-0.001173,-0.514816,0.000154,-1.697078,-259.815973,-1.220143,70.026228
9.8359,-0.001212,-0.004909,-0.000842,0.000401,0.002382,0.000711,-0.001202,-0.514825,0.000746,-1.72489,-259.815973,-1.145181,70.026228
9.8556,-0.001184,-0.005237,-0.000167,0.000421,0.002372,0.00066,-0.001381,-0.514859,9.9e-05,-1.72489,-259.815973,-1.145181,70.026228
9.8757,-0.001371,-0.004831,0.000701,0.000437,0.002364,0.000625,-0.00127,-0.515237,-0.000167,-1.712192,-259.815973,-1.070256,70.026228
9.8951,-0.001217,-0.004796,0.000271,0.000387,0.002365,0.000313,-0.001035,-0.514864,0.000629,-1.712192,-259.815973,-1.070256,70.026228
9.9156,-0.001406,-0.005073,-0.000359,0.000346,0.002366,9.2e-05,-0.001035,-0.514864,0.000629,-1.712192,-259.815973,-1.070256,70.026228
9.9354,-0.001076,-0.005175,-4.4e-05,0.000313,0.002367,-6.4e-05,-0.001589,-0.515073,-0.000359,-1.728483,-259.815973,-0.995069,70.026228
9.956,-0.001522,-0.00526,0.001288,0.000334,0.002381,0.000321,-0.001386,-0.515115,-0.000229,-1.728483,-259.815973,-0.995069,70.026228
9.9755,-0.001702,-0.004832,0.000613,0.000354,0.002392,0.000591,-0.000866,-0.515259,0.001288,-1.704362,-259.815974,-1.070093,70.026228
9.9953,-0.001296,-0.004925,0.000125,0.000381,0.002376,0.000243,-0.001344,-0.514869,0.000672,-1.704362,-259.815974,-1.070093,70.026228
10.0155,-0.001606,-0.004608,0.000129,0.000401,0.002365,-0.0,-0.001344,-0.514869,0.000672,-1.704362,-259.815974,-1.070093,70.026228
10.0353,-0.00188,-0.004925,-0.000319,0.000415,0.002357,-0.00017,-0.00154,-0.514608,0.000129,-1.698707,-259.815974,-1.145007,70.026228
10.0557,-0.001492,-0.004923,-4.4e-05,0.000498,0.002327,0.000124,-0.001748,-0.514739,-5.6e-05,-1.698707,-259.815974,-1.145007,70.026228
10.0751,-0.00142,-0.004845,-0.000538,0.000566,0.002303,0.000334,-0.001515,-0.514923,-4.4e-05,-1.6237,-259.815974,-1.220014,70.026228
10.0953,-0.001565,-0.005192,0.001393,0.000596,0.0023,0.000756,-0.001678,-0.514852,-0.000494,-1.6237,-259.815974,-1.220014,70.026228
10.1157,-0.001093,-0.005132,-0.000383,0.000623,0.002298,0.001051,-0.001678,-0.514852,-0.000494,-1.6237,-259.815974,-1.220014,70.026228
10.1351,-0.001516,-0.004776,-0.001613,0.000647,0.002296,0.001257,-0.001288,-0.515132,-0.000383,-1.548798,-259.815974,-1.145111,70.026228
10.1553,-0.000891,-0.004974,0.000537,0.000663,0.002305,0.001629,-0.001718,-0.514986,-0.000887,-1.548798,-259.815974,-1.145111,70.026228
10.1755,-0.001331,-0.004783,0.001222,0.000679,0.002312,0.001886,-0.000617,-0.514974,0.000537,-1.473839,-259.815974,-1.070152,70.026228
10.1956,-0.001633,-0.00491,0.001918,0.000525,0.002317,0.000974,-0.000699,-0.514799,0.001164,-1.473839,-259.815974,-1.070152,70.026228
10.2156,-0.001482,-0.00495,-0.000598,0.000401,0.002323,0.000314,-0.000699,-0.514799,0.001164,-1.473839,-259.815974,-1.070152,70.026228
10.2354,-0.001255,-0.00484,0.00063,0.000299,0.002329,-0.000161,-0.001787,-0.51495,-0.000598,-1.398681,-259.815974,-0.994994,70.026228
10.2552,-0.0014,-0.005011,0.001701,0.000342,0.00233,0.000173,-0.001438,-0.514905,-9.5e-05,-1.398681,-259.815974,-0.994994,70.026228
10.2751,-0.001402,-0.004948,0.000416,0.000378,0.002332,0.000408,-0.000533,-0.51501,0.001701,-1.473518,-259.815974,-1.069831,70.026228
10.2952,-0.001699,-0.004632,0.001141,0.000354,0.002344,0.000212,-0.00113,-0.514953,0.000534,-1.473518,-259.815974,-1.069831,70.026228
10.3153,-0.001589,-0.005245,0.001662,0.000335,0.002354,7.3e-05,-0.00113,-0.514953,0.000534,-1.473518,-259.815974,-1.069831,70.026228
10.3351,-0.001307,-0.005347,0.000532,0.000318,0.002362,-2.5e-05,-0.000742,-0.515244,0.001662,-1.548519,-259.815974,-0.99483,70.026228
10.3552,-0.001019,-0.004951,0.001406,0.000256,0.002393,-0.00044,-0.000862,-0.515286,0.0012,-1.548519,-259.815974,-0.99483,70.026228
10.3751,-0.001368,-0.00493,4.5e-05,0.000204,0.002419,-0.000738,-0.000301,-0.51495,0.001406,-1.623521,-259.815974,-1.069831,70.026227
10.3955,-0.001361,-0.004687,-0.000507,0.00023,0.00241,-0.000378,-0.001255,-0.514932,0.000162,-1.623521,-259.815974,-1.069831,70.026227
10.4154,-0.001395,-0.004936,0.001131,0.000253,0.002404,-0.000126,-0.001255,-0.514932,0.000162,-1.623521,-259.815974,-1.069831,70.026227
10.4354,-0.001141,-0.00473,0.001125,0.000273,0.002398,5.1e-05,-0.000818,-0.514935,0.001131,-1.673845,-259.815977,-1.144937,70.026223
10.4556,-0.0012,-0.005075,0.000326,0.000196,0.002395,-0.000336,-0.000715,-0.514851,0.001128,-1.673845,-259.815977,-1.144937,70.026223
10.4751,-0.001339,-0.005316,-0.000295,0.000134,0.002392,-0.000614,-0.001034,-0.515074,0.000326,-1.682525,-259.815985,-1.219974,70.026216
10.4954,-0.001282,-0.004892,0.000605,0.000193,0.002408,-5.4e-05,-0.001454,-0.515297,-0.000246,-1.682525,-259.815985,-1.219974,70.026216
10.5153,-0.001129,-0.004885,-0.000631,0.000244,0.002422,0.000338,-0.001454,-0.515297,-0.000246,-1.682525,-259.815985,-1.219974,70.026216
10.5355,-0.001147,-0.004947,-0.000393,0.000287,0.002435,0.000612,-0.001452,-0.514878,-0.000633,-1.636927,-259.816041,-1.295161,70.026138
10.5553,-0.001559,-0.005206,0.000217,0.000323,0.002418,0.000982,-0.00141,-0.514905,-0.000537,-1.636927,-259.816041,-1.295161,70.026138
10.5753,-0.001623,-0.004967,0.001256,0.000354,0.002405,0.001239,-0.001448,-0.515201,0.000218,-1.672568,-259.816107,-1.369836,70.02609
10.5951,-0.001009,-0.004838,4.2e-05,0.000324,0.0024,0.000475,-0.001025,-0.514988,0.001161,-1.672568,-259.816107,-1.369836,70.02609
10.6155,-0.001624,-0.005021,0.000254,0.000297,0.002398,-7.2e-05,-0.001025,-0.514988,0.001161,-1.672568,-259.816107,-1.369836,70.02609
10.6359,-0.001199,-0.005074,-0.001244,0.000272,0.002397,-0.000463,-0.001495,-0.515021,0.000254,-1.6824,-259.816107,-1.29483,70.02609
10.6558,-0.001712,-0.005025,0.000135,0.000344,0.002388,0.000113,-0.001634,-0.515043,-0.00036,-1.6824,-259.816107,-1.29483,70.02609
10.6754,-0.001383,-0.004856,0.000412,0.000404,0.002383,0.000517,-0.001644,-0.515017,0.000133,-1.698932,-259.816189,-1.369962,70.025986
10.6955,-0.001012,-0.004602,-0.001289,0.000391,0.002377,0.000373,-0.001215,-0.514869,0.000388,-1.698932,-259.816189,-1.369962,70.025986
10.7152,-0.00139,-0.005193,0.000803,0.00038,0.002373,0.000271,-0.001215,-0.514869,0.000388,-1.698932,-259.816189,-1.369962,70.025986
10.7354,-0.001055,-0.004846,0.002089,0.000371,0.00237,0.000199,-0.00098,-0.515193,0.000803,-1.719544,-259.81619,-1.295014,70.025986
10.7552,-0.001369,-0.004743,0.001985,0.000248,0.002387,-0.000315,-0.000578,-0.515051,0.001325,-1.719544,-259.81619,-1.295014,70.025986
10.7753,-0.001031,-0.004906,1.9e-05,0.000149,0.002402,-0.000687,-0.000357,-0.514739,0.001985,-1.718653,-259.816231,-1.369931,70.025948
10.7952,-0.00122,-0.004789,0.000573,0.000133,0.002402,-0.000329,-0.000968,-0.514892,0.000176,-1.718653,-259.816231,-1.369931,70.025948
10.8152,-0.001318,-0.004741,0.000177,0.000121,0.002402,-8.2e-05,-0.000968,-0.514892,0.000176,-1.718653,-259.816231,-1.369931,70.025948
10.8355,-0.001317,-0.00514,8.3e-05,0.000114,0.002401,8.9e-05,-0.001229,-0.514708,0.000168,-1.645799,-259.816488,-1.445237,70.025583
10.8552,-0.001148,-0.004845,0.000679,0.000162,0.00239,0.000213,-0.001248,-0.51488,0.000133,-1.645799,-259.816488,-1.445237,70.025583
10.8754,-0.001408,-0.00473,-0.000473,0.000201,0.002382,0.000301,-0.000802,-0.514798,0.000681,-1.617023,-259.817085,-1.519934,70.025013
10.8952,-0.001463,-0.004529,-0.000144,0.000293,0.002352,0.00065,-0.001574,-0.514734,-0.000371,-1.617023,-259.817085,-1.519934,70.025013
10.9153,-0.001597,-0.004777,0.000455,0.000368,0.002329,0.000896,-0.001574,-0.514734,-0.000371,-1.617023,-259.817085,-1.519934,70.025013
10.9352,-0.001315,-0.004364,0.000156,0.000428,0.002312,0.001069,-0.001361,-0.514706,0.000464,-1.649051,-259.817817,-1.594973,70.024385
10.9556,-0.001141,-0.004462,0.001199,0.00044,0.002288,0.000779,-0.001309,-0.514559,0.000339,-1.649051,-259.817817,-1.594973,70.024385
10.9756,-0.001076,-0.005071,-0.000186,0.000448,0.00227,0.000575,-0.000529,-0.514462,0.001199,-1.714239,-259.817817,-1.520017,70.024385
10.9953,-0.001692,-0.004915,0.000599,0.000398,0.002305,0.000689,-0.001113,-0.515016,-6.2e-05,-1.714239,-259.817817,-1.520017,70.024385
11.0156,-0.001433,-0.005017,0.000216,0.00036,0.002332,0.000766,-0.001113,-0.515016,-6.2e-05,-1.714239,-259.817817,-1.520017,70.024385
11.0355,-0.001284,-0.004999,-0.001051,0.000331,0.002353,0.000817,-0.001323,-0.515017,0.000216,-1.73986,-259.817817,-1.445012,70.024385
11.0558,-0.001552,-0.004652,0.000855,0.000382,0.002356,0.000968,-0.001525,-0.515009,-0.000299,-1.73986,-259.817817,-1.445012,70.024385
11.0751,-0.001368,-0.005083,-0.001337,0.000424,0.002359,0.001075,-0.001116,-0.514652,0.000855,-1.686301,-259.817817,-1.370021,70.024386
11.0953,-0.0016,-0.004446,-0.000122,0.000521,0.002345,0.001612,-0.001965,-0.515043,-0.001139,-1.686301,-259.817817,-1.370021,70.024386
11.1155,-0.001619,-0.004433,-0.00119,0.000602,0.002335,0.001988,-0.001965,-0.515043,-0.001139,-1.686301,-259.817817,-1.370021,70.024386
11.1353,-0.001732,-0.004948,0.00015,0.00067,0.002329,0.002252,-0.002226,-0.514433,-0.00119,-1.710385,-259.817817,-1.29502,70.024386
11.1557,-0.001134,-0.004837,-0.000449,0.000758,0.002287,0.002149,-0.001995,-0.514642,-0.000647,-1.710385,-259.817817,-1.29502,70.024386
11.1752,-0.001418,-0.004715,-0.000589,0.000827,0.002255,0.00208,-0.001363,-0.514837,-0.000449,-1.635384,-259.817817,-1.22002,70.024386
11.1955,-0.001457,-0.004613,0.000395,0.000821,0.002253,0.002014,-0.001687,-0.514726,-0.000577,-1.635384,-259.817817,-1.22002,70.024386
11.2156,-0.001503,-0.004748,0.001435,0.000816,0.002251,0.001969,-0.001687,-0.514726,-0.000577,-1.635384,-259.817817,-1.22002,70.024386
11.2354,-0.001266,-0.004657,0.001068,0.000813,0.00225,0.001937,-0.000771,-0.514748,0.001435,-1.560338,-259.817817,-1.144974,70.024386
11.2558,-0.001118,-0.0044,0.000614,0.000645,0.002258,0.000953,-0.000751,-0.51471,0.001284,-1.560338,-259.817817,-1.144974,70.024386
11.2753,-0.00132,-0.005085,0.000709,0.000509,0.002267,0.000241,-0.000805,-0.5144,0.000614,-1.48525,-259.817817,-1.069886,70.024386
11.2955,-0.00129,-0.004842,0.000441,0.000425,0.002301,1.3e-05,-0.000945,-0.515027,0.000701,-1.48525,-259.817817,-1.069886,70.024386
11.3155,-0.001303,-0.004894,-0.000379,0.000357,0.002329,-0.000151,-0.000945,-0.515027,0.000701,-1.48525,-259.817817,-1.069886,70.024386
11.3356,-0.001433,-0.004674,0.000515,0.000302,0.002352,-0.000269,-0.001496,-0.514894,-0.000379,-1.410243,-259.817817,-0.994879,70.024386
11.3554,-0.001651,-0.004554,0.001747,0.000335,0.002343,5e-05,-0.001364,-0.514805,-1.6e-05,-1.410243,-259.817817,-0.994879,70.024386
11.3753,-0.001504,-0.004836,0.00063,0.000363,0.002337,0.000274,-0.00076,-0.514553,0.001747,-1.485112,-259.817817,-1.069747,70.024386
11.3955,-0.001099,-0.004325,-0.000314,0.000351,0.002334,6e-06,-0.001147,-0.514812,0.000724,-1.485112,-259.817817,-1.069747,70.024386
11.4154,-0.001442,-0.004548,0.001083,0.000341,0.002333,-0.000183,-0.001147,-0.514812,0.000724,-1.485112,-259.817817,-1.069747,70.024386
11.4358,-0.001541,-0.00492,-0.001265,0.000331,0.002332,-0.000316,-0.00089,-0.514548,0.001083,-1.560258,-259.817817,-1.144894,70.024385
11.4559,-0.001198,-0.004981,0.000639,0.000371,0.002315,-7.5e-05,-0.001413,-0.514698,0.000135,-1.560258,-259.817817,-1.144894,70.024385
11.4755,-0.001729,-0.004557,-0.001395,0.000404,0.002302,9.5e-05,-0.000872,-0.514981,0.000639,-1.635108,-259.81782,-1.219743,70.024382
11.4954,-0.001603,-0.004893,0.001993,0.000577,0.002236,0.000952,-0.002303,-0.514593,-0.001216,-1.635108,-259.81782,-1.219743,70.024382
11.5155,-0.001376,-0.004602,0.001021,0.000721,0.002187,0.001557,-0.002303,-0.514593,-0.001216,-1.635108,-259.81782,-1.219743,70.024382
11.5355,-0.001482,-0.004621,-2.7e-05,0.000839,0.002152,0.001983,-0.000855,-0.514602,0.001021,-1.71024,-259.81782,-1.144611,70.024382
11.5555,-0.001433,-0.004678,-9.9e-05,0.000733,0.002169,0.001309,-0.00112,-0.51461,0.000588,-1.71024,-259.81782,-1.144611,70.024382
11.5754,-0.001308,-0.004497,0.001706,0.000647,0.002183,0.000829,-0.001484,-0.514678,-9.9e-05,-1.635196,-259.81782,-1.069567,70.024382
11.5958,-0.001255,-0.004464,-0.001211,0.000467,0.00219,5.7e-05,-0.000533,-0.514513,0.001543,-1.635196,-259.81782,-1.069567,70.024382
11.6155,-0.001337,-0.00467,-0.000894,0.000323,0.002196,-0.000503,-0.000533,-0.514513,0.001543,-1.635196,-259.81782,-1.069567,70.024382
11.6357,-0.001277,-0.004757,-0.001264,0.000207,0.002203,-0.000909,-0.001793,-0.51467,-0.000894,-1.560371,-259.81782,-0.994742,70.024382
11.6559,-0.001252,-0.00486,0.002407,0.000329,0.002186,0.000185,-0.001846,-0.514705,-0.001046,-1.560371,-259.81782,-0.994742,70.024382
11.6756,-0.001352,-0.004765,-0.001068,0.000433,0.002177,0.000954,-2.5e-05,-0.514858,0.002407,-1.63551,-259.817821,-1.069881,70.024381
11.6957,-0.001597,-0.00479,-0.001138,0.000502,0.002184,0.001341,-0.001732,-0.514773,-0.000762,-1.63551,-259.817821,-1.069881,70.024381
11.7159,-0.001636,-0.005065,0.000326,0.00056,0.002192,0.00161,-0.001732,-0.514773,-0.000762,-1.63551,-259.817821,-1.069881,70.024381
11.7357,-0.001867,-0.004729,-0.000831,0.000607,0.002199,0.001796,-0.00147,-0.515065,0.000326,-1.710421,-259.817821,-0.99497,70.024381
11.756,-0.001654,-0.005047,-0.001841,0.000661,0.002214,0.001542,-0.001795,-0.514931,-0.000132,-1.710421,-259.817821,-0.99497,70.024381
11.7753,-0.001303,-0.00483,0.00081,0.000702,0.002227,0.001364,-0.002593,-0.515046,-0.001841,-1.635428,-259.817821,-0.919976,70.024381
11.7954,-0.001587,-0.00487,0.001573,0.000603,0.002252,0.000878,-0.001043,-0.51485,0.000571,-1.635428,-259.817821,-0.919976,70.024381
11.8152,-0.001361,-0.004582,0.000953,0.000522,0.002274,0.000531,-0.001043,-0.51485,0.000571,-1.635428,-259.817821,-0.919976,70.024381
11.8353,-0.001186,-0.004596,-0.00032,0.000456,0.002291,0.000285,-0.000875,-0.514582,0.000953,-1.560429,-259.817821,-0.844977,70.024381
11.8555,-0.00139,-0.004641,-2.7e-05,0.000412,0.002283,0.00019,-0.001069,-0.514588,0.000433,-1.560429,-259.817821,-0.844977,70.024381
11.8752,-0.00153,-0.004784,0.001233,0.000377,0.002277,0.000122,-0.001404,-0.514641,-2.7e-05,-1.485483,-259.817821,-0.770031,70.024381
11.8953,-0.001235,-0.004718,0.000326,0.000327,0.002285,-0.000299,-0.000945,-0.514772,0.001124,-1.485483,-259.817821,-0.770031,70.024381
11.9154,-0.001215,-0.004609,0.001334,0.000286,0.002291,-0.000599,-0.000945,-0.514772,0.001124,-1.485483,-259.817821,-0.770031,70.024381
11.9352,-0.001323,-0.004917,0.000676,0.000252,0.002297,-0.000813,-0.000534,-0.514609,0.001334,-1.560554,-259.817821,-0.845102,70.024381
11.9556,-0.001383,-0.004884,0.000863,0.000178,0.002305,-0.000914,-0.000719,-0.514736,0.001061,-1.560554,-259.817821,-0.845102,70.024381
11.9753,-0.001127,-0.004989,0.000797,0.000119,0.002312,-0.000988,-0.000943,-0.514884,0.000863,-1.635648,-259.817821,-0.920196,70.024381
11.9954,-0.001449,-0.004524,-0.000678,6.9e-05,0.002337,-0.000901,-0.00074,-0.514979,0.000803,-1.635648,-259.817821,-0.920196,70.024381
12.0151,-0.001289,-0.004632,0.000753,3e-05,0.002358,-0.000842,-0.00074,-0.514979,0.000803,-1.635648,-259.817821,-0.920196,70.024381
12.0353,-0.001007,-0.004693,0.001306,-1e-06,0.002374,-0.000803,-0.000905,-0.514632,0.000753,-1.640209,-259.817821,-0.99517,70.024381
12.0552,-0.001341,-0.00503,-0.00046,-3.3e-05,0.00236,-0.000869,-0.000674,-0.514657,0.000979,-1.640209,-259.817821,-0.99517,70.024381
12.0754,-0.001282,-0.004684,0.000577,-5.8e-05,0.002348,-0.000916,-0.001575,-0.51503,-0.00046,-1.570016,-259.817824,-1.070129,70.024377
12.0953,-0.001441,-0.004641,0.001192,-1.1e-05,0.002337,-0.000693,-0.001039,-0.514714,0.000487,-1.570016,-259.817824,-1.070129,70.024377
12.1152,-0.001483,-0.004935,-0.00035,2.6e-05,0.002329,-0.000535,-0.001039,-0.514714,0.000487,-1.570016,-259.817824,-1.070129,70.024377
12.1356,-0.001384,-0.00486,0.001257,5.6e-05,0.002322,-0.000423,-0.001662,-0.514933,-0.000351,-1.538408,-259.817839,-1.145141,70.024352
12.1555,-0.001311,-0.004398,-0.000904,0.000119,0.002325,-0.000258,-0.001282,-0.514903,0.000314,-1.538408,-259.817839,-1.145141,70.024352
12.1754,-0.001422,-0.004469,0.001105,0.000171,0.002329,-0.00014,-0.001772,-0.514396,-0.000904,-1.597699,-259.817867,-1.220217,70.024317
12.1956,-0.001213,-0.004447,0.00121,0.000162,0.002299,-0.000386,-0.000938,-0.514462,0.00093,-1.597699,-259.817867,-1.220217,70.024317
12.2158,-0.001465,-0.004847,0.001767,0.000154,0.002276,-0.00056,-0.000938,-0.514462,0.00093,-1.597699,-259.817867,-1.220217,70.024317
12.2352,-0.001588,-0.004902,-0.000325,0.000146,0.002258,-0.000681,-0.000564,-0.514842,0.001767,-1.646836,-259.817914,-1.295156,70.024267
12.2557,-0.001685,-0.004612,0.001321,0.000153,0.002276,-0.000766,-0.001051,-0.514866,0.000911,-1.646836,-259.817914,-1.295156,70.024267
12.2753,-0.001889,-0.004782,-0.001015,0.000158,0.00229,-0.000826,-0.001012,-0.5146,0.001318,-1.650156,-259.818038,-1.37004,70.024086
12.2953,-0.001412,-0.004956,-0.000336,0.000366,0.002239,7.8e-05,-0.00228,-0.514764,-0.000804,-1.650156,-259.818038,-1.37004,70.024086
12.3153,-0.001678,-0.005083,0.001394,0.000538,0.002203,0.000719,-0.00228,-0.514764,-0.000804,-1.650156,-259.818038,-1.37004,70.024086
12.3357,-0.001171,-0.004326,0.000319,0.000679,0.002178,0.001172,-0.000969,-0.515049,0.001383,-1.659203,-259.818284,-1.445037,70.023703
12.3557,-0.001505,-0.004772,-0.000909,0.000575,0.002203,0.000556,-0.000985,-0.514751,0.000948,-1.659203,-259.818284,-1.445037,70.023703
12.3754,-0.001277,-0.004846,0.000309,0.00049,0.002224,0.000114,-0.001969,-0.514772,-0.000909,-1.584207,-259.818284,-1.370042,70.023703
12.3958,-0.001287,-0.004755,-0.000212,0.000451,0.002249,0.000212,-0.001194,-0.514839,0.000201,-1.584207,-259.818284,-1.370042,70.023703
12.4152,-0.00142,-0.004721,0.001548,0.000422,0.002269,0.000278,-0.001194,-0.514839,0.000201,-1.584207,-259.818284,-1.370042,70.023703
12.4352,-0.001457,-0.004652,-0.000227,0.0004,0.002285,0.000322,-0.000631,-0.51472,0.001548,-1.509121,-259.818284,-1.294956,70.023703
12.4553,-0.001613,-0.004261,-0.000172,0.000357,0.002285,2e-06,-0.001015,-0.514692,0.000823,-1.509121,-259.818284,-1.294956,70.023703
12.4755,-0.001152,-0.004738,0.000829,0.000322,0.002285,-0.000226,-0.0017,-0.514261,-0.000172,-1.584038,-259.818284,-1.220039,70.023703
12.4956,-0.00121,-0.004478,-0.000219,0.000251,0.002293,-0.000328,-0.000812,-0.514698,0.000743,-1.584038,-259.818284,-1.220039,70.023703
12.5155,-0.001437,-0.004695,-0.000437,0.000195,0.002298,-0.000403,-0.000812,-0.514698,0.000743,-1.584038,-259.818284,-1.220039,70.023703
12.5354,-0.001352,-0.004606,0.000776,0.00015,0.002302,-0.000459,-0.00166,-0.514693,-0.000437,-1.659169,-259.818297,-1.295169,70.023688
12.5556,-0.001041,-0.004488,-0.000145,0.000219,0.002287,-0.000124,-0.001377,-0.514658,5.1e-05,-1.659169,-259.818297,-1.295169,70.023688
12.5753,-0.001354,-0.004349,0.001106,0.000275,0.002275,0.000112,-0.001116,-0.514476,-0.000147,-1.644729,-259.818429,-1.370041,70.02352
12.5954,-0.001419,-0.004871,0.000782,0.000225,0.002249,-0.000226,-0.000819,-0.514359,0.000993,-1.644729,-259.818429,-1.370041,70.02352
12.6155,-0.001146,-0.004808,0.000367,0.000184,0.002229,-0.000467,-0.000819,-0.514359,0.000993,-1.644729,-259.818429,-1.370041,70.02352
12.636,-0.001478,-0.004733,0.000597,0.00015,0.002213,-0.000639,-0.000959,-0.514791,0.000368,-1.687761,-259.818593,-1.445077,70.023366
12.6553,-0.001546,-0.004647,0.001366,0.000153,0.002234,-0.000473,-0.001044,-0.514766,0.000459,-1.687761,-259.818593,-1.445077,70.023366
12.675,-0.001396,-0.004769,-0.000328,0.000157,0.002252,-0.000357,-0.000849,-0.514607,0.001354,-1.652865,-259.819013,-1.520077,70.022766
12.6953,-0.001339,-0.004369,0.001017,0.000242,0.00225,9.8e-05,-0.001512,-0.514756,-0.000207,-1.652865,-259.819013,-1.520077,70.022766
12.7152,-0.001229,-0.004766,-0.001089,0.000312,0.002249,0.000419,-0.001512,-0.514756,-0.000207,-1.652865,-259.819013,-1.520077,70.022766
12.7353,-0.001058,-0.004315,0.000907,0.00037,0.002251,0.000644,-0.001781,-0.51469,-0.001101,-1.647789,-259.81967,-1.595562,70.021969
12.7552,-0.001493,-0.004498,0.000682,0.000382,0.00224,0.000866,-0.001298,-0.514528,-0.000286,-1.647789,-259.81967,-1.595562,70.021969
12.7752,-0.001431,-0.005003,0.001083,0.000394,0.002233,0.001019,-0.001145,-0.514498,0.000682,-1.709952,-259.819671,-1.521083,70.021969
12.7951,-0.001254,-0.004567,-0.001361,0.00033,0.002263,0.000385,-0.000902,-0.514959,0.001048,-1.709952,-259.819671,-1.521083,70.021969
12.8151,-0.001445,-0.004144,-0.000743,0.000277,0.002289,-7e-05,-0.000902,-0.514959,0.001048,-1.709952,-259.819671,-1.521083,70.021969
12.8351,-0.001308,-0.004502,0.000826,0.000232,0.00231,-0.000396,-0.001824,-0.514143,-0.000743,-1.707843,-259.819671,-1.445993,70.021969
12.8553,-0.0012,-0.004222,-0.00174,0.000308,0.002256,7e-06,-0.001435,-0.514292,-9.3e-05,-1.707843,-259.819671,-1.445993,70.021969
12.8753,-0.001645,-0.004425,0.000453,0.000369,0.002213,0.000293,-0.002086,-0.514187,-0.001746,-1.68271,-259.82006,-1.521052,70.02149
12.8955,-0.001488,-0.004361,0.0002,0.000426,0.002188,0.000271,-0.00147,-0.514403,0.000267,-1.68271,-259.82006,-1.521052,70.02149
12.916,-0.000888,-0.004117,-0.000297,0.00047,0.002169,0.000258,-0.00147,-0.514403,0.000267,-1.68271,-259.82006,-1.521052,70.02149
12.9353,-0.001229,-0.004528,0.000403,0.000505,0.002154,0.00025,-0.00104,-0.514117,-0.000297,-1.723849,-259.82006,-1.446061,70.02149
12.9553,-0.001533,-0.004517,0.001244,0.000443,0.002149,0.000452,-0.001033,-0.514283,-1.4e-05,-1.723849,-259.82006,-1.446061,70.02149
12.9758,-0.001366,-0.004062,0.002431,0.000395,0.002144,0.00059,-0.000899,-0.514516,0.001244,-1.648982,-259.82006,-1.371193,70.02149
12.9964,-0.001311,-0.00406,0.001316,0.000199,0.002113,-0.000387,-0.000193,-0.5141,0.002328,-1.648982,-259.82006,-1.371193,70.02149
13.0155,-0.001733,-0.004455,0.000699,4.3e-05,0.002092,-0.00111,-0.000193,-0.5141,0.002328,-1.648982,-259.82006,-1.371193,70.02149
13.0354,-0.00141,-0.004778,-0.000736,-8.3e-05,0.002076,-0.00164,-0.001376,-0.514455,0.000699,-1.724075,-259.82006,-1.2961,70.02149
13.0556,-0.001502,-0.004455,-9.7e-05,6.1e-05,0.002086,-0.000972,-0.001544,-0.514587,0.000111,-1.724075,-259.82006,-1.2961,70.02149
13.0755,-0.00107,-0.0043,0.000767,0.000178,0.002097,-0.000509,-0.001553,-0.514444,-0.000105,-1.64908,-259.820128,-1.371095,70.021296
13.0954,-0.001367,-0.004557,-0.000232,0.000127,0.002106,-0.000478,-0.000753,-0.514312,0.000692,-1.64908,-259.820128,-1.371095,70.021296
13.1155,-0.001465,-0.004514,0.001848,8.7e-05,0.002114,-0.000462,-0.000753,-0.514312,0.000692,-1.64908,-259.820128,-1.371095,70.021296
13.1354,-0.001198,-0.004342,0.00143,5.6e-05,0.002119,-0.000456,-0.000523,-0.514488,0.001842,-1.670228,-259.82034,-1.446154,70.021011
13.1555,-0.001231,-0.004395,0.000749,-1.3e-05,0.00213,-0.000937,-0.000501,-0.514425,0.001674,-1.670228,-259.82034,-1.446154,70.021011
13.1753,-0.00129,-0.004347,-0.000125,-6.8e-05,0.00214,-0.001284,-0.00085,-0.51435,0.000739,-1.600973,-259.82082,-1.521027,70.020385
13.1954,-0.001513,-0.004266,5.6e-05,3.5e-05,0.002125,-0.000622,-0.00131,-0.514345,-5.1e-05,-1.600973,-259.82082,-1.521027,70.020385
13.2152,-0.001248,-0.004077,-0.000717,0.000119,0.002115,-0.00016,-0.00131,-0.514345,-5.1e-05,-1.600973,-259.82082,-1.521027,70.020385
13.2355,-0.001561,-0.004169,0.000455,0.000188,0.002108,0.000163,-0.001616,-0.513997,-0.000765,-1.525896,-259.821304,-1.547433,70.019342
13.2552,-0.001563,-0.004062,-0.001211,0.000292,0.002064,0.000509,-0.001498,-0.514059,-0.000268,-1.525896,-259.821304,-1.547433,70.019342
13.2752,-0.001323,-0.004399,-0.000202,0.000376,0.00203,0.000752,-0.002179,-0.514021,-0.001208,-1.600935,-259.821848,-1.622471,70.018848
13.2953,-0.001679,-0.003901,-0.001333,0.000428,0.002039,0.000935,-0.001489,-0.514365,-0.000286,-1.600935,-259.821848,-1.622471,70.018848
13.3154,-0.00141,-0.004622,0.000921,0.000472,0.002047,0.001062,-0.001489,-0.514365,-0.000286,-1.600935,-259.821848,-1.622471,70.018848
13.3353,-0.001371,-0.003736,-0.000451,0.000508,0.002054,0.001149,-0.00094,-0.514622,0.000921,-1.675967,-259.821848,-1.547439,70.018848
13.3554,-0.001327,-0.004017,0.000849,0.00049,0.002055,0.000839,-0.001211,-0.514258,0.000359,-1.675967,-259.821848,-1.547439,70.018848
13.3753,-0.001216,-0.004197,-9.1e-05,0.000476,0.002056,0.000621,-0.000894,-0.514017,0.000849,-1.601008,-259.821848,-1.472481,70.018848
13.3952,-0.001287,-0.004031,3.3e-05,0.000466,0.002051,0.000688,-0.00123,-0.514181,-9e-06,-1.601008,-259.821848,-1.472481,70.018848
13.4153,-0.00119,-0.003848,0.001525,0.000459,0.002047,0.000734,-0.00123,-0.514181,-9e-06,-1.601008,-259.821848,-1.472481,70.018848
13.4357,-0.00123,-0.004489,-0.001721,0.000454,0.002044,0.000765,-0.000413,-0.513848,0.001525,-1.526045,-259.821848,-1.397518,70.018848
13.4559,-0.001616,-0.004152,-0.001433,0.000426,0.002037,0.000661,-0.001097,-0.514106,0.000214,-1.526045,-259.821848,-1.397518,70.018848
13.4754,-0.001244,-0.004355,-0.000949,0.000404,0.00203,0.000587,-0.002347,-0.514152,-0.001433,-1.45114,-259.821848,-1.322612,70.018848
13.4956,-0.001378,-0.00437,1.8e-05,0.0005,0.002022,0.001205,-0.001782,-0.514337,-0.000991,-1.45114,-259.821848,-1.322612,70.018848
13.5155,-0.001206,-0.004421,0.001059,0.00058,0.002017,0.001638,-0.001782,-0.514337,-0.000991,-1.45114,-259.821848,-1.322612,70.018848
13.5353,-0.001163,-0.004059,-0.001586,0.000647,0.002015,0.001942,-0.000667,-0.514421,0.001059,-1.526243,-259.821848,-1.247509,70.018848
13.5557,-0.001361,-0.00414,0.000474,0.0006,0.002029,0.001619,-0.001202,-0.514272,-2.6e-05,-1.526243,-259.821848,-1.247509,70.018848
13.5754,-0.001577,-0.003982,-0.000374,0.000562,0.002039,0.001391,-0.001119,-0.51414,0.000474,-1.45122,-259.821848,-1.172485,70.018848
13.5956,-0.001242,-0.004066,0.001811,0.000645,0.001996,0.001362,-0.001713,-0.513995,-0.000303,-1.45122,-259.821848,-1.172485,70.018848
13.6153,-0.001393,-0.004117,-0.000722,0.000711,0.001963,0.001345,-0.001713,-0.513995,-0.000303,-1.45122,-259.821848,-1.172485,70.018848
13.6357,-0.001059,-0.004407,0.00039,0.000762,0.001938,0.001338,-0.001761,-0.514117,-0.000722,-1.376174,-259.821848,-1.097439,70.018848
13.6555,-0.001868,-0.00415,0.001429,0.000727,0.00196,0.001338,-0.001394,-0.514235,-0.000269,-1.376174,-259.821848,-1.097439,70.018848
13.6753,-0.001134,-0.004506,0.000356,0.0007,0.001978,0.001337,-0.001139,-0.514149,0.001429,-1.301228,-259.821848,-1.022493,70.018848
13.6954,-0.001535,-0.004504,0.000181,0.000593,0.002023,0.000936,-0.000968,-0.514476,0.000446,-1.301228,-259.821848,-1.022493,70.018848
13.7159,-0.001352,-0.003905,-0.000896,0.000507,0.002059,0.00065,-0.000968,-0.514476,0.000446,-1.301228,-259.821848,-1.022493,70.018848
13.7355,-0.0014,-0.004015,-0.00097,0.000437,0.002088,0.000445,-0.001809,-0.513905,-0.000896,-1.226206,-259.821848,-0.947471,70.018848
13.7556,-0.001519,-0.004202,0.000661,0.000561,0.002021,0.00106,-0.001844,-0.51395,-0.000927,-1.226206,-259.821848,-0.947471,70.018848
13.7756,-0.001502,-0.004189,-0.000798,0.000662,0.001969,0.001496,-0.001182,-0.514202,0.000661,-1.151198,-259.821848,-0.872463,70.018848
13.7955,-0.001557,-0.004275,0.000219,0.000736,0.001959,0.00165,-0.001841,-0.51419,-0.000662,-1.151198,-259.821848,-0.872463,70.018848
13.8154,-0.000976,-0.00417,0.000681,0.000795,0.001951,0.00176,-0.001841,-0.51419,-0.000662,-1.151198,-259.821848,-0.872463,70.018848
13.8355,-0.001001,-0.004025,0.00055,0.000843,0.001946,0.001838,-0.000629,-0.51417,0.000681,-1.076356,-259.821848,-0.797621,70.018848
13.8554,-0.001447,-0.004064,-0.00098,0.00065,0.001967,0.001219,-0.000666,-0.514111,0.000628,-1.076356,-259.821848,-0.797621,70.018848
13.8754,-0.001394,-0.004403,-2.6e-05,0.000496,0.001983,0.000773,-0.001946,-0.514064,-0.00098,-1.001357,-259.821848,-0.722622,70.018848
13.8956,-0.001081,-0.003788,0.000329,0.000526,0.002004,0.000833,-0.001456,-0.514373,-0.000112,-1.001357,-259.821848,-0.722622,70.018848
13.9155,-0.001352,-0.004312,-0.000267,0.000549,0.002021,0.000875,-0.001456,-0.514373,-0.000112,-1.001357,-259.821848,-0.722622,70.018848
13.9355,-0.001032,-0.003979,8.2e-05,0.000568,0.002034,0.000906,-0.001489,-0.514312,-0.000267,-0.926373,-259.821848,-0.647638,70.018848
13.9559,-0.001274,-0.0041,-0.000148,0.000553,0.002033,0.000949,-0.001284,-0.514175,-0.000124,-0.926373,-259.821848,-0.647638,70.018848
13.9751,-0.001537,-0.003892,-0.00068,0.000543,0.002031,0.000978,-0.00135,-0.5141,-0.000148,-0.851261,-259.821848,-0.572526,70.018848
13.9955,-0.001745,-0.004481,-0.001875,0.000653,0.001973,0.001268,-0.001835,-0.51391,-0.000632,-0.851261,-259.821848,-0.572526,70.018848
14.0153,-0.001405,-0.004173,0.00096,0.000741,0.001929,0.001475,-0.001835,-0.51391,-0.000632,-0.851261,-259.821848,-0.572526,70.018848
14.0351,-0.001254,-0.004178,-0.000143,0.000811,0.001895,0.001623,-0.000915,-0.514172,0.00096,-0.776316,-259.821848,-0.497581,70.018848
14.0552,-0.001536,-0.004089,-0.000656,0.000712,0.001923,0.0011,-0.001083,-0.514175,0.000512,-0.776316,-259.821848,-0.497581,70.018848
14.075,-0.001444,-0.003812,-0.000935,0.000631,0.001946,0.000728,-0.001871,-0.514089,-0.000656,-0.701355,-259.821848,-0.42262,70.018848
14.0954,-0.001536,-0.003977,-0.001388,0.000736,0.001893,0.001254,-0.001917,-0.513837,-0.000911,-0.701355,-259.821848,-0.42262,70.018848
14.1153,-0.001366,-0.004001,0.001267,0.000822,0.001852,0.001626,-0.001917,-0.513837,-0.000911,-0.701355,-259.821848,-0.42262,70.018848
14.1354,-0.00111,-0.004285,8.3e-05,0.000891,0.001821,0.001889,-0.00072,-0.514,0.001267,-0.626322,-259.821848,-0.347587,70.018848
14.1556,-0.001613,-0.004234,0.000831,0.000732,0.001861,0.001161,-0.000861,-0.514116,0.000786,-0.626322,-259.821848,-0.347587,70.018848
14.1753,-0.001474,-0.004232,-0.000821,0.000605,0.001893,0.000638,-0.001189,-0.514233,0.000831,-0.551357,-259.821848,-0.272622,70.018848
14.1951,-0.001218,-0.004344,0.000587,0.000681,0.001901,0.00106,-0.001829,-0.514232,-0.000673,-0.551357,-259.821848,-0.272622,70.018848
14.2155,-0.001191,-0.004044,-0.001679,0.000744,0.001908,0.001357,-0.001829,-0.514232,-0.000673,-0.551357,-259.821848,-0.272622,70.018848
14.2351,-0.001339,-0.004054,7.3e-05,0.000796,0.001916,0.001566,-0.002047,-0.514044,-0.001679,-0.476337,-259.821848,-0.197602,70.018848
14.2554,-0.001276,-0.004134,-0.000195,0.000825,0.001907,0.001889,-0.001744,-0.514048,-0.000967,-0.476337,-259.821848,-0.197602,70.018848
14.2753,-0.000913,-0.004155,-0.000658,0.00085,0.0019,0.002115,-0.001375,-0.514134,-0.000195,-0.401341,-259.821848,-0.122606,70.018848
14.2954,-0.00118,-0.003699,0.000272,0.000772,0.001927,0.002102,-0.00126,-0.514153,-0.000617,-0.401341,-259.821848,-0.122606,70.018848
14.3153,-0.000945,-0.004238,7.4e-05,0.00071,0.001948,0.002089,-0.00126,-0.514153,-0.000617,-0.401341,-259.821848,-0.122606,70.018848
14.3353,-0.001185,-0.004191,0.000717,0.000662,0.001964,0.002076,-0.000907,-0.514238,7.4e-05,-0.326328,-259.821848,-0.047593,70.018848
14.3557,-0.001255,-0.004207,-0.000289,0.000551,0.001988,0.001522,-0.000871,-0.514219,0.000337,-0.326328,-259.821848,-0.047593,70.018848
14.3757,-0.001014,-0.00388,1.7e-05,0.000461,0.002007,0.001126,-0.001402,-0.514207,-0.000289,-0.251333,-259.821848,0.027402,70.018848
14.3956,-0.001456,-0.003845,-5.4e-05,0.000428,0.001987,0.001041,-0.001041,-0.513909,-1e-05,-0.251333,-259.821848,0.027402,70.018848
14.4155,-0.001703,-0.004284,-0.000735,0.000402,0.001971,0.000981,-0.001041,-0.513909,-1e-05,-0.251333,-259.821848,0.027402,70.018848
14.4353,-0.001211,-0.00393,9e-06,0.00038,0.001958,0.000939,-0.002077,-0.514284,-0.000735,-0.326317,-259.821848,0.102386,70.018848
14.4558,-0.001715,-0.00386,0.001133,0.000493,0.001945,0.001117,-0.001722,-0.51414,-0.000431,-0.326317,-259.821848,0.102386,70.018848
14.4754,-0.000839,-0.004093,0.000512,0.000582,0.001937,0.001246,-0.001137,-0.513859,0.001133,-0.401316,-259.821848,0.177385,70.018848
14.4957,-0.001526,-0.003997,0.001413,0.000433,0.001956,0.000823,-0.000628,-0.514072,0.000568,-0.401316,-259.821848,0.177385,70.018848
14.5156,-0.001403,-0.003855,-0.001101,0.000314,0.001972,0.000519,-0.000628,-0.514072,0.000568,-0.401316,-259.821848,0.177385,70.018848
14.5359,-0.001634,-0.003971,0.000113,0.000219,0.001984,0.000301,-0.001965,-0.513855,-0.001101,-0.326285,-259.821848,0.252416,70.018848
14.5557,-0.001504,-0.004033,0.000787,0.000386,0.00193,0.000765,-0.001805,-0.513903,-0.000603,-0.326285,-259.821848,0.252416,70.018848
14.5756,-0.001643,-0.003965,0.000874,0.00052,0.001891,0.001097,-0.001103,-0.514033,0.000787,-0.401392,-259.821848,0.327523,70.018848
14.5957,-0.001207,-0.004089,-0.000684,0.000511,0.001888,0.000515,-0.001189,-0.513971,0.000867,-0.401392,-259.821848,0.327523,70.018848
14.6159,-0.001241,-0.004227,0.000768,0.000501,0.001888,0.000103,-0.001189,-0.513971,0.000867,-0.401392,-259.821848,0.327523,70.018848
14.6356,-0.001163,-0.004116,-0.000841,0.000491,0.001888,-0.000187,-0.00085,-0.514227,0.000768,-0.326202,-259.821848,0.402713,70.018848
14.6554,-0.001577,-0.00416,-0.000239,0.000458,0.00192,5.3e-05,-0.00115,-0.514182,0.000116,-0.326202,-259.821848,0.402713,70.018848
14.6756,-0.000856,-0.004257,-0.000921,0.000434,0.001944,0.00022,-0.001699,-0.51416,-0.000239,-0.251537,-259.821848,0.477378,70.018848
14.6958,-0.001209,-0.004112,1.8e-05,0.000443,0.001963,0.000905,-0.001361,-0.514248,-0.000856,-0.251537,-259.821848,0.477378,70.018848
14.7154,-0.001593,-0.004233,0.000293,0.000454,0.001979,0.001383,-0.001361,-0.514248,-0.000856,-0.251537,-259.821848,0.477378,70.018848
14.7352,-0.001583,-0.004143,0.000301,0.000467,0.001992,0.001715,-0.001444,-0.514233,0.000293,-0.176509,-259.821848,0.552406,70.018848
14.7553,-0.001385,-0.003879,-0.002018,0.000512,0.001987,0.001247,-0.001438,-0.514197,0.000296,-0.176509,-259.821848,0.552406,70.018848
