mach0312/omni-docking-bench/src/icros_test_setup/results/MPPI_sample/timeseries/trial_110.csv
t,x,y,yaw,vx,vy,wz,bl_x,bl_y,bl_yaw,front_steering_joint,front_wheel_joint,rear_steering_joint,rear_wheel_joint
0.0,-0.008778,-0.000421,-0.033939,-0.006114,0.00043,-0.003107,-0.025194,-0.510142,-0.033582,0.235606,-262.703547,-0.363714,69.932069
0.0003,-0.008773,-0.000799,-0.03612,-0.00561,0.000394,-0.002851,-0.025194,-0.510142,-0.033582,0.235606,-262.706061,-0.363714,69.929453
0.0005,-0.009782,-0.000181,-0.03602,-0.005065,0.000356,-0.002574,-0.02575,-0.509997,-0.033785,0.235606,-262.708142,-0.363714,69.927288
0.0007,-0.009123,-1.8e-05,-0.034466,-0.004475,0.000315,-0.002274,-0.02635,-0.509741,-0.035111,0.235606,-262.708142,-0.363714,69.927288
0.001,-0.009526,-2.7e-05,-0.034876,-0.003841,0.00027,-0.001952,-0.02635,-0.509741,-0.035111,0.235606,-262.708142,-0.363714,69.927288
0.0012,-0.009569,-0.000268,-0.0348,-0.003158,0.000222,-0.001605,-0.02635,-0.509741,-0.035111,0.235606,-262.708142,-0.363714,69.927288
0.0172,-0.009098,-0.000327,-0.035737,0.0,0.0,0.0,-0.027277,-0.509714,-0.034851,0.235606,-262.708142,-0.363714,69.927288
0.0367,-0.009295,-0.000187,-0.035935,0.0,0.0,0.0,-0.027452,-0.509987,-0.035804,0.235606,-262.709443,-0.363714,69.925935
0.0569,-0.009433,-0.000366,-0.035703,0.0,0.0,0.0,-0.027536,-0.509932,-0.035866,0.235606,-262.709443,-0.363714,69.925935
0.0764,-0.009811,-0.000357,-0.034448,0.0,0.0,0.0,-0.027638,-0.510041,-0.035703,0.235606,-262.709443,-0.363714,69.925935
0.0966,-0.009688,-0.00032,-0.034608,0.0,0.0,0.0,-0.027398,-0.510053,-0.034553,0.235606,-262.709443,-0.363714,69.925935
0.1168,-0.009341,5.1e-05,-0.034072,0.003413,0.001299,0.005584,-0.027398,-0.510053,-0.034553,0.235606,-262.709443,-0.363714,69.925935
0.1368,-0.00957,0.000101,-0.035051,0.003751,0.00142,0.00599,-0.026714,-0.509653,-0.034072,0.235606,-262.709443,-0.363714,69.925935
0.1565,-0.009745,-0.000399,-0.03413,0.004045,0.001507,0.006336,-0.027014,-0.509625,-0.034475,0.235606,-262.709443,-0.363714,69.925935
0.1768,-0.009567,-9.7e-05,-0.033558,0.004301,0.001582,0.006614,-0.027148,-0.510102,-0.03413,0.310607,-262.709443,-0.438716,69.925935
0.1967,-0.009328,-8.8e-05,-0.036556,0.004524,0.00165,0.006856,-0.026718,-0.509835,-0.033607,0.310607,-262.709443,-0.438716,69.925935
0.217,-0.009625,-0.000274,-0.034676,0.004719,0.001709,0.007049,-0.026718,-0.509835,-0.033607,0.310607,-262.709443,-0.438716,69.925935
0.2366,-0.009532,-0.00058,-0.03551,0.004887,0.001759,0.007203,-0.027306,-0.509967,-0.034676,0.385611,-262.709438,-0.513719,69.925938
0.257,-0.009318,-0.000216,-0.036812,0.005034,0.00181,0.007346,-0.027441,-0.510085,-0.035014,0.385611,-262.709438,-0.513719,69.925938
0.2767,-0.009357,-0.000324,-0.03645,0.005161,0.001853,0.00746,-0.028086,-0.50987,-0.036811,0.460485,-262.7094,-0.495366,69.925965
0.2969,-0.009338,0.000346,-0.035406,0.005271,0.001888,0.00757,-0.027955,-0.509975,-0.036481,0.460485,-262.7094,-0.495366,69.925965
0.3166,-0.00936,-0.000185,-0.033478,0.005367,0.001918,0.007659,-0.027955,-0.509975,-0.036481,0.460485,-262.7094,-0.495366,69.925965
0.3368,-0.009786,-1.4e-05,-0.034729,0.00545,0.001943,0.007729,-0.026418,-0.509898,-0.033467,0.535566,-262.709251,-0.482479,69.926071
0.3569,-0.009461,-0.000306,-0.035684,0.005523,0.001957,0.007803,-0.026861,-0.509819,-0.033987,0.535566,-262.709251,-0.482479,69.926071
0.3765,-0.009768,-0.000137,-0.035109,0.005586,0.001969,0.007862,-0.027629,-0.509977,-0.035657,0.610615,-262.708785,-0.471267,69.926402
0.3968,-0.009564,-5.3e-05,-0.035522,0.00564,0.001982,0.007954,-0.027665,-0.509836,-0.035154,0.610615,-262.708785,-0.471267,69.926402
0.4167,-0.009486,-0.000228,-0.035997,0.005688,0.001992,0.008027,-0.027665,-0.509836,-0.035154,0.610615,-262.708785,-0.471267,69.926402
0.4367,-0.009474,1e-06,-0.034354,0.005729,0.002001,0.008086,-0.027761,-0.509883,-0.035909,0.685617,-262.707714,-0.469326,69.927166
0.4567,-0.009364,-0.000422,-0.035958,0.005764,0.002008,0.008132,-0.027437,-0.509806,-0.035265,0.685617,-262.707714,-0.469326,69.927166
0.4765,-0.009544,-0.000112,-0.034601,0.005795,0.002014,0.00817,-0.027592,-0.510068,-0.035829,0.760489,-262.705761,-0.473735,69.928563
0.4968,-0.009453,3e-06,-0.034598,0.005822,0.002019,0.008199,-0.027216,-0.509828,-0.034699,0.760489,-262.705761,-0.473735,69.928563
0.5168,-0.009471,9.6e-05,-0.036148,0.005845,0.002024,0.008223,-0.027216,-0.509828,-0.034699,0.760489,-262.705761,-0.473735,69.928563
0.5365,-0.009496,0.000267,-0.036119,0.005865,0.002028,0.008242,-0.027702,-0.509515,-0.035884,0.835612,-262.702864,-0.474362,69.930639
0.5568,-0.009294,0.000174,-0.034628,0.005882,0.002021,0.00831,-0.027766,-0.509461,-0.03595,0.835612,-262.702864,-0.474362,69.930639
0.5764,-0.009243,7e-05,-0.036995,0.005898,0.002015,0.008366,-0.026768,-0.509464,-0.034374,0.87771,-262.699296,-0.473585,69.9332
0.5966,-0.009277,7.6e-05,-0.034108,0.005911,0.002014,0.00844,-0.027983,-0.509568,-0.036759,0.87771,-262.699296,-0.473585,69.9332
0.6165,-0.00922,-0.000227,-0.034971,0.005922,0.002013,0.0085,-0.027983,-0.509568,-0.036759,0.87771,-262.699296,-0.473585,69.9332
0.6366,-0.009235,0.000404,-0.033383,0.005932,0.002013,0.008548,-0.026803,-0.509839,-0.034622,0.87932,-262.695602,-0.483206,69.935861
0.6568,-0.009151,0.000292,-0.033627,0.005941,0.00201,0.008617,-0.026549,-0.509613,-0.03407,0.87932,-262.695602,-0.483206,69.935861
0.677,-0.008908,0.000294,-0.034091,0.005948,0.002008,0.008673,-0.026108,-0.509363,-0.033356,0.883935,-262.691877,-0.495755,69.938546
0.697,-0.009128,-9.3e-05,-0.032365,0.005955,0.001999,0.008749,-0.026263,-0.509402,-0.034008,0.883935,-262.691877,-0.495755,69.938546
0.7169,-0.009066,0.000188,-0.033016,0.00596,0.001991,0.00881,-0.026263,-0.509402,-0.034008,0.883935,-262.691877,-0.495755,69.938546
0.7367,-0.008872,0.000547,-0.03153,0.005965,0.001984,0.008859,-0.02565,-0.509459,-0.032654,0.887429,-262.688108,-0.505137,69.941265
0.7569,-0.009325,0.000483,-0.032648,0.00597,0.001971,0.008928,-0.025331,-0.509343,-0.032148,0.887429,-262.688108,-0.505137,69.941265
0.7764,-0.009011,0.000286,-0.031698,0.005973,0.00196,0.008984,-0.025782,-0.509188,-0.032367,0.89199,-262.684332,-0.521473,69.944
0.7972,-0.008978,0.000395,-0.031727,0.005977,0.001953,0.009055,-0.025219,-0.509431,-0.031744,0.89199,-262.684332,-0.521473,69.944
0.8166,-0.009016,0.000209,-0.032482,0.005979,0.001947,0.009114,-0.025219,-0.509431,-0.031744,0.89199,-262.684332,-0.521473,69.944
0.837,-0.008967,0.000736,-0.033224,0.005982,0.001942,0.009161,-0.025327,-0.509448,-0.032107,0.894787,-262.680523,-0.53331,69.946767
0.8568,-0.009102,0.000159,-0.03136,0.005984,0.001932,0.009227,-0.025532,-0.509252,-0.032513,0.894787,-262.680523,-0.53331,69.946767
0.8768,-0.008751,0.00108,-0.031016,0.005986,0.001924,0.009281,-0.024901,-0.509535,-0.031069,0.899957,-262.676681,-0.54826,69.949565
0.8964,-0.008602,0.000907,-0.031773,0.005988,0.001895,0.00935,-0.024586,-0.508745,-0.031007,0.899957,-262.676681,-0.54826,69.949565
0.9164,-0.00858,0.000633,-0.031684,0.005989,0.00187,0.009406,-0.024586,-0.508745,-0.031007,0.899957,-262.676681,-0.54826,69.949565
0.9366,-0.008661,0.000844,-0.03106,0.00599,0.001849,0.009451,-0.024484,-0.509039,-0.031297,0.903133,-262.672824,-0.559006,69.952383
0.9565,-0.008929,0.00088,-0.03068,0.005991,0.001839,0.009508,-0.024461,-0.508978,-0.031155,0.903133,-262.672824,-0.559006,69.952383
0.9767,-0.008553,0.000769,-0.029703,0.005992,0.00183,0.009554,-0.024382,-0.508828,-0.030382,0.904729,-262.668972,-0.579856,69.955227
0.9971,-0.008947,0.000794,-0.031129,0.005992,0.00182,0.009607,-0.023748,-0.508988,-0.029746,0.904729,-262.668972,-0.579856,69.955227
1.0165,-0.008709,0.00095,-0.030773,0.005993,0.001812,0.00965,-0.023748,-0.508988,-0.029746,0.904729,-262.668972,-0.579856,69.955227
1.0366,-0.009113,0.00106,-0.030835,0.005993,0.001804,0.009685,-0.024149,-0.50874,-0.030375,0.907371,-262.665088,-0.589217,69.958104
1.0572,-0.008619,0.001034,-0.028639,0.005994,0.00179,0.009723,-0.024403,-0.508715,-0.030518,0.907371,-262.665088,-0.589217,69.958104
1.0764,-0.008752,0.000775,-0.029796,0.005994,0.001777,0.009754,-0.023031,-0.508705,-0.028332,0.91059,-262.661194,-0.601215,69.961001
1.0972,-0.008041,0.000979,-0.029731,0.005995,0.001774,0.009783,-0.023852,-0.508969,-0.029647,0.91059,-262.661194,-0.601215,69.961001
1.1171,-0.00872,0.001102,-0.030521,0.005995,0.001771,0.009807,-0.023852,-0.508969,-0.029647,0.91059,-262.661194,-0.601215,69.961001
1.1369,-0.0085,0.000826,-0.029326,0.005995,0.001769,0.009826,-0.024031,-0.508593,-0.030114,0.911494,-262.657283,-0.60892,69.963921
1.1569,-0.008719,0.001059,-0.026633,0.005995,0.001758,0.009846,-0.023765,-0.508734,-0.029743,0.911494,-262.657283,-0.60892,69.963921
1.1767,-0.008339,0.000776,-0.027563,0.005996,0.001748,0.009863,-0.022109,-0.508709,-0.026321,0.913627,-262.65336,-0.614725,69.966854
1.1969,-0.008942,0.001138,-0.028417,0.005996,0.001745,0.009879,-0.022359,-0.508999,-0.027436,0.913627,-262.65336,-0.614725,69.966854
1.2166,-0.008391,0.001114,-0.029049,0.005996,0.001742,0.009892,-0.022359,-0.508999,-0.027436,0.913627,-262.65336,-0.614725,69.966854
1.2365,-0.008257,0.001226,-0.027494,0.005996,0.00174,0.009903,-0.022951,-0.508605,-0.028635,0.913727,-262.649435,-0.619444,69.969799
1.2566,-0.008262,0.00133,-0.027803,0.005995,0.001723,0.009916,-0.022649,-0.508588,-0.028125,0.913727,-262.649435,-0.619444,69.969799
1.2765,-0.008553,0.001209,-0.027154,0.005995,0.001708,0.009926,-0.022247,-0.508423,-0.027487,0.914672,-262.645504,-0.623088,69.972752
1.2964,-0.008194,0.001468,-0.026661,0.005995,0.001694,0.009937,-0.022376,-0.508585,-0.027168,0.914672,-262.645504,-0.623088,69.972752
1.3165,-0.008495,0.001514,-0.026914,0.005995,0.001682,0.009947,-0.022376,-0.508585,-0.027168,0.914672,-262.645504,-0.623088,69.972752
1.3367,-0.008357,0.001613,-0.028151,0.005994,0.001671,0.009954,-0.021966,-0.508236,-0.026499,0.913653,-262.641581,-0.628161,69.975714
1.3565,-0.008357,0.001477,-0.027012,0.005993,0.001647,0.009963,-0.022242,-0.508208,-0.027125,0.913653,-262.641581,-0.628161,69.975714
1.3764,-0.008154,0.001586,-0.0266,0.005992,0.001626,0.009971,-0.021939,-0.508289,-0.026695,0.91249,-262.637659,-0.634105,69.978692
1.3971,-0.008553,0.001903,-0.025921,0.005991,0.001606,0.009979,-0.021728,-0.508236,-0.026593,0.91249,-262.637659,-0.634105,69.978692
1.4168,-0.008719,0.001641,-0.027183,0.00599,0.00159,0.009985,-0.021728,-0.508236,-0.026593,0.91249,-262.637659,-0.634105,69.978692
1.4365,-0.008072,0.001475,-0.025882,0.005989,0.001576,0.00999,-0.022328,-0.508109,-0.026766,0.910454,-262.633759,-0.640262,69.981676
1.4568,-0.008211,0.001456,-0.026059,0.005988,0.001563,0.009995,-0.021869,-0.508202,-0.026358,0.910454,-262.633759,-0.640262,69.981676
1.4766,-0.008323,0.001789,-0.02552,0.005988,0.001551,0.01,-0.021307,-0.508325,-0.02574,0.908273,-262.62986,-0.64706,69.984681
1.4968,-0.008295,0.001733,-0.025844,0.005986,0.001533,0.010006,-0.021325,-0.508067,-0.025523,0.908273,-262.62986,-0.64706,69.984681
1.5165,-0.008511,0.001505,-0.025229,0.005985,0.001518,0.01001,-0.021325,-0.508067,-0.025523,0.908273,-262.62986,-0.64706,69.984681
1.5368,-0.008201,0.001656,-0.023446,0.005984,0.001504,0.010013,-0.021124,-0.508274,-0.024811,0.907266,-262.625973,-0.650452,69.98769
1.5576,-0.00844,0.001804,-0.024742,0.005983,0.001496,0.010017,-0.020698,-0.508238,-0.024203,0.907266,-262.625973,-0.650452,69.98769
1.5765,-0.008081,0.001891,-0.025198,0.005982,0.001489,0.010019,-0.020865,-0.507997,-0.024424,0.905083,-262.622095,-0.656564,69.990713
1.5965,-0.007915,0.001498,-0.025066,0.005981,0.001473,0.010023,-0.020916,-0.507949,-0.025117,0.905083,-262.622095,-0.656564,69.990713
1.6172,-0.007903,0.002002,-0.023749,0.00598,0.001459,0.010026,-0.020916,-0.507949,-0.025117,0.905083,-262.622095,-0.656564,69.990713
1.6366,-0.008273,0.001524,-0.024038,0.005979,0.001447,0.010028,-0.019762,-0.507798,-0.02333,0.904483,-262.618227,-0.658658,69.993737
1.6567,-0.007897,0.00189,-0.023456,0.005977,0.001433,0.01003,-0.020047,-0.508008,-0.02357,0.904483,-262.618227,-0.658658,69.993737
1.6768,-0.008089,0.002245,-0.024651,0.005976,0.001422,0.010032,-0.019667,-0.507928,-0.023137,0.90241,-262.614372,-0.663964,69.99677
1.6966,-0.007884,0.002149,-0.023781,0.005974,0.001399,0.010035,-0.020563,-0.507627,-0.024503,0.90241,-262.614372,-0.663964,69.99677
1.7168,-0.007653,0.0015,-0.023188,0.005972,0.001379,0.010037,-0.020563,-0.507627,-0.024503,0.90241,-262.614372,-0.663964,69.99677
1.7366,-0.00751,0.002081,-0.023524,0.00597,0.001363,0.010038,-0.019226,-0.508309,-0.022767,0.90117,-262.610528,-0.667003,69.999807
1.7568,-0.007625,0.002008,-0.023691,0.005969,0.001361,0.010038,-0.019311,-0.508088,-0.023025,0.90117,-262.610528,-0.667003,69.999807
1.7766,-0.008022,0.001997,-0.023222,0.005969,0.001359,0.010038,-0.019515,-0.50781,-0.023371,0.898082,-262.606693,-0.673923,70.002865
1.797,-0.007836,0.002304,-0.022728,0.005968,0.00135,0.010039,-0.019825,-0.507859,-0.02322,0.898082,-262.606693,-0.673923,70.002865
1.8166,-0.008035,0.002071,-0.022049,0.005967,0.001343,0.01004,-0.019825,-0.507859,-0.02322,0.898082,-262.606693,-0.673923,70.002865
1.8366,-0.007523,0.002225,-0.021774,0.005966,0.001336,0.010041,-0.019029,-0.507754,-0.021629,0.897947,-262.602868,-0.674389,70.005917
1.8567,-0.007886,0.002298,-0.02112,0.005964,0.001317,0.010042,-0.018836,-0.507707,-0.02164,0.897947,-262.602868,-0.674389,70.005917
1.8768,-0.007837,0.001951,-0.021514,0.005961,0.0013,0.010042,-0.018466,-0.50755,-0.0208,0.896784,-262.599045,-0.677095,70.008979
1.8965,-0.00742,0.002165,-0.020192,0.00596,0.001293,0.010042,-0.018769,-0.507895,-0.021435,0.896784,-262.599045,-0.677095,70.008979
1.9167,-0.007852,0.002451,-0.021679,0.005959,0.001288,0.010042,-0.018769,-0.507895,-0.021435,0.896784,-262.599045,-0.677095,70.008979
1.9369,-0.007734,0.002397,-0.020702,0.005959,0.001284,0.010042,-0.018657,-0.50738,-0.021259,0.894815,-262.595235,-0.681309,70.012047
1.9567,-0.007495,0.002563,-0.020553,0.005955,0.001255,0.010043,-0.01848,-0.50742,-0.020986,0.894815,-262.595235,-0.681309,70.012047
1.9768,-0.007825,0.002724,-0.02166,0.005952,0.00123,0.010044,-0.017786,-0.507293,-0.020232,0.893977,-262.591422,-0.683139,70.015126
1.997,-0.007725,0.001992,-0.019712,0.005948,0.0012,0.010046,-0.018767,-0.507167,-0.02152,0.893977,-262.591422,-0.683139,70.015126
2.017,-0.007886,0.002516,-0.019861,0.005944,0.001174,0.010047,-0.018767,-0.507167,-0.02152,0.893977,-262.591422,-0.683139,70.015126
2.0364,-0.007547,0.002404,-0.020716,0.005942,0.001152,0.010047,-0.017764,-0.507337,-0.01944,0.891107,-262.587644,-0.689208,70.018203
2.0565,-0.00763,0.002535,-0.019057,0.005939,0.001136,0.010046,-0.017876,-0.507392,-0.019908,0.891107,-262.587644,-0.689208,70.018203
2.0767,-0.007976,0.002211,-0.01798,0.005937,0.001121,0.010045,-0.017159,-0.50734,-0.018737,0.886876,-262.583882,-0.697979,70.021306
2.0966,-0.007986,0.002509,-0.020111,0.005936,0.001115,0.010041,-0.017137,-0.507672,-0.018031,0.886876,-262.583882,-0.697979,70.021306
2.1167,-0.00731,0.002632,-0.019903,0.005936,0.00111,0.010037,-0.017137,-0.507672,-0.018031,0.886876,-262.583882,-0.697979,70.021306
2.1367,-0.007509,0.002874,-0.018243,0.005935,0.001106,0.010034,-0.017211,-0.507225,-0.019483,0.885079,-262.580139,-0.701277,70.024408
2.1567,-0.007654,0.002285,-0.018824,0.00593,0.001075,0.010035,-0.01702,-0.507146,-0.018931,0.885079,-262.580139,-0.701277,70.024408
2.1766,-0.007577,0.002431,-0.017681,0.005926,0.001048,0.010036,-0.017064,-0.507593,-0.018503,0.883708,-262.576397,-0.702336,70.027518
2.1971,-0.007621,0.00231,-0.018078,0.005925,0.001039,0.010032,-0.016626,-0.507497,-0.017737,0.883708,-262.576397,-0.702336,70.027518
2.2165,-0.00748,0.002551,-0.018613,0.005923,0.001031,0.010029,-0.016626,-0.507497,-0.017737,0.883708,-262.576397,-0.702336,70.027518
2.2367,-0.007628,0.002604,-0.017715,0.005922,0.001025,0.010026,-0.016724,-0.507322,-0.018194,0.880632,-262.572676,-0.70876,70.030638
2.2565,-0.00747,0.00267,-0.015638,0.00592,0.00101,0.010025,-0.01667,-0.507315,-0.017951,0.880632,-262.572676,-0.70876,70.030638
2.2777,-0.007458,0.002564,-0.018589,0.005918,0.000997,0.010024,-0.015257,-0.507238,-0.015319,0.878902,-262.568963,-0.710824,70.033764
2.2973,-0.007791,0.002914,-0.01824,0.005916,0.000989,0.010024,-0.016737,-0.507334,-0.018201,0.878902,-262.568963,-0.710824,70.033764
2.3173,-0.007406,0.002674,-0.017663,0.005915,0.000981,0.010024,-0.016737,-0.507334,-0.018201,0.878902,-262.568963,-0.710824,70.033764
2.3367,-0.007316,0.003067,-0.01879,0.005914,0.000975,0.010024,-0.016162,-0.507208,-0.017237,0.87733,-262.565261,-0.713714,70.036894
2.3573,-0.007467,0.002942,-0.016553,0.00591,0.000952,0.010023,-0.016418,-0.507064,-0.017789,0.87733,-262.565261,-0.713714,70.036894
2.3769,-0.007179,0.003082,-0.016445,0.005907,0.000932,0.010023,-0.015719,-0.50696,-0.016232,0.876082,-262.561566,-0.716142,70.04003
2.3973,-0.007615,0.002832,-0.01442,0.0059,0.000892,0.010014,-0.01557,-0.506857,-0.016409,0.876082,-262.561566,-0.716142,70.04003
2.4168,-0.00677,0.002947,-0.015594,0.005893,0.000858,0.010006,-0.01557,-0.506857,-0.016409,0.876082,-262.561566,-0.716142,70.04003
2.437,-0.006885,0.002811,-0.016092,0.005888,0.000829,0.009999,-0.014474,-0.506956,-0.015173,0.873653,-262.557888,-0.720831,70.043173
2.4568,-0.00736,0.003133,-0.015681,0.005883,0.000801,0.009979,-0.014696,-0.507019,-0.015497,0.873653,-262.557888,-0.720831,70.043173
2.4772,-0.007294,0.002509,-0.016119,0.005878,0.000778,0.009963,-0.015169,-0.506781,-0.015363,0.866938,-262.554256,-0.73077,70.04633
2.4973,-0.007017,0.002803,-0.014481,0.00588,0.000787,0.009957,-0.015473,-0.507364,-0.016033,0.866938,-262.554256,-0.73077,70.04633
2.517,-0.007378,0.002997,-0.015041,0.005882,0.000795,0.009952,-0.015473,-0.507364,-0.016033,0.866938,-262.554256,-0.73077,70.04633
2.5367,-0.007193,0.003057,-0.014202,0.005883,0.000802,0.009948,-0.014803,-0.506917,-0.014625,0.862477,-262.550645,-0.73439,70.049495
2.5568,-0.007426,0.002617,-0.014976,0.005879,0.000771,0.009913,-0.014625,-0.506903,-0.014405,0.862477,-262.550645,-0.73439,70.049495
2.5769,-0.007048,0.002946,-0.013332,0.005875,0.000744,0.009885,-0.014875,-0.507303,-0.014658,0.863191,-262.547019,-0.730791,70.05266
2.5965,-0.007165,0.002988,-0.014439,0.005871,0.000718,0.009825,-0.013927,-0.507033,-0.013431,0.863191,-262.547019,-0.730791,70.05266
2.6167,-0.007321,0.003052,-0.015698,0.005868,0.000695,0.009778,-0.013927,-0.507033,-0.013431,0.863191,-262.547019,-0.730791,70.05266
2.6368,-0.007117,0.00293,-0.012718,0.005865,0.000675,0.009741,-0.01508,-0.506858,-0.015284,0.856935,-262.543438,-0.733357,70.055816
2.6567,-0.007411,0.003069,-0.014575,0.005862,0.000661,0.00974,-0.014453,-0.506924,-0.014196,0.856935,-262.543438,-0.733357,70.055816
2.6766,-0.007404,0.003251,-0.012274,0.005859,0.000648,0.009738,-0.014657,-0.506858,-0.014265,0.846153,-262.539902,-0.732427,70.058968
2.6971,-0.007427,0.003199,-0.012741,0.005855,0.000611,0.009654,-0.013742,-0.506723,-0.012434,0.846153,-262.539902,-0.732427,70.058968
2.7167,-0.007176,0.003107,-0.013739,0.00585,0.00058,0.009589,-0.013742,-0.506723,-0.012434,0.846153,-262.539902,-0.732427,70.058968
2.7366,-0.006809,0.002847,-0.014828,0.005846,0.000552,0.009538,-0.013937,-0.506821,-0.013332,0.844551,-262.536378,-0.735327,70.062124
2.7567,-0.006798,0.003004,-0.013839,0.005843,0.00055,0.009566,-0.014085,-0.50693,-0.013891,0.844551,-262.536378,-0.735327,70.062124
2.7768,-0.007132,0.002987,-0.013893,0.005841,0.000549,0.009588,-0.01367,-0.506932,-0.013536,0.828836,-262.532926,-0.733871,70.065265
2.7969,-0.007166,0.003038,-0.012843,0.00584,0.00055,0.009603,-0.014162,-0.50696,-0.013848,0.828836,-262.532926,-0.733871,70.065265
2.8166,-0.00698,0.002958,-0.012084,0.005839,0.000551,0.009615,-0.014162,-0.50696,-0.013848,0.828836,-262.532926,-0.733871,70.065265
2.837,-0.007194,0.003065,-0.011522,0.005838,0.000552,0.009625,-0.012898,-0.506985,-0.011683,0.831394,-262.529461,-0.737587,70.06842
2.8568,-0.007153,0.003407,-0.011508,0.005839,0.000529,0.00949,-0.01294,-0.506948,-0.011571,0.831394,-262.529461,-0.737587,70.06842
2.8766,-0.007349,0.003185,-0.011909,0.005839,0.000509,0.009387,-0.012836,-0.506544,-0.011201,0.833644,-262.525982,-0.739668,70.071585
2.897,-0.006949,0.003259,-0.010125,0.005836,0.000486,0.009333,-0.013366,-0.506759,-0.011837,0.833644,-262.525982,-0.739668,70.071585
2.9168,-0.00684,0.003133,-0.011757,0.005833,0.000467,0.009292,-0.013366,-0.506759,-0.011837,0.833644,-262.525982,-0.739668,70.071585
2.937,-0.00714,0.003171,-0.011744,0.00583,0.000451,0.009261,-0.012593,-0.506813,-0.011367,0.818724,-262.52259,-0.729901,70.074695
2.9568,-0.00726,0.003055,-0.011318,0.005826,0.000429,0.009202,-0.012782,-0.506803,-0.011474,0.818724,-262.52259,-0.729901,70.074695
2.9767,-0.006448,0.003525,-0.010995,0.005822,0.00041,0.009158,-0.012847,-0.5069,-0.011023,0.808558,-262.519212,-0.728824,70.077822
2.9968,-0.006693,0.003175,-0.010394,0.005811,0.000359,0.009075,-0.012113,-0.506482,-0.010983,0.808558,-262.519212,-0.728824,70.077822
3.0165,-0.006822,0.003305,-0.010512,0.0058,0.000316,0.009012,-0.012113,-0.506482,-0.010983,0.808558,-262.519212,-0.728824,70.077822
3.0367,-0.006428,0.003324,-0.010224,0.005791,0.000279,0.008964,-0.01194,-0.506652,-0.010129,0.800747,-262.515872,-0.727368,70.080935
3.0569,-0.006526,0.003656,-0.009928,0.00579,0.000253,0.008818,-0.01179,-0.506649,-0.010123,0.800747,-262.515872,-0.727368,70.080935
3.0767,-0.006801,0.003559,-0.010531,0.005788,0.000231,0.008711,-0.011404,-0.506311,-0.009642,0.782223,-262.51263,-0.731282,70.084025
3.0969,-0.006705,0.003389,-0.009177,0.00578,0.000201,0.008671,-0.012092,-0.506403,-0.010435,0.782223,-262.51263,-0.731282,70.084025
3.1165,-0.00706,0.003162,-0.009758,0.005773,0.000175,0.008642,-0.012092,-0.506403,-0.010435,0.782223,-262.51263,-0.731282,70.084025
3.1368,-0.006669,0.003232,-0.010025,0.005766,0.000152,0.008621,-0.011796,-0.506807,-0.009396,0.76448,-262.509434,-0.721169,70.087096
3.1567,-0.006767,0.003302,-0.008913,0.005773,0.000154,0.008486,-0.011762,-0.506779,-0.009615,0.76448,-262.509434,-0.721169,70.087096
3.177,-0.00631,0.00321,-0.008532,0.005777,0.000154,0.008387,-0.011129,-0.506675,-0.00864,0.754266,-262.506279,-0.725431,70.090169
3.1971,-0.006914,0.00317,-0.006525,0.005784,0.00013,0.008118,-0.010693,-0.506763,-0.008528,0.754266,-262.506279,-0.725431,70.090169
3.2167,-0.006727,0.003355,-0.00962,0.005786,0.000109,0.007924,-0.010693,-0.506763,-0.008528,0.754266,-262.506279,-0.725431,70.090169
3.2365,-0.006474,0.003495,-0.008009,0.005787,9.1e-05,0.007785,-0.011393,-0.506618,-0.009272,0.740112,-262.503176,-0.710246,70.093191
3.2568,-0.00649,0.00339,-0.007071,0.005781,6.7e-05,0.007721,-0.011028,-0.506565,-0.00872,0.740112,-262.503176,-0.710246,70.093191
3.2769,-0.006359,0.003338,-0.009195,0.005776,4.7e-05,0.007675,-0.00992,-0.506596,-0.006834,0.697102,-262.500293,-0.678375,70.09603
3.2969,-0.006535,0.003348,-0.008492,0.005769,3.3e-05,0.007682,-0.010936,-0.506636,-0.008967,0.697102,-262.500293,-0.678375,70.09603
3.317,-0.005947,0.003138,-0.008732,0.005762,2.1e-05,0.007687,-0.010936,-0.506636,-0.008967,0.697102,-262.500293,-0.678375,70.09603
3.3367,-0.006043,0.003157,-0.007679,0.005757,1e-05,0.007692,-0.010159,-0.506843,-0.008411,0.68666,-262.49731,-0.676831,70.098989
3.3568,-0.006359,0.00295,-0.007238,0.005759,-4e-06,0.007522,-0.01005,-0.506837,-0.008077,0.68666,-262.49731,-0.676831,70.098989
3.3765,-0.006312,0.003292,-0.008579,0.005759,-1.7e-05,0.007399,-0.009867,-0.507038,-0.006992,0.685509,-262.494338,-0.683385,70.101956
3.3969,-0.005995,0.003369,-0.006129,0.005756,-2.4e-05,0.007377,-0.010604,-0.506721,-0.008423,0.685509,-262.494338,-0.683385,70.101956
3.4166,-0.005916,0.003396,-0.006566,0.005753,-3.1e-05,0.007362,-0.010604,-0.506721,-0.008423,0.685509,-262.494338,-0.683385,70.101956
3.4365,-0.006322,0.003132,-0.007061,0.00575,-3.6e-05,0.007352,-0.009026,-0.506595,-0.006259,0.663405,-262.491449,-0.667157,70.104854
3.4567,-0.006373,0.002929,-0.007958,0.005759,-7.7e-05,0.006899,-0.009364,-0.506701,-0.00655,0.663405,-262.491449,-0.667157,70.104854
3.4768,-0.005953,0.003265,-0.006232,0.005762,-0.000113,0.006581,-0.010249,-0.507058,-0.007724,0.659044,-262.488537,-0.666817,70.107783
3.4969,-0.006125,0.003251,-0.005668,0.005764,-0.000145,0.006301,-0.009221,-0.506755,-0.006353,0.659044,-262.488537,-0.666817,70.107783
3.5167,-0.006363,0.003182,-0.006155,0.005762,-0.000172,0.006106,-0.009221,-0.506755,-0.006353,0.659044,-262.488537,-0.666817,70.107783
3.5367,-0.006382,0.003224,-0.005254,0.005758,-0.000196,0.00597,-0.009283,-0.506814,-0.005906,0.595723,-262.486008,-0.622205,70.11036
3.5579,-0.006295,0.003229,-0.006847,0.005765,-0.000214,0.005657,-0.009167,-0.506796,-0.005608,0.595723,-262.486008,-0.622205,70.11036
3.5766,-0.005713,0.003447,-0.005962,0.005768,-0.000231,0.005438,-0.009616,-0.506766,-0.006669,0.539918,-262.483499,-0.588445,70.112947
3.5969,-0.005834,0.003373,-0.006462,0.005746,-0.000278,0.005404,-0.008819,-0.506563,-0.006014,0.539918,-262.483499,-0.588445,70.112947
3.617,-0.006096,0.00308,-0.00519,0.005727,-0.000317,0.005381,-0.008819,-0.506563,-0.006014,0.539918,-262.483499,-0.588445,70.112947
3.6366,-0.005742,0.003424,-0.005324,0.00571,-0.00035,0.005365,-0.008515,-0.506924,-0.004975,0.491842,-262.481033,-0.55201,70.1155
3.6568,-0.005755,0.003601,-0.006839,0.005712,-0.00037,0.005071,-0.008466,-0.506782,-0.005091,0.491842,-262.481033,-0.55201,70.1155
3.6768,-0.005598,0.003162,-0.00532,0.005711,-0.000387,0.004866,-0.009062,-0.5064,-0.006669,0.473611,-262.478487,-0.565891,70.118184
3.6968,-0.005387,0.003332,-0.005884,0.005699,-0.000405,0.004827,-0.008371,-0.506792,-0.005435,0.473611,-262.478487,-0.565891,70.118184
3.7168,-0.005557,0.003088,-0.005297,0.005689,-0.00042,0.004799,-0.008371,-0.506792,-0.005435,0.473611,-262.478487,-0.565891,70.118184
3.7371,-0.005636,0.003014,-0.004184,0.00568,-0.000432,0.00478,-0.008033,-0.506921,-0.005105,0.424979,-262.476118,-0.531687,70.120687
3.7566,-0.005244,0.003122,-0.005984,0.005679,-0.000444,0.004534,-0.0079,-0.506947,-0.004711,0.424979,-262.476118,-0.531687,70.120687
3.7771,-0.005634,0.003507,-0.00498,0.005677,-0.000455,0.004362,-0.008115,-0.506884,-0.005831,0.41279,-262.473644,-0.533136,70.123319
3.7972,-0.004925,0.003241,-0.00441,0.005656,-0.000495,0.004355,-0.008159,-0.506525,-0.005052,0.41279,-262.473644,-0.533136,70.123319
3.8166,-0.004874,0.003315,-0.005813,0.005638,-0.000529,0.004351,-0.008159,-0.506525,-0.005052,0.41279,-262.473644,-0.533136,70.123319
3.8365,-0.004746,0.003073,-0.003932,0.005623,-0.000557,0.004347,-0.00761,-0.506696,-0.005638,0.371154,-262.471306,-0.502402,70.125805
3.8566,-0.00482,0.003145,-0.005989,0.005597,-0.000592,0.004298,-0.007235,-0.50679,-0.004924,0.371154,-262.471306,-0.502402,70.125805
3.8771,-0.00485,0.003091,-0.004735,0.005575,-0.00062,0.004262,-0.007696,-0.506865,-0.005851,0.357074,-262.468923,-0.519049,70.128377
3.8967,-0.004772,0.002837,-0.005958,0.005565,-0.000629,0.004199,-0.007293,-0.506901,-0.004823,0.357074,-262.468923,-0.519049,70.128377
3.9168,-0.004614,0.003191,-0.006078,0.005555,-0.000636,0.004154,-0.007293,-0.506901,-0.004823,0.357074,-262.468923,-0.519049,70.128377
3.9367,-0.004541,0.002713,-0.00443,0.005547,-0.000643,0.004121,-0.007482,-0.506827,-0.005901,0.341839,-262.466568,-0.524164,70.130939
3.9567,-0.004835,0.002668,-0.002718,0.005531,-0.00064,0.004233,-0.007177,-0.507016,-0.005279,0.341839,-262.466568,-0.524164,70.130939
3.9765,-0.0043,0.003083,-0.005644,0.00552,-0.000637,0.00431,-0.006045,-0.507351,-0.002587,0.325861,-262.464236,-0.517777,70.133482
3.9967,-0.004763,0.003194,-0.004557,0.005502,-0.000647,0.004388,-0.007071,-0.506949,-0.00537,0.325861,-262.464236,-0.517777,70.133482
4.0168,-0.004494,0.00327,-0.002602,0.005488,-0.000654,0.004441,-0.007071,-0.506949,-0.00537,0.325861,-262.464236,-0.517777,70.133482
4.0367,-0.004126,0.003154,-0.003334,0.005478,-0.00066,0.004476,-0.005594,-0.506755,-0.002424,0.346872,-262.461916,-0.534796,70.136018
4.0567,-0.004304,0.002858,-0.004297,0.005435,-0.000741,0.003557,-0.005663,-0.506794,-0.002778,0.346872,-262.461916,-0.534796,70.136018
4.0763,-0.004137,0.002691,-0.004536,0.005396,-0.000812,0.002926,-0.006323,-0.507159,-0.004156,0.361916,-262.459599,-0.554645,70.138567
4.0972,-0.004144,0.002907,-0.004787,0.005396,-0.000777,0.003126,-0.00643,-0.507292,-0.004495,0.361916,-262.459599,-0.554645,70.138567
4.117,-0.003872,0.002913,-0.003199,0.005396,-0.000749,0.003268,-0.00643,-0.507292,-0.004495,0.361916,-262.459599,-0.554645,70.138567
4.137,-0.003799,0.003025,-0.004148,0.005398,-0.000727,0.00337,-0.005396,-0.507097,-0.003127,0.287007,-262.458531,-0.479736,70.139734
4.1568,-0.003978,0.002658,-0.005163,0.005362,-0.000778,0.003105,-0.005595,-0.507047,-0.003534,0.287007,-262.458531,-0.479736,70.139734
4.1763,-0.004076,0.002625,-0.00423,0.005331,-0.000821,0.00292,-0.006445,-0.507358,-0.005059,0.241887,-262.456375,-0.476292,70.142089
4.1968,-0.003943,0.003144,-0.002773,0.00534,-0.000782,0.003053,-0.006243,-0.50737,-0.004295,0.241887,-262.456375,-0.476292,70.142089
4.217,-0.003854,0.00304,-0.002511,0.005348,-0.000751,0.003148,-0.006243,-0.50737,-0.004295,0.241887,-262.456375,-0.476292,70.142089
4.237,-0.003617,0.003149,-0.003793,0.005355,-0.000725,0.003215,-0.004927,-0.50699,-0.002398,0.178627,-262.454358,-0.454342,70.144298
4.2566,-0.003654,0.003219,-0.003871,0.005296,-0.000812,0.00277,-0.005161,-0.506935,-0.00296,0.178627,-262.454358,-0.454342,70.144298
4.2767,-0.00392,0.002577,-0.002029,0.005245,-0.000884,0.002461,-0.005465,-0.5068,-0.003773,0.227184,-262.452246,-0.465302,70.1466
4.2974,-0.004014,0.002985,-0.003817,0.005228,-0.000886,0.001895,-0.004991,-0.507369,-0.002176,0.227184,-262.452246,-0.465302,70.1466
4.317,-0.003519,0.002865,-0.002191,0.005209,-0.00089,0.001508,-0.004991,-0.507369,-0.002176,0.227184,-262.452246,-0.465302,70.1466
4.3371,-0.003504,0.00287,-0.003994,0.00519,-0.000894,0.001243,-0.00446,-0.507161,-0.002103,0.152252,-262.450543,-0.427035,70.148458
4.357,-0.003399,0.002682,-0.002135,0.005138,-0.000938,0.001364,-0.004883,-0.507149,-0.002869,0.152252,-262.450543,-0.427035,70.148458
4.3768,-0.003122,0.002527,-0.003329,0.005097,-0.000973,0.001448,-0.004409,-0.507328,-0.002107,0.077199,-262.449552,-0.351982,70.149499
4.397,-0.002815,0.002638,-0.002149,0.005067,-0.00096,0.001634,-0.004778,-0.507458,-0.003216,0.077199,-262.449552,-0.351982,70.149499
4.417,-0.003442,0.002891,-0.002978,0.005045,-0.00095,0.001764,-0.004778,-0.507458,-0.003216,0.077199,-262.449552,-0.351982,70.149499
4.4367,-0.003278,0.0024,-0.002835,0.005027,-0.000941,0.001854,-0.004775,-0.50714,-0.002922,0.002367,-262.447783,-0.349496,70.151381
4.4566,-0.002969,0.003151,-0.003072,0.005009,-0.000955,0.001785,-0.004733,-0.507331,-0.00288,0.002367,-262.447783,-0.349496,70.151381
4.4765,-0.002753,0.0028,-0.002641,0.004994,-0.000966,0.001737,-0.004383,-0.506875,-0.003015,0.037989,-262.445864,-0.39113,70.153455
4.4966,-0.002616,0.002643,-0.002832,0.00491,-0.001032,0.001621,-0.004117,-0.507173,-0.00267,0.037989,-262.445864,-0.39113,70.153455
4.5167,-0.002736,0.002931,-0.004601,0.004843,-0.001085,0.001538,-0.004117,-0.507173,-0.00267,0.037989,-262.445864,-0.39113,70.153455
4.5368,-0.002588,0.002186,-0.001883,0.004789,-0.001126,0.001479,-0.004875,-0.507105,-0.004528,0.019015,-262.443882,-0.385583,70.155593
4.557,-0.002731,0.002586,-0.001193,0.004766,-0.001113,0.001732,-0.004314,-0.507397,-0.003448,0.019015,-262.443882,-0.385583,70.155593
4.5766,-0.002539,0.002682,-0.002,0.004749,-0.001103,0.001907,-0.003196,-0.507448,-0.001148,-0.046514,-262.442095,-0.400864,70.157532
4.5966,-0.002495,0.002648,-0.001484,0.00466,-0.001144,0.001398,-0.003521,-0.50733,-0.001924,-0.046514,-262.442095,-0.400864,70.157532
4.6169,-0.002881,0.002761,-0.001328,0.004587,-0.001178,0.001045,-0.003521,-0.50733,-0.001924,-0.046514,-262.442095,-0.400864,70.157532
4.637,-0.002697,0.002809,-0.001245,0.004526,-0.001206,0.000802,-0.003376,-0.507281,-0.001255,0.013058,-262.44036,-0.445495,70.159455
4.6568,-0.002575,0.002983,-0.001531,0.004452,-0.001246,0.000301,-0.003337,-0.507249,-0.001242,0.013058,-262.44036,-0.445495,70.159455
4.6763,-0.002067,0.002457,-0.003895,0.004391,-0.001279,-4.2e-05,-0.003276,-0.507034,-0.00151,-0.061784,-262.439338,-0.370652,70.160532
4.6972,-0.002219,0.002738,-0.002334,0.004392,-0.001232,0.000727,-0.003983,-0.507497,-0.00369,-0.061784,-262.439338,-0.370652,70.160532
4.717,-0.002094,0.002229,-0.003398,0.004401,-0.001195,0.001275,-0.003983,-0.507497,-0.00369,-0.061784,-262.439338,-0.370652,70.160532
4.7376,-0.001749,0.002535,-0.003127,0.004413,-0.001166,0.001663,-0.003757,-0.507784,-0.003389,-0.136908,-262.438644,-0.295528,70.161224
4.7573,-0.002056,0.00269,-0.001962,0.004397,-0.001138,0.001787,-0.003581,-0.507655,-0.003282,-0.136908,-262.438644,-0.295528,70.161224
4.7764,-0.002215,0.002566,-0.002364,0.004386,-0.001116,0.001873,-0.002977,-0.507327,-0.00194,-0.061923,-262.437674,-0.370513,70.162306
4.7966,-0.001966,0.00245,-0.003686,0.004353,-0.001146,0.001549,-0.003379,-0.507424,-0.002327,-0.061923,-262.437674,-0.370513,70.162306
4.8168,-0.002259,0.002989,-0.003846,0.004324,-0.00117,0.001324,-0.003379,-0.507424,-0.002327,-0.061923,-262.437674,-0.370513,70.162306
4.8364,-0.001735,0.002826,-0.001436,0.004301,-0.001189,0.001168,-0.004077,-0.507042,-0.003789,0.00629,-262.436312,-0.445586,70.163839
4.8571,-0.00196,0.002454,-0.003116,0.004254,-0.001254,0.001272,-0.003405,-0.5071,-0.002824,0.00629,-262.436312,-0.445586,70.163839
4.8766,-0.001762,0.002853,-0.001082,0.004219,-0.001306,0.001343,-0.00344,-0.507571,-0.003083,-0.068621,-262.434938,-0.41642,70.165331
4.897,-0.001725,0.002459,-0.003208,0.004043,-0.001384,0.000677,-0.002407,-0.507185,-0.001255,-0.068621,-262.434938,-0.41642,70.165331
4.9165,-0.001959,0.002399,-0.004506,0.003905,-0.001448,0.000217,-0.002407,-0.507185,-0.001255,-0.068621,-262.434938,-0.41642,70.165331
4.9367,-0.001234,0.002169,-0.001657,0.003794,-0.0015,-0.0001,-0.004093,-0.507647,-0.004454,-0.114508,-262.433363,-0.466778,70.167084
4.957,-0.00141,0.002271,-0.002882,0.003849,-0.001402,0.000545,-0.003257,-0.507728,-0.003313,-0.114508,-262.433363,-0.466778,70.167084
4.9768,-0.001674,0.00232,-0.001109,0.003897,-0.001326,0.001004,-0.00285,-0.507736,-0.002877,-0.18941,-262.432961,-0.391875,70.167481
4.9966,-0.001661,0.002543,-0.003055,0.0038,-0.001322,0.000441,-0.002291,-0.507685,-0.001263,-0.18941,-262.432961,-0.391875,70.167481
5.0166,-0.001471,0.002451,-0.001146,0.003721,-0.001319,5.4e-05,-0.002291,-0.507685,-0.001263,-0.18941,-262.432961,-0.391875,70.167481
5.0367,-0.001326,0.002177,-0.003245,0.003659,-0.001317,-0.000211,-0.001905,-0.5076,-0.001107,-0.180901,-262.431499,-0.461612,70.169087
5.0569,-0.001634,0.002325,-0.002149,0.003604,-0.001317,-5.4e-05,-0.002324,-0.507695,-0.00197,-0.180901,-262.431499,-0.461612,70.169087
5.0765,-0.001275,0.002083,-0.00423,0.003562,-0.001316,5.5e-05,-0.002686,-0.507689,-0.002145,-0.255781,-262.430899,-0.386731,70.169674
5.0967,-0.001349,0.002194,-0.001952,0.003671,-0.001211,0.000881,-0.003364,-0.507894,-0.004046,-0.255781,-262.430899,-0.386731,70.169674
5.1165,-0.001355,0.001876,-0.001854,0.003765,-0.00113,0.001473,-0.003364,-0.507894,-0.004046,-0.255781,-262.430899,-0.386731,70.169674
5.1367,-0.001173,0.002052,-0.002598,0.003847,-0.001066,0.001893,-0.00217,-0.50817,-0.00185,-0.330842,-262.429582,-0.362039,70.170999
5.1568,-0.000696,0.002379,-0.0021,0.003778,-0.00104,0.001473,-0.002289,-0.508084,-0.002155,-0.330842,-262.429582,-0.362039,70.170999
5.1768,-0.001021,0.002411,-0.003298,0.003723,-0.001019,0.001183,-0.001756,-0.507624,-0.002098,-0.255911,-262.429452,-0.436969,70.17115
5.1969,-0.001124,0.002062,-0.002311,0.003697,-0.001074,0.001407,-0.00262,-0.50759,-0.003193,-0.255911,-262.429452,-0.436969,70.17115
5.2169,-0.001098,0.002393,-0.002838,0.003679,-0.001117,0.001561,-0.00262,-0.50759,-0.003193,-0.255911,-262.429452,-0.436969,70.17115
5.2368,-0.001486,0.00196,-0.001956,0.003668,-0.001152,0.001667,-0.002452,-0.507636,-0.002816,-0.180767,-262.428549,-0.437528,70.172143
5.2567,-0.000852,0.001903,-0.002515,0.003656,-0.001151,0.001447,-0.002454,-0.507804,-0.002462,-0.180767,-262.428549,-0.437528,70.172143
5.2764,-0.001285,0.002137,-0.001586,0.003646,-0.001151,0.001294,-0.002062,-0.50812,-0.002487,-0.10591,-262.427643,-0.512385,70.173195
5.2969,-0.001389,0.002002,-0.002302,0.003577,-0.001151,0.00083,-0.002088,-0.507886,-0.001663,-0.10591,-262.427643,-0.512385,70.173195
5.317,-0.001009,0.002115,-0.001004,0.003522,-0.001152,0.000512,-0.002088,-0.507886,-0.001663,-0.10591,-262.427643,-0.512385,70.173195
5.3367,-0.000688,0.001957,-0.00236,0.003477,-0.001153,0.000295,-0.00137,-0.507932,-0.000951,-0.098605,-262.426192,-0.489429,70.174831
5.3565,-0.00062,0.001958,-0.00196,0.003318,-0.001162,7.9e-05,-0.001567,-0.507983,-0.001525,-0.098605,-262.426192,-0.489429,70.174831
5.3767,-0.000808,0.002119,-0.000253,0.003194,-0.001169,-7e-05,-0.001566,-0.508058,-0.001949,-0.173594,-262.425498,-0.41444,70.175547
5.3968,-0.00058,0.001865,-0.001342,0.002943,-0.001205,-0.000756,-0.000992,-0.507898,-0.000408,-0.173594,-262.425498,-0.41444,70.175547
5.417,-0.00117,0.001947,-0.00172,0.002748,-0.001235,-0.001234,-0.000992,-0.507898,-0.000408,-0.173594,-262.425498,-0.41444,70.175547
5.4365,-0.000809,0.001786,-0.001877,0.002597,-0.00126,-0.001566,-0.001977,-0.508074,-0.001715,-0.248489,-262.424795,-0.339545,70.176244
5.4568,-0.0009,0.002322,-0.002799,0.002707,-0.001193,-0.0011,-0.001882,-0.508134,-0.001781,-0.248489,-262.424795,-0.339545,70.176244
5.4765,-0.000852,0.001705,-0.001106,0.002795,-0.001143,-0.000768,-0.002326,-0.507676,-0.002799,-0.323604,-262.424776,-0.26443,70.176258
5.4964,-0.00072,0.001911,-0.003559,0.002784,-0.001099,-0.000787,-0.001492,-0.508243,-0.001247,-0.323604,-262.424776,-0.26443,70.176258
5.5164,-0.000321,0.002275,-0.001267,0.002776,-0.001064,-0.000797,-0.001492,-0.508243,-0.001247,-0.323604,-262.424776,-0.26443,70.176258
5.5367,-0.000662,0.002069,-0.003121,0.00277,-0.001036,-0.000801,-0.000905,-0.507746,-0.001278,-0.398687,-262.424106,-0.236497,70.176856
5.5572,-0.000675,0.002082,-0.001093,0.002719,-0.001103,-0.000432,-0.001452,-0.507823,-0.002037,-0.398687,-262.424106,-0.236497,70.176856
5.5769,-0.000464,0.001934,-0.001352,0.002682,-0.001156,-0.000175,-0.001159,-0.507944,-0.001113,-0.473619,-262.423074,-0.194943,70.177777
5.5967,-0.000581,0.001878,-0.002562,0.002596,-0.001163,-0.000327,-0.001151,-0.508056,-0.001332,-0.473619,-262.423074,-0.194943,70.177777
5.6172,-0.000287,0.002225,-0.000688,0.002528,-0.001168,-0.000433,-0.001151,-0.508056,-0.001332,-0.473619,-262.423074,-0.194943,70.177777
5.6365,-0.000229,0.00196,-0.002769,0.002476,-0.001172,-0.000506,-0.00057,-0.507801,-0.000698,-0.440011,-262.422375,-0.269961,70.178456
5.6568,-0.000877,0.002271,-0.001373,0.002381,-0.001215,-0.000458,-0.000994,-0.507899,-0.001533,-0.440011,-262.422375,-0.269961,70.178456
5.6765,-0.000386,0.002116,-0.000573,0.002309,-0.001248,-0.000425,-0.001514,-0.507757,-0.001384,-0.51487,-262.421454,-0.335528,70.179293
5.6967,-0.000179,0.001608,-0.001408,0.002189,-0.00128,-0.000858,-0.00075,-0.507874,-0.000647,-0.51487,-262.421454,-0.335528,70.179293
5.7174,-0.000272,0.001791,-0.002128,0.002094,-0.001307,-0.00116,-0.00075,-0.507874,-0.000647,-0.51487,-262.421454,-0.335528,70.179293
5.7365,-0.000158,0.001672,-0.000767,0.00202,-0.00133,-0.001369,-0.001273,-0.508253,-0.002143,-0.578357,-262.420496,-0.404404,70.180165
5.7568,-0.00028,0.001788,-0.002591,0.002029,-0.001259,-0.00104,-0.000968,-0.508289,-0.001584,-0.578357,-262.420496,-0.404404,70.180165
5.7767,-0.000435,0.002124,-0.001788,0.002038,-0.001204,-0.000809,-0.001583,-0.508221,-0.002598,-0.653357,-262.420198,-0.329405,70.180375
5.7968,4.8e-05,0.002004,-0.002419,0.002135,-0.00122,-0.000517,-0.001366,-0.507905,-0.001858,-0.653357,-262.420198,-0.329405,70.180375
5.8168,-0.000107,0.001975,-0.001309,0.002212,-0.001234,-0.000312,-0.001366,-0.507905,-0.001858,-0.653357,-262.420198,-0.329405,70.180375
5.8367,2.9e-05,0.001891,-0.00277,0.002273,-0.001245,-0.000168,-0.000692,-0.508074,-0.001342,-0.694598,-262.419166,-0.33518,70.181215
5.8569,-0.00017,0.001771,-0.00225,0.002218,-0.001237,-3.8e-05,-0.000965,-0.508093,-0.00193,-0.694598,-262.419166,-0.33518,70.181215
5.8764,-0.000207,0.001788,-0.00173,0.002178,-0.001229,5.2e-05,-0.001281,-0.508248,-0.002257,-0.619562,-262.418631,-0.410215,70.18173
5.8967,0.000404,0.001706,-0.002134,0.002198,-0.001189,4.4e-05,-0.001104,-0.508215,-0.001775,-0.619562,-262.418631,-0.410215,70.18173
5.9167,0.000359,0.001822,-0.001734,0.002215,-0.001158,3.9e-05,-0.001104,-0.508215,-0.001775,-0.619562,-262.418631,-0.410215,70.18173
5.9369,0.000131,0.001377,-0.003059,0.002227,-0.001133,3.6e-05,-0.000466,-0.50821,-0.001736,-0.54455,-262.417984,-0.485228,70.182384
5.9569,0.000267,0.001756,-0.002419,0.002158,-0.001089,0.000256,-0.000853,-0.508382,-0.002278,-0.54455,-262.417984,-0.485228,70.182384
5.9773,-5.8e-05,0.001674,-0.00239,0.002108,-0.001053,0.000408,-0.000903,-0.508275,-0.002419,-0.469597,-262.417092,-0.478278,70.183284
5.9967,0.000215,0.001691,-0.002899,0.002179,-0.00102,0.000563,-0.00124,-0.508321,-0.002393,-0.469597,-262.417092,-0.478278,70.183284
6.0175,0.000233,0.001598,-0.003477,0.002235,-0.000994,0.00067,-0.00124,-0.508321,-0.002393,-0.469597,-262.417092,-0.478278,70.183284
6.0372,-0.000129,0.001616,-0.002713,0.00228,-0.000974,0.000745,-0.001473,-0.508435,-0.003466,-0.394694,-262.416401,-0.553182,70.184042
6.0574,8.7e-05,0.001566,-0.002521,0.002369,-0.000922,0.001099,-0.001481,-0.508418,-0.003167,-0.394694,-262.416401,-0.553182,70.184042
6.0763,0.000408,0.001516,-0.002254,0.002441,-0.000882,0.001347,-0.001154,-0.508454,-0.002509,-0.319602,-262.415814,-0.559906,70.184718
6.0969,0.000374,0.001723,-0.001962,0.002307,-0.000869,0.001162,-0.00077,-0.508481,-0.002273,-0.319602,-262.415814,-0.559906,70.184718
6.1168,0.000288,0.001783,-0.002844,0.002205,-0.000858,0.001032,-0.00077,-0.508481,-0.002273,-0.319602,-262.415814,-0.559906,70.184718
6.1369,0.000425,0.001651,-0.001195,0.002128,-0.000848,0.000941,-0.001139,-0.508226,-0.002836,-0.244243,-262.415588,-0.609419,70.184994
6.1572,0.00031,0.001602,-0.001219,0.002058,-0.000886,0.00083,-0.000745,-0.508277,-0.002162,-0.244243,-262.415588,-0.609419,70.184994
6.1768,-4.9e-05,0.001733,-0.001503,0.002004,-0.000915,0.000751,-0.000258,-0.508421,-0.001197,-0.169569,-262.414903,-0.589395,70.185811
6.1972,0.00034,0.001438,-0.003028,0.00198,-0.00093,0.000378,-0.000762,-0.508282,-0.001474,-0.169569,-262.414903,-0.589395,70.185811
6.2171,0.000422,0.001523,-0.003667,0.00196,-0.000943,0.000122,-0.000762,-0.508282,-0.001474,-0.169569,-262.414903,-0.589395,70.185811
6.2369,0.000169,0.001733,-0.002744,0.001942,-0.000954,-5.4e-05,-0.001368,-0.50851,-0.003637,-0.223642,-262.414121,-0.600975,70.186736
6.2572,0.000774,0.001643,-0.002494,0.002055,-0.000909,0.000568,-0.001303,-0.508414,-0.003268,-0.223642,-262.414121,-0.600975,70.186736
6.2764,0.000535,0.001573,-0.002542,0.002147,-0.000876,0.001007,-0.000483,-0.508363,-0.002492,-0.298657,-262.413902,-0.525959,70.186952
6.2966,0.000442,0.001251,-0.001831,0.002066,-0.000878,0.001036,-0.000737,-0.50842,-0.002537,-0.298657,-262.413902,-0.525959,70.186952
6.3168,0.000531,0.00144,-0.002188,0.002006,-0.000878,0.001055,-0.000737,-0.50842,-0.002537,-0.298657,-262.413902,-0.525959,70.186952
6.3367,0.000414,0.001358,-0.003604,0.00196,-0.000878,0.001067,-0.000537,-0.508581,-0.00217,-0.223501,-262.413435,-0.601115,70.187516
6.3573,0.000507,0.001167,-0.003369,0.00198,-0.000826,0.001159,-0.00089,-0.508607,-0.002747,-0.223501,-262.413435,-0.601115,70.187516
6.3766,0.000576,0.00116,-0.001301,0.001996,-0.000785,0.001223,-0.001163,-0.508853,-0.003344,-0.148664,-262.412819,-0.662399,70.188292
6.397,0.000667,0.001506,-0.001811,0.00178,-0.000709,0.00071,-0.00018,-0.508841,-0.00148,-0.148664,-262.412819,-0.662399,70.188292
6.4169,0.000481,0.001475,-0.001258,0.001615,-0.000649,0.000358,-0.00018,-0.508841,-0.00148,-0.148664,-262.412819,-0.662399,70.188292
6.4366,0.000467,0.001196,-0.001106,0.001489,-0.000602,0.000116,-9.6e-05,-0.508552,-0.001222,-0.073618,-262.412209,-0.654417,70.18906
6.4571,0.000837,0.00129,-0.001848,0.001362,-0.00061,-0.000204,-8.9e-05,-0.508658,-0.00117,-0.073618,-262.412209,-0.654417,70.18906
6.4766,0.000985,0.001226,-0.001948,0.001263,-0.000616,-0.000425,-0.0001,-0.508712,-0.001846,-0.148709,-262.412125,-0.579326,70.189147
6.4972,0.001068,0.000836,-0.001542,0.001147,-0.000599,-0.000209,-1.5e-05,-0.508769,-0.00194,-0.148709,-262.412125,-0.579326,70.189147
6.5167,0.000902,0.001232,-0.000462,0.00106,-0.000585,-5.8e-05,-1.5e-05,-0.508769,-0.00194,-0.148709,-262.412125,-0.579326,70.189147
6.5368,0.000708,0.00125,-0.003123,0.000993,-0.000573,4.8e-05,0.000667,-0.508768,-0.000462,-0.224022,-262.412121,-0.504012,70.189151
6.5566,0.000512,0.001242,-0.002618,0.000934,-0.000562,-5.9e-05,3.5e-05,-0.50876,-0.001547,-0.224022,-262.412121,-0.504012,70.189151
6.5765,0.000986,0.001572,-0.002818,0.000887,-0.000554,-0.000132,-0.000813,-0.508761,-0.002616,-0.224022,-262.412121,-0.504012,70.189151
6.5969,0.000469,0.00159,-0.001854,0.0,0.0,0.0,-0.000482,-0.508455,-0.002801,-0.298666,-262.411994,-0.545141,70.189282
6.617,0.000595,0.001406,-0.002031,0.0,0.0,0.0,-0.000482,-0.508455,-0.002801,-0.298666,-262.411994,-0.545141,70.189282
