mach0312/omni-docking-bench/src/icros_test_setup/results/MPPI_sample/timeseries/trial_114.csv
t,x,y,yaw,vx,vy,wz,bl_x,bl_y,bl_yaw,front_steering_joint,front_wheel_joint,rear_steering_joint,rear_wheel_joint
0.0,0.013879,-0.003817,-0.053885,0.00648,0.002969,-0.03087,-0.014189,-0.513785,-0.043845,-1.183444,-262.202821,1.282135,70.343391
0.0003,0.013802,-0.004064,-0.053542,0.005554,0.002545,-0.026457,-0.014558,-0.513683,-0.045518,-1.183444,-262.194203,1.282135,70.354827
0.0005,0.013497,-0.003947,-0.054311,0.00458,0.002098,-0.021816,-0.014558,-0.513683,-0.045518,-1.183444,-262.188321,1.282135,70.362631
0.0008,0.014323,-0.003854,-0.054512,0.003524,0.001615,-0.016788,-0.014056,-0.513642,-0.04737,-1.183444,-262.184589,1.282135,70.367584
0.0011,0.014887,-0.003565,-0.053584,0.002398,0.001098,-0.011421,-0.014056,-0.513642,-0.04737,-1.183444,-262.184589,1.282135,70.367584
0.0013,0.01556,-0.003637,-0.054871,0.001242,0.000569,-0.005917,-0.014474,-0.513333,-0.049237,-1.183444,-262.184589,1.282135,70.367584
0.0015,0.015197,-0.003786,-0.054269,3e-06,1e-06,-1.4e-05,-0.014474,-0.513333,-0.049237,-1.183444,-262.184589,1.282135,70.367584
0.0152,0.015254,-0.003977,-0.054212,0.0,0.0,0.0,-0.012396,-0.51286,-0.054831,-1.183444,-262.184589,1.282135,70.367584
0.0352,0.015019,-0.003521,-0.054265,0.0,0.0,0.0,-0.012381,-0.513228,-0.054213,-1.183444,-262.184585,1.282135,70.367588
0.0551,0.015012,-0.003512,-0.055607,0.0,0.0,0.0,-0.012489,-0.513039,-0.054235,-1.183444,-262.184585,1.282135,70.367588
0.0753,0.0151,-0.003662,-0.054315,0.0,0.0,0.0,-0.013333,-0.512724,-0.055607,-1.183444,-262.184585,1.282135,70.367588
0.0953,0.015006,-0.003706,-0.054919,0.0,0.0,0.0,-0.012651,-0.512894,-0.054426,-1.183444,-262.184585,1.282135,70.367588
0.1158,0.015434,-0.003867,-0.054137,0.00102,-0.00258,-0.008373,-0.012651,-0.512894,-0.054426,-1.183444,-262.184585,1.282135,70.367588
0.1354,0.015155,-0.003566,-0.054253,0.001095,-0.002847,-0.007988,-0.012162,-0.51312,-0.054137,-1.183444,-262.184585,1.282135,70.367588
0.1558,0.014945,-0.00359,-0.054957,0.001151,-0.003068,-0.006637,-0.012301,-0.512995,-0.054185,-1.183444,-262.184585,1.282135,70.367588
0.175,0.015004,-0.003373,-0.056297,0.001202,-0.003268,-0.005723,-0.013061,-0.512836,-0.055005,-1.258399,-262.183995,1.20718,70.367763
0.1951,0.014985,-0.00385,-0.056456,0.001255,-0.003489,-0.004145,-0.013637,-0.51259,-0.056187,-1.258399,-262.183995,1.20718,70.367763
0.2152,0.01531,-0.003953,-0.054974,0.001304,-0.003686,-0.003008,-0.013637,-0.51259,-0.056187,-1.258399,-262.183995,1.20718,70.367763
0.2352,0.015137,-0.003556,-0.054054,0.001348,-0.003861,-0.0022,-0.012713,-0.513183,-0.054974,-1.333422,-262.183994,1.132157,70.367763
0.2551,0.014999,-0.003831,-0.055101,0.001377,-0.003969,-0.000801,-0.012592,-0.513031,-0.054599,-1.333422,-262.183994,1.132157,70.367763
0.2754,0.015221,-0.003802,-0.05565,0.001405,-0.00407,0.000239,-0.013088,-0.513057,-0.055101,-1.317318,-262.183994,1.057272,70.367763
0.295,0.015148,-0.004282,-0.052903,0.001433,-0.00417,0.001598,-0.013141,-0.513017,-0.055602,-1.317318,-262.183994,1.057272,70.367763
0.3154,0.015145,-0.003577,-0.054477,0.001461,-0.004264,0.00264,-0.013141,-0.513017,-0.055602,-1.317318,-262.183994,1.057272,70.367763
0.3352,0.01542,-0.003565,-0.056357,0.001488,-0.00435,0.003435,-0.012625,-0.51282,-0.054477,-1.242218,-262.183994,0.982171,70.367763
0.3552,0.015117,-0.003793,-0.05673,0.001516,-0.00444,0.004456,-0.012902,-0.512794,-0.055242,-1.242218,-262.183994,0.982171,70.367763
0.3749,0.015395,-0.003489,-0.055898,0.001542,-0.004522,0.005253,-0.013799,-0.512973,-0.05673,-1.167276,-262.183994,0.90723,70.367763
0.395,0.015367,-0.003878,-0.055349,0.001569,-0.004606,0.006156,-0.013159,-0.512716,-0.05597,-1.167276,-262.183994,0.90723,70.367763
0.4149,0.015256,-0.003836,-0.055295,0.001595,-0.004684,0.006874,-0.013159,-0.512716,-0.05597,-1.167276,-262.183994,0.90723,70.367763
0.4349,0.015167,-0.003987,-0.055386,0.001621,-0.004754,0.007442,-0.01293,-0.513057,-0.055295,-1.092236,-262.183994,0.832189,70.367763
0.455,0.015226,-0.003401,-0.054808,0.001638,-0.004786,0.008067,-0.012986,-0.513118,-0.055332,-1.092236,-262.183994,0.832189,70.367763
0.4751,0.01538,-0.003581,-0.053179,0.001655,-0.004818,0.008564,-0.012712,-0.512636,-0.054808,-1.017232,-262.183994,0.907193,70.367763
0.4953,0.015362,-0.003434,-0.054604,0.001672,-0.004855,0.009061,-0.011814,-0.51284,-0.05332,-1.017232,-262.183994,0.907193,70.367763
0.5153,0.015327,-0.003749,-0.055004,0.001688,-0.00489,0.009459,-0.011814,-0.51284,-0.05332,-1.017232,-262.183994,0.907193,70.367763
0.5354,0.015217,-0.004233,-0.054965,0.001703,-0.004922,0.009777,-0.012711,-0.512978,-0.055004,-0.942229,-262.183994,0.982195,70.367763
0.555,0.015302,-0.004031,-0.055565,0.001716,-0.004939,0.010034,-0.012748,-0.513176,-0.054988,-0.942229,-262.183994,0.982195,70.367763
0.5752,0.014981,-0.003938,-0.056183,0.001729,-0.004955,0.010239,-0.013021,-0.513244,-0.055565,-0.867328,-262.183994,1.057097,70.367763
0.5952,0.015391,-0.004025,-0.05487,0.001744,-0.004985,0.0104,-0.0136,-0.513143,-0.056128,-0.867328,-262.183994,1.057097,70.367763
0.6152,0.01527,-0.003839,-0.055086,0.001759,-0.005011,0.010528,-0.0136,-0.513143,-0.056128,-0.867328,-262.183994,1.057097,70.367763
0.6351,0.015085,-0.003566,-0.054782,0.001772,-0.005035,0.010631,-0.01281,-0.513065,-0.055086,-0.79232,-262.183994,1.132105,70.367763
0.655,0.015487,-0.003701,-0.054853,0.001784,-0.00506,0.010713,-0.012822,-0.512957,-0.054962,-0.79232,-262.183994,1.132105,70.367763
0.675,0.015098,-0.004213,-0.054735,0.001795,-0.005083,0.010778,-0.012474,-0.512933,-0.054853,-0.717322,-262.183994,1.207103,70.367763
0.6952,0.015273,-0.003794,-0.055729,0.001797,-0.005069,0.010837,-0.012774,-0.513405,-0.054745,-0.717322,-262.183994,1.207103,70.367763
0.7152,0.014971,-0.004075,-0.054982,0.001799,-0.005058,0.010884,-0.012774,-0.513405,-0.054745,-0.717322,-262.183994,1.207103,70.367763
0.7351,0.01523,-0.00409,-0.054643,0.001802,-0.00505,0.01092,-0.013055,-0.513304,-0.054982,-0.642237,-262.183994,1.282188,70.367763
0.755,0.015249,-0.003865,-0.054185,0.001806,-0.005053,0.010946,-0.012877,-0.513315,-0.054842,-0.642237,-262.183994,1.282188,70.367763
0.7752,0.015199,-0.003558,-0.055506,0.00181,-0.005056,0.010967,-0.012372,-0.513117,-0.054185,-0.567184,-262.183994,1.357241,70.367763
0.7952,0.014841,-0.003709,-0.055554,0.001823,-0.005099,0.010975,-0.013033,-0.512802,-0.055394,-0.567184,-262.183994,1.357241,70.367763
0.8152,0.015292,-0.003803,-0.055157,0.001834,-0.005135,0.010983,-0.013033,-0.512802,-0.055394,-0.567184,-262.183994,1.357241,70.367763
0.8355,0.015263,-0.003894,-0.054982,0.001843,-0.005165,0.01099,-0.012824,-0.513028,-0.055157,-0.492185,-262.183994,1.432239,70.367763
0.8555,0.015219,-0.003688,-0.054139,0.001846,-0.005168,0.011002,-0.012799,-0.513067,-0.055085,-0.492185,-262.183994,1.432239,70.367763
0.8756,0.015138,-0.003805,-0.054521,0.001849,-0.00517,0.011011,-0.012378,-0.512941,-0.054139,-0.417221,-262.183994,1.507204,70.367763
0.8957,0.015183,-0.003953,-0.053572,0.001851,-0.005173,0.011018,-0.01263,-0.513038,-0.054488,-0.417221,-262.183994,1.507204,70.367763
0.9156,0.015277,-0.003923,-0.056117,0.001853,-0.005175,0.011024,-0.01263,-0.513038,-0.054488,-0.417221,-262.183994,1.507204,70.367763
0.9356,0.014997,-0.003447,-0.055696,0.001855,-0.005178,0.011029,-0.013327,-0.51312,-0.056117,-0.342189,-262.183994,1.582235,70.367763
0.9556,0.01476,-0.003794,-0.054597,0.001861,-0.005196,0.011029,-0.013354,-0.512931,-0.055945,-0.342189,-262.183994,1.582235,70.367763
0.9753,0.015107,-0.003609,-0.056458,0.001866,-0.005212,0.011031,-0.01307,-0.513034,-0.054597,-0.267178,-262.183994,1.657246,70.367762
0.9951,0.015043,-0.003725,-0.055329,0.001873,-0.005236,0.01103,-0.013623,-0.512816,-0.056309,-0.267178,-262.183994,1.657246,70.367762
1.0151,0.01521,-0.00352,-0.056811,0.001879,-0.005256,0.01103,-0.013623,-0.512816,-0.056309,-0.267178,-262.183994,1.657246,70.367762
1.0353,0.01496,-0.003841,-0.055388,0.001884,-0.005273,0.011031,-0.013748,-0.512698,-0.056811,-0.191988,-262.183994,1.72574,70.367762
1.0553,0.015202,-0.00384,-0.055251,0.001888,-0.005284,0.011034,-0.013554,-0.512846,-0.056229,-0.191988,-262.183994,1.72574,70.367762
1.0753,0.014812,-0.003581,-0.056196,0.001891,-0.005293,0.011036,-0.012961,-0.513062,-0.055251,-0.117229,-262.183994,1.726396,70.367761
1.0952,0.015163,-0.003543,-0.056951,0.001895,-0.005307,0.011037,-0.013762,-0.512799,-0.056119,-0.117229,-262.183994,1.726396,70.367761
1.1152,0.015104,-0.003603,-0.056363,0.001898,-0.005318,0.011038,-0.013762,-0.512799,-0.056119,-0.117229,-262.183994,1.726396,70.367761
1.1353,0.015226,-0.003566,-0.055805,0.001901,-0.005328,0.011039,-0.013626,-0.512793,-0.056363,-0.041999,-262.183994,1.726659,70.367761
1.1552,0.015062,-0.003646,-0.054874,0.001903,-0.005333,0.011041,-0.01346,-0.512785,-0.056135,-0.041999,-262.183994,1.726659,70.367761
1.1751,0.015235,-0.004067,-0.055606,0.001905,-0.005338,0.011043,-0.012909,-0.512878,-0.054874,0.032803,-262.183993,1.727036,70.367759
1.1953,0.015124,-0.003468,-0.054454,0.001898,-0.005304,0.011052,-0.013092,-0.513243,-0.055543,0.032803,-262.183993,1.727036,70.367759
1.2152,0.01517,-0.003764,-0.053297,0.001892,-0.005276,0.011058,-0.013092,-0.513243,-0.055543,0.032803,-262.183993,1.727036,70.367759
1.2353,0.015183,-0.003734,-0.055018,0.001887,-0.005253,0.011062,-0.011999,-0.51304,-0.053296,0.107773,-262.183991,1.727151,70.367749
1.2553,0.015081,-0.004127,-0.054573,0.001884,-0.005243,0.011062,-0.012344,-0.513009,-0.053984,0.107773,-262.183991,1.727151,70.367749
1.2754,0.0154,-0.003737,-0.05605,0.001881,-0.005234,0.011061,-0.012737,-0.513369,-0.054572,0.182692,-262.183987,1.726629,70.367726
1.2956,0.015104,-0.003872,-0.055679,0.001882,-0.005238,0.011058,-0.013131,-0.512976,-0.055915,0.182692,-262.183987,1.726629,70.367726
1.315,0.015027,-0.003858,-0.05475,0.001883,-0.005242,0.011056,-0.013131,-0.512976,-0.055915,0.182692,-262.183987,1.726629,70.367726
1.3351,0.015338,-0.003944,-0.057036,0.001884,-0.005245,0.011055,-0.01288,-0.513098,-0.054743,0.257679,-262.183971,1.726415,70.367648
1.355,0.014756,-0.00424,-0.056345,0.001883,-0.00524,0.011055,-0.013228,-0.513105,-0.055676,0.257679,-262.183971,1.726415,70.367648
1.3748,0.015022,-0.003457,-0.054284,0.001883,-0.005235,0.011056,-0.013962,-0.513441,-0.056326,0.332674,-262.183916,1.726578,70.367371
1.3954,0.015497,-0.003782,-0.054243,0.001886,-0.005252,0.011051,-0.012767,-0.512772,-0.054467,0.332674,-262.183916,1.726578,70.367371
1.4153,0.015175,-0.003715,-0.056511,0.001888,-0.005265,0.011048,-0.012767,-0.512772,-0.054467,0.332674,-262.183916,1.726578,70.367371
1.4353,0.014847,-0.003666,-0.055105,0.00189,-0.005276,0.011047,-0.01362,-0.512934,-0.056448,0.407669,-262.183779,1.726571,70.366681
1.4553,0.015327,-0.003753,-0.05501,0.001892,-0.005281,0.011047,-0.013465,-0.51292,-0.055894,0.407669,-262.183779,1.726571,70.366681
1.4753,0.014807,-0.003878,-0.05458,0.001894,-0.005286,0.011047,-0.012694,-0.513044,-0.054888,0.482665,-262.18344,1.726757,70.364959
1.4951,0.015259,-0.004041,-0.055877,0.00189,-0.00527,0.011051,-0.012985,-0.513115,-0.054602,0.482665,-262.18344,1.726757,70.364959
1.5153,0.014725,-0.003479,-0.055187,0.001888,-0.005257,0.011054,-0.012985,-0.513115,-0.054602,0.482665,-262.18344,1.726757,70.364959
1.5352,0.014946,-0.004307,-0.054528,0.001885,-0.005247,0.011056,-0.013363,-0.512843,-0.054908,0.557708,-262.182853,1.726894,70.361973
1.5558,0.014636,-0.003894,-0.055536,0.001884,-0.005238,0.011134,-0.01315,-0.513146,-0.054721,0.557708,-262.182853,1.726894,70.361973
1.5756,0.014469,-0.004345,-0.054694,0.001882,-0.005231,0.011196,-0.013631,-0.513247,-0.055253,0.632672,-262.182076,1.726646,70.35806
1.5954,0.0148,-0.004141,-0.054573,0.001875,-0.005196,0.011301,-0.013429,-0.513559,-0.05473,0.632672,-262.182076,1.726646,70.35806
1.6151,0.014724,-0.004048,-0.053051,0.001869,-0.005168,0.011383,-0.013429,-0.513559,-0.05473,0.632672,-262.182076,1.726646,70.35806
1.6351,0.014898,-0.004643,-0.052618,0.001864,-0.005145,0.011449,-0.012257,-0.513535,-0.052622,0.706628,-262.181169,1.725507,70.353584
1.6551,0.014376,-0.004432,-0.054817,0.001849,-0.005092,0.011561,-0.012115,-0.513722,-0.052571,0.706628,-262.181169,1.725507,70.353584
1.6752,0.014523,-0.004593,-0.056539,0.001837,-0.005048,0.011649,-0.01352,-0.513819,-0.054483,0.780879,-262.180209,1.723164,70.349088
1.6955,0.014619,-0.004614,-0.053779,0.001837,-0.005039,0.011764,-0.014225,-0.51379,-0.056337,0.780879,-262.180209,1.723164,70.349088
1.7154,0.014485,-0.004791,-0.05164,0.001837,-0.005032,0.011856,-0.014225,-0.51379,-0.056337,0.780879,-262.180209,1.723164,70.349088
1.7354,0.014129,-0.004945,-0.051607,0.001838,-0.005026,0.011931,-0.011778,-0.514313,-0.051183,0.843995,-262.179172,1.720721,70.344475
1.755,0.014048,-0.004737,-0.053591,0.001813,-0.004945,0.012057,-0.011934,-0.514317,-0.051302,0.843995,-262.179172,1.720721,70.344475
1.7751,0.01387,-0.004988,-0.051905,0.001793,-0.004879,0.012156,-0.013221,-0.514163,-0.053222,0.888233,-262.17804,1.718949,70.33964
1.7952,0.014152,-0.004896,-0.052829,0.001782,-0.004838,0.012277,-0.012642,-0.514297,-0.052001,0.888233,-262.17804,1.718949,70.33964
1.8153,0.01385,-0.00525,-0.051882,0.001773,-0.004805,0.012374,-0.012642,-0.514297,-0.052001,0.888233,-262.17804,1.718949,70.33964
1.8355,0.014163,-0.005222,-0.051431,0.001766,-0.004778,0.012452,-0.012538,-0.514756,-0.05141,0.957136,-262.176886,1.715501,70.335031
1.8555,0.013449,-0.005418,-0.051273,0.001747,-0.00472,0.012564,-0.012333,-0.514693,-0.051365,0.957136,-262.176886,1.715501,70.335031
1.8759,0.013434,-0.00585,-0.050401,0.001732,-0.004673,0.012653,-0.012643,-0.514895,-0.050896,1.012527,-262.175617,1.712429,70.330267
1.8953,0.013692,-0.005523,-0.050988,0.001707,-0.004599,0.012772,-0.01229,-0.515184,-0.050425,1.012527,-262.175617,1.712429,70.330267
1.9153,0.013431,-0.0054,-0.050487,0.001686,-0.004539,0.012866,-0.01229,-0.515184,-0.050425,1.012527,-262.175617,1.712429,70.330267
1.9358,0.013265,-0.005962,-0.050567,0.001668,-0.00449,0.01294,-0.012246,-0.514943,-0.049974,1.054972,-262.174254,1.709602,70.32541
1.9557,0.013104,-0.006051,-0.05041,0.001656,-0.004454,0.013032,-0.012347,-0.515114,-0.050155,1.054972,-262.174254,1.709602,70.32541
1.9753,0.013066,-0.005917,-0.049315,0.001646,-0.004425,0.013106,-0.012551,-0.51554,-0.050021,1.116189,-262.172824,1.704614,70.320702
1.9951,0.013317,-0.006049,-0.050667,0.00163,-0.004381,0.0132,-0.012115,-0.515326,-0.049358,1.116189,-262.172824,1.704614,70.320702
2.0155,0.013406,-0.006078,-0.050113,0.001616,-0.004346,0.013274,-0.012115,-0.515326,-0.049358,1.116189,-262.172824,1.704614,70.320702
2.0349,0.012873,-0.00617,-0.051637,0.001605,-0.004316,0.013332,-0.012082,-0.515625,-0.049569,1.139718,-262.171262,1.702474,70.315731
2.0554,0.012998,-0.005963,-0.048184,0.001594,-0.004287,0.013403,-0.012629,-0.515592,-0.050343,1.139718,-262.171262,1.702474,70.315731
2.075,0.012358,-0.006731,-0.048012,0.001586,-0.004263,0.013459,-0.011523,-0.515509,-0.047767,1.173603,-262.16963,1.69892,70.310791
2.0953,0.012327,-0.006522,-0.047718,0.001558,-0.004199,0.013529,-0.012064,-0.516095,-0.04797,1.173603,-262.16963,1.69892,70.310791
2.1153,0.012922,-0.006474,-0.047739,0.001535,-0.004147,0.013584,-0.012064,-0.516095,-0.04797,1.173603,-262.16963,1.69892,70.310791
2.1352,0.01218,-0.006918,-0.047644,0.001515,-0.004104,0.013626,-0.011358,-0.516073,-0.04718,1.189616,-262.167932,1.697148,70.305779
2.1551,0.012356,-0.006762,-0.046561,0.00149,-0.004051,0.013673,-0.011661,-0.516204,-0.047306,1.189616,-262.167932,1.697148,70.305779
2.1751,0.012153,-0.006495,-0.047114,0.001469,-0.004007,0.013709,-0.01134,-0.516339,-0.046137,1.225936,-262.166177,1.692142,70.300877
2.1951,0.011825,-0.006325,-0.045302,0.001461,-0.003991,0.01374,-0.011819,-0.515971,-0.04701,1.225936,-262.166177,1.692142,70.300877
2.2154,0.011906,-0.006972,-0.046869,0.001454,-0.003978,0.013764,-0.011819,-0.515971,-0.04701,1.225936,-262.166177,1.692142,70.300877
2.235,0.011664,-0.006941,-0.046035,0.001449,-0.003967,0.013783,-0.011936,-0.516581,-0.0463,1.246298,-262.16435,1.688877,70.295933
2.2551,0.011712,-0.007275,-0.046697,0.001429,-0.003926,0.013816,-0.011876,-0.516527,-0.046126,1.246298,-262.16435,1.688877,70.295933
2.2752,0.010977,-0.007367,-0.046463,0.001412,-0.003893,0.013841,-0.012054,-0.516847,-0.046258,1.256084,-262.162478,1.687262,70.290945
2.2952,0.011767,-0.007227,-0.0462,0.001402,-0.003871,0.013866,-0.012652,-0.516825,-0.046424,1.256084,-262.162478,1.687262,70.290945
2.3154,0.011303,-0.007353,-0.04511,0.001393,-0.003852,0.013885,-0.012652,-0.516825,-0.046424,1.256084,-262.162478,1.687262,70.290945
2.3353,0.011255,-0.007316,-0.044066,0.001386,-0.003837,0.0139,-0.011644,-0.516999,-0.044534,1.270438,-262.160573,1.684701,70.285987
2.3551,0.011052,-0.007407,-0.04497,0.001357,-0.003784,0.013931,-0.011458,-0.516944,-0.044273,1.270438,-262.160573,1.684701,70.285987
2.375,0.0108,-0.007338,-0.044523,0.001333,-0.003741,0.013953,-0.011837,-0.517015,-0.04453,1.281206,-262.158636,1.68278,70.281036
2.3956,0.010923,-0.007834,-0.043798,0.001323,-0.003724,0.01397,-0.011893,-0.516854,-0.044503,1.281206,-262.158636,1.68278,70.281036
2.415,0.010718,-0.00765,-0.044752,0.001315,-0.00371,0.013983,-0.011893,-0.516854,-0.044503,1.281206,-262.158636,1.68278,70.281036
2.4353,0.010535,-0.00755,-0.041444,0.001308,-0.003699,0.013993,-0.012049,-0.517297,-0.044173,1.298963,-262.156662,1.679037,70.27613
2.4557,0.010766,-0.007951,-0.042847,0.001283,-0.003655,0.014016,-0.011445,-0.517239,-0.042982,1.298963,-262.156662,1.679037,70.27613
2.4754,0.010261,-0.007934,-0.043152,0.001261,-0.003619,0.014033,-0.011043,-0.517602,-0.042403,1.307215,-262.154656,1.677224,70.27121
2.4952,0.01047,-0.007982,-0.042959,0.00124,-0.003583,0.014053,-0.011679,-0.517477,-0.043067,1.307215,-262.154656,1.677224,70.27121
2.5151,0.010149,-0.007991,-0.042791,0.001223,-0.003554,0.014067,-0.011679,-0.517477,-0.043067,1.307215,-262.154656,1.677224,70.27121
2.5353,0.009937,-0.00794,-0.041693,0.001208,-0.00353,0.014077,-0.011622,-0.517677,-0.042207,1.321407,-262.152622,1.673897,70.266333
2.5554,0.009946,-0.008201,-0.041871,0.001188,-0.003498,0.014092,-0.011494,-0.517621,-0.041931,1.321407,-262.152622,1.673897,70.266333
2.5749,0.009829,-0.008386,-0.041168,0.001171,-0.003471,0.014102,-0.011368,-0.517868,-0.041423,1.336778,-262.150543,1.670073,70.261468
2.595,0.009495,-0.008266,-0.039941,0.001139,-0.003422,0.014121,-0.011177,-0.517952,-0.041168,1.336778,-262.150543,1.670073,70.261468
2.6152,0.009681,-0.007998,-0.043013,0.001113,-0.003382,0.014133,-0.011177,-0.517952,-0.041168,1.336778,-262.150543,1.670073,70.261468
2.635,0.009513,-0.008436,-0.03985,0.00109,-0.003348,0.014141,-0.012206,-0.517673,-0.042425,1.346865,-262.148441,1.667396,70.256629
2.6553,0.008997,-0.008353,-0.040891,0.001085,-0.003342,0.014142,-0.011631,-0.517836,-0.04131,1.346865,-262.148441,1.667396,70.256629
2.6753,0.009283,-0.008526,-0.039677,0.001081,-0.003336,0.014142,-0.011821,-0.518034,-0.040441,1.367515,-262.146297,1.6615,70.251851
2.695,0.009121,-0.008806,-0.04099,0.001055,-0.003298,0.014154,-0.011024,-0.518121,-0.039723,1.367515,-262.146297,1.6615,70.251851
2.715,0.009049,-0.008392,-0.040093,0.001034,-0.003267,0.014163,-0.011024,-0.518121,-0.039723,1.367515,-262.146297,1.6615,70.251851
2.7349,0.008394,-0.00846,-0.040212,0.001016,-0.003241,0.014168,-0.011354,-0.518123,-0.039501,1.369597,-262.144133,1.660853,70.247043
2.7554,0.008536,-0.008936,-0.039053,0.001015,-0.003241,0.014165,-0.011656,-0.518109,-0.039722,1.369597,-262.144133,1.660853,70.247043
2.7752,0.008669,-0.008711,-0.039638,0.001015,-0.003241,0.014163,-0.011347,-0.518651,-0.038602,1.385281,-262.14194,1.655987,70.242288
2.7951,0.008765,-0.008653,-0.038036,0.001005,-0.003225,0.014168,-0.011521,-0.518348,-0.039517,1.385281,-262.14194,1.655987,70.242288
2.8154,0.008472,-0.008946,-0.037689,0.000996,-0.003211,0.014171,-0.011521,-0.518348,-0.039517,1.385281,-262.14194,1.655987,70.242288
2.835,0.007684,-0.008977,-0.038531,0.000988,-0.0032,0.014172,-0.010707,-0.518721,-0.037095,1.385274,-262.139732,1.655966,70.2375
2.8551,0.007892,-0.009447,-0.037952,0.000964,-0.003166,0.014183,-0.011218,-0.518686,-0.037616,1.385274,-262.139732,1.655966,70.2375
2.8753,0.007261,-0.009355,-0.037347,0.000945,-0.003139,0.014189,-0.011431,-0.519183,-0.037502,1.391647,-262.137523,1.653933,70.232759
2.8952,0.007349,-0.009132,-0.036518,0.00093,-0.003117,0.014194,-0.011748,-0.519021,-0.037338,1.391647,-262.137523,1.653933,70.232759
2.9152,0.007792,-0.009105,-0.037619,0.000918,-0.0031,0.014196,-0.011748,-0.519021,-0.037338,1.391647,-262.137523,1.653933,70.232759
2.9352,0.007566,-0.009282,-0.036627,0.000908,-0.003085,0.014198,-0.011355,-0.518877,-0.037025,1.401529,-262.135283,1.650653,70.22803
2.9554,0.007382,-0.009177,-0.039326,0.000891,-0.003063,0.014202,-0.011251,-0.518918,-0.036796,1.401529,-262.135283,1.650653,70.22803
2.9754,0.007322,-0.009268,-0.036112,0.000877,-0.003044,0.014205,-0.012644,-0.518882,-0.038873,1.409618,-262.13301,1.647891,70.223294
2.9956,0.006977,-0.009373,-0.034801,0.000864,-0.003027,0.014207,-0.011211,-0.518936,-0.036307,1.409618,-262.13301,1.647891,70.223294
3.0152,0.006864,-0.009707,-0.035222,0.000853,-0.003012,0.014207,-0.011211,-0.518936,-0.036307,1.409618,-262.13301,1.647891,70.223294
3.0354,0.006861,-0.009599,-0.034494,0.000844,-0.003001,0.014207,-0.011064,-0.519519,-0.03463,1.416273,-262.130744,1.645508,70.218622
3.0556,0.006831,-0.009854,-0.036128,0.000813,-0.00296,0.014218,-0.010924,-0.519444,-0.034507,1.416273,-262.130744,1.645508,70.218622
3.0751,0.006077,-0.00949,-0.036286,0.000786,-0.002927,0.014224,-0.011567,-0.519618,-0.035676,1.423228,-262.128451,1.642928,70.213943
3.0953,0.00644,-0.009762,-0.035384,0.000807,-0.002955,0.014209,-0.012346,-0.519201,-0.036208,1.423228,-262.128451,1.642928,70.213943
3.1153,0.006363,-0.009554,-0.034811,0.000824,-0.002978,0.014198,-0.012346,-0.519201,-0.036208,1.423228,-262.128451,1.642928,70.213943
3.1351,0.006517,-0.009962,-0.031959,0.000838,-0.002998,0.014191,-0.011359,-0.519369,-0.034217,1.435138,-262.126112,1.638398,70.209261
3.1552,0.006189,-0.009687,-0.03383,0.0008,-0.002949,0.014208,-0.01068,-0.519525,-0.033183,1.435138,-262.126112,1.638398,70.209261
3.175,0.006056,-0.010016,-0.033314,0.000769,-0.002908,0.01422,-0.011038,-0.51949,-0.033385,1.42403,-262.123828,1.642522,70.204598
3.1951,0.005984,-0.010322,-0.032479,0.000743,-0.002875,0.014228,-0.010938,-0.519719,-0.033301,1.42403,-262.123828,1.642522,70.204598
3.2154,0.005648,-0.010177,-0.034066,0.000721,-0.002848,0.014232,-0.010938,-0.519719,-0.033301,1.42403,-262.123828,1.642522,70.204598
3.2353,0.005429,-0.01004,-0.032636,0.000703,-0.002825,0.014234,-0.011695,-0.520003,-0.033478,1.438496,-262.121511,1.637013,70.19998
3.2558,0.005695,-0.010264,-0.032609,0.000696,-0.002816,0.01423,-0.01149,-0.519919,-0.033057,1.438496,-262.121511,1.637013,70.19998
3.2758,0.0053,-0.010332,-0.030938,0.000691,-0.002809,0.014227,-0.010913,-0.520083,-0.032159,1.451543,-262.119165,1.631762,70.1954
3.2958,0.004996,-0.010079,-0.031549,0.000654,-0.002765,0.014238,-0.010514,-0.520092,-0.031025,1.451543,-262.119165,1.631762,70.1954
3.3154,0.005512,-0.010058,-0.03198,0.000623,-0.002729,0.014245,-0.010514,-0.520092,-0.031025,1.451543,-262.119165,1.631762,70.1954
3.3353,0.004661,-0.010622,-0.029659,0.000597,-0.0027,0.014248,-0.01077,-0.519916,-0.031384,1.453905,-262.116797,1.630778,70.190793
3.3556,0.005177,-0.01055,-0.031534,0.000578,-0.002678,0.014247,-0.010643,-0.520125,-0.030615,1.453905,-262.116797,1.630778,70.190793
3.3754,0.004403,-0.010627,-0.029176,0.000562,-0.002661,0.014246,-0.010887,-0.520383,-0.031083,1.471678,-262.114399,1.6231,70.186254
3.3958,0.004252,-0.010319,-0.03046,0.000536,-0.002631,0.014249,-0.010511,-0.520412,-0.029325,1.471678,-262.114399,1.6231,70.186254
3.4153,0.004669,-0.010602,-0.029663,0.000514,-0.002607,0.014249,-0.010511,-0.520412,-0.029325,1.471678,-262.114399,1.6231,70.186254
3.4351,0.003816,-0.010893,-0.029552,0.000496,-0.002587,0.014248,-0.010436,-0.52049,-0.029067,1.477993,-262.11196,1.620235,70.18168
3.4553,0.004754,-0.010592,-0.028527,0.000483,-0.002573,0.014246,-0.010779,-0.520579,-0.029203,1.477993,-262.11196,1.620235,70.18168
3.4751,0.003691,-0.010659,-0.029176,0.000472,-0.002561,0.014242,-0.009779,-0.520466,-0.028079,1.489933,-262.109528,1.614666,70.177199
3.4953,0.003871,-0.010699,-0.027451,0.000475,-0.002566,0.014234,-0.011059,-0.520449,-0.029054,1.489933,-262.109528,1.614666,70.177199
3.5154,0.00357,-0.01048,-0.02871,0.000478,-0.002569,0.014227,-0.011059,-0.520449,-0.029054,1.489933,-262.109528,1.614666,70.177199
3.535,0.003052,-0.010834,-0.028549,0.00048,-0.002572,0.014222,-0.011054,-0.520377,-0.028115,1.494063,-262.107054,1.612677,70.17267
3.5554,0.003418,-0.010507,-0.027246,0.000486,-0.002579,0.014216,-0.011242,-0.520495,-0.028228,1.494063,-262.107054,1.612677,70.17267
3.5749,0.002892,-0.010802,-0.027263,0.000491,-0.002584,0.014212,-0.010462,-0.5204,-0.026796,1.492461,-262.104614,1.613401,70.168188
3.5951,0.0029,-0.010935,-0.027347,0.000485,-0.002577,0.014213,-0.01096,-0.520598,-0.027197,1.492461,-262.104614,1.613401,70.168188
3.6152,0.002994,-0.011014,-0.027879,0.000479,-0.002571,0.014214,-0.01096,-0.520598,-0.027197,1.492461,-262.104614,1.613401,70.168188
3.6352,0.002649,-0.011066,-0.027389,0.000475,-0.002566,0.014214,-0.011205,-0.520925,-0.027284,1.490418,-262.102168,1.614357,70.163676
3.6553,0.002845,-0.011128,-0.027356,0.000469,-0.002559,0.014215,-0.011249,-0.520917,-0.027258,1.490418,-262.102168,1.614357,70.163676
3.6756,0.002566,-0.011091,-0.025967,0.000465,-0.002553,0.014216,-0.011092,-0.52102,-0.026903,1.493298,-262.099714,1.612997,70.159174
3.6956,0.002559,-0.01112,-0.026102,0.000445,-0.002532,0.014223,-0.010713,-0.520933,-0.026029,1.493298,-262.099714,1.612997,70.159174
3.7153,0.002291,-0.011446,-0.026317,0.000429,-0.002514,0.014227,-0.010713,-0.520933,-0.026029,1.493298,-262.099714,1.612997,70.159174
3.7351,0.002054,-0.011403,-0.026097,0.000415,-0.002499,0.014229,-0.011112,-0.521376,-0.025722,1.495119,-262.097239,1.612137,70.154647
3.7553,0.001915,-0.011159,-0.025588,0.000405,-0.002488,0.01423,-0.01117,-0.521327,-0.025812,1.495119,-262.097239,1.612137,70.154647
3.7751,0.001832,-0.011516,-0.023395,0.000397,-0.002479,0.01423,-0.011122,-0.521071,-0.02514,1.503818,-262.094773,1.607894,70.150196
3.7954,0.00196,-0.011746,-0.025857,0.000359,-0.00244,0.014242,-0.010185,-0.521354,-0.023521,1.503818,-262.094773,1.607894,70.150196
3.8151,0.001829,-0.011367,-0.024547,0.000328,-0.002409,0.014249,-0.010185,-0.521354,-0.023521,1.503818,-262.094773,1.607894,70.150196
3.8353,0.001318,-0.011569,-0.021594,0.000301,-0.002382,0.014253,-0.010675,-0.521317,-0.023953,1.507013,-262.092284,1.606304,70.145728
3.8552,0.001747,-0.011724,-0.025046,0.000281,-0.002363,0.014253,-0.010271,-0.521384,-0.022918,1.507013,-262.092284,1.606304,70.145728
3.8752,0.001024,-0.011578,-0.021772,0.000264,-0.002347,0.014252,-0.011017,-0.521639,-0.024595,1.523174,-262.089769,1.597967,70.141321
3.8954,0.001095,-0.011714,-0.022145,0.000244,-0.002327,0.014253,-0.010162,-0.521477,-0.022002,1.523174,-262.089769,1.597967,70.141321
3.9154,0.00097,-0.011759,-0.02273,0.000227,-0.002311,0.014252,-0.010162,-0.521477,-0.022002,1.523174,-262.089769,1.597967,70.141321
3.9352,0.000889,-0.011968,-0.02041,0.000212,-0.002298,0.01425,-0.010612,-0.521726,-0.022133,1.529256,-262.087222,1.594704,70.136896
3.9557,0.000869,-0.011497,-0.02343,0.00019,-0.002277,0.014252,-0.010164,-0.521793,-0.021359,1.529256,-262.087222,1.594704,70.136896
3.9754,0.000102,-0.011775,-0.022762,0.000172,-0.00226,0.014252,-0.011074,-0.52143,-0.022974,1.537691,-262.084666,1.590077,70.132508
3.9952,0.00023,-0.011941,-0.02238,0.000201,-0.00229,0.014233,-0.011466,-0.521627,-0.022758,1.537691,-262.084666,1.590077,70.132508
4.0154,0.000107,-0.011724,-0.021487,0.000225,-0.002315,0.014219,-0.011466,-0.521627,-0.022758,1.537691,-262.084666,1.590077,70.132508
4.0353,-0.000257,-0.012282,-0.019755,0.000245,-0.002336,0.01421,-0.010846,-0.5217,-0.020892,1.544118,-262.08209,1.586478,70.128125
4.0554,0.000226,-0.011995,-0.020283,0.00023,-0.002321,0.014216,-0.010635,-0.521909,-0.020358,1.544118,-262.08209,1.586478,70.128125
4.0749,-0.000336,-0.012257,-0.020304,0.000218,-0.002308,0.01422,-0.010112,-0.521964,-0.019831,1.532203,-262.079541,1.593027,70.123702
4.0953,-0.000494,-0.011778,-0.021741,0.000201,-0.002291,0.014225,-0.010648,-0.522141,-0.02025,1.532203,-262.079541,1.593027,70.123702
4.1153,-0.000339,-0.012417,-0.02024,0.000187,-0.002277,0.014227,-0.010648,-0.522141,-0.02025,1.532203,-262.079541,1.593027,70.123702
4.1352,-0.000863,-0.012139,-0.020145,0.000175,-0.002265,0.014229,-0.010654,-0.522408,-0.019651,1.536599,-262.077003,1.590639,70.119328
4.1555,-0.000626,-0.012013,-0.018572,0.000168,-0.002258,0.014228,-0.010851,-0.522266,-0.019785,1.536599,-262.077003,1.590639,70.119328
4.1753,-0.00111,-0.012376,-0.018562,0.000162,-0.002252,0.014227,-0.010093,-0.521997,-0.018119,1.543547,-262.074434,1.586781,70.114949
4.1953,-0.000706,-0.012664,-0.019254,0.000148,-0.002239,0.014228,-0.010535,-0.522267,-0.018503,1.543547,-262.074434,1.586781,70.114949
4.2153,-0.001355,-0.012479,-0.018398,0.000135,-0.002229,0.014228,-0.010535,-0.522267,-0.018503,1.543547,-262.074434,1.586781,70.114949
4.2351,-0.001357,-0.012486,-0.017249,0.000125,-0.00222,0.014227,-0.010732,-0.522487,-0.017804,1.545639,-262.071863,1.585599,70.11058
4.2552,-0.001352,-0.011961,-0.018629,0.00011,-0.002206,0.014226,-0.010496,-0.522467,-0.01751,1.545639,-262.071863,1.585599,70.11058
4.2749,-0.00203,-0.012596,-0.015885,9.7e-05,-0.002195,0.014225,-0.01085,-0.521944,-0.018174,1.551471,-262.069274,1.582258,70.106215
4.2952,-0.001909,-0.01246,-0.017031,7.7e-05,-0.002179,0.014218,-0.010194,-0.522484,-0.016062,1.551471,-262.069274,1.582258,70.106215
4.3151,-0.001951,-0.012165,-0.017466,6e-05,-0.002165,0.014211,-0.010194,-0.522484,-0.016062,1.551471,-262.069274,1.582258,70.106215
4.3352,-0.002154,-0.012319,-0.016613,4.6e-05,-0.002153,0.014205,-0.010855,-0.522179,-0.01687,1.555836,-262.066681,1.579722,70.101868
4.3555,-0.001835,-0.012579,-0.017792,5.9e-05,-0.002167,0.014194,-0.010763,-0.522218,-0.016698,1.555836,-262.066681,1.579722,70.101868
4.375,-0.00258,-0.012869,-0.016514,7e-05,-0.002178,0.014186,-0.010908,-0.522567,-0.017339,1.563814,-262.064071,1.575002,70.097536
4.3953,-0.002537,-0.013035,-0.01579,7.1e-05,-0.002179,0.014184,-0.010993,-0.522782,-0.016564,1.563814,-262.064071,1.575002,70.097536
4.4151,-0.002471,-0.012601,-0.015966,7.1e-05,-0.002179,0.014182,-0.010993,-0.522782,-0.016564,1.563814,-262.064071,1.575002,70.097536
4.4353,-0.002964,-0.013132,-0.015073,7.2e-05,-0.002178,0.01418,-0.010612,-0.522627,-0.015374,1.559946,-262.061481,1.577287,70.093206
4.4555,-0.002736,-0.012631,-0.014384,6.1e-05,-0.00217,0.014167,-0.010628,-0.52282,-0.015183,1.559946,-262.061481,1.577287,70.093206
4.4752,-0.003217,-0.013148,-0.014268,5.2e-05,-0.002163,0.014155,-0.01007,-0.522647,-0.013933,1.559704,-262.058888,1.57743,70.088871
4.4955,-0.003227,-0.012821,-0.015737,3.4e-05,-0.002149,0.014127,-0.010455,-0.523059,-0.014215,1.559704,-262.058888,1.57743,70.088871
4.5153,-0.003538,-0.012854,-0.014695,1.8e-05,-0.002137,0.014103,-0.010455,-0.523059,-0.014215,1.559704,-262.058888,1.57743,70.088871
4.535,-0.00387,-0.012555,-0.013379,5e-06,-0.002127,0.014084,-0.011032,-0.52289,-0.014103,1.56277,-262.056296,1.57561,70.084549
4.555,-0.003945,-0.013262,-0.013202,1.8e-05,-0.002142,0.014042,-0.010894,-0.522745,-0.01374,1.56277,-262.056296,1.57561,70.084549
4.5753,-0.004052,-0.013532,-0.01316,2.9e-05,-0.002154,0.01401,-0.010678,-0.523285,-0.012753,1.56999,-262.053709,1.571283,70.080262
4.5952,-0.0041,-0.012835,-0.013534,1.6e-05,-0.002143,0.013968,-0.010756,-0.523473,-0.0131,1.56999,-262.053709,1.571283,70.080262
4.6153,-0.003827,-0.012953,-0.011225,4e-06,-0.002133,0.013935,-0.010756,-0.523473,-0.0131,1.56999,-262.053709,1.571283,70.080262
4.6351,-0.0044,-0.012707,-0.012452,-6e-06,-0.002124,0.013909,-0.009551,-0.523011,-0.010638,1.566259,-262.051149,1.573509,70.075979
4.6553,-0.004392,-0.013293,-0.012657,-1.7e-05,-0.002121,0.013775,-0.010036,-0.522883,-0.011303,1.566259,-262.051149,1.573509,70.075979
4.6754,-0.00466,-0.013348,-0.012436,-2.8e-05,-0.002117,0.013673,-0.010847,-0.52332,-0.012213,1.571759,-262.048595,1.570219,70.071724
4.6953,-0.004611,-0.013022,-0.010275,-2e-05,-0.00212,0.013662,-0.010989,-0.523313,-0.012397,1.571759,-262.048595,1.570219,70.071724
4.7151,-0.004808,-0.013272,-0.013209,-1.4e-05,-0.002123,0.013655,-0.010989,-0.523313,-0.012397,1.571759,-262.048595,1.570219,70.071724
4.7357,-0.005182,-0.013445,-0.01189,-9e-06,-0.002124,0.01365,-0.011547,-0.523315,-0.012639,1.575218,-262.046089,1.568163,70.067516
4.755,-0.004785,-0.013604,-0.011127,7e-06,-0.002137,0.013632,-0.011418,-0.523366,-0.012251,1.575218,-262.046089,1.568163,70.067516
4.7752,-0.00538,-0.01369,-0.01037,2.1e-05,-0.002147,0.01362,-0.010461,-0.523639,-0.010698,1.572224,-262.043621,1.569948,70.063359
4.7953,-0.004938,-0.013469,-0.010175,3e-06,-0.002144,0.013469,-0.010651,-0.523663,-0.010377,1.572224,-262.043621,1.569948,70.063359
4.8151,-0.005312,-0.013363,-0.010101,-1.2e-05,-0.002137,0.013357,-0.010651,-0.523663,-0.010377,1.572224,-262.043621,1.569948,70.063359
4.835,-0.005517,-0.013328,-0.009673,-2.7e-05,-0.00213,0.013273,-0.010463,-0.523427,-0.009532,1.567356,-262.041152,1.572825,70.059173
4.855,-0.005492,-0.013513,-0.008478,-3.7e-05,-0.002136,0.013102,-0.010458,-0.523386,-0.009525,1.567356,-262.041152,1.572825,70.059173
4.8748,-0.006325,-0.013624,-0.009166,-4.7e-05,-0.002138,0.012977,-0.009817,-0.523563,-0.008057,1.575252,-262.038765,1.568195,70.055085
4.895,-0.005855,-0.014051,-0.01122,-4.6e-05,-0.002152,0.012811,-0.010899,-0.523603,-0.009051,1.575252,-262.038765,1.568195,70.055085
4.9152,-0.006518,-0.013737,-0.008131,-4.7e-05,-0.00216,0.012691,-0.010899,-0.523603,-0.009051,1.575252,-262.038765,1.568195,70.055085
4.9353,-0.006308,-0.013912,-0.007975,-4.9e-05,-0.002164,0.012606,-0.010667,-0.523809,-0.007589,1.578887,-262.036455,1.566143,70.051068
4.9555,-0.006596,-0.013481,-0.007471,-6.1e-05,-0.002174,0.0123,-0.010549,-0.523855,-0.007683,1.578887,-262.036455,1.566143,70.051068
4.9752,-0.00676,-0.013803,-0.007692,-7.3e-05,-0.002177,0.012082,-0.010408,-0.523535,-0.007069,1.579721,-262.034231,1.565788,70.047104
4.9953,-0.006426,-0.014035,-0.009421,-8e-05,-0.002182,0.011911,-0.010661,-0.523772,-0.007625,1.579721,-262.034231,1.565788,70.047104
5.0152,-0.006601,-0.01404,-0.005461,-8.7e-05,-0.002181,0.01179,-0.010661,-0.523772,-0.007625,1.579721,-262.034231,1.565788,70.047104
5.0352,-0.007162,-0.013988,-0.007504,-9.5e-05,-0.002178,0.011706,-0.00939,-0.524123,-0.004957,1.584837,-262.032158,1.563154,70.043296
5.0556,-0.00676,-0.013886,-0.008887,-0.000111,-0.00218,0.011239,-0.010042,-0.524072,-0.005938,1.584837,-262.032158,1.563154,70.043296
5.0758,-0.007299,-0.014296,-0.007056,-0.00013,-0.002173,0.010912,-0.011295,-0.523935,-0.008515,1.589943,-262.030171,1.560591,70.039569
5.0955,-0.007124,-0.014207,-0.005136,-0.00014,-0.002159,0.010975,-0.010933,-0.524256,-0.007166,1.589943,-262.030171,1.560591,70.039569
5.1155,-0.007316,-0.01438,-0.006482,-0.000149,-0.002148,0.011024,-0.010933,-0.524256,-0.007166,1.589943,-262.030171,1.560591,70.039569
5.1355,-0.007621,-0.014172,-0.007131,-0.000156,-0.002138,0.011064,-0.010628,-0.52446,-0.006027,1.599781,-262.028376,1.556064,70.036037
5.1553,-0.007288,-0.014507,-0.006559,-0.000159,-0.00214,0.010922,-0.010889,-0.524346,-0.006431,1.599781,-262.028376,1.556064,70.036037
5.1753,-0.008034,-0.014067,-0.005738,-0.000163,-0.00214,0.010823,-0.010638,-0.524564,-0.006208,1.604657,-262.026528,1.553207,70.03248
5.1952,-0.007598,-0.014516,-0.004038,-0.000151,-0.002157,0.010568,-0.010934,-0.524105,-0.005761,1.604657,-262.026528,1.553207,70.03248
5.215,-0.007878,-0.014168,-0.006344,-0.000143,-0.002168,0.010389,-0.010934,-0.524105,-0.005761,1.604657,-262.026528,1.553207,70.03248
5.235,-0.007988,-0.01443,-0.005608,-0.000138,-0.002174,0.010265,-0.011121,-0.524247,-0.005893,1.607308,-262.024742,1.55214,70.028985
5.2553,-0.008104,-0.014617,-0.006962,-0.000138,-0.002173,0.010168,-0.011011,-0.524328,-0.005724,1.607308,-262.024742,1.55214,70.028985
5.2757,-0.008091,-0.014618,-0.004823,-0.00014,-0.002172,0.010101,-0.011659,-0.524674,-0.006635,1.604372,-262.023103,1.554504,70.025608
5.2953,-0.008308,-0.0146,-0.003676,-0.000151,-0.002167,0.009831,-0.010651,-0.524621,-0.004969,1.604372,-262.023103,1.554504,70.025608
5.315,-0.008593,-0.014645,-0.005154,-0.000163,-0.00216,0.009644,-0.010651,-0.524621,-0.004969,1.604372,-262.023103,1.554504,70.025608
5.3349,-0.008663,-0.014553,-0.005457,-0.000176,-0.00215,0.009514,-0.011228,-0.524729,-0.004731,1.605786,-262.021501,1.554022,70.022267
5.355,-0.008586,-0.014725,-0.004925,-0.000169,-0.002155,0.009419,-0.011319,-0.524664,-0.004981,1.605786,-262.021501,1.554022,70.022267
5.3755,-0.009028,-0.014607,-0.004361,-0.000165,-0.002157,0.009354,-0.011104,-0.524787,-0.004625,1.618832,-262.020033,1.548689,70.019078
5.3951,-0.008772,-0.014766,-0.004446,-0.000154,-0.002169,0.009103,-0.011241,-0.524619,-0.004368,1.618832,-262.020033,1.548689,70.019078
5.4156,-0.008841,-0.014813,-0.001949,-0.000147,-0.002176,0.008929,-0.011241,-0.524619,-0.004368,1.618832,-262.020033,1.548689,70.019078
5.4352,-0.009005,-0.014617,-0.002434,-0.000144,-0.002178,0.008809,-0.009843,-0.524901,-0.00156,1.617231,-262.018615,1.549803,70.015944
5.4551,-0.009092,-0.014961,-0.003258,-0.000155,-0.002194,0.007613,-0.010008,-0.524796,-0.00187,1.617231,-262.018615,1.549803,70.015944
5.475,-0.009484,-0.015085,-0.003307,-0.000174,-0.002194,0.006792,-0.010758,-0.525028,-0.002978,1.615617,-262.017335,1.551795,70.012924
5.4956,-0.009363,-0.015106,-0.003018,-0.000184,-0.002175,0.00689,-0.011134,-0.525081,-0.003263,1.615617,-262.017335,1.551795,70.012924
5.5154,-0.009602,-0.015108,-0.003804,-0.000194,-0.002159,0.006967,-0.011134,-0.525081,-0.003263,1.615617,-262.017335,1.551795,70.012924
5.5349,-0.009764,-0.015269,-0.001092,-0.000202,-0.002145,0.007028,-0.01155,-0.525194,-0.003528,1.6594,-262.016575,1.54343,70.010466
5.5559,-0.00964,-0.015153,-0.003396,-0.000205,-0.002146,0.006735,-0.01105,-0.525234,-0.002504,1.6594,-262.016575,1.54343,70.010466
5.5752,-0.010002,-0.015283,-0.00053,-0.00021,-0.002141,0.006535,-0.011379,-0.52522,-0.003167,1.66453,-262.015712,1.539445,70.007891
5.5951,-0.010183,-0.015102,-0.002007,-0.000217,-0.002152,0.005469,-0.010378,-0.52528,-0.00077,1.66453,-262.015712,1.539445,70.007891
5.6156,-0.010101,-0.015609,-0.001685,-0.00023,-0.002148,0.004727,-0.010378,-0.52528,-0.00077,1.66453,-262.015712,1.539445,70.007891
5.6353,-0.009432,-0.015655,-0.000312,-0.000246,-0.002137,0.004214,-0.010969,-0.525697,-0.001413,1.684014,-262.014971,1.536513,70.005449
5.6554,-0.010097,-0.015087,-0.002002,-0.000276,-0.00211,0.003959,-0.010406,-0.52569,-0.00093,1.684014,-262.014971,1.536513,70.005449
5.6753,-0.010486,-0.015368,-0.000466,-0.000304,-0.002083,0.003787,-0.011118,-0.525086,-0.002002,1.608931,-262.014971,1.518564,70.005449
5.6956,-0.00995,-0.014942,-0.002878,-0.000305,-0.00208,0.003476,-0.010759,-0.525343,-0.000603,1.608931,-262.014971,1.518564,70.005449
5.7152,-0.009992,-0.015174,-0.000789,-0.000309,-0.002074,0.003261,-0.010759,-0.525343,-0.000603,1.608931,-262.014971,1.518564,70.005449
5.7354,-0.01001,-0.015584,-0.000204,-0.000314,-0.002065,0.003112,-0.010394,-0.525174,-0.000789,1.534044,-262.014971,1.501801,70.005449
5.7557,-0.009959,-0.01536,-0.001251,-0.000336,-0.002043,0.002989,-0.010281,-0.525341,-0.000551,1.534044,-262.014971,1.501801,70.005449
5.7751,-0.009872,-0.015181,-0.001637,-0.000356,-0.002023,0.002902,-0.010597,-0.525359,-0.001251,1.459036,-262.014971,1.491702,70.005449
5.7951,-0.009685,-0.015388,-0.001231,-0.000374,-0.001992,0.003417,-0.010697,-0.525196,-0.001602,1.459036,-262.014971,1.491702,70.005449
5.8155,-0.009976,-0.015285,-0.002149,-0.000386,-0.001973,0.003779,-0.010697,-0.525196,-0.001602,1.459036,-262.014971,1.491702,70.005449
5.835,-0.009941,-0.015522,9.8e-05,-0.000393,-0.001961,0.004033,-0.011072,-0.525284,-0.002149,1.38404,-262.014971,1.477243,70.005449
5.8549,-0.01008,-0.015384,-0.000363,-0.0004,-0.001955,0.004018,-0.010592,-0.525381,-0.001235,1.38404,-262.014971,1.477243,70.005449
5.8749,-0.009789,-0.015227,-0.001603,-0.000406,-0.00195,0.004004,-0.010265,-0.525384,-0.000363,1.309035,-262.014972,1.482098,70.005449
5.8952,-0.010197,-0.015444,-0.001589,-0.000413,-0.001941,0.004126,-0.010576,-0.525241,-0.00149,1.309035,-262.014972,1.482098,70.005449
5.9151,-0.009984,-0.015015,-0.002717,-0.000418,-0.001936,0.004206,-0.010576,-0.525241,-0.00149,1.309035,-262.014972,1.482098,70.005449
5.9353,-0.009898,-0.015383,-0.002547,-0.000421,-0.001932,0.004258,-0.01137,-0.525013,-0.002717,1.23403,-262.014972,1.478608,70.005448
5.9554,-0.01016,-0.015604,-0.001926,-0.000417,-0.001922,0.004807,-0.0113,-0.525163,-0.002648,1.23403,-262.014972,1.478608,70.005448
5.9753,-0.009499,-0.015502,-0.001767,-0.000408,-0.001921,0.005192,-0.011142,-0.525603,-0.001926,1.159037,-262.014972,1.478242,70.005448
5.9954,-0.009796,-0.015415,-0.00094,-0.000419,-0.001918,0.005077,-0.010467,-0.525511,-0.001781,1.159037,-262.014972,1.478242,70.005448
6.0153,-0.010141,-0.015342,-0.000461,-0.000428,-0.001914,0.004989,-0.010467,-0.525511,-0.001781,1.159037,-262.014972,1.478242,70.005448
6.0352,-0.010286,-0.015118,-0.002305,-0.000437,-0.00191,0.004923,-0.010376,-0.525342,-0.000461,1.084021,-262.014972,1.490845,70.005448
6.0558,-0.009869,-0.015105,-0.002179,-0.000418,-0.001934,0.004565,-0.010814,-0.525251,-0.001204,1.084021,-262.014972,1.490845,70.005448
6.0753,-0.009731,-0.015477,-0.00204,-0.000404,-0.001949,0.004311,-0.01098,-0.525104,-0.002179,1.009028,-262.014972,1.482187,70.005448
6.0954,-0.0099,-0.015477,-0.001968,-0.000415,-0.001933,0.004545,-0.01079,-0.525443,-0.002053,1.009028,-262.014972,1.482187,70.005448
6.1155,-0.010097,-0.015505,-0.000254,-0.000423,-0.001923,0.004704,-0.01079,-0.525443,-0.002053,1.009028,-262.014972,1.482187,70.005448
6.1356,-0.009851,-0.015563,-0.002391,-0.000427,-0.001918,0.00481,-0.010227,-0.525505,-0.000254,0.93397,-262.014972,1.482762,70.005448
6.1553,-0.010067,-0.01551,-0.001207,-0.000424,-0.001929,0.004417,-0.010566,-0.525528,-0.001114,0.93397,-262.014972,1.482762,70.005448
6.175,-0.010136,-0.015518,-0.001975,-0.000425,-0.001935,0.004139,-0.010682,-0.52551,-0.001207,0.859039,-262.014972,1.483026,70.005447
6.1953,-0.01029,-0.015166,-0.001307,-0.000422,-0.001932,0.004334,-0.011104,-0.525516,-0.001909,0.859039,-262.014972,1.483026,70.005447
6.2153,-0.010038,-0.014849,0.000209,-0.000419,-0.001931,0.00447,-0.011104,-0.525516,-0.001909,0.859039,-262.014972,1.483026,70.005447
6.2354,-0.010325,-0.015608,-0.002043,-0.000415,-0.001933,0.004564,-0.009932,-0.524849,0.000209,0.783878,-262.014972,1.475941,70.005447
6.2555,-0.010142,-0.015646,-0.00198,-0.000402,-0.001955,0.004014,-0.010526,-0.525162,-0.000724,0.783878,-262.014972,1.475941,70.005447
6.2756,-0.009951,-0.014917,-0.002245,-0.000395,-0.001968,0.003631,-0.011152,-0.525645,-0.00198,0.708855,-262.014972,1.483103,70.005447
6.2954,-0.009939,-0.015177,-0.002057,-0.000394,-0.001957,0.004101,-0.011101,-0.524978,-0.002223,0.708855,-262.014972,1.483103,70.005447
6.3152,-0.009815,-0.015286,-0.002626,-0.000389,-0.001953,0.004434,-0.011101,-0.524978,-0.002223,0.708855,-262.014972,1.483103,70.005447
6.3352,-0.009908,-0.015473,-0.003771,-0.000382,-0.001954,0.004669,-0.011154,-0.525284,-0.002626,0.633902,-262.014972,1.476712,70.005447
6.3551,-0.009998,-0.015073,-0.001773,-0.000387,-0.001938,0.005164,-0.011431,-0.52536,-0.003095,0.633902,-262.014972,1.476712,70.005447
6.3753,-0.009819,-0.015391,-0.00127,-0.000387,-0.001931,0.005515,-0.010903,-0.525072,-0.001773,0.559021,-262.014972,1.491545,70.005447
6.396,-0.010065,-0.015405,-0.001605,-0.000384,-0.001949,0.004987,-0.010504,-0.525363,-0.001313,0.559021,-262.014972,1.491545,70.005447
6.4157,-0.009773,-0.01536,-0.001189,-0.000386,-0.001958,0.00462,-0.010504,-0.525363,-0.001313,0.559021,-262.014972,1.491545,70.005447
6.4353,-0.009878,-0.015456,-0.000341,-0.000391,-0.001961,0.004365,-0.01038,-0.525359,-0.001189,0.483885,-262.014972,1.497939,70.005447
6.4552,-0.009858,-0.015081,-0.001176,-0.000399,-0.001963,0.003937,-0.010246,-0.525399,-0.000842,0.483885,-262.014972,1.497939,70.005447
6.4753,-0.010588,-0.015197,-0.000126,-0.000409,-0.00196,0.003641,-0.010458,-0.52508,-0.001176,0.408864,-262.014972,1.486585,70.005446
6.4953,-0.010105,-0.015127,-0.000192,-0.000393,-0.001982,0.003075,-0.010634,-0.525186,-0.000222,0.408864,-262.014972,1.486585,70.005446
6.5151,-0.010145,-0.015395,-0.001996,-0.000383,-0.001994,0.002684,-0.010634,-0.525186,-0.000222,0.408864,-262.014972,1.486585,70.005446
6.5351,-0.009872,-0.015522,-0.000449,-0.000378,-0.001999,0.002416,-0.011163,-0.525394,-0.001996,0.333858,-262.014972,1.473367,70.005446
6.555,-0.010003,-0.015574,-0.001888,-0.000398,-0.00197,0.002864,-0.010734,-0.525446,-0.001371,0.333858,-262.014972,1.473367,70.005446
6.5752,-0.010197,-0.015004,-0.001245,-0.000413,-0.00195,0.003183,-0.010966,-0.525573,-0.001888,0.408789,-262.014972,1.462509,70.005444
6.5954,-0.009739,-0.015107,-0.002847,-0.000408,-0.00195,0.003367,-0.010844,-0.525052,-0.001299,0.408789,-262.014972,1.462509,70.005444
6.6153,-0.009771,-0.015093,-0.00181,-0.000403,-0.001952,0.003498,-0.010844,-0.525052,-0.001299,0.408789,-262.014972,1.462509,70.005444
6.6354,-0.010005,-0.015313,-0.0013,-0.000398,-0.001955,0.003591,-0.010695,-0.525098,-0.0018,0.333682,-262.014985,1.465252,70.00532
6.6554,-0.010095,-0.015307,-0.001366,-0.000406,-0.001945,0.003808,-0.010684,-0.525186,-0.001595,0.333682,-262.014985,1.465252,70.00532
6.6755,-0.009852,-0.015705,-0.001098,-0.000411,-0.001938,0.003959,-0.010792,-0.525306,-0.001366,0.2588,-262.014985,1.475193,70.00532
6.6953,-0.0101,-0.015341,-0.001614,-0.000426,-0.00193,0.00383,-0.010446,-0.525669,-0.001122,0.2588,-262.014985,1.475193,70.00532
6.7153,-0.009729,-0.015033,-0.002216,-0.000439,-0.001922,0.00374,-0.010446,-0.525669,-0.001122,0.2588,-262.014985,1.475193,70.00532
6.7352,-0.00982,-0.015241,-6.3e-05,-0.000452,-0.001914,0.003676,-0.010859,-0.525031,-0.002216,0.183585,-262.014986,1.476696,70.00532
6.7556,-0.010078,-0.01579,-0.001744,-0.000452,-0.001912,0.003742,-0.01045,-0.525117,-0.001343,0.183585,-262.014986,1.476696,70.00532
6.7755,-0.009986,-0.01562,-0.000686,-0.000453,-0.001912,0.003787,-0.010968,-0.52579,-0.001744,0.108788,-262.014986,1.462653,70.005319
6.7955,-0.00992,-0.015243,-0.001546,-0.000458,-0.001913,0.003525,-0.010397,-0.525636,-0.000788,0.108788,-262.014986,1.462653,70.005319
6.8154,-0.009906,-0.0153,-0.001593,-0.000465,-0.001912,0.003342,-0.010397,-0.525636,-0.000788,0.108788,-262.014986,1.462653,70.005319
6.8351,-0.010073,-0.014768,-0.002447,-0.000472,-0.001908,0.003215,-0.010718,-0.525299,-0.001593,0.033511,-262.014986,1.46403,70.005319
6.8555,-0.00994,-0.015188,-0.001506,-0.000466,-0.001901,0.003697,-0.010967,-0.525079,-0.001946,0.033511,-262.014986,1.46403,70.005319
6.8753,-0.010173,-0.015264,-0.000773,-0.000457,-0.001901,0.004037,-0.010718,-0.52523,-0.001436,-0.041456,-262.015117,1.449504,70.004239
6.8954,-0.010161,-0.015269,-0.001835,-0.000446,-0.001918,0.003708,-0.010578,-0.525263,-0.000817,-0.041456,-262.015117,1.449504,70.004239
6.9153,-0.010322,-0.015021,-0.002099,-0.000438,-0.001929,0.003478,-0.010578,-0.525263,-0.000817,-0.041456,-262.015117,1.449504,70.004239
6.9356,-0.010015,-0.015276,-0.001134,-0.000434,-0.001935,0.003319,-0.011393,-0.52502,-0.002099,-0.116611,-262.015117,1.466428,70.004239
6.9558,-0.01025,-0.015376,0.000122,-0.000427,-0.001933,0.003662,-0.01107,-0.525123,-0.00171,-0.116611,-262.015117,1.466428,70.004239
6.9754,-0.010635,-0.01563,-0.000356,-0.000418,-0.001935,0.003903,-0.0102,-0.52543,0.000214,-0.19111,-262.015272,1.461742,70.002849
6.9955,-0.01014,-0.015504,-0.000183,-0.000408,-0.001954,0.003319,-0.010758,-0.525614,-0.000297,-0.19111,-262.015272,1.461742,70.002849
7.0152,-0.010237,-0.015491,-0.002222,-0.000403,-0.001964,0.002912,-0.010758,-0.525614,-0.000297,-0.19111,-262.015272,1.461742,70.002849
7.0351,-0.01014,-0.015783,-0.001024,-0.000402,-0.001967,0.00263,-0.011371,-0.52549,-0.002222,-0.2661,-262.015272,1.474367,70.002847
7.0556,-0.01027,-0.015658,-0.002214,-0.000417,-0.00194,0.003192,-0.011082,-0.525609,-0.001734,-0.2661,-262.015272,1.474367,70.002847
7.0757,-0.009865,-0.015374,-0.001887,-0.000425,-0.001925,0.003591,-0.011399,-0.525657,-0.002214,-0.191093,-262.015272,1.458784,70.002847
7.0954,-0.010151,-0.015522,-0.001288,-0.000434,-0.001911,0.003956,-0.010879,-0.525399,-0.001916,-0.191093,-262.015272,1.458784,70.002847
7.1153,-0.010145,-0.015749,-0.000328,-0.000438,-0.001904,0.004212,-0.010879,-0.525399,-0.001916,-0.191093,-262.015272,1.458784,70.002847
7.1355,-0.009831,-0.015615,-0.002308,-0.000439,-0.001902,0.004392,-0.010314,-0.525757,-0.000313,-0.266096,-262.015293,1.467863,70.002674
7.1554,-0.010289,-0.0151,-0.001542,-0.000442,-0.001908,0.004128,-0.010598,-0.525699,-0.001127,-0.266096,-262.015293,1.467863,70.002674
7.1751,-0.009972,-0.0154,-0.001252,-0.000446,-0.001911,0.003944,-0.011075,-0.525099,-0.001542,-0.341102,-262.015293,1.475278,70.002674
7.1955,-0.010123,-0.015273,-0.002122,-0.000444,-0.001914,0.00389,-0.010647,-0.525376,-0.001275,-0.341102,-262.015293,1.475278,70.002674
7.2157,-0.010281,-0.015623,-0.001622,-0.000443,-0.001917,0.003852,-0.010647,-0.525376,-0.001275,-0.341102,-262.015293,1.475278,70.002674
7.2354,-0.010065,-0.01579,-0.000625,-0.000442,-0.001919,0.003826,-0.011108,-0.525624,-0.00162,-0.416379,-262.015297,1.467838,70.002647
7.256,-0.010053,-0.015085,-0.001321,-0.000443,-0.001919,0.003777,-0.010814,-0.525692,-0.001215,-0.416379,-262.015297,1.467838,70.002647
7.2749,-0.010019,-0.01548,-0.001734,-0.000444,-0.001919,0.003744,-0.01073,-0.525095,-0.001303,-0.491107,-262.015334,1.46725,70.002387
7.2955,-0.010137,-0.015478,-0.001304,-0.000445,-0.001914,0.00396,-0.01089,-0.525451,-0.0017,-0.491107,-262.015334,1.46725,70.002387
7.3154,-0.010072,-0.015764,-0.000656,-0.000444,-0.001912,0.004111,-0.01089,-0.525451,-0.0017,-0.491107,-262.015334,1.46725,70.002387
7.3355,-0.010263,-0.015519,-6.7e-05,-0.000442,-0.001913,0.004217,-0.010417,-0.525807,-0.000575,-0.566534,-262.015455,1.465616,70.001499
7.3556,-0.010648,-0.015534,-0.000924,-0.000441,-0.001927,0.00357,-0.010368,-0.525691,-0.000352,-0.566534,-262.015455,1.465616,70.001499
7.3755,-0.010709,-0.015563,-0.000535,-0.000445,-0.001932,0.003119,-0.01112,-0.525538,-0.000916,-0.641585,-262.015474,1.472589,70.001394
7.3953,-0.010147,-0.015642,-0.000951,-0.000431,-0.001945,0.002921,-0.010994,-0.525561,-0.000567,-0.641585,-262.015474,1.472589,70.001394
7.4154,-0.010282,-0.01593,-0.000965,-0.000422,-0.001953,0.002786,-0.010994,-0.525561,-0.000567,-0.641585,-262.015474,1.472589,70.001394
7.435,-0.010372,-0.015549,-0.001567,-0.000415,-0.001958,0.002694,-0.010774,-0.52593,-0.000965,-0.566575,-262.015474,1.455397,70.001394
7.4554,-0.010438,-0.015478,-0.000849,-0.000427,-0.00194,0.002986,-0.010936,-0.525774,-0.00121,-0.566575,-262.015474,1.455397,70.001394
7.4755,-0.010548,-0.015584,-0.001956,-0.000436,-0.001928,0.003193,-0.010871,-0.525478,-0.000849,-0.492069,-262.015474,1.456174,70.001394
7.4953,-0.010473,-0.015705,-0.001709,-0.000431,-0.001922,0.003644,-0.011484,-0.525574,-0.001856,-0.492069,-262.015474,1.456174,70.001394
7.5159,-0.010562,-0.015724,-0.000465,-0.000423,-0.001923,0.003962,-0.011484,-0.525574,-0.001856,-0.492069,-262.015474,1.456174,70.001394
7.5352,-0.010312,-0.01566,-0.001363,-0.000413,-0.001927,0.004186,-0.0108,-0.525727,-0.00046,-0.416747,-262.015481,1.458866,70.001332
7.5558,-0.010488,-0.015682,0.000644,-0.000408,-0.001941,0.003819,-0.010884,-0.5257,-0.000826,-0.416747,-262.015481,1.458866,70.001332
7.5757,-0.010262,-0.015917,-0.000249,-0.000406,-0.001948,0.003564,-0.01016,-0.525682,0.000645,-0.491771,-262.015482,1.478913,70.001325
7.5952,-0.010459,-0.01567,-0.000822,-0.000418,-0.001948,0.003017,-0.010369,-0.525896,-0.000169,-0.491771,-262.015482,1.478913,70.001325
7.6156,-0.01008,-0.015984,-0.002122,-0.000431,-0.001943,0.002636,-0.010369,-0.525896,-0.000169,-0.491771,-262.015482,1.478913,70.001325
7.6355,-0.010372,-0.015961,0.000442,-0.000446,-0.001934,0.002372,-0.011179,-0.526064,-0.001974,-0.513303,-262.015668,1.472623,69.999675
7.6554,-0.010594,-0.015668,-0.001324,-0.000464,-0.001913,0.002622,-0.010746,-0.52603,-0.000938,-0.513303,-262.015668,1.472623,69.999675
7.6764,-0.010519,-0.015755,-0.001298,-0.000478,-0.001897,0.0028,-0.011269,-0.525667,-0.001324,-0.438021,-262.015668,1.43985,69.999675
7.696,-0.009982,-0.015445,-0.00063,-0.000473,-0.001895,0.003107,-0.011191,-0.525745,-0.001301,-0.438021,-262.015668,1.43985,69.999675
7.7153,-0.010391,-0.015512,-0.000825,-0.000468,-0.001896,0.003323,-0.011191,-0.525745,-0.001301,-0.438021,-262.015668,1.43985,69.999675
7.7356,-0.010307,-0.015775,-0.000168,-0.000461,-0.001899,0.003475,-0.010812,-0.525512,-0.000825,-0.363322,-262.015668,1.439172,69.999675
7.7551,-0.010505,-0.015673,-0.00101,-0.000456,-0.00191,0.003178,-0.010639,-0.525621,-0.000554,-0.363322,-262.015668,1.439172,69.999675
7.7754,-0.010598,-0.015886,-0.001323,-0.000455,-0.001915,0.002971,-0.011033,-0.525726,-0.000914,-0.438575,-262.015847,1.456724,69.998252
7.7957,-0.010518,-0.015509,-0.000558,-0.000453,-0.001911,0.00322,-0.011254,-0.525875,-0.001285,-0.438575,-262.015847,1.456724,69.998252
7.8155,-0.010858,-0.01577,-0.000752,-0.00045,-0.00191,0.003395,-0.011254,-0.525875,-0.001285,-0.438575,-262.015847,1.456724,69.998252
7.8352,-0.010197,-0.015883,-0.002462,-0.000446,-0.001911,0.003518,-0.011241,-0.52577,-0.000752,-0.363667,-262.015848,1.449483,69.998251
7.8555,-0.010459,-0.015701,-0.000718,-0.000441,-0.001913,0.003688,-0.011328,-0.525815,-0.001453,-0.363667,-262.015848,1.449483,69.998251
7.8759,-0.010279,-0.015889,-0.000291,-0.000435,-0.001916,0.003806,-0.010837,-0.525749,-0.000632,-0.438523,-262.016004,1.461356,69.996988
7.8952,-0.010769,-0.015594,0.000563,-0.00044,-0.001924,0.003274,-0.010464,-0.525879,-0.000317,-0.438523,-262.016004,1.461356,69.996988
7.9154,-0.01046,-0.015666,-0.000138,-0.000447,-0.001924,0.002902,-0.010464,-0.525879,-0.000317,-0.438523,-262.016004,1.461356,69.996988
7.9351,-0.010773,-0.015708,-0.000873,-0.000456,-0.00192,0.002643,-0.010534,-0.525682,-0.000107,-0.513463,-262.016051,1.468635,69.99665
7.9553,-0.010401,-0.016007,-0.001013,-0.000451,-0.001925,0.002515,-0.010814,-0.525694,-0.000416,-0.513463,-262.016051,1.468635,69.99665
7.9753,-0.010692,-0.015904,-9.5e-05,-0.000448,-0.001928,0.002429,-0.010918,-0.526007,-0.001013,-0.438523,-262.016051,1.442443,69.99665
7.9951,-0.010452,-0.016227,-0.00102,-0.00045,-0.001928,0.002237,-0.010757,-0.525913,-0.000179,-0.438523,-262.016051,1.442443,69.99665
8.0151,-0.010591,-0.015711,-0.000874,-0.000453,-0.001925,0.002106,-0.010757,-0.525913,-0.000179,-0.438523,-262.016051,1.442443,69.99665
8.0351,-0.010677,-0.015828,-0.001316,-0.000457,-0.001921,0.002016,-0.011036,-0.525711,-0.000874,-0.363513,-262.016051,1.4401,69.99665
8.0554,-0.010515,-0.01532,-0.000405,-0.000459,-0.00191,0.002443,-0.011163,-0.525758,-0.001053,-0.363513,-262.016051,1.4401,69.99665
8.0757,-0.010358,-0.015736,-0.00065,-0.000458,-0.001905,0.002746,-0.010721,-0.52532,-0.000405,-0.288456,-262.016051,1.426916,69.99665
8.0957,-0.010202,-0.015986,-0.001681,-0.000461,-0.001904,0.002726,-0.010693,-0.52569,-0.000623,-0.288456,-262.016051,1.426916,69.99665
8.1154,-0.010477,-0.015682,-0.000763,-0.000464,-0.001903,0.002712,-0.010693,-0.52569,-0.000623,-0.288456,-262.016051,1.426916,69.99665
8.1354,-0.010768,-0.015685,-0.000328,-0.000466,-0.001901,0.002703,-0.010866,-0.525682,-0.000763,-0.21347,-262.016051,1.44361,69.99665
8.1554,-0.0105,-0.016342,-0.002133,-0.000462,-0.001905,0.002675,-0.010894,-0.525683,-0.000587,-0.21347,-262.016051,1.44361,69.99665
8.1753,-0.010604,-0.01592,-0.000275,-0.000459,-0.001907,0.002653,-0.011588,-0.52634,-0.002133,-0.138519,-262.016051,1.44027,69.996649
8.1955,-0.010276,-0.016019,-0.000791,-0.000463,-0.001906,0.002559,-0.010822,-0.525958,-0.000446,-0.138519,-262.016051,1.44027,69.996649
8.2158,-0.010622,-0.016119,0.000555,-0.000467,-0.001903,0.002492,-0.010822,-0.525958,-0.000446,-0.138519,-262.016051,1.44027,69.996649
8.2352,-0.010738,-0.01559,-0.001198,-0.000471,-0.0019,0.002444,-0.010338,-0.526119,0.000555,-0.06352,-262.016051,1.441399,69.996649
8.2555,-0.010797,-0.01592,-0.000535,-0.000471,-0.001903,0.002245,-0.010751,-0.525903,-0.00016,-0.06352,-262.016051,1.441399,69.996649
8.275,-0.010745,-0.015598,0.000161,-0.000472,-0.001903,0.002105,-0.01107,-0.525919,-0.000535,0.011485,-262.016051,1.432928,69.996649
8.2949,-0.010664,-0.016051,-0.001242,-0.000465,-0.001911,0.001857,-0.010701,-0.525628,9.6e-05,0.011485,-262.016051,1.432928,69.996649
8.3149,-0.011038,-0.016147,-0.000923,-0.00046,-0.001915,0.001683,-0.010701,-0.525628,9.6e-05,0.011485,-262.016051,1.432928,69.996649
8.3348,-0.010317,-0.01569,-0.000751,-0.000458,-0.001916,0.001562,-0.011509,-0.526147,-0.000923,0.086478,-262.016051,1.423848,69.996649
8.3548,-0.010433,-0.015845,-0.002164,-0.000466,-0.001899,0.002017,-0.011177,-0.525959,-0.000852,0.086478,-262.016051,1.423848,69.996649
8.3748,-0.010882,-0.015837,-0.001877,-0.00047,-0.00189,0.002337,-0.011536,-0.525843,-0.002164,0.161479,-262.016052,1.412669,69.996648
8.3949,-0.010485,-0.015829,-0.000385,-0.000467,-0.001878,0.003068,-0.011812,-0.525837,-0.001903,0.161479,-262.016052,1.412669,69.996648
8.4152,-0.010463,-0.016045,-0.00147,-0.000458,-0.001877,0.003586,-0.011812,-0.525837,-0.001903,0.161479,-262.016052,1.412669,69.996648
8.4354,-0.01065,-0.015557,-3.3e-05,-0.000445,-0.001883,0.00395,-0.011212,-0.526045,-0.00147,0.236471,-262.016052,1.430163,69.996646
8.4554,-0.010577,-0.015769,-0.000541,-0.00044,-0.001897,0.003698,-0.01099,-0.525846,-0.000883,0.236471,-262.016052,1.430163,69.996646
8.4753,-0.010405,-0.016142,-0.000801,-0.000436,-0.001906,0.003521,-0.010853,-0.525769,-0.000541,0.161468,-262.016052,1.467557,69.996646
8.495,-0.010533,-0.016229,-0.001497,-0.000445,-0.001906,0.003341,-0.010817,-0.526109,-0.000778,0.161468,-262.016052,1.467557,69.996646
8.515,-0.01066,-0.01579,-0.00164,-0.000453,-0.001903,0.003216,-0.010817,-0.526109,-0.000778,0.161468,-262.016052,1.467557,69.996646
8.535,-0.010754,-0.015686,-0.001458,-0.000461,-0.0019,0.003128,-0.011496,-0.525789,-0.00164,0.086423,-262.016052,1.463621,69.996645
8.5555,-0.010508,-0.01597,0.000848,-0.000452,-0.001901,0.003467,-0.011497,-0.525747,-0.001566,0.086423,-262.016052,1.463621,69.996645
8.5749,-0.010873,-0.016166,-0.00015,-0.000441,-0.001906,0.003705,-0.010088,-0.526019,0.000929,0.01134,-262.016203,1.450417,69.995386
8.5949,-0.010827,-0.015701,0.001166,-0.000435,-0.001924,0.003049,-0.010875,-0.526156,-5.3e-05,0.01134,-262.016203,1.450417,69.995386
8.6152,-0.010445,-0.015834,0.000199,-0.000434,-0.001932,0.002591,-0.010875,-0.526156,-5.3e-05,0.01134,-262.016203,1.450417,69.995386
8.6352,-0.010383,-0.015783,0.000428,-0.000436,-0.001934,0.002273,-0.010344,-0.525834,0.000199,-0.063655,-262.016203,1.465344,69.995385
8.6552,-0.010558,-0.015972,-0.000697,-0.000447,-0.00193,0.001857,-0.010271,-0.525813,0.000292,-0.063655,-262.016203,1.465344,69.995385
8.6753,-0.010886,-0.01613,-0.000781,-0.000459,-0.001922,0.001568,-0.010913,-0.525972,-0.000697,0.01132,-262.016203,1.440188,69.995385
8.6954,-0.010546,-0.015928,-0.001859,-0.000466,-0.001906,0.00197,-0.011252,-0.526116,-0.000773,0.01132,-262.016203,1.440188,69.995385
8.7152,-0.010786,-0.015824,0.000166,-0.000469,-0.001897,0.002254,-0.011252,-0.526116,-0.000773,0.01132,-262.016203,1.440188,69.995385
8.7353,-0.010951,-0.015468,-0.000973,-0.00047,-0.001892,0.002455,-0.010702,-0.525824,0.000166,0.08633,-262.016203,1.412599,69.995385
8.7551,-0.0108,-0.016075,0.000283,-0.000459,-0.001904,0.002326,-0.011007,-0.525678,-0.0003,0.08633,-262.016203,1.412599,69.995385
8.7752,-0.010534,-0.016089,-0.000531,-0.00045,-0.001913,0.002236,-0.010656,-0.526075,0.000283,0.161433,-262.016204,1.433137,69.995383
8.7956,-0.010897,-0.015957,0.000311,-0.000463,-0.001902,0.002273,-0.010792,-0.526087,-0.000461,0.161433,-262.016204,1.433137,69.995383
8.8149,-0.01078,-0.015819,0.000415,-0.000473,-0.001893,0.002299,-0.010792,-0.526087,-0.000461,0.161433,-262.016204,1.433137,69.995383
8.8352,-0.010833,-0.016085,0.000231,-0.000482,-0.001886,0.002317,-0.010568,-0.525818,0.000415,0.236341,-262.016204,1.434279,69.995382
8.8555,-0.010563,-0.01606,-2.6e-05,-0.000478,-0.001896,0.001868,-0.010628,-0.525927,0.00034,0.236341,-262.016204,1.434279,69.995382
8.8752,-0.010583,-0.016143,-0.000444,-0.000476,-0.0019,0.001554,-0.010577,-0.52606,-2.5e-05,0.311227,-262.016206,1.425748,69.995372
8.895,-0.01091,-0.015971,-0.000468,-0.00049,-0.001883,0.001766,-0.010789,-0.526136,-0.000407,0.311227,-262.016206,1.425748,69.995372
8.9152,-0.010487,-0.015898,0.000499,-0.000501,-0.001871,0.001916,-0.010789,-0.526136,-0.000407,0.311227,-262.016206,1.425748,69.995372
8.935,-0.010531,-0.015811,-0.001402,-0.000509,-0.001863,0.002022,-0.010232,-0.525898,0.000499,0.386324,-262.016206,1.405184,69.995372
8.9551,-0.010292,-0.015937,-0.000134,-0.000512,-0.001862,0.002019,-0.010645,-0.525862,-0.000275,0.386324,-262.016206,1.405184,69.995372
8.9754,-0.010279,-0.015935,-0.000577,-0.000514,-0.001861,0.002017,-0.010361,-0.525938,-0.000133,0.461336,-262.016211,1.407832,69.995353
8.995,-0.01077,-0.015863,0.000359,-0.000525,-0.00185,0.002167,-0.010554,-0.525935,-0.000536,0.461336,-262.016211,1.407832,69.995353
9.0149,-0.010634,-0.01572,-0.00195,-0.000533,-0.001843,0.002272,-0.010554,-0.525935,-0.000536,0.461336,-262.016211,1.407832,69.995353
9.0353,-0.010892,-0.015841,-0.000598,-0.000539,-0.001838,0.002344,-0.01163,-0.525722,-0.001946,0.536236,-262.016228,1.406026,69.995289
9.0554,-0.010951,-0.016203,0.001195,-0.000526,-0.00184,0.002843,-0.011455,-0.525771,-0.0014,0.536236,-262.016228,1.406026,69.995289
9.0753,-0.01072,-0.015836,-0.001597,-0.000511,-0.001848,0.003194,-0.010356,-0.526251,0.001258,0.611225,-262.016451,1.407361,69.994194
9.0953,-0.010877,-0.016078,-0.000118,-0.000497,-0.001858,0.003407,-0.011427,-0.525876,-0.001334,0.611225,-262.016451,1.407361,69.994194
9.1149,-0.010759,-0.016096,-0.000123,-0.000482,-0.001869,0.003555,-0.011427,-0.525876,-0.001334,0.611225,-262.016451,1.407361,69.994194
9.1352,-0.010842,-0.015892,-0.001409,-0.000469,-0.001881,0.003658,-0.010821,-0.526096,-0.000123,0.536205,-262.016451,1.437164,69.994194
9.1553,-0.010889,-0.016147,9.1e-05,-0.000458,-0.001897,0.003363,-0.011126,-0.526011,-0.000653,0.536205,-262.016451,1.437164,69.994194
9.1755,-0.010266,-0.01617,-0.000112,-0.00045,-0.001908,0.003157,-0.010843,-0.526147,9.1e-05,0.461053,-262.016451,1.457314,69.994194
9.1952,-0.011044,-0.016344,-0.000913,-0.000464,-0.001906,0.0027,-0.01037,-0.526168,-9.4e-05,0.461053,-262.016451,1.457314,69.994194
9.2153,-0.010309,-0.016013,-0.001332,-0.000479,-0.001899,0.002381,-0.01037,-0.526168,-9.4e-05,0.461053,-262.016451,1.457314,69.994194
9.2354,-0.011005,-0.015904,-0.000275,-0.000495,-0.00189,0.002159,-0.010989,-0.526014,-0.001331,0.386119,-262.016453,1.453914,69.994172
9.2553,-0.011049,-0.015974,0.000506,-0.000497,-0.001881,0.002449,-0.011054,-0.525968,-0.000892,0.386119,-262.016453,1.453914,69.994172
9.2752,-0.010123,-0.015786,-0.00011,-0.000496,-0.001877,0.002654,-0.010792,-0.525975,0.000508,0.461342,-262.016461,1.417746,69.99414
9.2951,-0.010968,-0.015903,-0.001978,-0.000503,-0.001878,0.002329,-0.010231,-0.525802,-5.7e-05,0.461342,-262.016461,1.417746,69.99414
9.3152,-0.010595,-0.015745,-0.000222,-0.000512,-0.001874,0.002103,-0.010231,-0.525802,-5.7e-05,0.461342,-262.016461,1.417746,69.99414
9.3351,-0.010715,-0.016275,-0.000385,-0.000521,-0.001869,0.001945,-0.010729,-0.525823,-0.000111,0.476661,-262.016682,1.429905,69.992738
9.3555,-0.010874,-0.016201,-0.000276,-0.000518,-0.001869,0.001919,-0.010804,-0.526013,-0.000208,0.476661,-262.016682,1.429905,69.992738
9.3753,-0.010665,-0.016137,0.000745,-0.000517,-0.001869,0.001901,-0.011015,-0.526203,-0.000273,0.551528,-262.016696,1.402109,69.992689
9.3953,-0.010779,-0.015849,-0.001681,-0.000519,-0.001873,0.001402,-0.010347,-0.526143,0.000658,0.551528,-262.016696,1.402109,69.992689
9.4153,-0.010913,-0.016214,-0.001008,-0.000524,-0.00187,0.001053,-0.010347,-0.526143,0.000658,0.551528,-262.016696,1.402109,69.992689
9.4352,-0.010666,-0.016053,-0.000839,-0.00053,-0.001864,0.00081,-0.011429,-0.52622,-0.001001,0.626658,-262.016725,1.401816,69.992586
9.4553,-0.010902,-0.016012,0.00159,-0.000536,-0.001842,0.00153,-0.011293,-0.526153,-0.000934,0.626658,-262.016725,1.401816,69.992586
9.4748,-0.010921,-0.015924,0.000433,-0.000536,-0.001833,0.002039,-0.010091,-0.526011,0.00159,0.701632,-262.016727,1.349643,69.992582
9.495,-0.010447,-0.016346,-0.000628,-0.000523,-0.001851,0.001567,-0.010645,-0.525931,0.000538,0.701632,-262.016727,1.349643,69.992582
9.515,-0.010572,-0.015946,-0.000295,-0.000514,-0.001862,0.001235,-0.010645,-0.525931,0.000538,0.701632,-262.016727,1.349643,69.992582
9.535,-0.010677,-0.016221,-0.000125,-0.000508,-0.001867,0.001003,-0.01074,-0.526002,-0.000232,0.77654,-262.016961,1.398451,69.991664
9.5555,-0.010591,-0.016151,0.000192,-0.00052,-0.001852,0.001256,-0.010742,-0.526098,-0.000181,0.77654,-262.016961,1.398451,69.991664
9.5753,-0.010815,-0.016386,0.001162,-0.000528,-0.001842,0.001434,-0.010494,-0.526154,0.000195,0.851549,-262.016995,1.368621,69.9916
9.5951,-0.011198,-0.016162,0.000158,-0.000535,-0.001845,0.000869,-0.010247,-0.526365,0.001075,0.851549,-262.016995,1.368621,69.9916
9.6152,-0.011376,-0.016061,0.000229,-0.000544,-0.00184,0.000471,-0.010247,-0.526365,0.001075,0.851549,-262.016995,1.368621,69.9916
9.6351,-0.011279,-0.016533,0.00052,-0.000554,-0.001832,0.000193,-0.01127,-0.526095,0.000258,0.926532,-262.017197,1.379094,69.991092
9.6553,-0.011173,-0.01619,2.5e-05,-0.000546,-0.001832,0.000376,-0.011167,-0.526277,0.000368,0.926532,-262.017197,1.379094,69.991092
9.6751,-0.010897,-0.016437,0.001504,-0.000538,-0.001833,0.000504,-0.011164,-0.526199,2.7e-05,1.001664,-262.017304,1.303962,69.990972
9.6953,-0.011036,-0.016068,2.2e-05,-0.000548,-0.00183,7e-05,-0.010218,-0.526417,0.001378,1.001664,-262.017304,1.303962,69.990972
9.715,-0.01111,-0.016061,0.000266,-0.000559,-0.001822,-0.000235,-0.010218,-0.526417,0.001378,1.001664,-262.017304,1.303962,69.990972
9.7355,-0.010599,-0.016531,0.000328,-0.000571,-0.001811,-0.000447,-0.010985,-0.526092,0.000276,1.076688,-262.017578,1.324532,69.990598
9.7553,-0.010815,-0.016693,-0.000462,-0.00058,-0.001793,-1.8e-05,-0.010759,-0.526276,0.000299,1.076688,-262.017578,1.324532,69.990598
9.7752,-0.010946,-0.016353,-6.1e-05,-0.000586,-0.001783,0.000283,-0.011058,-0.526713,-0.000466,1.151697,-262.017888,1.249522,69.990362
9.7954,-0.01099,-0.016234,-0.000956,-0.000591,-0.001772,0.000719,-0.010985,-0.526387,-9.8e-05,1.151697,-262.017888,1.249522,69.990362
9.8151,-0.011442,-0.016363,-0.000665,-0.000592,-0.001768,0.001023,-0.010985,-0.526387,-9.8e-05,1.151697,-262.017888,1.249522,69.990362
9.8355,-0.010967,-0.016419,7.9e-05,-0.00059,-0.001769,0.001235,-0.011804,-0.526431,-0.000654,1.221895,-262.018513,1.279749,69.989618
9.8555,-0.01087,-0.016459,-0.000785,-0.000579,-0.001777,0.001522,-0.011445,-0.526434,-0.000351,1.221895,-262.018513,1.279749,69.989618
9.8763,-0.011255,-0.016413,0.000399,-0.000566,-0.001787,0.001722,-0.01128,-0.526491,-0.000764,1.146769,-262.018779,1.340965,69.989032
9.8956,-0.011191,-0.016082,-0.001079,-0.000553,-0.001804,0.001507,-0.011078,-0.526424,0.000266,1.146769,-262.018779,1.340965,69.989032
9.9154,-0.011234,-0.016209,0.00027,-0.000544,-0.001815,0.001355,-0.011078,-0.526424,0.000266,1.146769,-262.018779,1.340965,69.989032
9.9353,-0.010988,-0.016573,-0.00034,-0.000536,-0.001823,0.001248,-0.011105,-0.52624,0.000298,1.07178,-262.018932,1.374036,69.988554
9.9552,-0.010977,-0.016465,0.002109,-0.000533,-0.001826,0.001301,-0.011129,-0.526379,4.2e-05,1.07178,-262.018932,1.374036,69.988554
9.9755,-0.011146,-0.016648,0.000976,-0.00053,-0.001829,0.001338,-0.009918,-0.526521,0.002148,1.102832,-262.0194,1.366225,69.987515
9.9956,-0.011014,-0.016835,-0.000866,-0.000532,-0.001835,0.000795,-0.01058,-0.526638,0.00109,1.102832,-262.0194,1.366225,69.987515
10.0151,-0.010861,-0.016568,-0.000634,-0.000538,-0.001835,0.000413,-0.01058,-0.526638,0.00109,1.102832,-262.0194,1.366225,69.987515
10.035,-0.011207,-0.016569,1.3e-05,-0.000545,-0.00183,0.000146,-0.011206,-0.526645,-0.000579,1.088604,-262.019855,1.373245,69.98644
10.0551,-0.011244,-0.016869,0.001378,-0.000558,-0.001806,0.000751,-0.011207,-0.526622,-0.000332,1.088604,-262.019855,1.373245,69.98644
10.0749,-0.011093,-0.016546,0.000656,-0.000565,-0.001794,0.001175,-0.010552,-0.5269,0.001382,1.163609,-262.020249,1.29824,69.986009
10.0949,-0.011043,-0.016699,-0.00092,-0.000564,-0.001801,0.000875,-0.01074,-0.52658,0.000722,1.163609,-262.020249,1.29824,69.986009
10.1153,-0.011025,-0.016656,0.00033,-0.000565,-0.001803,0.000664,-0.01074,-0.52658,0.000722,1.163609,-262.020249,1.29824,69.986009
10.1353,-0.011075,-0.016748,0.000751,-0.000567,-0.001802,0.000516,-0.010878,-0.526722,0.000373,1.088612,-262.020674,1.34949,69.985109
10.1557,-0.01121,-0.016582,-0.000569,-0.000574,-0.001795,0.000519,-0.010805,-0.52674,0.000531,1.088612,-262.020674,1.34949,69.985109
10.1753,-0.011419,-0.017021,5.9e-05,-0.000581,-0.001789,0.000521,-0.011515,-0.526626,-0.000556,1.163604,-262.02117,1.309344,69.984425
10.1952,-0.011298,-0.017176,-0.001176,-0.000584,-0.001782,0.000819,-0.011401,-0.526989,6e-06,1.163604,-262.02117,1.309344,69.984425
10.2151,-0.011279,-0.016878,0.001782,-0.000585,-0.00178,0.001028,-0.011401,-0.526989,6e-06,1.163604,-262.02117,1.309344,69.984425
10.2356,-0.011534,-0.016891,-0.001893,-0.000584,-0.00178,0.001173,-0.010394,-0.52695,0.001804,1.194618,-262.021792,1.301739,69.983566
10.2553,-0.011217,-0.017227,0.001103,-0.000579,-0.001786,0.001102,-0.011252,-0.526935,0.000305,1.194618,-262.021792,1.301739,69.983566
10.2749,-0.011615,-0.017244,0.001032,-0.000576,-0.001791,0.001051,-0.010668,-0.52727,0.001131,1.119717,-262.02216,1.341075,69.982789
10.2954,-0.011579,-0.017103,0.000296,-0.000574,-0.001799,0.000617,-0.011052,-0.527248,0.001042,1.119717,-262.02216,1.341075,69.982789
10.3152,-0.011211,-0.017183,0.001101,-0.000575,-0.001801,0.000312,-0.011052,-0.527248,0.001042,1.119717,-262.02216,1.341075,69.982789
10.3353,-0.011568,-0.017094,-0.000298,-0.000577,-0.001798,9.9e-05,-0.010674,-0.527257,0.001145,1.106445,-262.022672,1.338494,69.981793
10.3552,-0.011496,-0.016996,0.000927,-0.000587,-0.001786,0.000211,-0.011103,-0.527199,0.000562,1.106445,-262.022672,1.338494,69.981793
10.3756,-0.011686,-0.017441,0.001399,-0.000595,-0.001777,0.00029,-0.011036,-0.527033,0.00093,1.18136,-262.023159,1.269729,69.981275
10.3954,-0.011918,-0.017444,0.000643,-0.000596,-0.00178,-6.7e-05,-0.01098,-0.527399,0.001349,1.18136,-262.023159,1.269729,69.981275
10.4154,-0.011275,-0.017365,-0.001195,-0.0006,-0.001777,-0.000316,-0.01098,-0.527399,0.001349,1.18136,-262.023159,1.269729,69.981275
10.435,-0.011499,-0.017585,0.000538,-0.000605,-0.001773,-0.00049,-0.011909,-0.527437,-0.001183,1.215024,-262.023831,1.275375,69.980472
10.4552,-0.011259,-0.017464,-0.000117,-0.000625,-0.001739,0.000392,-0.011629,-0.527507,-0.00047,1.215024,-262.023831,1.275375,69.980472
10.4755,-0.011605,-0.017143,-0.000266,-0.000637,-0.001722,0.001012,-0.011334,-0.527509,-0.000129,1.286911,-262.024521,1.200284,69.979962
10.4955,-0.011238,-0.017013,-0.000706,-0.000629,-0.001727,0.00132,-0.011707,-0.527175,-0.000255,1.286911,-262.024521,1.200284,69.979962
10.5153,-0.011787,-0.017368,0.001491,-0.000619,-0.001736,0.001533,-0.011707,-0.527175,-0.000255,1.286911,-262.024521,1.200284,69.979962
10.5351,-0.011603,-0.017532,0.001018,-0.00061,-0.001746,0.00168,-0.011034,-0.527391,0.001504,1.211838,-262.02469,1.275356,69.979641
10.5555,-0.01132,-0.017486,0.001037,-0.0006,-0.001768,0.000938,-0.011056,-0.527452,0.001307,1.211838,-262.02469,1.275356,69.979641
10.5754,-0.011818,-0.017122,0.000753,-0.000597,-0.001778,0.000412,-0.010793,-0.527493,0.001043,1.137048,-262.02474,1.350146,69.979492
10.5955,-0.011565,-0.016948,-0.001602,-0.000588,-0.001784,0.000309,-0.011376,-0.527156,0.000779,1.137048,-262.02474,1.350146,69.979492
10.6155,-0.011865,-0.01721,0.000819,-0.000581,-0.001787,0.000237,-0.011376,-0.527156,0.000779,1.137048,-262.02474,1.350146,69.979492
10.6351,-0.011612,-0.017609,0.000631,-0.000576,-0.001789,0.000186,-0.011469,-0.527276,0.000834,1.19826,-262.025316,1.28493,69.978747
10.6551,-0.011567,-0.017617,0.000391,-0.000577,-0.001786,0.000166,-0.0114,-0.527418,0.000753,1.19826,-262.025316,1.28493,69.978747
10.6751,-0.011636,-0.017449,0.001785,-0.000578,-0.001783,0.000153,-0.011385,-0.527673,0.000397,1.23995,-262.026005,1.277019,69.977974
10.6955,-0.011744,-0.017761,-5.1e-05,-0.000588,-0.001782,-0.000304,-0.010787,-0.527471,0.001659,1.23995,-262.026005,1.277019,69.977974
10.7151,-0.011513,-0.017725,0.000231,-0.000598,-0.001776,-0.000625,-0.010787,-0.527471,0.001659,1.23995,-262.026005,1.277019,69.977974
10.7355,-0.011553,-0.017971,0.001214,-0.000609,-0.001768,-0.000849,-0.01142,-0.5278,0.000237,1.241077,-262.026719,1.271849,69.977189
10.7553,-0.011596,-0.01767,0.000175,-0.000632,-0.00174,-0.000476,-0.011225,-0.527878,0.000636,1.241077,-262.026719,1.271849,69.977189
10.7754,-0.011515,-0.017394,0.000135,-0.000649,-0.001722,-0.000216,-0.011518,-0.527706,0.000159,1.31051,-262.027316,1.19685,69.976839
10.7958,-0.011856,-0.017781,0.001008,-0.000654,-0.001711,0.000243,-0.011454,-0.527424,0.000137,1.31051,-262.027316,1.19685,69.976839
10.8151,-0.011418,-0.017613,0.000689,-0.000656,-0.001707,0.000563,-0.011454,-0.527424,0.000137,1.31051,-262.027316,1.19685,69.976839
10.835,-0.011808,-0.017841,-0.000169,-0.000655,-0.001709,0.000785,-0.011091,-0.527678,0.000681,1.235507,-262.028031,1.183526,69.976214
10.8554,-0.011682,-0.01798,0.00254,-0.000656,-0.001711,0.000826,-0.011421,-0.527752,0.000334,1.235507,-262.028031,1.183526,69.976214
10.8756,-0.011454,-0.017638,0.000424,-0.000656,-0.001714,0.000853,-0.010399,-0.52801,0.002553,1.16041,-262.028358,1.258624,69.975678
10.8956,-0.011881,-0.017953,-0.000687,-0.000656,-0.001718,0.000705,-0.011157,-0.527676,0.00063,1.16041,-262.028358,1.258624,69.975678
10.9158,-0.011003,-0.017759,0.000303,-0.000657,-0.00172,0.0006,-0.011157,-0.527676,0.00063,1.16041,-262.028358,1.258624,69.975678
10.9353,-0.011795,-0.018058,0.000393,-0.000659,-0.001721,0.000525,-0.010872,-0.527821,0.000334,1.08552,-262.028827,1.285354,69.974874
10.9558,-0.011675,-0.017939,0.000996,-0.000671,-0.001711,0.000626,-0.011167,-0.527924,0.000361,1.08552,-262.028827,1.285354,69.974874
10.9754,-0.011693,-0.018181,0.000466,-0.00068,-0.001705,0.000695,-0.011187,-0.527992,0.001012,1.131022,-262.029419,1.25866,69.974053
10.9953,-0.012084,-0.018053,0.000695,-0.000682,-0.001706,0.000654,-0.011432,-0.528166,0.000516,1.131022,-262.029419,1.25866,69.974053
11.0153,-0.011714,-0.017952,-0.000845,-0.000683,-0.001706,0.000624,-0.011432,-0.528166,0.000516,1.131022,-262.029419,1.25866,69.974053
11.0353,-0.012038,-0.018296,0.00097,-0.000684,-0.001706,0.000602,-0.012173,-0.52802,-0.000817,1.082279,-262.029977,1.261564,69.973193
11.0554,-0.011476,-0.018055,0.000304,-0.000682,-0.001703,0.000929,-0.01192,-0.52814,-8.8e-05,1.082279,-262.029977,1.261564,69.973193
11.0749,-0.011692,-0.017832,0.000663,-0.000678,-0.001704,0.001158,-0.011343,-0.528109,0.000324,1.098159,-262.030575,1.252143,69.972324
11.0956,-0.011946,-0.018251,0.000265,-0.000671,-0.001716,0.000909,-0.011354,-0.52786,0.000633,1.098159,-262.030575,1.252143,69.972324
11.1153,-0.011922,-0.018263,-6.6e-05,-0.000666,-0.001723,0.000733,-0.011354,-0.52786,0.000633,1.098159,-262.030575,1.252143,69.972324
11.1359,-0.012119,-0.018058,0.000687,-0.000663,-0.001726,0.00061,-0.011976,-0.528318,-3e-05,1.023153,-262.030939,1.296569,69.971568
11.1557,-0.012105,-0.018729,0.000789,-0.00066,-0.001727,0.00073,-0.011894,-0.528218,0.000265,1.023153,-262.030939,1.296569,69.971568
11.1751,-0.012081,-0.018256,-0.000769,-0.000656,-0.001729,0.000814,-0.011721,-0.528776,0.000806,1.098145,-262.031457,1.264991,69.970813
11.1956,-0.011962,-0.017989,-0.000418,-0.000655,-0.00172,0.001378,-0.012405,-0.528306,-0.000624,1.098145,-262.031457,1.264991,69.970813
11.2155,-0.011709,-0.018289,-0.000485,-0.00065,-0.00172,0.001774,-0.012405,-0.528306,-0.000624,1.098145,-262.031457,1.264991,69.970813
11.2359,-0.012138,-0.018424,0.00064,-0.000643,-0.001725,0.002052,-0.011983,-0.528361,-0.000451,1.081176,-262.032009,1.284106,69.969894
11.2553,-0.011492,-0.018461,-0.000555,-0.00064,-0.001735,0.001893,-0.011917,-0.528394,-3e-06,1.081176,-262.032009,1.284106,69.969894
11.2751,-0.011858,-0.018671,0.000552,-0.000638,-0.001741,0.00178,-0.011775,-0.528463,-0.000553,1.006129,-262.03202,1.358053,69.969854
11.2952,-0.012148,-0.018441,0.000197,-0.000643,-0.001745,0.001441,-0.011593,-0.528653,0.000457,1.006129,-262.03202,1.358053,69.969854
11.3156,-0.012095,-0.018513,0.001488,-0.000649,-0.001744,0.001202,-0.011593,-0.528653,0.000457,1.006129,-262.03202,1.358053,69.969854
11.3349,-0.012075,-0.018119,-0.000533,-0.000655,-0.001741,0.001035,-0.011348,-0.528549,0.001524,0.931031,-262.032201,1.34902,69.969279
11.3552,-0.012074,-0.018592,0.000266,-0.000648,-0.001748,0.000784,-0.011756,-0.528378,0.000691,0.931031,-262.032201,1.34902,69.969279
11.3752,-0.012443,-0.018667,-0.000711,-0.000644,-0.001752,0.000608,-0.011956,-0.528637,0.000293,1.005898,-262.032616,1.301408,69.968485
11.3952,-0.012021,-0.018487,0.000977,-0.000643,-0.00174,0.001228,-0.012733,-0.528666,-0.000623,1.005898,-262.032616,1.301408,69.968485
11.4152,-0.011919,-0.018579,0.000643,-0.000639,-0.001737,0.001665,-0.012733,-0.528666,-0.000623,1.005898,-262.032616,1.301408,69.968485
11.4352,-0.012295,-0.018802,-0.000181,-0.000632,-0.001739,0.001971,-0.011613,-0.528634,0.000663,1.081002,-262.033078,1.276524,69.967812
11.4551,-0.01206,-0.018739,0.001278,-0.00063,-0.001749,0.00165,-0.01193,-0.528708,0.000322,1.081002,-262.033078,1.276524,69.967812
11.4752,-0.01221,-0.018563,0.000535,-0.00063,-0.001753,0.001423,-0.01141,-0.528744,0.001283,1.006115,-262.033107,1.351411,69.967708
11.4951,-0.011941,-0.01831,0.001079,-0.000625,-0.001761,0.001107,-0.011892,-0.528579,0.0006,1.006115,-262.033107,1.351411,69.967708
11.5153,-0.012179,-0.018777,0.001227,-0.000623,-0.001765,0.000885,-0.011892,-0.528579,0.0006,1.006115,-262.033107,1.351411,69.967708
11.5351,-0.011897,-0.018528,0.000331,-0.000623,-0.001765,0.00073,-0.011578,-0.528846,0.001284,0.951906,-262.033519,1.335144,69.966684
11.5554,-0.012283,-0.018723,0.000177,-0.000629,-0.001762,0.00046,-0.011641,-0.528726,0.000906,0.951906,-262.033519,1.335144,69.966684
11.5749,-0.012395,-0.018463,-9e-05,-0.000636,-0.001756,0.000272,-0.012205,-0.528755,0.000192,1.026798,-262.033862,1.296207,69.966143
11.5952,-0.012664,-0.018562,0.000397,-0.000635,-0.001748,0.000681,-0.012422,-0.528488,-6.6e-05,1.026798,-262.033862,1.296207,69.966143
11.6153,-0.012412,-0.018943,0.000234,-0.000632,-0.001746,0.000969,-0.012422,-0.528488,-6.6e-05,1.026798,-262.033862,1.296207,69.966143
11.6351,-0.011913,-0.018896,0.001192,-0.000627,-0.001748,0.00117,-0.012312,-0.528988,0.000242,1.102049,-262.034293,1.251108,69.965635
11.655,-0.012387,-0.018985,0.002067,-0.000631,-0.001749,0.000921,-0.011903,-0.528956,0.000631,1.102049,-262.034293,1.251108,69.965635
11.6748,-0.012637,-0.018738,0.000486,-0.000637,-0.001747,0.000745,-0.01135,-0.529031,0.002098,1.027306,-262.0347,1.321572,69.964777
11.6952,-0.012461,-0.019036,0.000511,-0.000628,-0.001754,0.000624,-0.012305,-0.528764,0.000619,1.027306,-262.0347,1.321572,69.964777
11.7151,-0.012584,-0.01883,0.002771,-0.000621,-0.001758,0.000539,-0.012305,-0.528764,0.000619,1.027306,-262.0347,1.321572,69.964777
11.7357,-0.012573,-0.018823,0.002381,-0.000615,-0.001761,0.00048,-0.011194,-0.528891,0.002799,1.102557,-262.035202,1.289346,69.963978
11.7554,-0.012334,-0.01912,-4.8e-05,-0.000622,-0.001771,-0.000454,-0.011263,-0.528871,0.002633,1.102557,-262.035202,1.289346,69.963978
11.7749,-0.012388,-0.018971,-3.8e-05,-0.000632,-0.001769,-0.001119,-0.012376,-0.529172,-3.4e-05,1.173865,-262.035789,1.279724,69.963187
11.795,-0.012588,-0.019013,0.000215,-0.000654,-0.00173,-0.000276,-0.012405,-0.528991,-3.7e-05,1.173865,-262.035789,1.279724,69.963187
11.8152,-0.012247,-0.018915,0.001074,-0.000667,-0.001708,0.000313,-0.012405,-0.528991,-3.7e-05,1.173865,-262.035789,1.279724,69.963187
11.835,-0.012758,-0.019348,0.000708,-0.000673,-0.001697,0.000722,-0.011707,-0.528937,0.001062,1.248951,-262.036086,1.204638,69.96304
11.8553,-0.012264,-0.019337,0.00214,-0.000672,-0.001703,0.000476,-0.012004,-0.529116,0.000908,1.248951,-262.036086,1.204638,69.96304
11.8751,-0.012928,-0.019396,0.000857,-0.000671,-0.001706,0.000301,-0.011184,-0.529367,0.002152,1.173318,-262.03642,1.265602,69.962515
11.8951,-0.012804,-0.018917,0.001518,-0.000665,-0.001712,0.000142,-0.012381,-0.529395,0.000967,1.173318,-262.03642,1.265602,69.962515
11.9155,-0.012473,-0.018931,-0.000376,-0.000661,-0.001715,2.9e-05,-0.012381,-0.529395,0.000967,1.173318,-262.03642,1.265602,69.962515
11.935,-0.012481,-0.018964,-0.00133,-0.000658,-0.001716,-5.1e-05,-0.012692,-0.529001,-0.000364,1.155711,-262.037069,1.229627,69.961733
11.9552,-0.012083,-0.018819,0.002105,-0.000668,-0.001692,0.000854,-0.012886,-0.528994,-0.000757,1.155711,-262.037069,1.229627,69.961733
11.9749,-0.012555,-0.01937,0.000944,-0.000669,-0.001685,0.001491,-0.011029,-0.528869,0.002104,1.210291,-262.037768,1.198239,69.961055
11.9951,-0.012547,-0.019395,0.001218,-0.000665,-0.001701,0.000938,-0.01198,-0.529328,0.001048,1.210291,-262.037768,1.198239,69.961055
12.0152,-0.012789,-0.019204,0.000533,-0.000665,-0.00171,0.000546,-0.01198,-0.529328,0.001048,1.210291,-262.037768,1.198239,69.961055
12.0354,-0.012918,-0.019369,0.001747,-0.000667,-0.001712,0.000269,-0.01252,-0.529212,0.000539,1.135464,-262.037811,1.273066,69.960943
12.0558,-0.012573,-0.019163,0.002325,-0.00066,-0.001719,8.3e-05,-0.012322,-0.529276,0.001025,1.135464,-262.037811,1.273066,69.960943
12.0753,-0.012567,-0.0192,0.001765,-0.000655,-0.001722,-4.8e-05,-0.011408,-0.529215,0.002333,1.163984,-262.038456,1.229312,69.96018
12.0952,-0.012239,-0.019409,0.001632,-0.00066,-0.001724,-0.000515,-0.011645,-0.529203,0.001817,1.163984,-262.038456,1.229312,69.96018
12.1156,-0.012776,-0.019656,-4.6e-05,-0.000668,-0.00172,-0.000842,-0.011645,-0.529203,0.001817,1.163984,-262.038456,1.229312,69.96018
12.1351,-0.012486,-0.019419,0.000445,-0.000676,-0.001714,-0.001072,-0.012826,-0.529725,-4.8e-05,1.212818,-262.039167,1.20143,69.95949
12.1557,-0.012258,-0.019162,0.001197,-0.000695,-0.001684,-0.000358,-0.012597,-0.529608,0.000154,1.212818,-262.039167,1.20143,69.95949
12.176,-0.01254,-0.019594,-0.0003,-0.000706,-0.001667,0.000142,-0.011657,-0.529189,0.001182,1.287746,-262.039638,1.126502,69.95925
12.1953,-0.012995,-0.019354,0.001408,-0.000715,-0.001654,0.000661,-0.012585,-0.529553,-0.000145,1.287746,-262.039638,1.126502,69.95925
12.2163,-0.012471,-0.019506,0.002984,-0.000719,-0.001649,0.001021,-0.012585,-0.529553,-0.000145,1.287746,-262.039638,1.126502,69.95925
12.2358,-0.012805,-0.019544,0.000398,-0.00072,-0.00165,0.001271,-0.010969,-0.529553,0.002987,1.212631,-262.040121,1.188326,69.958722
12.2556,-0.012635,-0.019341,0.002329,-0.000716,-0.001673,0.000367,-0.011609,-0.529555,0.001977,1.212631,-262.040121,1.188326,69.958722
12.2753,-0.012477,-0.019653,0.002,-0.000717,-0.001683,-0.000277,-0.01145,-0.529348,0.002335,1.137532,-262.040187,1.263426,69.958576
12.2956,-0.012887,-0.019687,-3.3e-05,-0.000726,-0.001682,-0.000754,-0.011456,-0.529625,0.002031,1.137532,-262.040187,1.263426,69.958576
12.3155,-0.012706,-0.01922,0.000959,-0.000737,-0.001675,-0.001091,-0.011456,-0.529625,0.002031,1.137532,-262.040187,1.263426,69.958576
12.3355,-0.012517,-0.019814,0.000176,-0.000748,-0.001666,-0.001329,-0.012236,-0.52927,0.000951,1.201487,-262.040743,1.188636,69.958106
12.3554,-0.012813,-0.019594,0.000196,-0.000756,-0.001646,-0.000801,-0.012317,-0.529498,0.000634,1.201487,-262.040743,1.188636,69.958106
12.3753,-0.012941,-0.019458,0.002654,-0.000758,-0.001636,-0.000434,-0.012716,-0.529602,0.00019,1.27662,-262.040891,1.113503,69.958042
12.3954,-0.012357,-0.019573,-0.000351,-0.00075,-0.001652,-0.001031,-0.011685,-0.529469,0.002443,1.27662,-262.040891,1.113503,69.958042
12.4157,-0.012519,-0.019832,1.7e-05,-0.000747,-0.001658,-0.001454,-0.011685,-0.529469,0.002443,1.27662,-262.040891,1.113503,69.958042
12.4354,-0.012478,-0.019873,0.001411,-0.000747,-0.001658,-0.001751,-0.012537,-0.529891,1e-06,1.201633,-262.041594,1.065851,69.957504
12.4551,-0.012633,-0.019664,0.000915,-0.000771,-0.001624,-0.001045,-0.012223,-0.52989,0.000573,1.201633,-262.041594,1.065851,69.957504
12.4751,-0.012432,-0.019781,0.000317,-0.000785,-0.001604,-0.000556,-0.012168,-0.529667,0.000912,1.276608,-262.041664,0.990875,69.95748
12.4952,-0.012657,-0.019516,0.000758,-0.000793,-0.001592,-0.000102,-0.012262,-0.529772,0.000365,1.276608,-262.041664,0.990875,69.95748
12.5151,-0.01301,-0.019917,0.003064,-0.000796,-0.001589,0.000211,-0.012262,-0.529772,0.000365,1.276608,-262.041664,0.990875,69.95748
12.5354,-0.01224,-0.019601,-0.000141,-0.000795,-0.00159,0.000425,-0.011475,-0.529973,0.003043,1.201422,-262.042396,1.015383,69.95696
12.556,-0.013126,-0.019941,0.002106,-0.000785,-0.00161,-0.000113,-0.011832,-0.529823,0.001696,1.201422,-262.042396,1.015383,69.95696
12.5762,-0.012578,-0.019807,0.000317,-0.00078,-0.001621,-0.000495,-0.012063,-0.529962,0.00211,1.126266,-262.042668,1.090539,69.956607
12.5956,-0.012892,-0.019926,5.3e-05,-0.000781,-0.001614,-0.000155,-0.012379,-0.529825,0.00051,1.126266,-262.042668,1.090539,69.956607
12.6155,-0.0129,-0.019613,0.001009,-0.00078,-0.001612,8e-05,-0.012379,-0.529825,0.00051,1.126266,-262.042668,1.090539,69.956607
12.635,-0.012483,-0.02016,0.000583,-0.000777,-0.001614,0.000241,-0.012415,-0.529673,0.000991,1.185723,-262.043418,1.036993,69.956054
12.655,-0.012993,-0.019964,0.000895,-0.000769,-0.001622,0.00018,-0.012324,-0.529881,0.000821,1.185723,-262.043418,1.036993,69.956054
12.6751,-0.012447,-0.020009,0.001379,-0.000762,-0.001629,0.000135,-0.012554,-0.529998,0.0009,1.110695,-262.043866,1.112021,69.955534
12.6952,-0.012859,-0.019677,0.001297,-0.000766,-0.001633,-0.000159,-0.011816,-0.53001,0.001337,1.110695,-262.043866,1.112021,69.955534
12.7152,-0.012409,-0.019878,0.001038,-0.000771,-0.001632,-0.000366,-0.011816,-0.53001,0.001337,1.110695,-262.043866,1.112021,69.955534
12.735,-0.012814,-0.019829,-7.7e-05,-0.000776,-0.00163,-0.000511,-0.011911,-0.529944,0.001044,1.112765,-262.044538,1.151739,69.954804
12.755,-0.013044,-0.019564,0.000826,-0.00078,-0.001621,-0.000218,-0.012298,-0.529905,0.000587,1.112765,-262.044538,1.151739,69.954804
12.7749,-0.01289,-0.02001,0.001053,-0.00078,-0.001618,-1.5e-05,-0.01264,-0.529603,0.000815,1.187669,-262.045157,1.076834,69.954351
12.7953,-0.012529,-0.020398,0.00084,-0.000771,-0.001626,-0.000116,-0.012379,-0.529976,0.001032,1.187669,-262.045157,1.076834,69.954351
12.8151,-0.012777,-0.020361,0.00039,-0.000763,-0.001632,-0.000187,-0.012379,-0.529976,0.001032,1.187669,-262.045157,1.076834,69.954351
12.8353,-0.01276,-0.020033,0.001611,-0.000757,-0.001637,-0.000238,-0.012608,-0.530423,0.00039,1.12345,-262.045813,1.119039,69.953701
12.8553,-0.012653,-0.020208,-0.000198,-0.000762,-0.001632,-0.000194,-0.012338,-0.530271,0.000888,1.12345,-262.045813,1.119039,69.953701
12.8758,-0.012871,-0.020063,0.000738,-0.000765,-0.001629,-0.000164,-0.012777,-0.530258,-0.000205,1.168883,-262.046559,1.100897,69.953057
12.8951,-0.012626,-0.020447,0.000475,-0.000764,-0.001628,-1.8e-05,-0.01252,-0.530083,0.000654,1.168883,-262.046559,1.100897,69.953057
12.9153,-0.012779,-0.020563,0.001231,-0.000762,-0.001629,8.4e-05,-0.01252,-0.530083,0.000654,1.168883,-262.046559,1.100897,69.953057
12.935,-0.012822,-0.020431,-6.3e-05,-0.000759,-0.001631,0.000154,-0.012183,-0.53063,0.001225,1.154394,-262.047312,1.107059,69.952375
12.9551,-0.012951,-0.020303,0.001017,-0.000766,-0.001627,0.000182,-0.012461,-0.530557,0.000698,1.154394,-262.047312,1.107059,69.952375
12.9754,-0.012788,-0.020241,-0.000559,-0.000771,-0.001625,0.000201,-0.012455,-0.530351,0.001022,1.111914,-262.047955,1.156147,69.951669
12.9956,-0.012664,-0.020175,0.001305,-0.000776,-0.001612,0.000852,-0.013024,-0.530253,-0.000431,1.111914,-262.047955,1.156147,69.951669
13.0155,-0.013183,-0.020748,0.001154,-0.000775,-0.00161,0.001307,-0.013024,-0.530253,-0.000431,1.111914,-262.047955,1.156147,69.951669
13.0353,-0.012787,-0.020316,0.002645,-0.000771,-0.001613,0.001625,-0.012626,-0.530815,0.001162,1.0966,-262.048625,1.15539,69.950911
13.0556,-0.013095,-0.020275,0.002429,-0.000763,-0.00164,0.000699,-0.012145,-0.530618,0.001769,1.0966,-262.048625,1.15539,69.950911
13.0752,-0.012776,-0.02034,0.001353,-0.000761,-0.001653,3.9e-05,-0.011858,-0.530276,0.002431,1.021887,-262.048642,1.230103,69.950864
13.0953,-0.013128,-0.020016,0.002135,-0.000763,-0.001654,-0.000282,-0.012065,-0.530334,0.001452,1.021887,-262.048642,1.230103,69.950864
13.1151,-0.012794,-0.020773,0.000905,-0.000767,-0.001651,-0.000508,-0.012065,-0.530334,0.001452,1.021887,-262.048642,1.230103,69.950864
13.1353,-0.013185,-0.02054,0.000181,-0.000771,-0.001647,-0.000666,-0.012356,-0.530823,0.000907,1.096844,-262.049165,1.155147,69.950328
13.1557,-0.012499,-0.020614,0.000211,-0.000782,-0.00163,-0.000337,-0.012658,-0.530714,0.000612,1.096844,-262.049165,1.155147,69.950328
13.1749,-0.012637,-0.020072,0.000714,-0.000788,-0.00162,-0.000109,-0.012406,-0.530645,0.0002,1.17183,-262.049682,1.08016,69.949984
13.1955,-0.013388,-0.020726,0.000698,-0.000791,-0.001616,1.9e-05,-0.012285,-0.530126,0.000667,1.17183,-262.049682,1.08016,69.949984
13.2151,-0.012742,-0.020273,-0.00023,-0.000791,-0.001614,0.000106,-0.012285,-0.530126,0.000667,1.17183,-262.049682,1.08016,69.949984
13.235,-0.012986,-0.020594,0.000799,-0.000791,-0.001614,0.000166,-0.012891,-0.530338,-0.000234,1.133506,-262.050404,1.101131,69.949308
13.2552,-0.012834,-0.020539,0.001536,-0.000793,-0.001609,0.000478,-0.012767,-0.53045,0.000187,1.133506,-262.050404,1.101131,69.949308
13.2751,-0.013176,-0.020291,0.001735,-0.000793,-0.001609,0.000695,-0.012074,-0.530587,0.001541,1.08873,-262.051051,1.138618,69.948593
13.295,-0.01339,-0.020946,0.001885,-0.000778,-0.001633,5.4e-05,-0.012273,-0.53032,0.001717,1.08873,-262.051051,1.138618,69.948593
13.315,-0.013224,-0.020469,0.000859,-0.000769,-0.001645,-0.000399,-0.012273,-0.53032,0.001717,1.08873,-262.051051,1.138618,69.948593
13.3351,-0.012815,-0.020828,-1e-05,-0.000764,-0.001651,-0.000717,-0.012812,-0.530522,0.000881,1.013729,-262.051497,1.199145,69.947909
13.3552,-0.013158,-0.02085,-0.000107,-0.000773,-0.001634,-0.000323,-0.012818,-0.530652,0.000522,1.013729,-262.051497,1.199145,69.947909
13.3749,-0.013144,-0.021036,-0.001343,-0.000777,-0.001625,-4.8e-05,-0.01322,-0.530864,-0.000112,1.088724,-262.051747,1.124151,69.947748
13.3953,-0.013532,-0.020925,0.00011,-0.000793,-0.001592,0.001099,-0.013774,-0.531021,-0.001233,1.088724,-262.051747,1.124151,69.947748
13.4152,-0.012979,-0.020501,0.000354,-0.000796,-0.001579,0.001912,-0.013774,-0.531021,-0.001233,1.088724,-262.051747,1.124151,69.947748
13.435,-0.013084,-0.020599,0.000536,-0.000793,-0.001579,0.002484,-0.01283,-0.530567,0.000352,1.13165,-262.052457,1.117629,69.947059
13.4554,-0.012958,-0.020808,0.000573,-0.000774,-0.001611,0.001958,-0.012826,-0.530588,0.000427,1.13165,-262.052457,1.117629,69.947059
13.475,-0.013628,-0.020934,0.000657,-0.00076,-0.001633,0.001586,-0.012666,-0.530808,0.000573,1.05661,-262.052457,1.192668,69.947059
13.4953,-0.013457,-0.020959,0.001636,-0.000741,-0.001656,0.001196,-0.013243,-0.530924,0.000651,1.05661,-262.052457,1.192668,69.947059
13.5154,-0.012988,-0.020786,0.001272,-0.000728,-0.001671,0.000922,-0.013243,-0.530924,0.000651,1.05661,-262.052457,1.192668,69.947059
13.535,-0.013396,-0.020917,0.000721,-0.000718,-0.001681,0.00073,-0.012343,-0.530795,0.00128,0.981306,-262.052511,1.267972,69.946913
13.5553,-0.013244,-0.020767,0.001844,-0.000719,-0.001685,0.000387,-0.012626,-0.530846,0.001051,0.981306,-262.052511,1.267972,69.946913
13.5754,-0.013441,-0.020879,0.001652,-0.000721,-0.001684,0.000147,-0.012325,-0.530816,0.001866,1.044253,-262.053042,1.245271,69.946079
13.5953,-0.013175,-0.021055,0.000351,-0.000721,-0.00169,-0.000321,-0.012575,-0.530876,0.001673,1.044253,-262.053042,1.245271,69.946079
13.6153,-0.013255,-0.021157,0.00072,-0.000723,-0.001689,-0.000648,-0.012575,-0.530876,0.001673,1.044253,-262.053042,1.245271,69.946079
13.6352,-0.013197,-0.020812,0.001186,-0.000727,-0.001684,-0.000876,-0.012912,-0.531213,0.000725,1.119135,-262.053601,1.184669,69.945467
13.6554,-0.013279,-0.020481,0.000271,-0.000741,-0.001665,-0.000652,-0.012785,-0.531056,0.000913,1.119135,-262.053601,1.184669,69.945467
13.6754,-0.01301,-0.020829,0.001261,-0.000751,-0.001651,-0.000495,-0.013151,-0.530505,0.00026,1.194134,-262.05402,1.10967,69.945223
13.6955,-0.013399,-0.021132,-0.001088,-0.000759,-0.001642,-0.000519,-0.012438,-0.530801,0.00117,1.194134,-262.05402,1.10967,69.945223
13.7155,-0.012921,-0.020987,-0.000395,-0.000767,-0.001635,-0.000535,-0.012438,-0.530801,0.00117,1.194134,-262.05402,1.10967,69.945223
13.7355,-0.013192,-0.021226,7.2e-05,-0.000773,-0.001629,-0.000547,-0.013153,-0.531054,-0.000415,1.203592,-262.054828,1.06258,69.944627
13.7555,-0.013483,-0.020993,0.001503,-0.000792,-0.001601,0.000218,-0.013157,-0.531132,-0.000219,1.203592,-262.054828,1.06258,69.944627
13.7751,-0.013432,-0.021268,0.000883,-0.000802,-0.001588,0.000754,-0.012741,-0.531043,0.001486,1.195543,-262.055658,1.032471,69.944033
13.795,-0.013519,-0.02131,0.001799,-0.000793,-0.001603,0.000478,-0.012962,-0.531251,0.000935,1.195543,-262.055658,1.032471,69.944033
13.8153,-0.013214,-0.021671,0.00046,-0.000787,-0.001613,0.000283,-0.012962,-0.531251,0.000935,1.195543,-262.055658,1.032471,69.944033
13.8354,-0.013484,-0.021087,0.000705,-0.000782,-0.001619,0.000144,-0.012988,-0.531688,0.000466,1.120555,-262.055795,1.107459,69.943816
13.8555,-0.013132,-0.021084,0.001059,-0.000786,-0.001615,0.000249,-0.013045,-0.531444,0.000565,1.120555,-262.055795,1.107459,69.943816
13.8752,-0.013451,-0.020936,0.00184,-0.000789,-0.001613,0.000322,-0.012616,-0.531134,0.001064,1.09862,-262.056467,1.141288,69.943082
13.8952,-0.013531,-0.021065,0.000867,-0.00078,-0.00163,-0.000235,-0.012523,-0.530954,0.001773,1.09862,-262.056467,1.141288,69.943082
13.9151,-0.013794,-0.021323,-0.001064,-0.000776,-0.001638,-0.000628,-0.012523,-0.530954,0.001773,1.09862,-262.056467,1.141288,69.943082
13.935,-0.01343,-0.021801,0.000761,-0.000774,-0.00164,-0.000903,-0.014369,-0.531389,-0.001051,1.062805,-262.057099,1.159752,69.942313
13.9555,-0.013215,-0.021014,-0.000288,-0.000788,-0.00161,1.7e-05,-0.013826,-0.531566,-0.000303,1.062805,-262.057099,1.159752,69.942313
13.975,-0.013523,-0.021193,0.001397,-0.000793,-0.001597,0.000663,-0.01337,-0.53103,-0.000295,1.137818,-262.057394,1.084738,69.942143
13.9953,-0.013791,-0.021635,0.001979,-0.000783,-0.001614,0.000257,-0.012859,-0.53118,0.001251,1.137818,-262.057394,1.084738,69.942143
14.015,-0.013755,-0.021438,0.001001,-0.000776,-0.001624,-3e-05,-0.012859,-0.53118,0.001251,1.137818,-262.057394,1.084738,69.942143
14.035,-0.013406,-0.021266,-3.6e-05,-0.000772,-0.001629,-0.000233,-0.013262,-0.531476,0.001015,1.062867,-262.057717,1.159689,69.941657
14.0554,-0.013429,-0.021318,0.000301,-0.000774,-0.001624,-2.3e-05,-0.013331,-0.531394,0.000586,1.062867,-262.057717,1.159689,69.941657
14.0753,-0.013897,-0.021754,0.00065,-0.000773,-0.001622,0.000122,-0.013296,-0.531359,0.000296,1.137754,-262.058335,1.091628,69.941121
14.095,-0.013403,-0.021601,0.002578,-0.000771,-0.001623,0.000205,-0.013542,-0.531721,0.000618,1.137754,-262.058335,1.091628,69.941121
14.1151,-0.013693,-0.021626,0.000771,-0.000768,-0.001625,0.000261,-0.013542,-0.531721,0.000618,1.137754,-262.058335,1.091628,69.941121
14.1352,-0.013777,-0.021605,0.001502,-0.000765,-0.001627,0.000299,-0.01333,-0.53169,0.000775,1.107271,-262.058988,1.143101,69.940417
14.1552,-0.013332,-0.021845,-2.8e-05,-0.000763,-0.001634,8.2e-05,-0.013203,-0.531663,0.001073,1.107271,-262.058988,1.143101,69.940417
14.1756,-0.01375,-0.021657,0.000541,-0.000761,-0.001637,-7.1e-05,-0.013371,-0.531895,-1.9e-05,1.083596,-262.059629,1.170606,69.939648
14.1955,-0.01348,-0.021804,0.002511,-0.000766,-0.00163,0.000138,-0.013466,-0.53168,0.000492,1.083596,-262.059629,1.170606,69.939648
14.215,-0.013507,-0.021541,0.001063,-0.000768,-0.001626,0.000283,-0.013466,-0.53168,0.000492,1.083596,-262.059629,1.170606,69.939648
14.2349,-0.013854,-0.021506,0.000345,-0.000769,-0.001626,0.000384,-0.012993,-0.531603,0.00106,1.145251,-262.0603,1.1251,69.939005
14.2554,-0.013573,-0.021272,-0.000361,-0.000767,-0.00163,0.000301,-0.013277,-0.53157,0.000767,1.145251,-262.0603,1.1251,69.939005
14.275,-0.013946,-0.021985,0.000437,-0.000765,-0.001633,0.000243,-0.013778,-0.531317,-0.000351,1.070239,-262.060849,1.178657,69.93831
14.295,-0.01322,-0.022123,0.002007,-0.000766,-0.00163,0.000425,-0.013729,-0.531927,0.000366,1.070239,-262.060849,1.178657,69.93831
14.3154,-0.013472,-0.022076,0.001251,-0.000766,-0.00163,0.000552,-0.013729,-0.531927,0.000366,1.070239,-262.060849,1.178657,69.93831
14.3353,-0.01389,-0.021809,0.001051,-0.000765,-0.001631,0.000639,-0.012866,-0.532143,0.001261,1.09503,-262.061509,1.165203,69.937543
14.3553,-0.013936,-0.021951,0.0005,-0.000768,-0.001637,0.000267,-0.01307,-0.532013,0.001176,1.09503,-262.061509,1.165203,69.937543
14.3758,-0.013351,-0.021805,0.001102,-0.000772,-0.001637,7e-06,-0.013702,-0.531996,0.000518,1.019922,-262.062028,1.208927,69.936774
14.3955,-0.013792,-0.022011,0.001392,-0.000782,-0.001631,-0.000117,-0.012849,-0.531819,0.001064,1.019922,-262.062028,1.208927,69.936774
14.4151,-0.013869,-0.021956,0.001435,-0.00079,-0.001624,-0.000204,-0.012849,-0.531819,0.001064,1.019922,-262.062028,1.208927,69.936774
14.435,-0.01373,-0.022238,2.4e-05,-0.000798,-0.001617,-0.000264,-0.013162,-0.532006,0.001436,1.095562,-262.062565,1.133287,69.936235
14.4551,-0.013651,-0.022377,0.000731,-0.0008,-0.001613,-0.000198,-0.013394,-0.532107,0.000855,1.095562,-262.062565,1.133287,69.936235
14.4754,-0.013686,-0.022439,0.001416,-0.000802,-0.00161,-0.000151,-0.0133,-0.532423,0.000724,1.148873,-262.063265,1.06914,69.935639
14.4951,-0.013761,-0.021994,0.000791,-0.00081,-0.001607,-0.000375,-0.012992,-0.532439,0.001361,1.148873,-262.063265,1.06914,69.935639
14.5161,-0.013858,-0.022301,0.000981,-0.000819,-0.001602,-0.000531,-0.012992,-0.532439,0.001361,1.148873,-262.063265,1.06914,69.935639
14.5351,-0.013819,-0.022467,0.001226,-0.000828,-0.001595,-0.00064,-0.013391,-0.532368,0.000975,1.130664,-262.064008,1.084756,69.934961
14.5554,-0.014165,-0.022486,0.001607,-0.000832,-0.001589,-0.000572,-0.013316,-0.532415,0.001074,1.130664,-262.064008,1.084756,69.934961
14.5759,-0.013835,-0.022266,0.0009,-0.000835,-0.001584,-0.000524,-0.013365,-0.532526,0.001592,1.175822,-262.064678,1.009967,69.934506
14.5953,-0.013692,-0.022327,0.001778,-0.000835,-0.00158,-0.000432,-0.013376,-0.532291,0.000961,1.175822,-262.064678,1.009967,69.934506
14.6155,-0.014214,-0.022312,-0.001023,-0.000835,-0.001578,-0.000368,-0.013376,-0.532291,0.000961,1.175822,-262.064678,1.009967,69.934506
14.6354,-0.013866,-0.02248,2.1e-05,-0.000835,-0.001578,-0.000324,-0.01477,-0.532378,-0.001045,1.157713,-262.065499,0.987063,69.933908
14.6554,-0.014398,-0.022216,0.000154,-0.000841,-0.001557,0.000587,-0.014402,-0.532427,-0.000613,1.157713,-262.065499,0.987063,69.933908
14.6752,-0.013629,-0.022192,0.000635,-0.00084,-0.001552,0.001228,-0.014345,-0.532264,0.000144,1.131124,-262.066256,1.026513,69.933285
14.6954,-0.014027,-0.022477,0.00275,-0.000832,-0.001568,0.000995,-0.013397,-0.5322,0.000591,1.131124,-262.066256,1.026513,69.933285
14.7155,-0.013974,-0.022514,0.000485,-0.000827,-0.001579,0.000828,-0.013397,-0.5322,0.000591,1.131124,-262.066256,1.026513,69.933285
14.7354,-0.014046,-0.022537,-0.000296,-0.000823,-0.001587,0.000709,-0.013729,-0.532518,0.000487,1.056035,-262.066284,1.101602,69.933228
14.7551,-0.013882,-0.022358,-0.000724,-0.000822,-0.001588,0.00087,-0.013927,-0.532527,0.000157,1.056035,-262.066284,1.101602,69.933228
14.7753,-0.013765,-0.022515,0.001206,-0.000819,-0.001592,0.000981,-0.01427,-0.532396,-0.000707,0.980677,-262.066707,1.17696,69.932575
14.7951,-0.014164,-0.022341,0.002161,-0.000817,-0.001603,0.000579,-0.013253,-0.532506,0.001033,0.980677,-262.066707,1.17696,69.932575
