mach0312/omni-docking-bench/src/icros_test_setup/results/MPPI_sample/timeseries/trial_104.csv
t,x,y,yaw,vx,vy,wz,bl_x,bl_y,bl_yaw,front_steering_joint,front_wheel_joint,rear_steering_joint,rear_wheel_joint
0.0,-0.053182,0.017842,0.043486,-0.00356,0.004762,0.011835,-0.028753,-0.492574,0.043453,-1.282147,-263.686286,0.605816,68.402398
0.0003,-0.053839,0.018235,0.048243,-0.00293,0.003919,0.009739,-0.029814,-0.49224,0.042057,-1.282147,-263.694256,0.605816,68.399638
0.0006,-0.05359,0.018568,0.046278,-0.002259,0.003022,0.00751,-0.029814,-0.49224,0.042057,-1.282147,-263.70008,0.605816,68.397621
0.0009,-0.053973,0.018489,0.04604,-0.001545,0.002066,0.005135,-0.029814,-0.49224,0.042057,-1.282147,-263.704197,0.605816,68.396195
0.0012,-0.053943,0.018596,0.044898,-0.000794,0.001062,0.002641,-0.029613,-0.491578,0.043661,-1.282147,-263.705315,0.605816,68.395808
0.0015,-0.053679,0.018665,0.046757,-1e-06,2e-06,4e-06,-0.029613,-0.491578,0.043661,-1.282147,-263.705315,0.605816,68.395808
0.0017,-0.053896,0.018233,0.047075,0.0,0.0,0.0,-0.029673,-0.491559,0.044079,-1.282147,-263.705315,0.605816,68.395808
0.002,-0.053659,0.018266,0.046301,0.0,0.0,0.0,-0.029673,-0.491559,0.044079,-1.282147,-263.705315,0.605816,68.395808
0.0163,-0.054174,0.018834,0.04751,0.0,0.0,0.0,-0.030053,-0.491187,0.046301,-1.282147,-263.705315,0.605816,68.395808
0.0364,-0.054256,0.019065,0.046777,0.0,0.0,0.0,-0.029962,-0.490645,0.0474,-1.282147,-263.705315,0.605816,68.395808
0.0564,-0.054282,0.018587,0.045473,0.0,0.0,0.0,-0.029962,-0.490645,0.0474,-1.282147,-263.705315,0.605816,68.395808
0.0766,-0.053933,0.018352,0.047408,0.0,0.0,0.0,-0.031099,-0.490886,0.045473,-1.282147,-263.705315,0.605816,68.395808
0.0965,-0.054598,0.018488,0.04699,0.0,0.0,0.0,-0.030547,-0.490964,0.046273,-1.282147,-263.705315,0.605816,68.395808
0.1162,-0.05408,0.018577,0.0477,0.005588,-0.000148,-0.002683,-0.030642,-0.490949,0.04699,-1.282147,-263.705315,0.605816,68.395808
0.1363,-0.054409,0.01882,0.046801,0.006068,-0.000121,-0.003215,-0.029837,-0.490852,0.047639,-1.282147,-263.705315,0.605816,68.395808
0.1565,-0.054266,0.018956,0.048531,0.006471,-8.7e-05,-0.00362,-0.029837,-0.490852,0.047639,-1.282147,-263.705315,0.605816,68.395808
0.1764,-0.05407,0.018352,0.046416,0.006809,-4.6e-05,-0.003929,-0.029525,-0.490444,0.048531,-1.207162,-263.705315,0.530831,68.395808
0.1966,-0.054209,0.018489,0.048201,0.007093,-5e-06,-0.004371,-0.029883,-0.49071,0.047672,-1.207162,-263.705315,0.530831,68.395808
0.2165,-0.054238,0.018537,0.047085,0.007331,3.8e-05,-0.004718,-0.029636,-0.490919,0.048201,-1.132279,-263.705315,0.455948,68.395808
0.2365,-0.054395,0.018815,0.04745,0.007537,8.9e-05,-0.005151,-0.030182,-0.4909,0.047181,-1.132279,-263.705315,0.455948,68.395808
0.2567,-0.054198,0.01873,0.046262,0.00771,0.00014,-0.005498,-0.030182,-0.4909,0.047181,-1.132279,-263.705315,0.455948,68.395808
0.2773,-0.05392,0.019046,0.046978,0.007856,0.000189,-0.005774,-0.030613,-0.490725,0.046262,-1.057143,-263.705315,0.380811,68.395809
0.2969,-0.054301,0.018621,0.045943,0.007975,0.000233,-0.00612,-0.030356,-0.490591,0.046548,-1.057143,-263.705315,0.380811,68.395809
0.3163,-0.054173,0.019084,0.048053,0.008076,0.000276,-0.006399,-0.030878,-0.490841,0.045943,-0.982204,-263.705313,0.441855,68.395811
0.3364,-0.054069,0.018237,0.045395,0.008151,0.000304,-0.006724,-0.029778,-0.490371,0.047872,-0.982204,-263.705313,0.441855,68.395811
0.3565,-0.054251,0.018608,0.046217,0.008213,0.000332,-0.006988,-0.029778,-0.490371,0.047872,-0.982204,-263.705313,0.441855,68.395811
0.3766,-0.054225,0.018526,0.046665,0.008266,0.000359,-0.007203,-0.030687,-0.490848,0.046215,-0.907163,-263.705295,0.477988,68.395829
0.3965,-0.05428,0.018452,0.046306,0.008325,0.000406,-0.007439,-0.030584,-0.490877,0.046398,-0.907163,-263.705295,0.477988,68.395829
0.4161,-0.054142,0.018572,0.048744,0.008375,0.000448,-0.007633,-0.030665,-0.491002,0.046296,-0.832292,-263.705175,0.522319,68.395953
0.4365,-0.054215,0.018459,0.046469,0.008404,0.000471,-0.007847,-0.029412,-0.490838,0.04853,-0.832292,-263.705175,0.522319,68.395953
0.4566,-0.053772,0.018877,0.046603,0.008429,0.000493,-0.008022,-0.029412,-0.490838,0.04853,-0.832292,-263.705175,0.522319,68.395953
0.4764,-0.054028,0.018451,0.046212,0.008449,0.000514,-0.008164,-0.029978,-0.490571,0.046559,-0.757291,-263.704762,0.547915,68.396386
0.4964,-0.054133,0.018287,0.045816,0.008473,0.000542,-0.008279,-0.030174,-0.490748,0.046413,-0.757291,-263.704762,0.547915,68.396386
0.5165,-0.053758,0.018753,0.045546,0.008493,0.000568,-0.008373,-0.030699,-0.491177,0.045726,-0.682285,-263.703609,0.577072,68.397602
0.5369,-0.053641,0.018355,0.046095,0.008513,0.000597,-0.00845,-0.030549,-0.49076,0.045557,-0.682285,-263.703609,0.577072,68.397602
0.5565,-0.053916,0.01881,0.048594,0.00853,0.000622,-0.008513,-0.030549,-0.49076,0.045557,-0.682285,-263.703609,0.577072,68.397602
0.5765,-0.053463,0.018409,0.046115,0.008545,0.000645,-0.008565,-0.028953,-0.490576,0.048381,-0.607291,-263.701471,0.589689,68.39987
0.5966,-0.053575,0.018228,0.047552,0.008545,0.00065,-0.00861,-0.029338,-0.490767,0.047434,-0.607291,-263.701471,0.589689,68.39987
0.6167,-0.053132,0.018784,0.045755,0.008546,0.000655,-0.008647,-0.029116,-0.491173,0.047324,-0.532274,-263.698338,0.602425,68.40322
0.6366,-0.053015,0.01874,0.046933,0.008549,0.000663,-0.008746,-0.029728,-0.490727,0.04589,-0.532274,-263.698338,0.602425,68.40322
0.6563,-0.053053,0.018684,0.046721,0.008552,0.000671,-0.008827,-0.029728,-0.490727,0.04589,-0.532274,-263.698338,0.602425,68.40322
0.6762,-0.052326,0.018782,0.046928,0.008554,0.000679,-0.008894,-0.028885,-0.490716,0.046367,-0.496183,-263.694533,0.607069,68.407294
0.6965,-0.052573,0.018928,0.046521,0.008544,0.000672,-0.008982,-0.028648,-0.490687,0.046555,-0.496183,-263.694533,0.607069,68.407294
0.7164,-0.05174,0.018765,0.046173,0.008536,0.000666,-0.009053,-0.028585,-0.490486,0.046239,-0.507127,-263.690637,0.620324,68.41148
0.7362,-0.051413,0.018999,0.043301,0.008524,0.000656,-0.009143,-0.028221,-0.490671,0.046165,-0.507127,-263.690637,0.620324,68.41148
0.7564,-0.05189,0.019271,0.044368,0.008513,0.000648,-0.009216,-0.028221,-0.490671,0.046165,-0.507127,-263.690637,0.620324,68.41148
0.7764,-0.050831,0.018973,0.044071,0.008505,0.000642,-0.009276,-0.028916,-0.490184,0.04399,-0.517891,-263.686718,0.627848,68.415687
0.7966,-0.051118,0.019062,0.044076,0.008497,0.000638,-0.009352,-0.02865,-0.49032,0.043979,-0.517891,-263.686718,0.627848,68.415687
0.8166,-0.050419,0.018966,0.043788,0.008491,0.000634,-0.009415,-0.028377,-0.490411,0.043782,-0.53351,-263.682789,0.638152,68.419899
0.8363,-0.050224,0.018553,0.044023,0.008483,0.000629,-0.009494,-0.028106,-0.490532,0.043772,-0.53351,-263.682789,0.638152,68.419899
0.8566,-0.050352,0.018994,0.044925,0.008476,0.000624,-0.009559,-0.028106,-0.490532,0.043772,-0.53351,-263.682789,0.638152,68.419899
0.8762,-0.049715,0.019009,0.044616,0.00847,0.000621,-0.009612,-0.027094,-0.490449,0.044531,-0.542275,-263.678831,0.644737,68.42414
0.8963,-0.049999,0.019221,0.043523,0.00845,0.000602,-0.009684,-0.027003,-0.490458,0.044521,-0.542275,-263.678831,0.644737,68.42414
0.9163,-0.049161,0.018999,0.043963,0.008434,0.000587,-0.009742,-0.027542,-0.490265,0.043218,-0.554844,-263.674856,0.653958,68.428397
0.9363,-0.049162,0.018752,0.041628,0.008418,0.000572,-0.009814,-0.026803,-0.490485,0.043882,-0.554844,-263.674856,0.653958,68.428397
0.9563,-0.048976,0.019318,0.045431,0.008405,0.000559,-0.009874,-0.026803,-0.490485,0.043882,-0.554844,-263.674856,0.653958,68.428397
0.9766,-0.048392,0.019103,0.042985,0.008393,0.000549,-0.009923,-0.025464,-0.490115,0.045024,-0.566423,-263.670868,0.659334,68.432655
0.9964,-0.048808,0.019205,0.041243,0.008368,0.000523,-0.009986,-0.02584,-0.490238,0.044139,-0.566423,-263.670868,0.659334,68.432655
1.0166,-0.047718,0.019119,0.043213,0.008346,0.000501,-0.010038,-0.027516,-0.490333,0.04093,-0.580998,-263.666868,0.667043,68.436911
1.0367,-0.047705,0.019196,0.042755,0.00833,0.000486,-0.010096,-0.02583,-0.490397,0.043002,-0.580998,-263.666868,0.667043,68.436911
1.0566,-0.04792,0.019228,0.042066,0.008317,0.000473,-0.010144,-0.02583,-0.490397,0.043002,-0.580998,-263.666868,0.667043,68.436911
1.0764,-0.04714,0.019425,0.042238,0.008306,0.000463,-0.010184,-0.026127,-0.490286,0.041648,-0.59346,-263.662854,0.67145,68.441161
1.0966,-0.047278,0.019254,0.040557,0.008294,0.000452,-0.010227,-0.025872,-0.490213,0.041842,-0.59346,-263.662854,0.67145,68.441161
1.1166,-0.046684,0.019221,0.040888,0.008284,0.000444,-0.010263,-0.026337,-0.490301,0.040235,-0.606087,-263.658824,0.677541,68.445412
1.1371,-0.046551,0.019605,0.041308,0.008279,0.00044,-0.010298,-0.025867,-0.490347,0.040815,-0.606087,-263.658824,0.677541,68.445412
1.1568,-0.046694,0.019251,0.040623,0.008274,0.000436,-0.010328,-0.025867,-0.490347,0.040815,-0.606087,-263.658824,0.677541,68.445412
1.1765,-0.045841,0.019446,0.042144,0.00827,0.000434,-0.010352,-0.025637,-0.490296,0.040195,-0.612777,-263.654776,0.68092,68.449674
1.1966,-0.045471,0.019465,0.040794,0.008254,0.000418,-0.010378,-0.025068,-0.490212,0.040949,-0.612777,-263.654776,0.68092,68.449674
1.2167,-0.045294,0.01931,0.038529,0.00824,0.000405,-0.010398,-0.02441,-0.490086,0.040466,-0.618791,-263.650719,0.685023,68.453942
1.2371,-0.04514,0.01927,0.040485,0.008238,0.000404,-0.010417,-0.02553,-0.490291,0.038679,-0.618791,-263.650719,0.685023,68.453942
1.2563,-0.044847,0.019408,0.039106,0.008235,0.000403,-0.010433,-0.02553,-0.490291,0.038679,-0.618791,-263.650719,0.685023,68.453942
1.277,-0.044418,0.019408,0.04098,0.008233,0.000402,-0.010446,-0.024565,-0.490172,0.038672,-0.625031,-263.646663,0.686747,68.458195
1.2966,-0.04464,0.019633,0.03899,0.00821,0.000378,-0.010462,-0.024099,-0.490165,0.039567,-0.625031,-263.646663,0.686747,68.458195
1.3162,-0.043696,0.019348,0.03864,0.00819,0.000358,-0.010475,-0.024498,-0.489956,0.038657,-0.627978,-263.642595,0.689025,68.462461
1.3364,-0.043719,0.019619,0.039838,0.008175,0.000343,-0.010488,-0.024027,-0.490242,0.038625,-0.627978,-263.642595,0.689025,68.462461
1.3565,-0.043971,0.019779,0.038225,0.008161,0.000329,-0.010498,-0.024027,-0.490242,0.038625,-0.627978,-263.642595,0.689025,68.462461
1.3767,-0.042495,0.019843,0.038651,0.00815,0.000318,-0.010507,-0.02414,-0.489821,0.037787,-0.63537,-263.638521,0.689741,68.46671
1.3966,-0.043051,0.019483,0.038684,0.008127,0.000294,-0.010517,-0.023544,-0.489799,0.038092,-0.63537,-263.638521,0.689741,68.46671
1.4162,-0.042306,0.019744,0.038352,0.008107,0.000274,-0.010525,-0.023068,-0.490115,0.03835,-0.642423,-263.634452,0.690579,68.470937
1.4364,-0.042628,0.019395,0.038303,0.00808,0.000246,-0.010535,-0.022765,-0.4899,0.038336,-0.642423,-263.634452,0.690579,68.470937
1.4565,-0.042208,0.019585,0.038997,0.008057,0.000223,-0.010542,-0.022765,-0.4899,0.038336,-0.642423,-263.634452,0.690579,68.470937
1.4764,-0.041356,0.019423,0.038406,0.008038,0.000204,-0.010548,-0.021986,-0.490002,0.038556,-0.649349,-263.630384,0.690803,68.47514
1.4962,-0.042012,0.019556,0.037271,0.008011,0.000177,-0.010556,-0.021861,-0.49008,0.038445,-0.649349,-263.630384,0.690803,68.47514
1.5165,-0.041169,0.019374,0.037511,0.007988,0.000153,-0.010561,-0.022753,-0.490074,0.036936,-0.659983,-263.626328,0.690874,68.479298
1.5364,-0.040906,0.01941,0.036401,0.007976,0.000141,-0.010566,-0.022094,-0.490249,0.037442,-0.659983,-263.626328,0.690874,68.479298
1.5562,-0.040928,0.01953,0.036153,0.007966,0.00013,-0.01057,-0.022094,-0.490249,0.037442,-0.659983,-263.626328,0.690874,68.479298
1.5763,-0.04055,0.019251,0.037611,0.007958,0.000121,-0.010573,-0.02216,-0.490118,0.035711,-0.667587,-263.622264,0.690823,68.48344
1.5963,-0.040101,0.019586,0.03735,0.007947,0.000109,-0.010578,-0.021802,-0.490226,0.036432,-0.667587,-263.622264,0.690823,68.48344
1.6162,-0.0396,0.019556,0.035102,0.007937,9.9e-05,-0.010581,-0.020804,-0.490045,0.037013,-0.672446,-263.618196,0.690802,68.487568
1.6366,-0.039326,0.019355,0.035901,0.007925,8.6e-05,-0.010585,-0.021605,-0.490122,0.035261,-0.672446,-263.618196,0.690802,68.487568
1.6562,-0.039151,0.019293,0.036627,0.007915,7.6e-05,-0.010588,-0.021605,-0.490122,0.035261,-0.672446,-263.618196,0.690802,68.487568
1.6763,-0.038964,0.019712,0.036226,0.007906,6.7e-05,-0.01059,-0.020143,-0.490349,0.036184,-0.675764,-263.614121,0.690783,68.491694
1.6965,-0.039207,0.019645,0.036877,0.007875,3.8e-05,-0.010595,-0.02025,-0.490184,0.03615,-0.675764,-263.614121,0.690783,68.491694
1.7163,-0.038167,0.020084,0.036244,0.007849,1.3e-05,-0.010598,-0.020153,-0.489997,0.036541,-0.680613,-263.610055,0.690715,68.495794
1.7366,-0.037993,0.019739,0.035726,0.007806,-2.5e-05,-0.010603,-0.019714,-0.489616,0.036253,-0.680613,-263.610055,0.690715,68.495794
1.7563,-0.038067,0.019567,0.035139,0.00777,-5.8e-05,-0.010606,-0.019714,-0.489616,0.036253,-0.680613,-263.610055,0.690715,68.495794
1.7764,-0.037825,0.019876,0.033904,0.00774,-8.6e-05,-0.010608,-0.019822,-0.490106,0.034696,-0.688606,-263.605992,0.690631,68.499863
1.7963,-0.037761,0.019771,0.033684,0.00773,-9.6e-05,-0.010609,-0.020077,-0.489992,0.03432,-0.688606,-263.605992,0.690631,68.499863
1.8164,-0.037191,0.019914,0.031843,0.007722,-0.000105,-0.010609,-0.020341,-0.489934,0.033348,-0.70345,-263.601946,0.690433,68.503865
1.8362,-0.037037,0.020043,0.034822,0.007729,-0.000101,-0.010608,-0.020888,-0.489837,0.031956,-0.70345,-263.601946,0.690433,68.503865
1.8566,-0.037119,0.019984,0.034419,0.007736,-9.7e-05,-0.010608,-0.020888,-0.489837,0.031956,-0.70345,-263.601946,0.690433,68.503865
1.8766,-0.036394,0.020057,0.034178,0.007741,-9.4e-05,-0.010607,-0.019246,-0.489707,0.033976,-0.706077,-263.597888,0.690071,68.507869
1.8967,-0.036349,0.019827,0.033531,0.007706,-0.000125,-0.010611,-0.019093,-0.489681,0.034008,-0.706077,-263.597888,0.690071,68.507869
1.9166,-0.035709,0.019882,0.032218,0.007677,-0.00015,-0.010613,-0.019006,-0.489881,0.033193,-0.703988,-263.593826,0.689647,68.511882
1.9363,-0.035415,0.01968,0.03221,0.00766,-0.000166,-0.010614,-0.019244,-0.489855,0.032286,-0.703988,-263.593826,0.689647,68.511882
1.9567,-0.035645,0.020009,0.034372,0.007646,-0.000179,-0.010615,-0.019244,-0.489855,0.032286,-0.703988,-263.593826,0.689647,68.511882
1.9766,-0.035205,0.020076,0.032469,0.007635,-0.00019,-0.010615,-0.017798,-0.489685,0.033929,-0.712525,-263.589779,0.689692,68.515852
1.9967,-0.034833,0.01995,0.031343,0.007596,-0.000222,-0.010618,-0.018105,-0.489672,0.033288,-0.712525,-263.589779,0.689692,68.515852
2.0163,-0.034544,0.020115,0.03222,0.007564,-0.000249,-0.010619,-0.018608,-0.489798,0.031005,-0.718318,-263.585719,0.689386,68.519813
2.0368,-0.034496,0.019655,0.033263,0.007539,-0.000271,-0.01062,-0.018145,-0.489636,0.0321,-0.718318,-263.585719,0.689386,68.519813
2.0567,-0.034344,0.019863,0.031272,0.007517,-0.00029,-0.010621,-0.018145,-0.489636,0.0321,-0.718318,-263.585719,0.689386,68.519813
2.0762,-0.033532,0.019674,0.031039,0.007499,-0.000306,-0.010621,-0.018082,-0.489888,0.030829,-0.727443,-263.58168,0.689523,68.523724
2.0962,-0.033942,0.020242,0.029602,0.007486,-0.000318,-0.010621,-0.017892,-0.489966,0.030863,-0.727443,-263.58168,0.689523,68.523724
2.1166,-0.032907,0.01995,0.032575,0.007475,-0.000329,-0.010621,-0.018609,-0.489537,0.029264,-0.736003,-263.577623,0.689333,68.52762
2.1368,-0.033113,0.02009,0.029348,0.007427,-0.000365,-0.010623,-0.016472,-0.48976,0.032292,-0.736003,-263.577623,0.689333,68.52762
2.1565,-0.033275,0.019846,0.031372,0.007387,-0.000396,-0.010625,-0.016472,-0.48976,0.032292,-0.736003,-263.577623,0.689333,68.52762
2.1765,-0.03254,0.019872,0.030048,0.007353,-0.000423,-0.010625,-0.016966,-0.489907,0.03093,-0.739249,-263.573591,0.689096,68.53148
2.1963,-0.032773,0.019741,0.030863,0.007343,-0.000433,-0.010625,-0.017033,-0.489904,0.030517,-0.739249,-263.573591,0.689096,68.53148
2.2167,-0.031822,0.019812,0.029685,0.007335,-0.000442,-0.010624,-0.016802,-0.490023,0.030526,-0.754524,-263.56957,0.689806,68.535279
2.2365,-0.032184,0.020006,0.028,0.007321,-0.000454,-0.010624,-0.016683,-0.489969,0.029743,-0.754524,-263.56957,0.689806,68.535279
2.2565,-0.031582,0.020225,0.030616,0.00731,-0.000464,-0.010623,-0.016683,-0.489969,0.029743,-0.754524,-263.56957,0.689806,68.535279
2.2763,-0.030895,0.020092,0.028121,0.007301,-0.000473,-0.010623,-0.015663,-0.489545,0.030172,-0.757059,-263.565534,0.689447,68.53908
2.2967,-0.031129,0.020092,0.031413,0.007269,-0.000496,-0.010624,-0.015992,-0.489612,0.029283,-0.757059,-263.565534,0.689447,68.53908
2.3164,-0.030631,0.019876,0.029691,0.007242,-0.000517,-0.010624,-0.014877,-0.489664,0.031073,-0.761555,-263.5615,0.689178,68.542863
2.3364,-0.030663,0.019919,0.029154,0.007209,-0.00054,-0.010625,-0.015424,-0.489878,0.029799,-0.761555,-263.5615,0.689178,68.542863
2.3567,-0.030319,0.019816,0.028099,0.007182,-0.000561,-0.010626,-0.015424,-0.489878,0.029799,-0.761555,-263.5615,0.689178,68.542863
2.3768,-0.030101,0.019684,0.029042,0.00716,-0.000578,-0.010626,-0.015687,-0.489996,0.027655,-0.768819,-263.557465,0.689613,68.546623
2.397,-0.029656,0.019618,0.029885,0.007147,-0.000588,-0.010625,-0.015489,-0.490041,0.028173,-0.768819,-263.557465,0.689613,68.546623
2.4166,-0.029556,0.019785,0.029349,0.007137,-0.000597,-0.010625,-0.014189,-0.490165,0.029548,-0.778909,-263.553452,0.690226,68.550327
2.4365,-0.029156,0.019305,0.02676,0.007101,-0.000622,-0.010626,-0.014543,-0.490011,0.02935,-0.778909,-263.553452,0.690226,68.550327
2.4565,-0.028995,0.020309,0.027811,0.00707,-0.000643,-0.010626,-0.014543,-0.490011,0.02935,-0.778909,-263.553452,0.690226,68.550327
2.4763,-0.028288,0.019596,0.027908,0.007045,-0.000662,-0.010626,-0.014513,-0.489511,0.027366,-0.781821,-263.549428,0.690123,68.554029
2.4966,-0.028421,0.019795,0.025849,0.007013,-0.000683,-0.010626,-0.014293,-0.489795,0.027535,-0.781821,-263.549428,0.690123,68.554029
2.5164,-0.027877,0.02001,0.026173,0.006987,-0.000701,-0.010626,-0.015016,-0.49005,0.025512,-0.792909,-263.54542,0.691185,68.55768
2.5369,-0.027332,0.020091,0.02713,0.006975,-0.000711,-0.010625,-0.014562,-0.489836,0.026099,-0.792909,-263.54542,0.691185,68.55768
2.5567,-0.02805,0.019776,0.025741,0.006966,-0.000719,-0.010625,-0.014562,-0.489836,0.026099,-0.792909,-263.54542,0.691185,68.55768
2.5765,-0.027687,0.019652,0.026042,0.006957,-0.000726,-0.010624,-0.014631,-0.490077,0.025297,-0.799769,-263.541419,0.691847,68.561301
2.5965,-0.027311,0.020248,0.025911,0.006955,-0.00073,-0.010623,-0.014506,-0.490119,0.025548,-0.799769,-263.541419,0.691847,68.561301
2.6164,-0.026731,0.019842,0.025622,0.006953,-0.000732,-0.010623,-0.013875,-0.489598,0.025573,-0.803604,-263.537406,0.691732,68.564918
2.6365,-0.026751,0.020021,0.026609,0.006924,-0.000751,-0.010624,-0.013673,-0.489958,0.025601,-0.803604,-263.537406,0.691732,68.564918
2.6563,-0.02682,0.019481,0.025749,0.006899,-0.000767,-0.010624,-0.013673,-0.489958,0.025601,-0.803604,-263.537406,0.691732,68.564918
2.6763,-0.026485,0.019401,0.025293,0.006878,-0.000781,-0.010624,-0.013398,-0.490373,0.025305,-0.804252,-263.533401,0.691451,68.568524
2.6966,-0.026202,0.019876,0.025417,0.006864,-0.000791,-0.010624,-0.013441,-0.490401,0.025249,-0.804252,-263.533401,0.691451,68.568524
2.7162,-0.025805,0.019869,0.023534,0.006851,-0.0008,-0.010624,-0.013021,-0.489978,0.025078,-0.813033,-263.529394,0.692664,68.572102
2.7362,-0.025503,0.019654,0.023845,0.006843,-0.000806,-0.010624,-0.013721,-0.48999,0.023657,-0.813033,-263.529394,0.692664,68.572102
2.7565,-0.025749,0.019572,0.023999,0.006835,-0.000812,-0.010623,-0.013721,-0.48999,0.023657,-0.813033,-263.529394,0.692664,68.572102
2.7769,-0.025057,0.019957,0.022612,0.006829,-0.000817,-0.010623,-0.013224,-0.490308,0.023555,-0.816286,-263.525397,0.692954,68.575661
2.7964,-0.024903,0.019706,0.023609,0.006815,-0.000826,-0.010623,-0.013315,-0.490149,0.023117,-0.816286,-263.525397,0.692954,68.575661
2.8166,-0.02444,0.019536,0.023968,0.006804,-0.000834,-0.010623,-0.012645,-0.490173,0.023271,-0.81906,-263.521403,0.693007,68.579207
2.8367,-0.024324,0.019722,0.024336,0.006762,-0.000858,-0.010624,-0.012245,-0.490306,0.023886,-0.81906,-263.521403,0.693007,68.579207
2.8567,-0.024196,0.019512,0.022282,0.006728,-0.000878,-0.010625,-0.012245,-0.490306,0.023886,-0.81906,-263.521403,0.693007,68.579207
2.8769,-0.023588,0.019973,0.022817,0.006699,-0.000895,-0.010625,-0.012547,-0.490391,0.021837,-0.822058,-263.517405,0.693374,68.582745
2.8973,-0.023507,0.019665,0.02292,0.006675,-0.00091,-0.010625,-0.012274,-0.490194,0.02218,-0.822058,-263.517405,0.693374,68.582745
2.9161,-0.023112,0.019622,0.021402,0.006655,-0.000922,-0.010625,-0.011605,-0.490225,0.022581,-0.834058,-263.513411,0.695796,68.586241
2.9364,-0.023293,0.019566,0.021556,0.006636,-0.000934,-0.010625,-0.01214,-0.490259,0.021481,-0.834058,-263.513411,0.695796,68.586241
2.9568,-0.023003,0.019559,0.020912,0.00662,-0.000945,-0.010625,-0.01214,-0.490259,0.021481,-0.834058,-263.513411,0.695796,68.586241
2.9764,-0.02284,0.019296,0.022271,0.006606,-0.000954,-0.010625,-0.01206,-0.490362,0.020468,-0.839159,-263.509444,0.696622,68.589697
2.9964,-0.02263,0.019847,0.021736,0.006588,-0.000965,-0.010625,-0.011795,-0.490453,0.021146,-0.839159,-263.509444,0.696622,68.589697
3.0162,-0.021915,0.019482,0.021167,0.006572,-0.000975,-0.010625,-0.011334,-0.490058,0.021398,-0.844857,-263.505458,0.697431,68.593148
3.0369,-0.022056,0.019222,0.021616,0.006534,-0.000995,-0.010625,-0.011129,-0.490375,0.02117,-0.844857,-263.505458,0.697431,68.593148
3.0566,-0.022028,0.01954,0.021096,0.006502,-0.001012,-0.010626,-0.011129,-0.490375,0.02117,-0.844857,-263.505458,0.697431,68.593148
3.0762,-0.021571,0.019342,0.019451,0.006476,-0.001027,-0.010626,-0.010994,-0.490382,0.020652,-0.848822,-263.501488,0.698114,68.596573
3.0963,-0.021029,0.019255,0.021794,0.00646,-0.001037,-0.010626,-0.01123,-0.490459,0.020113,-0.848822,-263.501488,0.698114,68.596573
3.1161,-0.021187,0.019051,0.018908,0.006447,-0.001045,-0.010626,-0.009708,-0.490653,0.021455,-0.859654,-263.497522,0.70071,68.59996
3.1368,-0.020902,0.019454,0.020404,0.006451,-0.001046,-0.010625,-0.011374,-0.490841,0.019113,-0.859654,-263.497522,0.70071,68.59996
3.1564,-0.020828,0.019114,0.020706,0.006454,-0.001046,-0.010624,-0.011374,-0.490841,0.019113,-0.859654,-263.497522,0.70071,68.59996
3.1766,-0.020572,0.019228,0.019736,0.006456,-0.001046,-0.010624,-0.009999,-0.490814,0.020262,-0.863046,-263.493562,0.70125,68.60333
3.1965,-0.020201,0.019321,0.021107,0.00641,-0.001068,-0.010625,-0.010174,-0.490761,0.019997,-0.863046,-263.493562,0.70125,68.60333
3.2164,-0.019832,0.019275,0.018266,0.006373,-0.001087,-0.010625,-0.009231,-0.490594,0.020768,-0.862327,-263.489593,0.700437,68.606707
3.2367,-0.019026,0.019233,0.018447,0.006349,-0.001099,-0.010624,-0.01039,-0.490638,0.018474,-0.862327,-263.489593,0.700437,68.606707
3.2563,-0.019485,0.019582,0.0193,0.006329,-0.00111,-0.010622,-0.01039,-0.490638,0.018474,-0.862327,-263.489593,0.700437,68.606707
3.2764,-0.019102,0.019439,0.019244,0.006312,-0.001119,-0.010621,-0.009375,-0.490363,0.018855,-0.871469,-263.485639,0.703236,68.610044
3.2965,-0.018981,0.019389,0.019578,0.006251,-0.001146,-0.010622,-0.009309,-0.49041,0.018961,-0.871469,-263.485639,0.703236,68.610044
3.3166,-0.018301,0.019055,0.018671,0.0062,-0.001169,-0.010622,-0.008795,-0.490545,0.01924,-0.878045,-263.481688,0.704749,68.613357
3.3372,-0.018338,0.019364,0.017604,0.006143,-0.001194,-0.010622,-0.00877,-0.49083,0.018705,-0.878045,-263.481688,0.704749,68.613357
3.3564,-0.01824,0.019583,0.018365,0.006096,-0.001216,-0.010622,-0.00877,-0.49083,0.018705,-0.878045,-263.481688,0.704749,68.613357
3.3763,-0.017899,0.018967,0.017221,0.006057,-0.001235,-0.010621,-0.008614,-0.490375,0.017922,-0.890166,-263.477751,0.708986,68.61662
3.3964,-0.018159,0.019302,0.016413,0.006023,-0.00125,-0.010617,-0.008791,-0.490619,0.017583,-0.890166,-263.477751,0.708986,68.61662
3.4164,-0.017221,0.018848,0.017104,0.005996,-0.001263,-0.010614,-0.009597,-0.490666,0.016077,-0.905638,-263.473849,0.714389,68.619808
3.4364,-0.017192,0.019082,0.017773,0.005973,-0.001273,-0.010609,-0.008587,-0.491042,0.016994,-0.905638,-263.473849,0.714389,68.619808
3.4564,-0.01708,0.019202,0.015833,0.005954,-0.001282,-0.010604,-0.008587,-0.491042,0.016994,-0.905638,-263.473849,0.714389,68.619808
3.4763,-0.016608,0.018677,0.016461,0.005938,-0.00129,-0.010601,-0.008754,-0.490783,0.015389,-0.912066,-263.469933,0.716326,68.622986
3.4962,-0.016631,0.019201,0.015528,0.005922,-0.001295,-0.010587,-0.008506,-0.490979,0.015772,-0.912066,-263.469933,0.716326,68.622986
3.5162,-0.016544,0.018971,0.01542,0.005909,-0.001299,-0.010577,-0.008522,-0.490775,0.015191,-0.917924,-263.466026,0.71778,68.626137
3.5366,-0.016168,0.019263,0.014891,0.005904,-0.001298,-0.010562,-0.008656,-0.490953,0.015381,-0.917924,-263.466026,0.71778,68.626137
3.5564,-0.015774,0.019008,0.01609,0.005901,-0.001298,-0.01055,-0.008656,-0.490953,0.015381,-0.917924,-263.466026,0.71778,68.626137
3.5763,-0.015775,0.019185,0.015374,0.005898,-0.001298,-0.010541,-0.007321,-0.490976,0.015648,-0.919924,-263.462125,0.717948,68.629275
3.5967,-0.015634,0.018645,0.014503,0.005845,-0.001316,-0.010535,-0.007543,-0.490891,0.015485,-0.919924,-263.462125,0.717948,68.629275
3.6166,-0.015015,0.019109,0.015314,0.005801,-0.001331,-0.010531,-0.00805,-0.49134,0.014168,-0.919404,-263.458234,0.71681,68.632404
3.6365,-0.014874,0.018611,0.015314,0.005753,-0.001346,-0.010522,-0.007272,-0.490879,0.015193,-0.919404,-263.458234,0.71681,68.632404
3.6567,-0.014886,0.018851,0.015631,0.005713,-0.001359,-0.010514,-0.007272,-0.490879,0.015193,-0.919404,-263.458234,0.71681,68.632404
3.6767,-0.01467,0.018937,0.015127,0.005679,-0.00137,-0.010509,-0.006671,-0.491138,0.015191,-0.928983,-263.454365,0.721266,68.635489
3.6968,-0.014187,0.019264,0.013858,0.005631,-0.001385,-0.010502,-0.006759,-0.49109,0.015114,-0.928983,-263.454365,0.721266,68.635489
3.7164,-0.014023,0.018815,0.01258,0.005591,-0.001398,-0.010497,-0.006938,-0.490728,0.013524,-0.940761,-263.450515,0.726626,68.638524
3.7365,-0.014153,0.018907,0.011884,0.0056,-0.001377,-0.010384,-0.00754,-0.491111,0.012645,-0.940761,-263.450515,0.726626,68.638524
3.7562,-0.014017,0.019087,0.014463,0.005608,-0.001361,-0.010298,-0.00754,-0.491111,0.012645,-0.940761,-263.450515,0.726626,68.638524
3.7763,-0.013539,0.018763,0.013511,0.005614,-0.001349,-0.010232,-0.006407,-0.490914,0.014026,-0.949458,-263.44668,0.7309,68.641522
3.7964,-0.012958,0.018872,0.011814,0.005566,-0.001365,-0.01024,-0.00648,-0.491035,0.013762,-0.949458,-263.44668,0.7309,68.641522
3.8165,-0.012728,0.018463,0.012501,0.005526,-0.001379,-0.010247,-0.006755,-0.491133,0.011491,-0.934488,-263.442928,0.717636,68.644481
3.8362,-0.012694,0.018435,0.013865,0.005498,-0.001377,-0.010175,-0.00638,-0.491466,0.012393,-0.934488,-263.442928,0.717636,68.644481
3.8566,-0.012808,0.018915,0.012754,0.005475,-0.001376,-0.01012,-0.00638,-0.491466,0.012393,-0.934488,-263.442928,0.717636,68.644481
3.8764,-0.012133,0.01893,0.011361,0.005456,-0.001376,-0.010078,-0.006071,-0.491098,0.012326,-0.944446,-263.439159,0.723259,68.647429
3.8963,-0.012228,0.018555,0.012482,0.005423,-0.001376,-0.010007,-0.006155,-0.491079,0.011878,-0.944446,-263.439159,0.723259,68.647429
3.9161,-0.011468,0.018624,0.011168,0.005396,-0.001378,-0.009952,-0.005688,-0.491447,0.012163,-0.943856,-263.435442,0.719381,68.650328
3.9364,-0.012102,0.018757,0.012494,0.005358,-0.001378,-0.009852,-0.005757,-0.491355,0.011237,-0.943856,-263.435442,0.719381,68.650328
3.9563,-0.011242,0.018939,0.011557,0.005326,-0.00138,-0.009777,-0.005757,-0.491355,0.011237,-0.943856,-263.435442,0.719381,68.650328
3.9764,-0.011249,0.018658,0.011119,0.0053,-0.001383,-0.00972,-0.005122,-0.491082,0.011141,-0.944322,-263.431765,0.716588,68.653186
3.9963,-0.011437,0.018442,0.010412,0.005252,-0.00139,-0.009661,-0.005281,-0.491181,0.011084,-0.944322,-263.431765,0.716588,68.653186
4.0164,-0.010413,0.018551,0.011757,0.005213,-0.001398,-0.009617,-0.005958,-0.491573,0.010102,-0.944035,-263.428148,0.70979,68.655983
4.0365,-0.010854,0.018547,0.010233,0.005145,-0.001417,-0.009629,-0.00454,-0.491429,0.011601,-0.944035,-263.428148,0.70979,68.655983
4.0563,-0.010628,0.018428,0.010587,0.005088,-0.001433,-0.009638,-0.00454,-0.491429,0.011601,-0.944035,-263.428148,0.70979,68.655983
4.0763,-0.009843,0.018269,0.011792,0.005042,-0.001447,-0.009645,-0.00501,-0.491599,0.010185,-0.948894,-263.424572,0.709462,68.658729
4.0963,-0.010055,0.018621,0.009867,0.005003,-0.001452,-0.009572,-0.004504,-0.491645,0.010793,-0.948894,-263.424572,0.709462,68.658729
4.1165,-0.009252,0.018509,0.010139,0.004971,-0.001457,-0.009518,-0.004864,-0.491399,0.009562,-0.968789,-263.421046,0.722484,68.661391
4.1368,-0.009938,0.018337,0.011359,0.004919,-0.001459,-0.009389,-0.004144,-0.491461,0.010071,-0.968789,-263.421046,0.722484,68.661391
4.1564,-0.00956,0.018117,0.00991,0.004877,-0.001462,-0.009294,-0.004144,-0.491461,0.010071,-0.968789,-263.421046,0.722484,68.661391
4.1764,-0.008832,0.018453,0.008162,0.004842,-0.001468,-0.009224,-0.004298,-0.491917,0.009512,-0.971072,-263.41752,0.719605,68.664037
4.1964,-0.009364,0.01845,0.00882,0.004824,-0.001459,-0.008999,-0.004426,-0.491765,0.008913,-0.971072,-263.41752,0.719605,68.664037
4.2168,-0.008948,0.018437,0.008798,0.00481,-0.001456,-0.008838,-0.004712,-0.491575,0.008527,-0.972324,-263.414087,0.710486,68.666589
4.2366,-0.008609,0.018436,0.00878,0.004799,-0.001454,-0.008694,-0.004475,-0.491549,0.00876,-0.972324,-263.414087,0.710486,68.666589
4.2565,-0.008236,0.018387,0.010323,0.004791,-0.001455,-0.008591,-0.004475,-0.491549,0.00876,-0.972324,-263.414087,0.710486,68.666589
4.2763,-0.008275,0.018141,0.010353,0.004785,-0.001458,-0.008517,-0.002772,-0.491644,0.009959,-0.958836,-263.410779,0.686561,68.669046
4.2963,-0.008468,0.018338,0.008822,0.004702,-0.001485,-0.008639,-0.00284,-0.491728,0.010078,-0.958836,-263.410779,0.686561,68.669046
4.3164,-0.007968,0.017713,0.008266,0.004632,-0.001508,-0.008731,-0.003817,-0.491687,0.008554,-0.947754,-263.40753,0.663955,68.671453
4.3365,-0.007703,0.017842,0.007525,0.004617,-0.001502,-0.00853,-0.00375,-0.492222,0.008278,-0.947754,-263.40753,0.663955,68.671453
4.3568,-0.007898,0.018014,0.008545,0.004606,-0.001501,-0.008386,-0.00375,-0.492222,0.008278,-0.947754,-263.40753,0.663955,68.671453
4.3765,-0.007757,0.017874,0.008191,0.004597,-0.001502,-0.008283,-0.003351,-0.492027,0.008189,-0.975526,-263.404307,0.690223,68.673796
4.3966,-0.007208,0.018434,0.007847,0.00457,-0.001506,-0.008183,-0.003422,-0.492067,0.008148,-0.975526,-263.404307,0.690223,68.673796
4.4165,-0.006833,0.018179,0.007582,0.004548,-0.001511,-0.008111,-0.003062,-0.491597,0.007589,-0.959576,-263.401162,0.658511,68.676079
4.4368,-0.007035,0.017679,0.007894,0.004496,-0.001515,-0.007945,-0.002968,-0.491791,0.007569,-0.959576,-263.401162,0.658511,68.676079
4.4566,-0.007146,0.018015,0.006865,0.004454,-0.00152,-0.007826,-0.002968,-0.491791,0.007569,-0.959576,-263.401162,0.658511,68.676079
4.4767,-0.006509,0.017672,0.006121,0.00442,-0.001528,-0.007742,-0.003455,-0.492035,0.006526,-0.95778,-263.398011,0.647955,68.678353
4.4964,-0.006858,0.018314,0.007621,0.004409,-0.001517,-0.0074,-0.003405,-0.492157,0.006322,-0.95778,-263.398011,0.647955,68.678353
4.5162,-0.005706,0.017855,0.00643,0.004402,-0.001514,-0.007163,-0.002832,-0.491719,0.007376,-0.955696,-263.394969,0.626698,68.68052
4.5363,-0.006029,0.017704,0.006482,0.004345,-0.001523,-0.007038,-0.002457,-0.492099,0.006503,-0.955696,-263.394969,0.626698,68.68052
4.5565,-0.006028,0.017716,0.007627,0.004299,-0.001533,-0.006951,-0.002457,-0.492099,0.006503,-0.955696,-263.394969,0.626698,68.68052
4.5766,-0.005513,0.017479,0.004316,0.004262,-0.001543,-0.006892,-0.001963,-0.492328,0.007342,-0.928839,-263.392178,0.576286,68.682513
4.5966,-0.005678,0.017686,0.004803,0.004232,-0.001548,-0.006751,-0.002488,-0.492411,0.006087,-0.928839,-263.392178,0.576286,68.682513
4.6161,-0.005266,0.017732,0.007677,0.004208,-0.001554,-0.006653,-0.003093,-0.492357,0.004584,-0.933186,-263.389329,0.559001,68.684513
4.6362,-0.005262,0.017206,0.006,0.004143,-0.001579,-0.006856,-0.001501,-0.492265,0.007386,-0.933186,-263.389329,0.559001,68.684513
4.6561,-0.005297,0.017841,0.006254,0.004088,-0.001599,-0.007004,-0.001501,-0.492265,0.007386,-0.933186,-263.389329,0.559001,68.684513
4.6762,-0.004866,0.017723,0.004925,0.00404,-0.001614,-0.00711,-0.001932,-0.492213,0.005978,-0.927857,-263.386537,0.537666,68.686462
4.6962,-0.004849,0.017282,0.004344,0.004018,-0.0016,-0.006748,-0.002087,-0.492244,0.005509,-0.927857,-263.386537,0.537666,68.686462
4.7165,-0.004542,0.017436,0.005454,0.004001,-0.001593,-0.006497,-0.002516,-0.49276,0.004136,-0.974794,-263.3839,0.593902,68.688248
4.7365,-0.004976,0.017676,0.004466,0.003974,-0.001588,-0.006272,-0.001821,-0.492576,0.005327,-0.974794,-263.3839,0.593902,68.688248
4.7562,-0.004487,0.017731,0.004045,0.003954,-0.001589,-0.006117,-0.001821,-0.492576,0.005327,-0.974794,-263.3839,0.593902,68.688248
4.7766,-0.004318,0.017464,0.003689,0.003938,-0.001592,-0.00601,-0.002267,-0.492326,0.003791,-0.94707,-263.381337,0.535714,68.689989
4.7963,-0.004182,0.017264,0.00547,0.003943,-0.001565,-0.005445,-0.002318,-0.492418,0.00372,-0.94707,-263.381337,0.535714,68.689989
4.8164,-0.003761,0.017529,0.005517,0.003951,-0.001551,-0.005064,-0.001273,-0.492776,0.005287,-0.928363,-263.378825,0.48555,68.69169
4.8364,-0.003859,0.017234,0.004073,0.003895,-0.00158,-0.00531,-0.000971,-0.492494,0.005487,-0.928363,-263.378825,0.48555,68.69169
4.8572,-0.00391,0.017264,0.003393,0.003847,-0.001603,-0.005486,-0.000971,-0.492494,0.005487,-0.928363,-263.378825,0.48555,68.69169
4.8767,-0.003733,0.017325,0.004167,0.003805,-0.001621,-0.005612,-0.002054,-0.49278,0.003227,-0.865794,-263.376962,0.410545,68.692987
4.897,-0.003737,0.017146,0.003792,0.003811,-0.001598,-0.005137,-0.001858,-0.492741,0.003591,-0.865794,-263.376962,0.410545,68.692987
4.9167,-0.003219,0.017478,0.004279,0.003819,-0.001586,-0.004814,-0.00169,-0.492898,0.003625,-0.924825,-263.374611,0.443269,68.694553
4.9368,-0.003246,0.017173,0.004252,0.003785,-0.001596,-0.00479,-0.00109,-0.492555,0.004211,-0.924825,-263.374611,0.443269,68.694553
4.9568,-0.003016,0.017497,0.004779,0.003757,-0.001606,-0.004774,-0.00109,-0.492555,0.004211,-0.924825,-263.374611,0.443269,68.694553
4.9766,-0.003293,0.01695,0.003667,0.003735,-0.001615,-0.004765,-0.000451,-0.492548,0.004614,-0.870029,-263.372704,0.368264,68.695858
4.9965,-0.003202,0.017013,0.002937,0.003701,-0.001624,-0.004756,-0.000831,-0.492757,0.00421,-0.870029,-263.372704,0.368264,68.695858
5.0163,-0.002735,0.017257,0.004595,0.003673,-0.001632,-0.004751,-0.001587,-0.493035,0.002788,-0.880832,-263.370403,0.33374,68.697408
5.0369,-0.002247,0.017268,0.003776,0.003631,-0.001643,-0.004809,-0.00049,-0.492766,0.004429,-0.880832,-263.370403,0.33374,68.697408
5.0568,-0.00264,0.017204,0.003659,0.003595,-0.001652,-0.004849,-0.00049,-0.492766,0.004429,-0.880832,-263.370403,0.33374,68.697408
5.0768,-0.00281,0.017117,0.003219,0.003565,-0.001659,-0.004876,-0.000621,-0.492861,0.00346,-0.889859,-263.368075,0.332846,68.698959
5.0967,-0.002458,0.017262,0.003511,0.003553,-0.001644,-0.004547,-0.000825,-0.492876,0.00334,-0.889859,-263.368075,0.332846,68.698959
5.1165,-0.002076,0.017019,0.001933,0.003545,-0.001636,-0.004322,-0.000556,-0.492787,0.003358,-0.915321,-263.365773,0.354181,68.700454
5.1366,-0.00204,0.017023,0.003046,0.00354,-0.001608,-0.00364,-0.001038,-0.492965,0.00205,-0.915321,-263.365773,0.354181,68.700454
5.1567,-0.002145,0.017147,0.004016,0.003541,-0.001593,-0.003178,-0.001038,-0.492965,0.00205,-0.915321,-263.365773,0.354181,68.700454
5.1764,-0.002257,0.016856,0.003154,0.003547,-0.001588,-0.002867,3.5e-05,-0.492909,0.003855,-0.878635,-263.363802,0.279096,68.701762
5.1964,-0.001817,0.017092,0.002671,0.003518,-0.00162,-0.003217,-0.000228,-0.493011,0.003551,-0.878635,-263.363802,0.279096,68.701762
5.2163,-0.001812,0.016852,0.003184,0.003491,-0.001643,-0.003464,-0.000419,-0.49292,0.002635,-0.803619,-263.363168,0.20408,68.702225
5.2366,-0.00175,0.016845,0.00226,0.003463,-0.001651,-0.003501,-0.000207,-0.493126,0.003133,-0.803619,-263.363168,0.20408,68.702225
5.2563,-0.002046,0.016779,0.002466,0.00344,-0.001658,-0.003528,-0.000207,-0.493126,0.003133,-0.803619,-263.363168,0.20408,68.702225
5.2764,-0.001554,0.016343,0.00251,0.00342,-0.001663,-0.003548,-0.000654,-0.493282,0.002333,-0.822283,-263.361279,0.134607,68.703521
5.2963,-0.001785,0.016954,0.002315,0.003415,-0.001653,-0.00328,-0.000482,-0.493443,0.002391,-0.822283,-263.361279,0.134607,68.703521
5.3166,-0.001708,0.016606,0.003238,0.003414,-0.001648,-0.003096,-0.000497,-0.493097,0.002204,-0.84198,-263.359242,0.146243,68.704893
5.3362,-0.001362,0.016777,0.002976,0.003395,-0.001663,-0.003251,-8.9e-05,-0.493369,0.003143,-0.84198,-263.359242,0.146243,68.704893
5.3563,-0.001292,0.016451,0.003065,0.003378,-0.001674,-0.003358,-8.9e-05,-0.493369,0.003143,-0.84198,-263.359242,0.146243,68.704893
5.3766,-0.001481,0.016682,0.003668,0.003363,-0.001681,-0.003433,0.000398,-0.493607,0.00295,-0.803486,-263.357488,0.071222,68.706114
5.3966,-0.001094,0.016762,0.003062,0.003318,-0.001686,-0.003512,0.000409,-0.493494,0.003232,-0.803486,-263.357488,0.071222,68.706114
5.4162,-0.000801,0.016532,0.001217,0.00328,-0.001689,-0.003566,0.000567,-0.493286,0.00296,-0.843373,-263.355598,0.122857,68.70738
5.4366,-0.001106,0.016451,0.00216,0.003262,-0.001655,-0.002804,-0.00011,-0.493455,0.001364,-0.843373,-263.355598,0.122857,68.70738
5.4569,-0.000833,0.016419,0.002734,0.003253,-0.001635,-0.002285,-0.00011,-0.493455,0.001364,-0.843373,-263.355598,0.122857,68.70738
5.4767,-0.000805,0.016237,0.00192,0.00325,-0.001625,-0.00193,0.000696,-0.493648,0.002587,-0.867313,-263.353607,0.147945,68.708682
5.4967,-0.000468,0.016137,0.002939,0.00322,-0.00164,-0.002109,0.000498,-0.493702,0.002298,-0.867313,-263.353607,0.147945,68.708682
5.5166,-0.000736,0.016198,0.00042,0.003195,-0.001651,-0.002237,0.001049,-0.493869,0.002923,-0.792236,-263.353293,0.072868,68.708922
5.5365,-0.000699,0.016708,0.001447,0.003213,-0.001628,-0.001513,-0.000386,-0.493808,0.000634,-0.792236,-263.353293,0.072868,68.708922
5.5563,-0.000752,0.016421,0.001268,0.003232,-0.001618,-0.001012,-0.000386,-0.493808,0.000634,-0.792236,-263.353293,0.072868,68.708922
5.5762,-0.000691,0.016171,0.001861,0.003253,-0.001615,-0.000668,-1.9e-05,-0.493619,0.001202,-0.756965,-263.352163,-0.002081,68.709747
5.5964,-0.000524,0.016292,0.001808,0.003252,-0.001635,-0.000866,0.000105,-0.49371,0.001465,-0.756965,-263.352163,-0.002081,68.709747
5.6168,-0.000448,0.016559,0.001846,0.00325,-0.00165,-0.001006,0.000405,-0.49371,0.001804,-0.682004,-263.352059,-0.077042,68.709841
5.6372,-0.000375,0.016773,0.00232,0.003228,-0.001669,-0.001278,0.000485,-0.493468,0.001841,-0.682004,-263.352059,-0.077042,68.709841
5.6567,-0.00034,0.016211,0.001622,0.003207,-0.001682,-0.00147,0.000485,-0.493468,0.001841,-0.682004,-263.352059,-0.077042,68.709841
5.6769,-0.000509,0.016062,0.001817,0.003189,-0.001691,-0.001606,0.000541,-0.49381,0.001599,-0.608682,-263.351446,-0.152018,68.710369
5.6964,-0.000196,0.016672,0.001472,0.003171,-0.001693,-0.001635,0.000496,-0.493865,0.001686,-0.608682,-263.351446,-0.152018,68.710369
5.7166,1.5e-05,0.016424,0.003335,0.003155,-0.001694,-0.001655,0.000638,-0.49337,0.001431,-0.683771,-263.350083,-0.219113,68.711439
5.7371,-0.000418,0.016129,0.002609,0.003082,-0.001719,-0.002214,0.001623,-0.493558,0.003162,-0.683771,-263.350083,-0.219113,68.711439
5.7574,-0.000352,0.016218,0.003035,0.003017,-0.001732,-0.002609,0.001623,-0.493558,0.003162,-0.683771,-263.350083,-0.219113,68.711439
5.7766,-7e-05,0.016147,0.000797,0.002961,-0.001738,-0.002887,0.001329,-0.49385,0.002966,-0.708829,-263.348438,-0.213389,68.712717
5.7967,-0.000114,0.016113,0.001076,0.002945,-0.001722,-0.002694,0.000954,-0.493859,0.002107,-0.708829,-263.348438,-0.213389,68.712717
5.8165,0.000189,0.016456,0.001393,0.002933,-0.001711,-0.002563,0.000464,-0.493904,0.001053,-0.783827,-263.34789,-0.138391,68.713071
5.8363,0.000335,0.016035,0.001826,0.002923,-0.001689,-0.00213,0.000862,-0.493577,0.001361,-0.783827,-263.34789,-0.138391,68.713071
5.8567,-0.000176,0.016164,0.00037,0.002918,-0.001675,-0.001833,0.000862,-0.493577,0.001361,-0.783827,-263.34789,-0.138391,68.713071
5.8762,0.000635,0.016342,0.000836,0.002916,-0.001668,-0.001629,0.000115,-0.493897,0.000281,-0.840542,-263.346418,-0.063385,68.714054
5.8968,0.000385,0.015941,0.002482,0.002927,-0.001649,-0.001026,0.000511,-0.493807,0.000496,-0.840542,-263.346418,-0.063385,68.714054
5.9166,0.000184,0.016396,0.00182,0.002941,-0.001641,-0.000609,0.001703,-0.494085,0.002448,-0.765556,-263.345544,-0.138371,68.714716
5.9369,0.000364,0.016266,-0.000114,0.002931,-0.001667,-0.001003,0.001169,-0.49365,0.001877,-0.765556,-263.345544,-0.138371,68.714716
5.9566,0.000419,0.016285,0.002146,0.002919,-0.001683,-0.001282,0.001169,-0.49365,0.001877,-0.765556,-263.345544,-0.138371,68.714716
5.9769,0.000374,0.016025,0.001394,0.002908,-0.001694,-0.00148,0.001538,-0.493726,0.002135,-0.690607,-263.345259,-0.21332,68.714972
5.9969,0.00059,0.016269,0.001098,0.002885,-0.001699,-0.001606,0.001358,-0.493828,0.001835,-0.690607,-263.345259,-0.21332,68.714972
6.0166,0.00075,0.015727,0.001402,0.002864,-0.001702,-0.001694,0.001237,-0.493781,0.001054,-0.729114,-263.343799,-0.265425,68.7161
6.0368,0.000562,0.016054,0.001193,0.002831,-0.001689,-0.001535,0.00145,-0.494232,0.00137,-0.729114,-263.343799,-0.265425,68.7161
6.0568,0.000499,0.015965,0.001206,0.002806,-0.00168,-0.001427,0.00145,-0.494232,0.00137,-0.729114,-263.343799,-0.265425,68.7161
6.0769,0.000512,0.015745,0.001317,0.002785,-0.001675,-0.001353,0.001229,-0.494103,0.001138,-0.762617,-263.342275,-0.228976,68.717232
6.0969,0.000899,0.015775,0.000841,0.002782,-0.001671,-0.001222,0.001224,-0.494173,0.001203,-0.762617,-263.342275,-0.228976,68.717232
6.1168,0.001005,0.015828,0.001589,0.00278,-0.001669,-0.001132,0.001409,-0.494273,0.000802,-0.731784,-263.340903,-0.29589,68.718299
6.1369,0.000823,0.015656,4.4e-05,0.002744,-0.001669,-0.001217,0.001784,-0.494183,0.001517,-0.731784,-263.340903,-0.29589,68.718299
6.1566,0.001029,0.015911,0.001422,0.002714,-0.001669,-0.001279,0.001784,-0.494183,0.001517,-0.731784,-263.340903,-0.29589,68.718299
6.1764,0.000951,0.015978,-0.00096,0.002688,-0.001669,-0.001322,0.001866,-0.494155,0.001377,-0.703811,-263.3395,-0.338154,68.719433
6.1971,0.00085,0.015798,0.001497,0.002685,-0.001649,-0.000764,0.001294,-0.494107,0.000399,-0.703811,-263.3395,-0.338154,68.719433
6.2165,0.001585,0.015777,0.000311,0.002686,-0.00164,-0.000377,0.001695,-0.494253,0.001457,-0.744405,-263.338099,-0.309997,68.720515
6.2365,0.001229,0.01571,0.000745,0.002659,-0.001631,-0.000115,0.001744,-0.494228,0.000412,-0.744405,-263.338099,-0.309997,68.720515
6.2564,0.001587,0.015442,0.000555,0.002639,-0.001628,6.8e-05,0.001744,-0.494228,0.000412,-0.744405,-263.338099,-0.309997,68.720515
6.2763,0.001502,0.015785,0.001204,0.002624,-0.001628,0.000194,0.001922,-0.494588,0.000541,-0.66968,-263.337499,-0.384722,68.721071
6.2963,0.001007,0.015827,0.001331,0.002599,-0.001636,6.4e-05,0.002007,-0.494439,0.000809,-0.66968,-263.337499,-0.384722,68.721071
6.3164,0.001596,0.015635,0.000655,0.002577,-0.001641,-2.8e-05,0.001717,-0.494191,0.001329,-0.594671,-263.337058,-0.459732,68.72153
6.3366,0.0013,0.015106,0.001526,0.002565,-0.001645,-4.5e-05,0.001912,-0.49435,0.000716,-0.594671,-263.337058,-0.459732,68.72153
6.3568,0.001213,0.01576,0.001128,0.002555,-0.001648,-5.7e-05,0.001912,-0.49435,0.000716,-0.594671,-263.337058,-0.459732,68.72153
6.3767,0.001016,0.015759,0.001226,0.002546,-0.00165,-6.7e-05,0.00188,-0.494296,0.001125,-0.571733,-263.336032,-0.534726,68.72255
6.3962,0.001067,0.015484,0.001776,0.002554,-0.001666,-0.000315,0.001793,-0.49428,0.001165,-0.571733,-263.336032,-0.534726,68.72255
6.4161,0.001606,0.015621,0.002149,0.002559,-0.001676,-0.000488,0.002053,-0.494566,0.001774,-0.586304,-263.33483,-0.56381,68.723735
6.4369,0.001949,0.015386,0.000569,0.002512,-0.001693,-0.00101,0.002648,-0.494397,0.002115,-0.586304,-263.33483,-0.56381,68.723735
6.4563,0.001995,0.015155,0.000531,0.00247,-0.0017,-0.001378,0.002648,-0.494397,0.002115,-0.586304,-263.33483,-0.56381,68.723735
6.4761,0.002182,0.015704,0.001606,0.002433,-0.001701,-0.001637,0.002358,-0.494905,0.000513,-0.657223,-263.333726,-0.494037,68.724727
6.4963,0.001653,0.015567,0.002654,0.002382,-0.00167,-0.001285,0.00263,-0.494664,0.000956,-0.657223,-263.333726,-0.494037,68.724727
6.5165,0.001721,0.015115,0.001057,0.002344,-0.001649,-0.001043,0.00303,-0.494447,0.002644,-0.732223,-263.333313,-0.419037,68.725015
6.5366,0.002252,0.015507,0.001218,0.002337,-0.001645,-0.001002,0.002331,-0.494846,0.0012,-0.732223,-263.333313,-0.419037,68.725015
6.5568,0.001649,0.015399,0.001147,0.002331,-0.001642,-0.000976,0.002331,-0.494846,0.0012,-0.732223,-263.333313,-0.419037,68.725015
6.5764,0.002043,0.014986,0.001478,0.002326,-0.00164,-0.000958,0.00233,-0.494668,0.001104,-0.772942,-263.332041,-0.407764,68.726007
6.5965,0.001967,0.015135,0.001184,0.00231,-0.001636,-0.000971,0.00253,-0.494816,0.001251,-0.772942,-263.332041,-0.407764,68.726007
6.6165,0.001903,0.015278,0.000159,0.002296,-0.001633,-0.000981,0.002644,-0.494917,0.001153,-0.763095,-263.33076,-0.425493,68.727023
6.6366,0.001602,0.015208,0.000962,0.002305,-0.001617,-0.000448,0.002046,-0.494742,0.000245,-0.763095,-263.33076,-0.425493,68.727023
6.6568,0.001857,0.014842,0.002073,0.002317,-0.001609,-7.9e-05,0.002046,-0.494742,0.000245,-0.763095,-263.33076,-0.425493,68.727023
6.6762,0.001831,0.015426,0.001834,0.002329,-0.001607,0.000178,0.003011,-0.495225,0.002032,-0.771336,-263.329482,-0.423244,68.728028
6.6963,0.00211,0.015307,0.00054,0.002299,-0.001634,-0.000461,0.002923,-0.49497,0.001947,-0.771336,-263.329482,-0.423244,68.728028
6.7162,0.001856,0.015012,0.000224,0.00227,-0.001649,-0.000915,0.002404,-0.494706,0.000538,-0.696438,-263.329198,-0.498142,68.728325
6.7365,0.002153,0.014988,-8e-06,0.002286,-0.001631,-0.000396,0.002005,-0.494966,0.000248,-0.696438,-263.329198,-0.498142,68.728325
6.7564,0.00226,0.015381,-0.00046,0.002303,-0.001623,-3.7e-05,0.002005,-0.494966,0.000248,-0.696438,-263.329198,-0.498142,68.728325
6.7765,0.002465,0.014894,0.002099,0.00232,-0.001619,0.000211,0.002109,-0.494679,-0.000493,-0.771559,-263.328092,-0.44763,68.729204
6.7965,0.002469,0.015362,0.000103,0.002292,-0.001616,0.000212,0.0027,-0.49486,0.000559,-0.771559,-263.328092,-0.44763,68.729204
6.8162,0.002382,0.015128,0.001155,0.002269,-0.001614,0.00021,0.002543,-0.494652,0.000101,-0.696927,-263.327786,-0.522262,68.729527
6.8363,0.002257,0.014881,0.001371,0.002241,-0.00162,-5.2e-05,0.002933,-0.494852,0.00106,-0.696927,-263.327786,-0.522262,68.729527
6.8563,0.002097,0.015014,0.000362,0.002216,-0.001623,-0.000238,0.002933,-0.494852,0.00106,-0.696927,-263.327786,-0.522262,68.729527
6.8763,0.002673,0.014758,6.6e-05,0.002194,-0.001623,-0.00037,0.002339,-0.495027,0.000363,-0.62192,-263.327125,-0.597269,68.730224
6.8967,0.002453,0.015134,-0.001414,0.002191,-0.00161,-1.9e-05,0.002503,-0.495123,0.000237,-0.62192,-263.327125,-0.597269,68.730224
6.9165,0.002393,0.015006,0.001614,0.00219,-0.001603,0.000225,0.001794,-0.494911,-0.001424,-0.697438,-263.326107,-0.566942,68.731147
6.9366,0.002652,0.01495,0.000334,0.002167,-0.001616,-0.000176,0.003092,-0.494989,0.001341,-0.697438,-263.326107,-0.566942,68.731147
6.9568,0.002464,0.014725,0.002009,0.002145,-0.001623,-0.000461,0.003092,-0.494989,0.001341,-0.697438,-263.326107,-0.566942,68.731147
6.9763,0.002721,0.014906,0.001794,0.002125,-0.001625,-0.000662,0.003553,-0.49532,0.002012,-0.622955,-263.325372,-0.641425,68.731927
6.9962,0.002275,0.014957,0.000988,0.002075,-0.001627,-0.001052,0.003594,-0.495234,0.001924,-0.622955,-263.325372,-0.641425,68.731927
7.0161,0.002908,0.014707,0.002172,0.002032,-0.001623,-0.001327,0.002818,-0.495072,0.000979,-0.697944,-263.32469,-0.566436,68.732496
7.0368,0.002561,0.015062,0.00031,0.001972,-0.001613,-0.001576,0.00391,-0.495274,0.002064,-0.697944,-263.32469,-0.566436,68.732496
7.0562,0.002899,0.015021,0.003032,0.001921,-0.001601,-0.001751,0.00391,-0.495274,0.002064,-0.697944,-263.32469,-0.566436,68.732496
7.0764,0.002684,0.014718,0.002133,0.001877,-0.001589,-0.001875,0.004476,-0.495,0.003018,-0.772941,-263.324252,-0.491439,68.732798
7.0966,0.002795,0.014719,0.000169,0.001831,-0.001586,-0.00218,0.004192,-0.495118,0.002656,-0.772941,-263.324252,-0.491439,68.732798
7.1164,0.002805,0.014485,0.000592,0.00179,-0.001579,-0.002394,0.002892,-0.49529,0.000161,-0.847947,-263.32401,-0.416433,68.732939
7.1365,0.002586,0.014767,0.000562,0.0018,-0.001546,-0.00158,0.003091,-0.495499,0.00056,-0.847947,-263.32401,-0.416433,68.732939
7.1565,0.002877,0.014517,0.001332,0.001814,-0.001528,-0.001021,0.003091,-0.495499,0.00056,-0.847947,-263.32401,-0.416433,68.732939
7.1768,0.002607,0.014359,-0.000175,0.00183,-0.001519,-0.000638,0.003563,-0.495488,0.001326,-0.923444,-263.323906,-0.340935,68.732992
7.1966,0.002787,0.014685,0.001908,0.001844,-0.001518,-0.000461,0.003139,-0.495551,0.000716,-0.923444,-263.323906,-0.340935,68.732992
7.2161,0.00291,0.014425,0.000791,0.001858,-0.00152,-0.000342,0.003783,-0.495332,0.001897,-0.848924,-263.323494,-0.415455,68.733327
7.2366,0.002835,0.014321,-0.000234,0.001858,-0.001523,-0.00035,0.003356,-0.495554,0.000888,-0.848924,-263.323494,-0.415455,68.733327
7.2567,0.002521,0.014787,0.002108,0.001857,-0.001525,-0.000358,0.003356,-0.495554,0.000888,-0.848924,-263.323494,-0.415455,68.733327
7.2765,0.002869,0.014337,0.001691,0.001857,-0.001528,-0.000366,0.003632,-0.495238,0.002097,-0.773887,-263.323037,-0.490492,68.733736
7.2967,0.00288,0.014863,0.000126,0.001853,-0.001551,-0.000848,0.003676,-0.495412,0.001933,-0.773887,-263.323037,-0.490492,68.733736
7.3164,0.002872,0.014555,0.000163,0.001846,-0.001563,-0.001189,0.002991,-0.495174,0.000115,-0.756108,-263.322237,-0.565484,68.734448
7.3365,0.003145,0.014704,0.001708,0.001861,-0.001543,-0.000535,0.002961,-0.495422,0.000158,-0.756108,-263.322237,-0.565484,68.734448
7.3566,0.003217,0.014805,0.001556,0.001878,-0.001533,-8.2e-05,0.002961,-0.495422,0.000158,-0.756108,-263.322237,-0.565484,68.734448
7.377,0.003042,0.014439,0.000271,0.001896,-0.00153,0.000231,0.004054,-0.49523,0.001534,-0.831057,-263.321598,-0.490536,68.734888
7.3965,0.003008,0.014835,0.00173,0.001873,-0.001536,-1.1e-05,0.003701,-0.49537,0.001014,-0.831057,-263.321598,-0.490536,68.734888
7.4163,0.003334,0.014212,0.000685,0.001854,-0.001538,-0.000184,0.003904,-0.495175,0.001728,-0.756005,-263.32139,-0.565587,68.735112
7.4365,0.003002,0.014568,0.001064,0.00183,-0.001532,-0.000185,0.003704,-0.495732,0.00078,-0.756005,-263.32139,-0.565587,68.735112
7.457,0.003409,0.014396,0.00066,0.001811,-0.001527,-0.000187,0.003704,-0.495732,0.00078,-0.756005,-263.32139,-0.565587,68.735112
7.4763,0.00312,0.014845,0.001296,0.001796,-0.001523,-0.00019,0.003813,-0.495659,0.000653,-0.727371,-263.320529,-0.640572,68.735923
7.4967,0.002894,0.014508,0.001981,0.001782,-0.001523,-0.000262,0.003808,-0.495461,0.000912,-0.727371,-263.320529,-0.640572,68.735923
7.5165,0.003203,0.014121,0.002638,0.00177,-0.001522,-0.000313,0.003961,-0.495539,0.001975,-0.739891,-263.319568,-0.664723,68.736825
7.5366,0.003396,0.014578,0.000882,0.001723,-0.001541,-0.001037,0.004498,-0.495849,0.002578,-0.739891,-263.319568,-0.664723,68.736825
7.5567,0.003291,0.014348,-0.000647,0.001679,-0.001548,-0.001552,0.004498,-0.495849,0.002578,-0.739891,-263.319568,-0.664723,68.736825
7.5764,0.003113,0.014374,0.00242,0.001639,-0.001547,-0.001917,0.003034,-0.495714,-0.00066,-0.76926,-263.318602,-0.644745,68.737693
7.5964,0.003175,0.014275,0.000872,0.001643,-0.001518,-0.001272,0.003578,-0.495685,0.000596,-0.76926,-263.318602,-0.644745,68.737693
7.6166,0.003503,0.014203,-8.3e-05,0.001651,-0.001501,-0.00083,0.003621,-0.495725,0.000871,-0.844306,-263.318579,-0.5697,68.737705
7.6364,0.003263,0.014237,0.000766,0.001661,-0.001483,-0.000186,0.003475,-0.495791,1e-06,-0.844306,-263.318579,-0.5697,68.737705
7.6563,0.003347,0.014217,-2.2e-05,0.001674,-0.001474,0.000259,0.003475,-0.495791,1e-06,-0.844306,-263.318579,-0.5697,68.737705
7.6766,0.003566,0.014191,0.001093,0.001687,-0.001472,0.000565,0.003402,-0.495844,-5.6e-05,-0.88278,-263.317575,-0.542198,68.73845
7.6965,0.003455,0.014149,-0.000512,0.001686,-0.001477,0.000544,0.003707,-0.495837,0.000413,-0.88278,-263.317575,-0.542198,68.73845
7.7167,0.003299,0.014029,8.9e-05,0.001686,-0.001481,0.000525,0.003198,-0.495854,-0.000512,-0.807712,-263.317519,-0.617265,68.738518
7.7367,0.003472,0.014232,0.000975,0.001704,-0.001484,0.000719,0.003333,-0.495962,4.3e-05,-0.807712,-263.317519,-0.617265,68.738518
7.7568,0.003331,0.014266,0.00162,0.001721,-0.001489,0.000852,0.003333,-0.495962,4.3e-05,-0.807712,-263.317519,-0.617265,68.738518
7.7767,0.003545,0.014493,0.001747,0.001735,-0.001495,0.000945,0.004176,-0.495749,0.001622,-0.732421,-263.317303,-0.692556,68.738778
7.7971,0.003216,0.014225,0.001044,0.001708,-0.001521,0.000201,0.004286,-0.495651,0.001674,-0.732421,-263.317303,-0.692556,68.738778
7.8165,0.003261,0.014342,-0.001251,0.001682,-0.001534,-0.00033,0.003761,-0.495786,0.001048,-0.657707,-263.317129,-0.76727,68.739018
7.8362,0.003555,0.014439,0.001582,0.001732,-0.001509,0.000739,0.002725,-0.49567,-0.001046,-0.657707,-263.317129,-0.76727,68.739018
7.8562,0.003657,0.014168,-0.000693,0.001779,-0.0015,0.001489,0.002725,-0.49567,-0.001046,-0.657707,-263.317129,-0.76727,68.739018
7.8768,0.003432,0.014228,0.001242,0.001823,-0.001502,0.002015,0.003348,-0.495871,-0.000699,-0.732695,-263.316532,-0.692282,68.739548
7.897,0.0034,0.014188,0.000835,0.001812,-0.001515,0.001739,0.003648,-0.495834,9.9e-05,-0.732695,-263.316532,-0.692282,68.739548
7.9162,0.003322,0.013912,-0.000138,0.001801,-0.001524,0.001543,0.003825,-0.495811,0.000835,-0.657707,-263.316531,-0.76727,68.739549
7.9364,0.003172,0.0141,0.001495,0.001809,-0.001532,0.001487,0.003303,-0.496063,-5e-05,-0.657707,-263.316531,-0.76727,68.739549
7.9568,0.003645,0.013966,0.003667,0.001816,-0.001539,0.001446,0.003303,-0.496063,-5e-05,-0.657707,-263.316531,-0.76727,68.739549
7.9764,0.003716,0.014151,0.00071,0.001821,-0.001544,0.001417,0.005522,-0.496037,0.003671,-0.582788,-263.316464,-0.842189,68.739658
7.9964,0.003488,0.014249,0.0004,0.001743,-0.001567,0.000284,0.004918,-0.495959,0.002432,-0.582788,-263.316464,-0.842189,68.739658
8.0165,0.003557,0.014611,0.001116,0.001673,-0.001573,-0.000534,0.003714,-0.495771,0.000414,-0.507267,-263.31616,-0.91771,68.74013
8.0369,0.003899,0.014104,0.000565,0.001662,-0.001562,-0.000552,0.004091,-0.495423,0.001055,-0.507267,-263.31616,-0.91771,68.74013
8.0565,0.003407,0.014334,0.00138,0.001652,-0.001552,-0.00057,0.004091,-0.495423,0.001055,-0.507267,-263.31616,-0.91771,68.74013
8.0763,0.003314,0.014015,0.001547,0.001643,-0.001543,-0.000588,0.004114,-0.495668,0.00138,-0.581788,-263.316116,-0.843189,68.740166
8.0964,0.003762,0.013971,0.000693,0.001633,-0.001542,-0.000794,0.00411,-0.495799,0.001449,-0.581788,-263.316116,-0.843189,68.740166
8.1162,0.003329,0.01411,0.001296,0.001622,-0.001538,-0.000941,0.004122,-0.496035,0.000692,-0.656904,-263.315982,-0.768073,68.740274
8.1366,0.003278,0.013945,0.000955,0.001615,-0.001529,-0.000949,0.004002,-0.495902,0.001242,-0.656904,-263.315982,-0.768073,68.740274
8.1562,0.00351,0.014139,0.001626,0.001609,-0.001522,-0.000957,0.004002,-0.495902,0.001242,-0.656904,-263.315982,-0.768073,68.740274
8.1768,0.00362,0.01388,0.001104,0.001605,-0.001515,-0.000964,0.00435,-0.495869,0.001623,-0.731753,-263.315831,-0.693224,68.740381
8.1966,0.00392,0.014136,0.000632,0.001582,-0.001506,-0.001046,0.004282,-0.495975,0.001407,-0.731753,-263.315831,-0.693224,68.740381
8.2165,0.003413,0.01424,0.001667,0.001562,-0.001497,-0.001105,0.004261,-0.495881,0.000624,-0.806942,-263.315453,-0.618035,68.740646
8.2365,0.003672,0.014015,0.000962,0.001553,-0.001496,-0.001226,0.004264,-0.495771,0.001577,-0.806942,-263.315453,-0.618035,68.740646
8.2566,0.003575,0.014132,-0.000206,0.001544,-0.001493,-0.001311,0.004264,-0.495771,0.001577,-0.806942,-263.315453,-0.618035,68.740646
8.2765,0.004006,0.013594,-0.000253,0.001536,-0.001489,-0.001371,0.003507,-0.495902,-0.000228,-0.881882,-263.314868,-0.543096,68.741032
8.2963,0.003624,0.014273,0.002532,0.00154,-0.001457,-0.000433,0.003662,-0.496111,-0.00024,-0.881882,-263.314868,-0.543096,68.741032
8.3168,0.003976,0.013857,-0.000394,0.00155,-0.00144,0.000221,0.004945,-0.495755,0.002508,-0.956754,-263.314192,-0.468223,68.741437
8.3364,0.003749,0.014032,0.001582,0.001548,-0.001431,0.000619,0.003879,-0.496111,-0.000141,-0.956754,-263.314192,-0.468223,68.741437
8.3566,0.003827,0.013954,0.001003,0.001549,-0.001428,0.000895,0.003879,-0.496111,-0.000141,-0.956754,-263.314192,-0.468223,68.741437
8.3765,0.003773,0.014289,-0.000846,0.001552,-0.001429,0.001087,0.004343,-0.496049,0.001002,-0.881635,-263.314142,-0.543342,68.741491
8.3967,0.0036,0.014006,0.000666,0.001562,-0.001442,0.000996,0.003935,-0.495911,0.000248,-0.881635,-263.314142,-0.543342,68.741491
8.4163,0.003653,0.014008,0.000616,0.00157,-0.001452,0.00093,0.00394,-0.495994,0.000666,-0.806696,-263.314139,-0.618281,68.741495
8.4363,0.003748,0.014133,0.001608,0.001577,-0.001467,0.000679,0.003965,-0.495993,0.000621,-0.806696,-263.314139,-0.618281,68.741495
8.457,0.003361,0.01376,0.000582,0.001582,-0.001477,0.000501,0.003965,-0.495993,0.000621,-0.806696,-263.314139,-0.618281,68.741495
8.4764,0.004045,0.014086,-0.000421,0.001586,-0.001484,0.000375,0.003662,-0.496243,0.000583,-0.731727,-263.314095,-0.69325,68.741558
8.4965,0.004104,0.014228,0.001548,0.001596,-0.001482,0.000532,0.00373,-0.496111,0.000177,-0.731727,-263.314095,-0.69325,68.741558
8.5164,0.003428,0.014093,0.002367,0.001605,-0.001482,0.00064,0.004931,-0.495804,0.001555,-0.669253,-263.313517,-0.768215,68.742226
8.537,0.003624,0.013857,0.000836,0.001577,-0.001513,-0.000252,0.004662,-0.495899,0.002296,-0.669253,-263.313517,-0.768215,68.742226
8.5566,0.003859,0.013842,0.001115,0.001549,-0.001528,-0.000889,0.004662,-0.495899,0.002296,-0.669253,-263.313517,-0.768215,68.742226
8.5766,0.004154,0.013682,0.001478,0.001522,-0.001531,-0.001343,0.004481,-0.496206,0.001135,-0.59725,-263.312898,-0.843314,68.743012
8.5963,0.00336,0.013598,0.000692,0.001476,-0.0015,-0.001231,0.004662,-0.496258,0.001277,-0.59725,-263.312898,-0.843314,68.743012
8.6163,0.00407,0.014238,0.001052,0.001439,-0.001476,-0.001157,0.003713,-0.496402,0.000692,-0.672149,-263.312893,-0.768414,68.743016
8.6364,0.003783,0.013837,0.001971,0.001425,-0.001459,-0.000982,0.004525,-0.49582,0.001019,-0.672149,-263.312893,-0.768414,68.743016
8.6568,0.00413,0.013915,0.001132,0.001415,-0.001447,-0.000863,0.004525,-0.49582,0.001019,-0.672149,-263.312893,-0.768414,68.743016
8.6766,0.00389,0.013768,0.001278,0.001407,-0.001438,-0.000783,0.004711,-0.496088,0.001131,-0.747139,-263.312833,-0.693425,68.743053
8.6966,0.003759,0.013718,0.00277,0.001388,-0.00143,-0.000813,0.004643,-0.496146,0.00119,-0.747139,-263.312833,-0.693425,68.743053
8.7169,0.003894,0.013935,0.001276,0.001373,-0.001423,-0.000835,0.005195,-0.496301,0.00276,-0.822139,-263.312374,-0.618425,68.743382
8.7367,0.004191,0.013907,0.002108,0.001366,-0.001424,-0.000958,0.004605,-0.496087,0.001409,-0.822139,-263.312374,-0.618425,68.743382
8.7566,0.004128,0.013856,0.000391,0.00136,-0.001423,-0.001045,0.004605,-0.496087,0.001409,-0.822139,-263.312374,-0.618425,68.743382
8.7767,0.003717,0.01399,0.001917,0.001354,-0.001421,-0.001107,0.004371,-0.496187,0.000367,-0.89714,-263.311666,-0.586842,68.743874
8.7964,0.004338,0.014045,8.5e-05,0.001349,-0.001411,-0.000948,0.004509,-0.496119,0.000998,-0.89714,-263.311666,-0.586842,68.743874
8.8165,0.004154,0.013796,-0.001051,0.001346,-0.001405,-0.000838,0.004415,-0.495989,5.9e-05,-0.972136,-263.310905,-0.511846,68.744345
8.8367,0.003739,0.013592,0.000885,0.001373,-0.001378,0.000329,0.003688,-0.496187,-0.000956,-0.972136,-263.310905,-0.511846,68.744345
8.8564,0.00401,0.014088,0.000381,0.001402,-0.001368,0.00115,0.003688,-0.496187,-0.000956,-0.972136,-263.310905,-0.511846,68.744345
8.8763,0.004348,0.013586,-0.000214,0.001432,-0.001369,0.001727,0.004256,-0.495966,0.00035,-0.958495,-263.310051,-0.586032,68.744934
8.8966,0.004457,0.013914,-0.000705,0.001437,-0.001388,0.001523,0.004255,-0.496154,0.000117,-0.958495,-263.310051,-0.586032,68.744934
8.9164,0.004063,0.013693,0.001139,0.001441,-0.001402,0.001378,0.004098,-0.496086,-0.000705,-0.883603,-263.310051,-0.660924,68.744934
8.9368,0.004607,0.013728,0.001025,0.001428,-0.001423,0.000819,0.004597,-0.496288,0.000982,-0.883603,-263.310051,-0.660924,68.744934
8.9563,0.003691,0.013539,-1.4e-05,0.001414,-0.001434,0.000421,0.004597,-0.496288,0.000982,-0.883603,-263.310051,-0.660924,68.744934
8.9769,0.004056,0.013509,-0.000121,0.0014,-0.001439,0.000138,0.003684,-0.496461,-1.4e-05,-0.808413,-263.31005,-0.736115,68.744936
8.9966,0.00403,0.013405,-0.0001,0.001424,-0.001435,0.000505,0.00381,-0.496473,-5.7e-05,-0.808413,-263.31005,-0.736115,68.744936
9.0166,0.004097,0.013704,0.000854,0.001446,-0.001435,0.00076,0.004017,-0.496634,-9.7e-05,-0.768828,-263.309384,-0.810938,68.745643
9.0367,0.004078,0.013776,0.001715,0.001432,-0.001441,0.000482,0.00449,-0.496327,0.000772,-0.768828,-263.309384,-0.810938,68.745643
9.0564,0.004048,0.013277,0.002189,0.00142,-0.001443,0.000285,0.00449,-0.496327,0.000772,-0.768828,-263.309384,-0.810938,68.745643
9.0764,0.00423,0.013372,0.002985,0.001408,-0.001442,0.000146,0.005194,-0.496752,0.002201,-0.693721,-263.309037,-0.886046,68.746119
9.0967,0.004369,0.013649,0.000595,0.001343,-0.001449,-0.00068,0.005428,-0.496704,0.002526,-0.693721,-263.309037,-0.886046,68.746119
9.1169,0.00407,0.013547,0.000214,0.001284,-0.001445,-0.00127,0.004712,-0.496391,0.000599,-0.765398,-263.308356,-0.827389,68.746844
9.1369,0.004203,0.013039,0.001019,0.001293,-0.001421,-0.000628,0.004226,-0.49645,0.000247,-0.765398,-263.308356,-0.827389,68.746844
9.1569,0.004188,0.01355,-8.5e-05,0.001304,-0.001408,-0.000187,0.004226,-0.49645,0.000247,-0.765398,-263.308356,-0.827389,68.746844
9.1766,0.004866,0.013685,0.000259,0.001317,-0.001401,0.000116,0.004147,-0.496453,-8.6e-05,-0.840392,-263.308316,-0.752395,68.746867
9.1965,0.004422,0.013274,0.000774,0.001308,-0.001388,0.000437,0.004497,-0.496396,5.5e-05,-0.840392,-263.308316,-0.752395,68.746867
9.2166,0.004147,0.013459,0.000315,0.001304,-0.001381,0.000657,0.004852,-0.496763,0.000777,-0.790335,-263.307682,-0.827426,68.747536
9.2366,0.00437,0.013651,0.000629,0.001313,-0.001387,0.000637,0.004356,-0.496562,0.000354,-0.790335,-263.307682,-0.827426,68.747536
9.2566,0.004498,0.013686,0.00231,0.00132,-0.001392,0.000621,0.004356,-0.496562,0.000354,-0.790335,-263.307682,-0.827426,68.747536
9.2765,0.004169,0.013137,8e-06,0.001326,-0.001396,0.000609,0.005708,-0.496347,0.002323,-0.715351,-263.307303,-0.90241,68.748049
9.2963,0.004217,0.013577,0.000843,0.001294,-0.001404,8.9e-05,0.005079,-0.496564,0.00137,-0.715351,-263.307303,-0.90241,68.748049
9.3162,0.00456,0.01309,0.0022,0.001264,-0.001404,-0.000279,0.004687,-0.496464,0.000861,-0.657908,-263.306674,-0.927284,68.748879
9.3365,0.004314,0.013276,0.000959,0.001202,-0.001397,-0.00083,0.005598,-0.496872,0.002085,-0.657908,-263.306674,-0.927284,68.748879
9.3563,0.004309,0.013239,0.000754,0.001147,-0.001384,-0.001222,0.005598,-0.496872,0.002085,-0.657908,-263.306674,-0.927284,68.748879
9.3766,0.004416,0.01311,0.000953,0.001099,-0.001368,-0.0015,0.004709,-0.496776,0.000754,-0.732877,-263.306451,-0.852315,68.749074
9.3963,0.004383,0.013263,0.000154,0.001097,-0.001349,-0.001121,0.004789,-0.496824,0.000835,-0.732877,-263.306451,-0.852315,68.749074
9.4164,0.004581,0.013669,0.000776,0.001099,-0.001337,-0.000861,0.004462,-0.496737,0.000154,-0.807782,-263.306448,-0.77741,68.749075
9.4365,0.004588,0.013257,0.000243,0.001102,-0.001328,-0.000622,0.004931,-0.496368,0.00072,-0.807782,-263.306448,-0.77741,68.749075
9.4565,0.004592,0.013133,0.000612,0.001106,-0.001324,-0.000457,0.004931,-0.496368,0.00072,-0.807782,-263.306448,-0.77741,68.749075
9.4763,0.004679,0.013293,0.001271,0.001111,-0.001322,-0.000345,0.00492,-0.496884,0.000604,-0.882777,-263.306182,-0.702415,68.749244
9.4963,0.004352,0.013182,0.001779,0.001096,-0.001315,-0.000346,0.005087,-0.496814,0.000874,-0.882777,-263.306182,-0.702415,68.749244
9.5164,0.004317,0.013368,0.000574,0.001084,-0.00131,-0.000348,0.005289,-0.496852,0.00177,-0.943671,-263.305543,-0.777421,68.749774
9.5367,0.004149,0.013074,0.001078,0.001104,-0.001316,-0.000252,0.004671,-0.496653,0.000679,-0.943671,-263.305543,-0.777421,68.749774
9.5568,0.004518,0.013049,0.000813,0.001122,-0.001322,-0.000185,0.004671,-0.496653,0.000679,-0.943671,-263.305543,-0.777421,68.749774
9.5766,0.004185,0.013302,0.001641,0.001136,-0.001327,-0.00014,0.004978,-0.497005,0.000799,-0.952334,-263.304798,-0.791735,68.750388
9.5963,0.00431,0.013264,0.001279,0.001126,-0.00133,-0.000342,0.005001,-0.496886,0.001141,-0.952334,-263.304798,-0.791735,68.750388
9.6163,0.004521,0.013068,0.001117,0.001116,-0.001331,-0.000485,0.004996,-0.496774,0.001275,-0.893345,-263.304128,-0.829761,68.751011
9.6367,0.00422,0.01319,-0.001141,0.0011,-0.001326,-0.000579,0.005084,-0.49692,0.001131,-0.893345,-263.304128,-0.829761,68.751011
9.6565,0.00422,0.012975,0.001457,0.001087,-0.001321,-0.000646,0.005084,-0.49692,0.001131,-0.893345,-263.304128,-0.829761,68.751011
9.6768,0.004315,0.012793,0.001602,0.001075,-0.001316,-0.000693,0.005001,-0.49707,0.001441,-0.968337,-263.303483,-0.754768,68.751508
9.6965,0.004711,0.013002,0.000974,0.001065,-0.001319,-0.000903,0.005059,-0.497131,0.001505,-0.968337,-263.303483,-0.754768,68.751508
9.7166,0.004727,0.013215,-0.000873,0.001056,-0.001318,-0.001051,0.005238,-0.497035,0.000954,-1.017336,-263.302743,-0.693105,68.752014
9.7366,0.004791,0.013086,0.000645,0.001073,-0.001291,5.1e-05,0.004369,-0.496809,-0.000711,-1.017336,-263.302743,-0.693105,68.752014
9.7565,0.004915,0.012797,-0.000624,0.001095,-0.00128,0.000824,0.004369,-0.496809,-0.000711,-1.017336,-263.302743,-0.693105,68.752014
9.7766,0.004938,0.013119,7.4e-05,0.001117,-0.00128,0.001365,0.004629,-0.497244,-0.000655,-1.076575,-263.302085,-0.618211,68.752385
9.7966,0.004957,0.012881,0.001173,0.001107,-0.001278,0.001548,0.004773,-0.497102,-0.000363,-1.076575,-263.302085,-0.618211,68.752385
9.816,0.004263,0.012824,0.001019,0.001101,-0.00128,0.001676,0.005555,-0.497118,0.001173,-1.001587,-263.302085,-0.693199,68.752385
9.8365,0.004949,0.01284,0.000507,0.001111,-0.001314,0.001007,0.004852,-0.49717,0.001033,-1.001587,-263.302085,-0.693199,68.752385
9.8568,0.004681,0.013386,0.00077,0.001114,-0.001334,0.00053,0.004852,-0.49717,0.001033,-1.001587,-263.302085,-0.693199,68.752385
9.8764,0.004818,0.012708,0.000251,0.001114,-0.001345,0.000191,0.005074,-0.496614,0.00077,-0.926568,-263.302085,-0.768219,68.752385
9.8966,0.004628,0.013076,0.000417,0.001101,-0.001337,0.000201,0.005021,-0.496893,0.000556,-0.926568,-263.302085,-0.768219,68.752385
9.9164,0.004375,0.012664,0.001164,0.001091,-0.001331,0.000205,0.004863,-0.496949,0.000419,-0.851453,-263.301685,-0.843334,68.752828
9.9365,0.004838,0.01307,0.001404,0.001082,-0.001335,-7.5e-05,0.004961,-0.497303,0.0011,-0.851453,-263.301685,-0.843334,68.752828
9.9562,0.005028,0.013031,-0.000474,0.001074,-0.001335,-0.000273,0.004961,-0.497303,0.0011,-0.851453,-263.301685,-0.843334,68.752828
9.9764,0.004782,0.012814,0.000365,0.001065,-0.001333,-0.000413,0.004827,-0.497018,-0.000467,-0.835617,-263.301108,-0.91833,68.753473
9.9961,0.005012,0.012604,9.2e-05,0.00105,-0.001307,0.000166,0.004889,-0.497093,-0.000126,-0.835617,-263.301108,-0.91833,68.753473
10.0162,0.005023,0.01244,0.001083,0.001041,-0.001292,0.000569,0.005078,-0.497419,8.6e-05,-0.910505,-263.300682,-0.843442,68.753812
10.0365,0.004599,0.013201,-0.000753,0.000995,-0.001282,0.00024,0.005534,-0.497548,0.000997,-0.910505,-263.300682,-0.843442,68.753812
10.0563,0.004854,0.013109,0.002308,0.000955,-0.00127,6e-06,0.005534,-0.497548,0.000997,-0.910505,-263.300682,-0.843442,68.753812
10.0762,0.004755,0.012587,0.000586,0.000921,-0.001258,-0.000159,0.006049,-0.496912,0.002315,-0.835414,-263.300455,-0.918533,68.754126
10.0962,0.005023,0.012687,-0.001461,0.000905,-0.001265,-0.00056,0.005642,-0.49712,0.001605,-0.835414,-263.300455,-0.918533,68.754126
10.1163,0.004903,0.012876,0.000157,0.000888,-0.001266,-0.000844,0.0043,-0.497341,-0.001464,-0.910354,-263.299975,-0.900177,68.75456
10.1364,0.00522,0.012734,0.000998,0.000899,-0.00125,-0.000211,0.004923,-0.497145,1.2e-05,-0.910354,-263.299975,-0.900177,68.75456
10.1563,0.004801,0.013012,0.002298,0.000912,-0.001243,0.000228,0.004923,-0.497145,1.2e-05,-0.910354,-263.299975,-0.900177,68.75456
10.1764,0.004897,0.01259,0.001185,0.000926,-0.001242,0.000532,0.005984,-0.497002,0.00229,-0.985325,-263.299751,-0.825207,68.754691
10.1966,0.005001,0.012448,0.000251,0.000903,-0.00126,-0.000155,0.005787,-0.497171,0.001835,-0.985325,-263.299751,-0.825207,68.754691
10.2167,0.005128,0.013079,3.1e-05,0.000881,-0.001266,-0.000644,0.005137,-0.497562,0.000253,-0.910296,-263.299622,-0.900236,68.75487
10.2363,0.004522,0.012733,0.000797,0.000883,-0.001248,-8.6e-05,0.005144,-0.496976,5e-05,-0.910296,-263.299622,-0.900236,68.75487
10.2563,0.004847,0.012898,-6.9e-05,0.000889,-0.001239,0.000299,0.005144,-0.496976,5e-05,-0.910296,-263.299622,-0.900236,68.75487
10.2762,0.004804,0.012528,0.001425,0.000897,-0.001236,0.000565,0.00483,-0.497128,-8e-05,-0.985382,-263.299252,-0.825149,68.755115
10.2969,0.005287,0.012271,0.001799,0.000906,-0.001244,0.000471,0.005123,-0.497273,0.000542,-0.985382,-263.299252,-0.825149,68.755115
10.3163,0.004753,0.012508,-1.7e-05,0.000913,-0.001249,0.000404,0.006211,-0.497736,0.001801,-0.910375,-263.299141,-0.900156,68.755274
10.3364,0.005159,0.012595,-0.000892,0.000924,-0.001249,0.000578,0.004873,-0.497514,0.000141,-0.910375,-263.299141,-0.900156,68.755274
10.3564,0.00524,0.012399,0.001939,0.000935,-0.001251,0.000699,0.004873,-0.497514,0.000141,-0.910375,-263.299141,-0.900156,68.755274
10.3763,0.005203,0.012504,0.000807,0.000944,-0.001254,0.000782,0.006257,-0.497637,0.00195,-0.835383,-263.298755,-0.975149,68.755773
10.3963,0.004867,0.012283,7.1e-05,0.00089,-0.00125,0.000167,0.006,-0.497584,0.001488,-0.835383,-263.298755,-0.975149,68.755773
10.4166,0.005184,0.012742,0.000729,0.000842,-0.00124,-0.000269,0.004922,-0.497742,8.5e-05,-0.760501,-263.298457,-1.050031,68.756255
10.4365,0.005313,0.0127,-0.00011,0.00083,-0.00123,-0.000185,0.005507,-0.497296,0.00068,-0.760501,-263.298457,-1.050031,68.756255
10.4564,0.004916,0.012156,-2.8e-05,0.000822,-0.001222,-0.000129,0.005507,-0.497296,0.00068,-0.760501,-263.298457,-1.050031,68.756255
10.4764,0.005019,0.01247,0.001252,0.000815,-0.001216,-9.2e-05,0.00491,-0.497855,-2.9e-05,-0.835925,-263.298313,-0.974606,68.756374
10.4966,0.005085,0.012776,0.00143,0.000815,-0.001211,3.6e-05,0.005214,-0.497724,0.000491,-0.835925,-263.298313,-0.974606,68.756374
10.5163,0.004942,0.012444,-0.001025,0.000815,-0.001208,0.000123,0.005831,-0.497246,0.001429,-0.910517,-263.297934,-0.94757,68.756722
10.537,0.005512,0.012487,0.001726,0.000851,-0.001202,0.000927,0.004539,-0.49753,-0.000819,-0.910517,-263.297934,-0.94757,68.756722
10.5568,0.005305,0.012531,0.000691,0.000885,-0.001206,0.001491,0.004539,-0.49753,-0.000819,-0.910517,-263.297934,-0.94757,68.756722
10.5766,0.005428,0.012332,0.001102,0.000917,-0.001215,0.001887,0.00569,-0.497515,0.000696,-0.946938,-263.297416,-1.004811,68.757285
10.5969,0.005191,0.012384,-0.001051,0.000879,-0.001224,0.001247,0.005814,-0.497582,0.00086,-0.946938,-263.297416,-1.004811,68.757285
10.6167,0.005327,0.012025,0.000572,0.000843,-0.001223,0.000791,0.004655,-0.497615,-0.001051,-0.872107,-263.297416,-1.079641,68.757285
10.6364,0.005423,0.012662,0.001026,0.000814,-0.001211,0.000699,0.00553,-0.497942,0.000422,-0.872107,-263.297416,-1.079641,68.757285
10.6569,0.005169,0.012565,0.00272,0.00079,-0.001201,0.000633,0.00553,-0.497942,0.000422,-0.872107,-263.297416,-1.079641,68.757285
10.6768,0.004786,0.012144,0.000404,0.000769,-0.001192,0.000585,0.006579,-0.497468,0.002741,-0.797114,-263.297112,-1.111758,68.757802
10.6967,0.005478,0.012588,0.000924,0.000751,-0.00121,-0.000101,0.005935,-0.497631,0.001791,-0.797114,-263.297112,-1.111758,68.757802
10.7163,0.0053,0.012355,0.000675,0.000732,-0.001215,-0.000589,0.005974,-0.497449,0.000942,-0.8262,-263.296663,-1.109934,68.758485
10.7363,0.005588,0.012175,0.000142,0.000717,-0.001196,-0.000417,0.005678,-0.497628,0.000703,-0.8262,-263.296663,-1.109934,68.758485
10.7563,0.005305,0.012444,0.001417,0.000705,-0.001183,-0.000299,0.005678,-0.497628,0.000703,-0.8262,-263.296663,-1.109934,68.758485
10.7763,0.005064,0.012622,0.000538,0.000696,-0.001173,-0.00022,0.006031,-0.497559,0.001416,-0.901212,-263.296609,-1.034922,68.75852
10.7969,0.005229,0.012346,0.001344,0.000694,-0.001173,-0.000344,0.005739,-0.497483,0.001045,-0.901212,-263.296609,-1.034922,68.75852
10.8161,0.005105,0.012147,0.002178,0.000691,-0.001172,-0.000433,0.005928,-0.497674,0.001341,-0.976601,-263.296275,-0.980553,68.758802
10.8363,0.005099,0.012484,0.000442,0.000659,-0.001174,-0.000953,0.006192,-0.497837,0.002106,-0.976601,-263.296275,-0.980553,68.758802
10.8565,0.005062,0.012316,0.001441,0.000629,-0.001167,-0.001321,0.006192,-0.497837,0.002106,-0.976601,-263.296275,-0.980553,68.758802
10.8769,0.005381,0.012298,0.000588,0.000602,-0.001157,-0.001581,0.005818,-0.497716,0.00143,-1.051343,-263.295849,-0.920239,68.759107
10.8974,0.005182,0.012313,0.000951,0.000597,-0.001139,-0.00131,0.005765,-0.497714,0.001089,-1.051343,-263.295849,-0.920239,68.759107
10.9164,0.005513,0.012634,0.000405,0.000595,-0.001127,-0.001123,0.005667,-0.497687,0.000951,-1.126205,-263.295848,-0.845378,68.759107
10.9363,0.004886,0.012291,0.001242,0.000599,-0.001113,-0.000651,0.005715,-0.497391,0.000448,-1.126205,-263.295848,-0.845378,68.759107
10.957,0.005105,0.01223,0.000252,0.000605,-0.001106,-0.000325,0.005715,-0.497391,0.000448,-1.126205,-263.295848,-0.845378,68.759107
10.9765,0.005613,0.012285,0.001488,0.000613,-0.001105,-0.0001,0.005243,-0.497788,0.000235,-1.201567,-263.295556,-0.770015,68.759221
10.9964,0.005014,0.012317,0.001357,0.000615,-0.001106,-0.000104,0.005704,-0.497761,0.000744,-1.201567,-263.295556,-0.770015,68.759221
11.0165,0.005568,0.012777,0.000172,0.000617,-0.001108,-0.000109,0.005712,-0.49769,0.001355,-1.126833,-263.295424,-0.84475,68.759342
11.0363,0.005432,0.012229,0.000734,0.00063,-0.001109,0.000142,0.005661,-0.497265,0.000278,-1.126833,-263.295424,-0.84475,68.759342
11.0565,0.005501,0.012278,0.002828,0.000642,-0.001113,0.000316,0.005661,-0.497265,0.000278,-1.126833,-263.295424,-0.84475,68.759342
11.0766,0.005039,0.011901,0.003481,0.000653,-0.001118,0.000437,0.006959,-0.497744,0.002824,-1.086828,-263.295137,-0.919658,68.759604
11.0964,0.005364,0.011958,0.001568,0.000595,-0.00113,-0.000629,0.006902,-0.497891,0.003093,-1.086828,-263.295137,-0.919658,68.759604
11.1162,0.005016,0.012107,0.001084,0.000541,-0.001127,-0.001398,0.006171,-0.498052,0.001571,-1.011706,-263.295005,-0.99478,68.759792
11.1365,0.005541,0.012228,0.001503,0.000553,-0.001119,-0.001185,0.005622,-0.497907,0.001127,-1.011706,-263.295005,-0.99478,68.759792
11.1565,0.005282,0.012449,0.000246,0.000564,-0.001114,-0.001043,0.005622,-0.497907,0.001127,-1.011706,-263.295005,-0.99478,68.759792
11.1766,0.005195,0.012289,0.000674,0.000574,-0.001112,-0.000949,0.005407,-0.497551,0.000246,-1.086684,-263.295003,-0.919802,68.759793
11.1965,0.005613,0.012305,0.001975,0.000593,-0.001106,-0.00051,0.005461,-0.497616,0.000419,-1.086684,-263.295003,-0.919802,68.759793
11.2161,0.00564,0.012147,0.000105,0.000612,-0.001106,-0.000207,0.006628,-0.497709,0.001964,-1.16158,-263.294704,-0.844906,68.759924
11.2365,0.005426,0.012392,-0.000343,0.000599,-0.001091,0.000103,0.005765,-0.497843,0.000247,-1.16158,-263.294704,-0.844906,68.759924
11.2563,0.004938,0.012174,0.000754,0.000591,-0.001083,0.000317,0.005765,-0.497843,0.000247,-1.16158,-263.294704,-0.844906,68.759924
11.2763,0.005134,0.012125,0.000789,0.000586,-0.001079,0.000464,0.005339,-0.497853,0.000747,-1.110166,-263.29437,-0.920288,68.760204
11.2964,0.005269,0.012296,8.7e-05,0.000614,-0.001102,0.000278,0.005421,-0.497865,0.000764,-1.110166,-263.29437,-0.920288,68.760204
11.317,0.005566,0.011718,0.001648,0.000635,-0.001118,0.000146,0.005318,-0.497712,8.9e-05,-1.035549,-263.294277,-0.994905,68.760343
11.3365,0.005653,0.012317,-0.000987,0.000589,-0.001108,-0.000302,0.00632,-0.498237,0.001525,-1.035549,-263.294277,-0.994905,68.760343
11.3566,0.005506,0.012026,0.001758,0.000547,-0.001094,-0.000619,0.00632,-0.498237,0.001525,-1.035549,-263.294277,-0.994905,68.760343
11.3766,0.005093,0.011934,0.001218,0.000511,-0.001079,-0.000845,0.006426,-0.498014,0.001763,-1.017402,-263.293858,-1.070231,68.760816
11.3964,0.005426,0.012263,0.000328,0.000499,-0.001076,-0.001017,0.006142,-0.498039,0.001544,-1.017402,-263.293858,-1.070231,68.760816
11.4162,0.005218,0.012186,0.002343,0.000487,-0.001071,-0.001139,0.005596,-0.497742,0.000325,-1.092076,-263.293753,-0.995557,68.760864
11.4364,0.005223,0.011862,0.000248,0.000478,-0.001077,-0.001479,0.006339,-0.497806,0.002158,-1.092076,-263.293753,-0.995557,68.760864
11.4564,0.00516,0.012149,0.001329,0.000467,-0.001078,-0.001719,0.006339,-0.497806,0.002158,-1.092076,-263.293753,-0.995557,68.760864
11.4765,0.005188,0.011992,0.001784,0.000457,-0.001074,-0.001888,0.00584,-0.497854,0.001326,-1.167084,-263.293698,-0.920549,68.760882
11.497,0.00547,0.01232,0.001294,0.000461,-0.001066,-0.001733,0.005945,-0.497917,0.001512,-1.167084,-263.293698,-0.920549,68.760882
11.5163,0.005546,0.012273,0.000411,0.000466,-0.00106,-0.001627,0.00613,-0.49768,0.001294,-1.242075,-263.293698,-0.845558,68.760882
11.5368,0.00558,0.011833,0.000118,0.000474,-0.001044,-0.00102,0.005787,-0.497723,0.000487,-1.242075,-263.293698,-0.845558,68.760882
11.5564,0.005309,0.011954,0.000192,0.000484,-0.001037,-0.000601,0.005787,-0.497723,0.000487,-1.242075,-263.293698,-0.845558,68.760882
11.5767,0.005546,0.012292,-0.000684,0.000496,-0.001036,-0.000312,0.005407,-0.498046,0.000192,-1.317186,-263.293698,-0.770447,68.760882
11.5967,0.005389,0.012257,0.001705,0.000525,-0.001038,0.000263,0.00532,-0.497907,-0.000169,-1.317186,-263.293698,-0.770447,68.760882
11.6162,0.005248,0.012091,-5.9e-05,0.000553,-0.001047,0.000663,0.006263,-0.49775,0.001702,-1.242199,-263.293574,-0.845434,68.760974
11.6364,0.005069,0.012156,0.001147,0.000584,-0.001064,0.000796,0.0053,-0.497897,7.8e-05,-1.242199,-263.293574,-0.845434,68.760974
11.6563,0.005652,0.012051,0.001412,0.000611,-0.00108,0.000889,0.0053,-0.497897,7.8e-05,-1.242199,-263.293574,-0.845434,68.760974
11.6764,0.005468,0.012111,0.001183,0.000634,-0.001094,0.000953,0.006373,-0.497949,0.001412,-1.166921,-263.29357,-0.920712,68.760981
11.6963,0.005385,0.012097,0.000983,0.000605,-0.001102,0.000363,0.00625,-0.497924,0.001318,-1.166921,-263.29357,-0.920712,68.760981
11.7168,0.00575,0.011943,0.002249,0.000577,-0.001103,-5.6e-05,0.005886,-0.497903,0.000983,-1.09219,-263.293568,-0.995443,68.760985
11.7366,0.00512,0.011828,0.001327,0.000523,-0.001094,-0.000679,0.006796,-0.498041,0.002123,-1.09219,-263.293568,-0.995443,68.760985
11.7565,0.005649,0.012179,-1e-06,0.000474,-0.00108,-0.001122,0.006796,-0.498041,0.002123,-1.09219,-263.293568,-0.995443,68.760985
11.7766,0.005424,0.01171,0.000545,0.00043,-0.001062,-0.001437,0.005671,-0.497863,-3e-06,-1.100909,-263.293109,-1.070424,68.761422
11.7968,0.005481,0.012062,0.000511,0.00044,-0.001043,-0.000727,0.005686,-0.498041,0.00022,-1.100909,-263.293109,-1.070424,68.761422
11.8167,0.005614,0.012305,0.000131,0.000453,-0.001034,-0.000237,0.005742,-0.497938,0.000511,-1.175808,-263.293109,-0.995526,68.761422
11.8362,0.00541,0.011973,0.000438,0.000475,-0.001037,0.000131,0.005686,-0.497716,0.000164,-1.175808,-263.293109,-0.995526,68.761422
11.8564,0.005293,0.012091,-0.000568,0.000497,-0.001043,0.000384,0.005686,-0.497716,0.000164,-1.175808,-263.293109,-0.995526,68.761422
11.8768,0.005265,0.012129,0.000683,0.000517,-0.001052,0.000558,0.005019,-0.497944,-0.000577,-1.204263,-263.292691,-1.07063,68.761752
11.8968,0.005766,0.012061,-0.000505,0.000554,-0.001067,0.000804,0.005264,-0.497918,-6.2e-05,-1.204263,-263.292691,-1.07063,68.761752
11.9164,0.005588,0.011691,0.000985,0.000586,-0.001082,0.000976,0.005512,-0.497947,-0.000502,-1.129315,-263.292608,-1.145579,68.761892
11.9371,0.005381,0.012122,0.000684,0.000561,-0.001082,0.000599,0.006041,-0.498278,0.000857,-1.129315,-263.292608,-1.145579,68.761892
11.9566,0.005264,0.011858,0.000448,0.000539,-0.001078,0.000332,0.006041,-0.498278,0.000857,-1.129315,-263.292608,-1.145579,68.761892
11.9765,0.005695,0.011693,0.001297,0.00052,-0.001073,0.000143,0.005493,-0.498144,0.00045,-1.054229,-263.292597,-1.220664,68.761919
11.9966,0.005552,0.012381,0.00164,0.000517,-0.001074,3.8e-05,0.005848,-0.498211,0.000798,-1.054229,-263.292597,-1.220664,68.761919
12.0167,0.005242,0.012258,-0.000235,0.000514,-0.001074,-3.8e-05,0.006404,-0.49765,0.001644,-1.08548,-263.292192,-1.149791,68.762381
12.0365,0.005794,0.012092,0.001087,0.000556,-0.001084,0.000389,0.005233,-0.497736,-7.2e-05,-1.08548,-263.292192,-1.149791,68.762381
12.0564,0.005479,0.011699,0.000398,0.000593,-0.001096,0.000687,0.005233,-0.497736,-7.2e-05,-1.08548,-263.292192,-1.149791,68.762381
12.0764,0.005559,0.01175,0.002143,0.000625,-0.00111,0.000894,0.005703,-0.498343,0.000397,-1.132282,-263.291733,-1.11554,68.762824
12.0964,0.005536,0.01157,0.001084,0.000592,-0.001108,0.000413,0.006096,-0.498309,0.001116,-1.132282,-263.291733,-1.11554,68.762824
12.1165,0.005378,0.011872,0.000714,0.000562,-0.001102,7.2e-05,0.00609,-0.498432,0.001086,-1.057264,-263.291712,-1.190558,68.762869
12.1367,0.005297,0.012147,0.001441,0.000558,-0.001099,1.4e-05,0.005772,-0.498155,0.000746,-1.057264,-263.291712,-1.190558,68.762869
12.1565,0.005539,0.011716,0.001495,0.000554,-0.001097,-2.7e-05,0.005772,-0.498155,0.000746,-1.057264,-263.291712,-1.190558,68.762869
12.1766,0.005642,0.011937,0.002033,0.000551,-0.001094,-5.7e-05,0.006323,-0.498325,0.001498,-1.082486,-263.291279,-1.115581,68.76333
12.1965,0.006094,0.011732,-0.001334,0.000511,-0.001087,-0.000531,0.006472,-0.498221,0.001719,-1.082486,-263.291279,-1.115581,68.76333
12.2161,0.005448,0.011938,0.001203,0.000475,-0.001076,-0.000866,0.005431,-0.498302,-0.001336,-1.116904,-263.29079,-1.091448,68.763794
12.2362,0.005604,0.011921,0.00012,0.000469,-0.001065,-0.000765,0.006009,-0.498084,0.000988,-1.116904,-263.29079,-1.091448,68.763794
12.2565,0.005461,0.011792,0.001106,0.000464,-0.001057,-0.000696,0.006009,-0.498084,0.000988,-1.116904,-263.29079,-1.091448,68.763794
12.2763,0.00541,0.011487,0.001178,0.000461,-0.001051,-0.000649,0.00603,-0.49822,0.001097,-1.191923,-263.290616,-1.016429,68.76387
12.2964,0.005581,0.011775,0.000969,0.000451,-0.001044,-0.000688,0.006023,-0.498342,0.00113,-1.191923,-263.290616,-1.016429,68.76387
12.3167,0.005919,0.011701,-0.000224,0.000442,-0.001037,-0.000716,0.006088,-0.498254,0.000951,-1.262416,-263.290085,-0.957,68.764149
12.3366,0.00546,0.0117,-0.000241,0.000431,-0.001013,-4.3e-05,0.005831,-0.498297,-0.000123,-1.262416,-263.290085,-0.957,68.764149
12.3562,0.006144,0.011405,0.001076,0.000427,-0.001,0.000425,0.005831,-0.498297,-0.000123,-1.262416,-263.290085,-0.957,68.764149
12.3766,0.005775,0.011619,0.001969,0.000426,-0.000995,0.000751,0.006712,-0.498637,0.001047,-1.279401,-263.289477,-0.93549,68.764444
12.3969,0.005528,0.011272,0.000945,0.000381,-0.000989,0.000179,0.006742,-0.498536,0.001423,-1.279401,-263.289477,-0.93549,68.764444
12.4164,0.005364,0.011867,0.00068,0.000341,-0.000979,-0.000228,0.00601,-0.498728,0.000945,-1.204472,-263.289474,-1.01042,68.764451
12.4369,0.00558,0.01201,0.002643,0.000375,-0.000995,-0.000173,0.005738,-0.498186,0.000703,-1.204472,-263.289474,-1.01042,68.764451
12.4565,0.005328,0.011455,0.000358,0.000403,-0.001009,-0.000136,0.005738,-0.498186,0.000703,-1.204472,-263.289474,-1.01042,68.764451
12.4767,0.00563,0.012012,0.000251,0.000426,-0.001021,-0.000112,0.00552,-0.498568,0.000352,-1.274778,-263.289209,-1.085388,68.764656
12.4965,0.005546,0.011682,0.000436,0.000443,-0.001023,0.000121,0.005618,-0.498334,0.00031,-1.274778,-263.289209,-1.085388,68.764656
12.5162,0.005513,0.01179,0.001542,0.000458,-0.001028,0.000283,0.00578,-0.498346,0.000433,-1.199819,-263.288811,-1.150235,68.765012
12.5368,0.005755,0.011383,0.001072,0.000447,-0.001038,-0.000176,0.006255,-0.498223,0.001446,-1.199819,-263.288811,-1.150235,68.765012
12.5564,0.006015,0.011436,0.000541,0.000435,-0.001041,-0.000501,0.006255,-0.498223,0.001446,-1.199819,-263.288811,-1.150235,68.765012
12.577,0.005947,0.011542,0.003935,0.000423,-0.00104,-0.000732,0.006305,-0.498596,0.000549,-1.124709,-263.288519,-1.206371,68.765399
12.5967,0.005743,0.011214,-0.001219,0.00036,-0.001011,-0.001097,0.006987,-0.498541,0.001948,-1.124709,-263.288519,-1.206371,68.765399
12.6164,0.005786,0.011476,0.000488,0.000305,-0.000983,-0.001356,0.005124,-0.498793,-0.001223,-1.199798,-263.288382,-1.131281,68.765463
12.6363,0.005879,0.011193,-0.000185,0.000304,-0.000961,-0.000744,0.005955,-0.498548,0.000338,-1.199798,-263.288382,-1.131281,68.765463
12.6561,0.005462,0.011957,0.001695,0.000307,-0.00095,-0.000322,0.005955,-0.498548,0.000338,-1.199798,-263.288382,-1.131281,68.765463
12.6765,0.005678,0.011445,-0.000491,0.000312,-0.000946,-3.1e-05,0.006326,-0.498042,0.001695,-1.27471,-263.288382,-1.05637,68.765463
12.6964,0.005741,0.012008,-0.0001,0.000336,-0.000962,-8.5e-05,0.005959,-0.498252,0.0008,-1.27471,-263.288382,-1.05637,68.765463
12.7164,0.005672,0.011359,0.001424,0.000354,-0.000974,-0.000125,0.005697,-0.498009,-0.000101,-1.257476,-263.288155,-1.131245,68.765682
12.7361,0.005733,0.011221,-0.000974,0.000338,-0.000973,-0.000394,0.006338,-0.498587,0.001292,-1.257476,-263.288155,-1.131245,68.765682
12.7561,0.005475,0.011124,0.001971,0.000324,-0.00097,-0.000584,0.006338,-0.498587,0.001292,-1.257476,-263.288155,-1.131245,68.765682
12.7765,0.006084,0.011588,-0.000122,0.00031,-0.000964,-0.000719,0.006494,-0.498913,0.001966,-1.245508,-263.287741,-1.195006,68.766043
12.7963,0.006037,0.011431,-0.00045,0.000294,-0.000952,-0.000721,0.0063,-0.49871,0.001102,-1.245508,-263.287741,-1.195006,68.766043
12.8164,0.005114,0.011224,0.000865,0.000281,-0.000942,-0.000723,0.005813,-0.498586,-0.000462,-1.320526,-263.287421,-1.119988,68.766179
12.8366,0.005811,0.011542,0.000331,0.000314,-0.000954,-0.000554,0.005576,-0.498761,0.000756,-1.320526,-263.287421,-1.119988,68.766179
12.8566,0.00569,0.011328,0.000217,0.000343,-0.000966,-0.000437,0.005576,-0.498761,0.000756,-1.320526,-263.287421,-1.119988,68.766179
12.8766,0.005464,0.011709,0.001079,0.000367,-0.000976,-0.000355,0.005811,-0.498707,0.000189,-1.370509,-263.28691,-1.059298,68.766386
12.8965,0.005928,0.011251,0.00024,0.000369,-0.000973,-0.000185,0.005896,-0.49854,0.000553,-1.370509,-263.28691,-1.059298,68.766386
12.9161,0.005708,0.011485,0.001848,0.000372,-0.000973,-6.6e-05,0.00606,-0.498774,0.00023,-1.295711,-263.286507,-1.120671,68.766659
12.9366,0.005606,0.011288,0.001941,0.000344,-0.000974,-0.000537,0.006601,-0.498537,0.001711,-1.295711,-263.286507,-1.120671,68.766659
12.9564,0.006143,0.011222,0.000769,0.000317,-0.000969,-0.00087,0.006601,-0.498537,0.001711,-1.295711,-263.286507,-1.120671,68.766659
12.9763,0.005657,0.01145,-0.000365,0.000293,-0.000961,-0.001106,0.006549,-0.498812,0.000767,-1.220584,-263.286145,-1.19089,68.766995
12.9963,0.005936,0.011385,0.000993,0.000278,-0.000935,-0.000556,0.006112,-0.49871,0.000307,-1.220584,-263.286145,-1.19089,68.766995
13.0163,0.006013,0.011456,0.001388,0.00027,-0.00092,-0.000175,0.006443,-0.498616,0.000992,-1.295381,-263.286122,-1.116093,68.767001
13.0362,0.006111,0.011145,-8.1e-05,0.000248,-0.000916,-0.000454,0.006698,-0.49855,0.001355,-1.295381,-263.286122,-1.116093,68.767001
13.0566,0.005909,0.010934,0.000979,0.000228,-0.00091,-0.000652,0.006698,-0.49855,0.001355,-1.295381,-263.286122,-1.116093,68.767001
13.0764,0.005682,0.01132,0.002402,0.00021,-0.000903,-0.000793,0.006417,-0.499094,0.000973,-1.31375,-263.285805,-1.191295,68.767256
13.0964,0.005465,0.011427,-0.000933,0.000188,-0.000894,-0.000985,0.00662,-0.498926,0.00156,-1.31375,-263.285805,-1.191295,68.767256
13.1164,0.005948,0.01079,0.000952,0.000168,-0.000884,-0.001122,0.004995,-0.498594,-0.000952,-1.388671,-263.285389,-1.116374,68.767395
13.1363,0.005779,0.010943,-0.000811,0.000153,-0.000863,-0.000835,0.006309,-0.499158,0.000786,-1.388671,-263.285389,-1.116374,68.767395
13.1563,0.006053,0.011041,0.00178,0.000142,-0.000849,-0.000637,0.006309,-0.499158,0.000786,-1.388671,-263.285389,-1.116374,68.767395
13.1762,0.005703,0.010953,0.00255,0.000135,-0.000841,-0.0005,0.006963,-0.498971,0.001764,-1.463652,-263.285176,-1.041393,68.76743
13.1965,0.005761,0.010979,0.00021,0.000108,-0.000842,-0.000991,0.00698,-0.499003,0.002085,-1.463652,-263.285176,-1.041393,68.76743
13.2166,0.005945,0.011392,-4.6e-05,8.3e-05,-0.000837,-0.001339,0.005869,-0.499028,0.000205,-1.45372,-263.28505,-1.116313,68.767491
13.2365,0.006117,0.011028,-0.000116,0.000115,-0.000834,-0.000526,0.005917,-0.498644,-2.5e-05,-1.45372,-263.28505,-1.116313,68.767491
13.2565,0.005959,0.010968,7e-06,0.000146,-0.00084,3.7e-05,0.005917,-0.498644,-2.5e-05,-1.45372,-263.28505,-1.116313,68.767491
13.2766,0.005582,0.011139,0.000427,0.000175,-0.000851,0.000427,0.005963,-0.499032,7e-06,-1.520656,-263.28505,-1.041219,68.767491
13.2968,0.005819,0.01158,-0.000291,0.000196,-0.000862,0.00058,0.005897,-0.498962,0.000179,-1.520656,-263.28505,-1.041219,68.767491
13.3169,0.005736,0.010581,0.000227,0.000214,-0.000873,0.000685,0.005671,-0.498421,-0.000291,-1.445688,-263.28504,-1.116187,68.767509
13.3363,0.00605,0.011126,0.0001,0.00022,-0.000877,0.00076,0.005834,-0.499324,0.000178,-1.445688,-263.28504,-1.116187,68.767509
13.3567,0.005904,0.011165,0.000432,0.000227,-0.000882,0.00081,0.005834,-0.499324,0.000178,-1.445688,-263.28504,-1.116187,68.767509
13.3765,0.005717,0.011131,0.000323,0.000232,-0.000887,0.000845,0.006125,-0.498837,0.000433,-1.370641,-263.28503,-1.191234,68.767536
13.3967,0.006146,0.011374,0.001052,0.000244,-0.0009,0.000748,0.006026,-0.49885,0.000388,-1.370641,-263.28503,-1.191234,68.767536
13.4164,0.005918,0.01171,-0.000433,0.000254,-0.000911,0.00068,0.006683,-0.498627,0.001054,-1.295638,-263.28502,-1.266237,68.767568
13.4362,0.005689,0.011185,-2.2e-05,0.000285,-0.000925,0.001026,0.005781,-0.498318,-0.000306,-1.295638,-263.28502,-1.266237,68.767568
13.4567,0.006421,0.011618,-0.001129,0.000313,-0.00094,0.001269,0.005781,-0.498318,-0.000306,-1.295638,-263.28502,-1.266237,68.767568
13.4767,0.005918,0.011334,-0.001084,0.000337,-0.000955,0.001439,0.00585,-0.498399,-0.001118,-1.220659,-263.284924,-1.341216,68.7678
13.497,0.005733,0.0114,0.000175,0.000349,-0.000953,0.002009,0.005654,-0.498509,-0.001103,-1.220659,-263.284924,-1.341216,68.7678
13.5163,0.005932,0.011066,0.000677,0.000362,-0.000958,0.00241,0.005822,-0.4986,0.000175,-1.145776,-263.284924,-1.389087,68.7678
13.5364,0.006092,0.011082,0.001855,0.000349,-0.000975,0.00173,0.006239,-0.498905,0.000634,-1.145776,-263.284924,-1.389087,68.7678
13.5566,0.006021,0.011173,0.000407,0.000333,-0.000981,0.00125,0.006239,-0.498905,0.000634,-1.145776,-263.284924,-1.389087,68.7678
13.5764,0.005908,0.011194,0.001133,0.000317,-0.000981,0.000909,0.006228,-0.498827,0.000407,-1.070644,-263.284924,-1.422784,68.7678
13.5966,0.006057,0.010827,-0.000154,0.0003,-0.000977,0.00063,0.006335,-0.498818,0.000706,-1.070644,-263.284924,-1.422784,68.7678
13.6165,0.00556,0.011191,0.000577,0.000284,-0.00097,0.000432,0.005985,-0.499194,-0.000134,-0.995571,-263.284777,-1.367219,68.768236
13.6369,0.006025,0.011434,0.000674,0.000299,-0.000977,0.000389,0.005866,-0.498844,0.000516,-0.995571,-263.284777,-1.367219,68.768236
13.6565,0.005679,0.011126,0.000775,0.00031,-0.000981,0.000357,0.005866,-0.498844,0.000516,-0.995571,-263.284777,-1.367219,68.768236
13.6764,0.006155,0.011129,0.000152,0.00032,-0.000984,0.000334,0.006082,-0.498896,0.000785,-1.070494,-263.284611,-1.344525,68.768511
13.6966,0.005788,0.010828,3e-06,0.000306,-0.000974,0.000314,0.006143,-0.498888,0.00053,-1.070494,-263.284611,-1.344525,68.768511
13.7165,0.005498,0.01113,0.000368,0.000295,-0.000965,0.000299,0.005798,-0.499197,1.2e-05,-1.145362,-263.28434,-1.308077,68.768907
13.7364,0.005647,0.011229,0.000599,0.000314,-0.000972,0.000389,0.005695,-0.498898,0.000338,-1.145362,-263.28434,-1.308077,68.768907
13.7564,0.006228,0.011298,0.001882,0.000331,-0.000978,0.000452,0.005695,-0.498898,0.000338,-1.145362,-263.28434,-1.308077,68.768907
13.7764,0.005944,0.011034,0.00303,0.000344,-0.000983,0.000497,0.0072,-0.498739,0.001893,-1.210445,-263.284028,-1.319194,68.769349
13.797,0.006151,0.010881,0.001039,0.000276,-0.000969,-0.000363,0.007319,-0.498835,0.002359,-1.210445,-263.284028,-1.319194,68.769349
13.8167,0.00586,0.010763,0.001547,0.000215,-0.000949,-0.000976,0.006689,-0.499145,0.001052,-1.135503,-263.283776,-1.309311,68.76979
13.8366,0.005998,0.011006,0.000339,0.000177,-0.00092,-0.001075,0.006653,-0.49923,0.001505,-1.135503,-263.283776,-1.309311,68.76979
13.8565,0.005846,0.010883,-6.4e-05,0.000145,-0.000895,-0.001148,0.006653,-0.49923,0.001505,-1.135503,-263.283776,-1.309311,68.76979
13.8769,0.005716,0.010569,0.000453,0.000118,-0.000873,-0.001203,0.005814,-0.499119,-6.6e-05,-1.210531,-263.283736,-1.234283,68.7698
13.8962,0.005963,0.010846,-5.5e-05,0.000129,-0.000859,-0.000529,0.005869,-0.499247,0.000147,-1.210531,-263.283736,-1.234283,68.7698
13.9165,0.005832,0.010984,0.001748,0.000143,-0.000853,-6.2e-05,0.005936,-0.499155,-5.6e-05,-1.285474,-263.283718,-1.15934,68.769802
13.9362,0.005842,0.011146,0.000553,0.000131,-0.00086,-0.000476,0.006656,-0.499027,0.001594,-1.285474,-263.283718,-1.15934,68.769802
13.9563,0.005895,0.011237,0.000821,0.000119,-0.00086,-0.000771,0.006656,-0.499027,0.001594,-1.285474,-263.283718,-1.15934,68.769802
13.9766,0.006151,0.010748,0.000212,0.000107,-0.000856,-0.000981,0.006317,-0.498773,0.00082,-1.360527,-263.283606,-1.234394,68.769905
13.9965,0.005864,0.011173,-0.000286,0.000109,-0.000844,-0.000617,0.006293,-0.498973,0.000568,-1.360527,-263.283606,-1.234394,68.769905
14.0165,0.005986,0.011168,0.001015,0.000112,-0.000838,-0.000366,0.005721,-0.498846,-0.000308,-1.435858,-263.283199,-1.175157,68.769982
14.0363,0.005747,0.010986,-8e-06,0.000117,-0.000841,-0.000366,0.006432,-0.498834,0.000893,-1.435858,-263.283199,-1.175157,68.769982
14.0564,0.005679,0.011143,0.000289,0.000121,-0.000844,-0.000368,0.006432,-0.498834,0.000893,-1.435858,-263.283199,-1.175157,68.769982
14.0768,0.005703,0.010765,0.000857,0.000125,-0.000846,-0.000371,0.00583,-0.498873,0.000282,-1.465675,-263.283,-1.249661,68.770099
14.0969,0.005866,0.010566,0.002668,0.000148,-0.000854,-0.000175,0.005956,-0.499022,0.000515,-1.465675,-263.283,-1.249661,68.770099
14.1161,0.00656,0.011145,0.000647,0.000169,-0.000863,-3.8e-05,0.00723,-0.499453,0.002659,-1.454829,-263.28266,-1.324669,68.770298
14.1364,0.005728,0.010934,0.000352,0.000131,-0.000841,-9.5e-05,0.006919,-0.498906,0.000816,-1.454829,-263.28266,-1.324669,68.770298
14.1568,0.005854,0.010893,0.001888,0.000101,-0.000823,-0.000136,0.006919,-0.498906,0.000816,-1.454829,-263.28266,-1.324669,68.770298
14.1761,0.006612,0.010829,0.000401,7.5e-05,-0.000808,-0.000165,0.006823,-0.499138,0.001887,-1.382631,-263.282341,-1.372377,68.770601
14.197,0.005953,0.011003,-0.000867,5.7e-05,-0.000804,-0.000417,0.006821,-0.499155,0.001278,-1.382631,-263.282341,-1.372377,68.770601
14.2164,0.005704,0.010484,0.000674,4e-05,-0.000798,-0.000595,0.005512,-0.499015,-0.000871,-1.457447,-263.282074,-1.447192,68.770809
14.2363,0.005892,0.01107,0.00086,5.7e-05,-0.000801,-0.000346,0.006002,-0.499474,0.000543,-1.457447,-263.282074,-1.447192,68.770809
14.2566,0.005996,0.010789,0.000378,7.3e-05,-0.000805,-0.000172,0.006002,-0.499474,0.000543,-1.457447,-263.282074,-1.447192,68.770809
14.2766,0.005904,0.010515,0.001217,8.8e-05,-0.000811,-5.2e-05,0.00619,-0.49924,0.000356,-1.532609,-263.281661,-1.480065,68.770964
14.2969,0.005893,0.010909,0.000906,8.5e-05,-0.00081,-5.4e-05,0.006328,-0.499344,0.000707,-1.532609,-263.281661,-1.480065,68.770964
14.3164,0.00602,0.01076,-0.000338,8.3e-05,-0.000809,-5.6e-05,0.006358,-0.499115,0.000904,-1.467014,-263.281347,-1.458635,68.771255
14.3362,0.006403,0.0109,-0.000368,0.000101,-0.00081,0.000472,0.005891,-0.499231,-0.000232,-1.467014,-263.281347,-1.458635,68.771255
14.3565,0.006243,0.010665,-0.000569,0.00012,-0.000816,0.00084,0.005891,-0.499231,-0.000232,-1.467014,-263.281347,-1.458635,68.771255
14.3764,0.006168,0.010696,9e-05,0.000137,-0.000825,0.001098,0.005957,-0.499369,-0.000571,-1.472977,-263.28101,-1.464393,68.771565
14.3966,0.00597,0.010538,0.00066,0.000135,-0.000823,0.001323,0.006062,-0.499346,-0.000302,-1.472977,-263.28101,-1.464393,68.771565
14.4169,0.005845,0.010573,0.001062,0.000135,-0.000825,0.001481,0.006307,-0.499462,0.00066,-1.398134,-263.281009,-1.479643,68.771566
14.4366,0.005605,0.010512,0.000792,0.00013,-0.000844,0.000878,0.006377,-0.499431,0.001018,-1.398134,-263.281009,-1.479643,68.771566
14.4567,0.005759,0.010708,-3.6e-05,0.000123,-0.000853,0.000449,0.006377,-0.499431,0.001018,-1.398134,-263.281009,-1.479643,68.771566
14.4762,0.006155,0.011023,0.000594,0.000115,-0.000855,0.000145,0.005741,-0.499292,-3.6e-05,-1.323153,-263.281009,-1.493161,68.771566
14.4968,0.005696,0.010856,0.000914,0.00013,-0.000857,0.000354,0.006032,-0.499164,0.00022,-1.323153,-263.281009,-1.493161,68.771566
14.5169,0.005813,0.010885,-0.000535,0.000143,-0.000861,0.0005,0.006165,-0.499166,0.000918,-1.39818,-263.280752,-1.449161,68.771882
14.5369,0.005825,0.010931,0.001072,0.000178,-0.000871,0.000961,0.005593,-0.499121,-0.000411,-1.39818,-263.280752,-1.449161,68.771882
14.5568,0.00601,0.011004,0.001599,0.000208,-0.000884,0.001285,0.005593,-0.499121,-0.000411,-1.39818,-263.280752,-1.449161,68.771882
14.5768,0.005785,0.010871,0.000254,0.000236,-0.000898,0.001512,0.006831,-0.499027,0.001618,-1.323037,-263.280544,-1.448883,68.772307
14.597,0.00599,0.010188,0.001196,0.000222,-0.000912,0.000878,0.006459,-0.499073,0.001066,-1.323037,-263.280544,-1.448883,68.772307
14.6169,0.005849,0.010637,0.001919,0.000208,-0.000916,0.000427,0.0066,-0.499811,0.001196,-1.248181,-263.280544,-1.442191,68.772307
14.637,0.00613,0.01071,-5e-05,0.000167,-0.00091,-0.000229,0.006807,-0.499403,0.001852,-1.248181,-263.280544,-1.442191,68.772307
14.6569,0.005808,0.010984,4.2e-05,0.00013,-0.000896,-0.000696,0.006807,-0.499403,0.001852,-1.248181,-263.280544,-1.442191,68.772307
14.6766,0.005569,0.010898,-0.001393,9.6e-05,-0.000878,-0.001029,0.005838,-0.499053,6e-05,-1.263697,-263.28028,-1.396093,68.772766
14.6969,0.00589,0.010842,0.002196,0.000141,-0.000873,-1.7e-05,0.005434,-0.499077,-0.000539,-1.263697,-263.28028,-1.396093,68.772766
14.7166,0.006199,0.010987,0.000139,0.000184,-0.000878,0.00069,0.007012,-0.499163,0.002189,-1.338556,-263.280154,-1.321233,68.772789
14.7366,0.005879,0.010723,0.000656,0.000175,-0.000873,0.000693,0.006337,-0.499026,0.000323,-1.338556,-263.280154,-1.321233,68.772789
14.7565,0.005735,0.010848,-0.000896,0.000167,-0.000869,0.000691,0.006337,-0.499026,0.000323,-1.338556,-263.280154,-1.321233,68.772789
14.7766,0.006274,0.01042,0.000646,0.000161,-0.000867,0.000687,0.005282,-0.499173,-0.00088,-1.263787,-263.28004,-1.396003,68.77309
14.7967,0.005976,0.010496,0.001903,0.000171,-0.000866,0.001013,0.005822,-0.499342,-0.000256,-1.263787,-263.28004,-1.396003,68.77309
14.8166,0.006301,0.010637,0.000975,0.000181,-0.000868,0.001239,0.006952,-0.499529,0.001923,-1.225015,-263.27986,-1.446263,68.773582
14.8364,0.005721,0.009912,-7.5e-05,0.000141,-0.00086,0.000708,0.006807,-0.499373,0.001031,-1.225015,-263.27986,-1.446263,68.773582
14.8565,0.00613,0.010633,0.000929,0.000106,-0.000847,0.00033,0.006807,-0.499373,0.001031,-1.225015,-263.27986,-1.446263,68.773582
14.8764,0.006023,0.010435,-0.000527,7.5e-05,-0.000832,6.1e-05,0.006604,-0.499367,0.000929,-1.149067,-263.27986,-1.460139,68.773583
14.897,0.005938,0.010359,0.000441,7.1e-05,-0.000823,0.00024,0.006254,-0.499449,0.000329,-1.149067,-263.27986,-1.460139,68.773583
14.9167,0.005936,0.010448,0.000871,7e-05,-0.000818,0.000363,0.006164,-0.499645,0.000442,-1.223266,-263.279805,-1.485119,68.773643
14.9367,0.005658,0.010284,0.001492,6.4e-05,-0.000819,0.000173,0.006364,-0.499559,0.00084,-1.223266,-263.279805,-1.485119,68.773643
14.9567,0.005827,0.010596,0.001365,5.9e-05,-0.000817,3.8e-05,0.006364,-0.499559,0.00084,-1.223266,-263.279805,-1.485119,68.773643
14.9767,0.006193,0.010698,-3.6e-05,5.3e-05,-0.000813,-5.8e-05,0.006525,-0.499418,0.001371,-1.29883,-263.279705,-1.503649,68.773816
14.9967,0.005946,0.010523,-0.000435,5.4e-05,-0.000813,-0.000106,0.006383,-0.499372,0.0008,-1.29883,-263.279705,-1.503649,68.773816
