mach0312/omni-docking-bench/src/icros_test_setup/results/MPPI_sample/timeseries/trial_130.csv
t,x,y,yaw,vx,vy,wz,bl_x,bl_y,bl_yaw,front_steering_joint,front_wheel_joint,rear_steering_joint,rear_wheel_joint
0.0,0.032333,-0.028938,-0.040186,0.00911,-0.006041,-0.031124,0.009762,-0.537226,-0.034415,-1.221998,-258.79951,0.958425,69.577382
0.0003,0.0323,-0.028655,-0.039868,0.008467,-0.005614,-0.028928,0.009927,-0.537149,-0.036231,-1.221998,-258.786187,0.958425,69.585304
0.0006,0.03353,-0.028825,-0.042428,0.007772,-0.005153,-0.026553,0.009927,-0.537149,-0.036231,-1.221998,-258.773711,0.958425,69.592722
0.0009,0.033621,-0.028415,-0.04244,0.007,-0.004642,-0.023917,0.010927,-0.537384,-0.036558,-1.221998,-258.763071,0.958425,69.599048
0.0012,0.034385,-0.029353,-0.043742,0.006197,-0.004109,-0.021172,0.010927,-0.537384,-0.036558,-1.221998,-258.753976,0.958425,69.604456
0.0015,0.03495,-0.029566,-0.044587,0.005315,-0.003524,-0.01816,0.010927,-0.537384,-0.036558,-1.221998,-258.747755,0.958425,69.608155
0.0017,0.034615,-0.029489,-0.042459,0.004374,-0.0029,-0.014944,0.011484,-0.537601,-0.03754,-1.221998,-258.747755,0.958425,69.608155
0.0019,0.035548,-0.029983,-0.044894,0.003369,-0.002234,-0.01151,0.011498,-0.537819,-0.037946,-1.221998,-258.747755,0.958425,69.608155
0.0021,0.035062,-0.029433,-0.044479,0.002308,-0.00153,-0.007885,0.011498,-0.537819,-0.037946,-1.221998,-258.747755,0.958425,69.608155
0.0159,0.035743,-0.029692,-0.044762,0.0,0.0,0.0,0.01249,-0.539004,-0.044846,-1.221998,-258.743811,0.958425,69.610499
0.0363,0.036161,-0.03003,-0.045121,0.0,0.0,0.0,0.012889,-0.539169,-0.044788,-1.221998,-258.743811,0.958425,69.610499
0.0562,0.036002,-0.029512,-0.045001,0.0,0.0,0.0,0.012889,-0.539169,-0.044788,-1.221998,-258.743811,0.958425,69.610499
0.076,0.036244,-0.029734,-0.045012,0.0,0.0,0.0,0.013059,-0.538996,-0.045001,-1.221998,-258.743811,0.958425,69.610499
0.0957,0.035539,-0.029613,-0.045289,0.0,0.0,0.0,0.013156,-0.539086,-0.045006,-1.221998,-258.743811,0.958425,69.610499
0.1156,0.03603,-0.029856,-0.0444,-0.001344,0.004486,-0.005052,0.01245,-0.53909,-0.045289,-1.221998,-258.743811,0.958425,69.610499
0.136,0.035933,-0.029594,-0.044972,-0.001496,0.004839,-0.004013,0.013309,-0.539329,-0.04448,-1.221998,-258.743811,0.958425,69.610499
0.1559,0.035798,-0.029955,-0.045403,-0.001635,0.005131,-0.003283,0.013309,-0.539329,-0.04448,-1.221998,-258.743811,0.958425,69.610499
0.1764,0.035564,-0.029808,-0.043375,-0.001761,0.005372,-0.002777,0.01265,-0.539429,-0.045403,-1.147002,-258.743811,0.883429,69.610499
0.1966,0.035988,-0.029834,-0.046479,-0.001863,0.005573,-0.001752,0.012975,-0.539388,-0.044578,-1.147002,-258.743811,0.883429,69.610499
0.2166,0.035831,-0.029435,-0.04613,-0.001957,0.00574,-0.001005,0.012292,-0.539283,-0.046479,-1.124006,-258.743812,0.808426,69.610499
0.2362,0.035885,-0.02979,-0.045635,-0.002031,0.005883,6.8e-05,0.012311,-0.538927,-0.046161,-1.124006,-258.743812,0.808426,69.610499
0.2564,0.035588,-0.029749,-0.045131,-0.0021,0.006003,0.000871,0.012311,-0.538927,-0.046161,-1.124006,-258.743812,0.808426,69.610499
0.2758,0.035812,-0.029647,-0.043675,-0.002164,0.006104,0.00147,0.012579,-0.53923,-0.045131,-1.199107,-258.743812,0.733325,69.610499
0.2959,0.035668,-0.03008,-0.045541,-0.002232,0.006183,0.002346,0.012965,-0.539202,-0.044548,-1.199107,-258.743812,0.733325,69.610499
0.3159,0.035752,-0.029534,-0.045982,-0.002296,0.00625,0.003015,0.01245,-0.539551,-0.045541,-1.271089,-258.743812,0.658329,69.610499
0.3355,0.035815,-0.029683,-0.04513,-0.002339,0.006312,0.003851,0.012322,-0.539044,-0.045943,-1.271089,-258.743812,0.658329,69.610499
0.3556,0.035933,-0.029375,-0.045103,-0.002379,0.006366,0.004508,0.012322,-0.539044,-0.045943,-1.271089,-258.743812,0.658329,69.610499
0.3755,0.035695,-0.029658,-0.045115,-0.002417,0.006412,0.005016,0.012939,-0.538856,-0.045103,-1.294347,-258.743812,0.583384,69.610498
0.3956,0.035854,-0.029786,-0.044465,-0.002464,0.006446,0.005643,0.012839,-0.538972,-0.045108,-1.294347,-258.743812,0.583384,69.610498
0.4156,0.036235,-0.029721,-0.043991,-0.002507,0.006476,0.006138,0.013184,-0.539282,-0.044465,-1.320997,-258.743813,0.508401,69.610498
0.4359,0.03621,-0.029636,-0.044986,-0.002563,0.006494,0.006696,0.013751,-0.539233,-0.044034,-1.320997,-258.743813,0.508401,69.610498
0.456,0.035724,-0.029869,-0.045441,-0.002613,0.00651,0.007142,0.013751,-0.539233,-0.044034,-1.320997,-258.743813,0.508401,69.610498
0.4762,0.036003,-0.02961,-0.044345,-0.002658,0.006524,0.007498,0.012557,-0.539342,-0.045441,-1.330309,-258.743813,0.433424,69.610498
0.496,0.035663,-0.029543,-0.044906,-0.002678,0.006545,0.007889,0.012897,-0.539247,-0.044996,-1.330309,-258.743813,0.433424,69.610498
0.5157,0.035739,-0.02986,-0.044812,-0.002698,0.006565,0.008202,0.012769,-0.539029,-0.044906,-1.33584,-258.743814,0.358432,69.610498
0.5357,0.03583,-0.029967,-0.045395,-0.002714,0.006582,0.008514,0.012882,-0.539319,-0.04482,-1.33584,-258.743814,0.358432,69.610498
0.5557,0.03565,-0.029708,-0.04476,-0.002731,0.006598,0.008766,0.012882,-0.539319,-0.04482,-1.33584,-258.743814,0.358432,69.610498
0.5758,0.035826,-0.029676,-0.044773,-0.002746,0.006612,0.008969,0.012829,-0.539197,-0.04476,-1.341813,-258.743814,0.283394,69.610498
0.5962,0.035673,-0.029731,-0.044562,-0.002762,0.006623,0.009132,0.012899,-0.539184,-0.044765,-1.341813,-258.743814,0.283394,69.610498
0.6155,0.035875,-0.02966,-0.044458,-0.002777,0.006634,0.009264,0.012954,-0.539224,-0.044562,-1.347435,-258.743816,0.208394,69.610497
0.6357,0.036051,-0.029502,-0.045462,-0.002798,0.00664,0.00937,0.013185,-0.539162,-0.044468,-1.347435,-258.743816,0.208394,69.610497
0.656,0.035849,-0.029865,-0.044112,-0.002816,0.006645,0.009456,0.013185,-0.539162,-0.044468,-1.347435,-258.743816,0.208394,69.610497
0.6761,0.035999,-0.02989,-0.043502,-0.002833,0.00665,0.009526,0.013359,-0.539367,-0.044109,-1.348564,-258.74385,0.133424,69.61049
0.6961,0.035489,-0.029552,-0.045293,-0.002853,0.006652,0.009583,0.013546,-0.539383,-0.043862,-1.348564,-258.74385,0.133424,69.61049
0.7157,0.035863,-0.029823,-0.045307,-0.00287,0.006654,0.00963,0.012393,-0.539017,-0.045275,-1.347401,-258.744132,0.058435,69.610424
0.7357,0.035731,-0.029664,-0.044224,-0.002869,0.006664,0.00967,0.012732,-0.539275,-0.045303,-1.347401,-258.744132,0.058435,69.610424
0.7557,0.03593,-0.029298,-0.04525,-0.002867,0.006672,0.009703,0.012732,-0.539275,-0.045303,-1.347401,-258.744132,0.058435,69.610424
0.7758,0.035803,-0.029955,-0.04479,-0.002867,0.006679,0.009729,0.01284,-0.538726,-0.04517,-1.345696,-258.74509,-0.016677,69.610203
0.7958,0.036045,-0.029977,-0.044351,-0.002873,0.006682,0.009751,0.01289,-0.539015,-0.045005,-1.345696,-258.74509,-0.016677,69.610203
0.8156,0.03564,-0.029576,-0.044451,-0.002878,0.006685,0.00977,0.013399,-0.53939,-0.044219,-1.347451,-258.747212,-0.091721,69.609718
0.8357,0.035152,-0.02947,-0.043803,-0.002884,0.006687,0.009785,0.013013,-0.539095,-0.044424,-1.347451,-258.747212,-0.091721,69.609718
0.8559,0.0356,-0.029589,-0.044815,-0.00289,0.006689,0.009798,0.013013,-0.539095,-0.044424,-1.347451,-258.747212,-0.091721,69.609718
0.8756,0.035566,-0.029377,-0.044879,-0.002895,0.006691,0.009809,0.012677,-0.538884,-0.044529,-1.34713,-258.750777,-0.166654,69.608903
0.8956,0.035283,-0.028902,-0.044994,-0.002893,0.006695,0.009892,0.012672,-0.538854,-0.044639,-1.34713,-258.750777,-0.166654,69.608903
0.9156,0.035141,-0.028833,-0.04397,-0.002892,0.006698,0.009959,0.012268,-0.538186,-0.044707,-1.346365,-258.755581,-0.237269,69.607803
0.9359,0.034955,-0.029028,-0.042565,-0.002898,0.006699,0.010057,0.012681,-0.538317,-0.044019,-1.346365,-258.755581,-0.237269,69.607803
0.9562,0.034776,-0.029089,-0.042629,-0.002903,0.006699,0.010136,0.012681,-0.538317,-0.044019,-1.346365,-258.755581,-0.237269,69.607803
0.9759,0.034384,-0.028614,-0.044306,-0.002908,0.0067,0.0102,0.012934,-0.538344,-0.042218,-1.348229,-258.760759,-0.209811,69.606634
0.9955,0.03431,-0.028997,-0.043353,-0.002907,0.006703,0.010299,0.012454,-0.538217,-0.043028,-1.348229,-258.760759,-0.209811,69.606634
1.0154,0.034454,-0.028264,-0.0423,-0.002906,0.006706,0.010378,0.012127,-0.538309,-0.043042,-1.349604,-258.765855,-0.160224,69.605502
1.0356,0.034403,-0.028466,-0.044522,-0.002917,0.006703,0.010485,0.012818,-0.537841,-0.042348,-1.349604,-258.765855,-0.160224,69.605502
1.0557,0.034262,-0.028112,-0.044085,-0.002927,0.006701,0.010571,0.012818,-0.537841,-0.042348,-1.349604,-258.765855,-0.160224,69.605502
1.0761,0.033965,-0.028124,-0.040415,-0.002936,0.006699,0.010641,0.011679,-0.537337,-0.04366,-1.351594,-258.771098,-0.125766,69.604352
1.0957,0.034063,-0.027902,-0.041839,-0.002937,0.006702,0.01074,0.012361,-0.537458,-0.04227,-1.351594,-258.771098,-0.125766,69.604352
1.1162,0.033363,-0.027241,-0.041121,-0.002937,0.006704,0.010821,0.012651,-0.53725,-0.041519,-1.351888,-258.776229,-0.068136,69.603236
1.136,0.033552,-0.027733,-0.041638,-0.002946,0.006702,0.010925,0.012415,-0.536837,-0.041139,-1.351888,-258.776229,-0.068136,69.603236
1.1557,0.033389,-0.027302,-0.041369,-0.002954,0.006701,0.011009,0.012415,-0.536837,-0.041139,-1.351888,-258.776229,-0.068136,69.603236
1.176,0.03334,-0.027264,-0.042527,-0.002961,0.006701,0.011078,0.012188,-0.536586,-0.040926,-1.353623,-258.781573,-0.032395,69.602084
1.1956,0.032883,-0.027526,-0.040872,-0.002957,0.006705,0.011174,0.011957,-0.536643,-0.041533,-1.353623,-258.781573,-0.032395,69.602084
1.2155,0.033064,-0.026621,-0.040162,-0.002955,0.006708,0.011253,0.011963,-0.536893,-0.040537,-1.354399,-258.786823,0.021985,69.600956
1.2361,0.032606,-0.02719,-0.040765,-0.002972,0.006703,0.011348,0.012528,-0.53626,-0.040178,-1.354399,-258.786823,0.021985,69.600956
1.2557,0.03248,-0.026959,-0.040857,-0.002986,0.006699,0.011426,0.012528,-0.53626,-0.040178,-1.354399,-258.786823,0.021985,69.600956
1.276,0.032168,-0.026807,-0.040751,-0.002999,0.006695,0.01149,0.011539,-0.536253,-0.040395,-1.356568,-258.792283,0.055499,69.599793
1.296,0.032236,-0.026547,-0.040041,-0.002982,0.006706,0.011571,0.011466,-0.536274,-0.040486,-1.356568,-258.792283,0.055499,69.599793
1.3155,0.031467,-0.026389,-0.039823,-0.002968,0.006715,0.011637,0.011737,-0.53593,-0.039689,-1.355462,-258.797674,0.107069,69.598635
1.3357,0.031795,-0.026305,-0.038191,-0.002952,0.006724,0.01171,0.011207,-0.53597,-0.039795,-1.355462,-258.797674,0.107069,69.598635
1.3558,0.031476,-0.025901,-0.038828,-0.002938,0.006733,0.011769,0.011207,-0.53597,-0.039795,-1.355462,-258.797674,0.107069,69.598635
1.3759,0.031165,-0.025958,-0.040656,-0.002927,0.00674,0.011818,0.011566,-0.535234,-0.038346,-1.359293,-258.803272,0.131587,69.597449
1.3956,0.031195,-0.025771,-0.038069,-0.002922,0.006745,0.011871,0.011091,-0.535325,-0.039235,-1.359293,-258.803272,0.131587,69.597449
1.4158,0.030619,-0.025302,-0.037604,-0.002918,0.00675,0.011914,0.011701,-0.535187,-0.037698,-1.364072,-258.808883,0.161716,69.596283
1.4361,0.030747,-0.025421,-0.038052,-0.002928,0.006747,0.011956,0.011464,-0.534953,-0.037594,-1.364072,-258.808883,0.161716,69.596283
1.4562,0.03076,-0.025693,-0.037237,-0.002938,0.006746,0.01199,0.011464,-0.534953,-0.037594,-1.364072,-258.808883,0.161716,69.596283
1.476,0.030344,-0.025324,-0.038904,-0.002945,0.006744,0.012019,0.011661,-0.535052,-0.036738,-1.36569,-258.814587,0.178633,69.595102
1.4959,0.030746,-0.025312,-0.036869,-0.002944,0.006747,0.012049,0.011186,-0.534974,-0.037552,-1.36569,-258.814587,0.178633,69.595102
1.516,0.030025,-0.024663,-0.036957,-0.002943,0.006749,0.012073,0.011861,-0.534749,-0.03649,-1.364643,-258.820301,0.199843,69.593909
1.5359,0.030202,-0.024641,-0.038034,-0.002951,0.006747,0.012098,0.011238,-0.534342,-0.036895,-1.364643,-258.820301,0.199843,69.593909
1.556,0.029988,-0.024668,-0.036303,-0.002958,0.006745,0.012119,0.011238,-0.534342,-0.036895,-1.364643,-258.820301,0.199843,69.593909
1.576,0.029632,-0.02447,-0.036637,-0.002964,0.006744,0.012136,0.011365,-0.534046,-0.035798,-1.365356,-258.826064,0.209202,69.592707
1.5961,0.029809,-0.024471,-0.036146,-0.002971,0.006742,0.012155,0.011183,-0.534047,-0.036083,-1.365356,-258.826064,0.209202,69.592707
1.6155,0.029568,-0.024229,-0.036328,-0.002977,0.00674,0.012171,0.011292,-0.53392,-0.035761,-1.364391,-258.831834,0.221832,69.591495
1.6358,0.029557,-0.023758,-0.035988,-0.00298,0.00674,0.012189,0.011062,-0.533884,-0.036258,-1.364391,-258.831834,0.221832,69.591495
1.6563,0.029375,-0.024286,-0.037264,-0.002984,0.006739,0.012205,0.011062,-0.533884,-0.036258,-1.364391,-258.831834,0.221832,69.591495
1.6757,0.028511,-0.024012,-0.035873,-0.002987,0.006739,0.012217,0.01026,-0.533645,-0.036755,-1.363789,-258.837623,0.228798,69.590273
1.6958,0.028807,-0.023297,-0.036172,-0.002967,0.006748,0.012233,0.010231,-0.533628,-0.036337,-1.363789,-258.837623,0.228798,69.590273
1.716,0.02814,-0.023261,-0.034742,-0.00295,0.006756,0.012245,0.010275,-0.532746,-0.035783,-1.363495,-258.843419,0.237503,69.589045
1.7359,0.028522,-0.023429,-0.034438,-0.00295,0.006757,0.012259,0.010407,-0.532923,-0.034817,-1.363495,-258.843419,0.237503,69.589045
1.7558,0.028311,-0.023655,-0.033289,-0.00295,0.006758,0.012269,0.010407,-0.532923,-0.034817,-1.363495,-258.843419,0.237503,69.589045
1.7758,0.027432,-0.022794,-0.034973,-0.00295,0.006758,0.012279,0.011223,-0.533085,-0.032775,-1.366414,-258.849233,0.240305,69.587831
1.7958,0.028124,-0.023183,-0.035862,-0.002955,0.006757,0.012289,0.010557,-0.53281,-0.033601,-1.366414,-258.849233,0.240305,69.587831
1.8157,0.027333,-0.022671,-0.032837,-0.002959,0.006755,0.012297,0.009752,-0.532635,-0.03547,-1.366778,-258.855065,0.246075,69.586612
1.8358,0.027341,-0.022669,-0.033509,-0.002967,0.006752,0.012307,0.010513,-0.532406,-0.033044,-1.366778,-258.855065,0.246075,69.586612
1.8558,0.027665,-0.022636,-0.032744,-0.002973,0.00675,0.012315,0.010513,-0.532406,-0.033044,-1.366778,-258.855065,0.246075,69.586612
1.8758,0.026778,-0.022445,-0.031977,-0.002979,0.006748,0.012322,0.010854,-0.532076,-0.03223,-1.366251,-258.860906,0.249908,69.585388
1.8956,0.026955,-0.022401,-0.033044,-0.002993,0.006741,0.01233,0.010682,-0.532088,-0.032065,-1.366251,-258.860906,0.249908,69.585388
1.916,0.026178,-0.021983,-0.032667,-0.003005,0.006736,0.012336,0.010018,-0.531906,-0.032654,-1.365042,-258.866717,0.255557,69.584161
1.9362,0.026598,-0.021852,-0.030224,-0.002983,0.006746,0.012344,0.00956,-0.531717,-0.032646,-1.365042,-258.866717,0.255557,69.584161
1.9564,0.026418,-0.021718,-0.032868,-0.002965,0.006754,0.01235,0.00956,-0.531717,-0.032646,-1.365042,-258.866717,0.255557,69.584161
1.9759,0.026195,-0.021562,-0.031049,-0.00295,0.00676,0.012356,0.009542,-0.531157,-0.032351,-1.363272,-258.872541,0.259481,69.582919
1.996,0.025973,-0.021668,-0.030662,-0.002955,0.006759,0.01236,0.009861,-0.531189,-0.031765,-1.363272,-258.872541,0.259481,69.582919
2.0155,0.025981,-0.021063,-0.033914,-0.002959,0.006757,0.012363,0.01025,-0.53121,-0.030267,-1.367421,-258.878382,0.260319,69.581698
2.0359,0.02565,-0.02108,-0.02919,-0.002933,0.006768,0.012368,0.008825,-0.530798,-0.033563,-1.367421,-258.878382,0.260319,69.581698
2.0562,0.025764,-0.021488,-0.030178,-0.00291,0.006778,0.012372,0.008825,-0.530798,-0.033563,-1.367421,-258.878382,0.260319,69.581698
2.0761,0.025253,-0.021006,-0.031089,-0.002892,0.006786,0.012375,0.01026,-0.530969,-0.02966,-1.366882,-258.884226,0.262054,69.580473
2.0957,0.025278,-0.021144,-0.029903,-0.00291,0.006778,0.012377,0.009899,-0.530851,-0.030179,-1.366882,-258.884226,0.262054,69.580473
2.1158,0.02463,-0.020697,-0.029988,-0.002926,0.006772,0.012378,0.009943,-0.530697,-0.029509,-1.371854,-258.890077,0.261096,69.579276
2.1359,0.024749,-0.020537,-0.028627,-0.002927,0.006771,0.01238,0.009389,-0.530477,-0.029925,-1.371854,-258.890077,0.261096,69.579276
2.1561,0.024849,-0.020464,-0.02998,-0.002928,0.006771,0.012383,0.009389,-0.530477,-0.029925,-1.371854,-258.890077,0.261096,69.579276
2.1759,0.024064,-0.020524,-0.027668,-0.002929,0.006771,0.012384,0.009447,-0.529947,-0.029461,-1.369384,-258.895927,0.263165,69.578064
2.1958,0.024199,-0.020281,-0.029307,-0.002944,0.006764,0.012385,0.00964,-0.530069,-0.028674,-1.369384,-258.895927,0.263165,69.578064
2.2157,0.023797,-0.019754,-0.029475,-0.002956,0.006759,0.012386,0.009168,-0.529844,-0.028913,-1.369266,-258.901786,0.264317,69.576849
2.236,0.023694,-0.020219,-0.028849,-0.002945,0.006763,0.012388,0.008798,-0.529549,-0.029406,-1.369266,-258.901786,0.264317,69.576849
2.2558,0.023845,-0.019742,-0.028687,-0.002935,0.006767,0.01239,0.008798,-0.529549,-0.029406,-1.369266,-258.901786,0.264317,69.576849
2.2758,0.023149,-0.019442,-0.028335,-0.002927,0.006771,0.012391,0.009101,-0.529246,-0.02817,-1.367262,-258.907628,0.266213,69.575625
2.296,0.023242,-0.019309,-0.030081,-0.00293,0.006769,0.012392,0.008925,-0.529209,-0.028177,-1.367262,-258.907628,0.266213,69.575625
2.3158,0.022961,-0.019363,-0.027292,-0.002932,0.006768,0.012393,0.007816,-0.528859,-0.029684,-1.369412,-258.913482,0.265992,69.574411
2.3359,0.023088,-0.019264,-0.026293,-0.002935,0.006767,0.012393,0.008929,-0.529133,-0.027488,-1.369412,-258.913482,0.265992,69.574411
2.3557,0.022879,-0.018737,-0.027575,-0.002937,0.006766,0.012394,0.008929,-0.529133,-0.027488,-1.369412,-258.913482,0.265992,69.574411
2.3757,0.022331,-0.01877,-0.025736,-0.002939,0.006765,0.012394,0.008703,-0.528257,-0.027056,-1.369075,-258.919335,0.266542,69.573196
2.3958,0.022338,-0.018874,-0.026484,-0.002951,0.006759,0.012394,0.008895,-0.528364,-0.026459,-1.369075,-258.919335,0.266542,69.573196
2.4154,0.022247,-0.018307,-0.024351,-0.002962,0.006754,0.012394,0.008745,-0.528477,-0.026089,-1.368594,-258.925189,0.267351,69.571977
2.4356,0.021993,-0.018317,-0.025982,-0.003005,0.006733,0.012392,0.009728,-0.528174,-0.024487,-1.368594,-258.925189,0.267351,69.571977
2.4558,0.021991,-0.01839,-0.027172,-0.003041,0.006715,0.012392,0.009728,-0.528174,-0.024487,-1.368594,-258.925189,0.267351,69.571977
2.4763,0.021253,-0.018052,-0.026007,-0.003072,0.0067,0.012391,0.008018,-0.527916,-0.026653,-1.36686,-258.931039,0.268783,69.570748
2.4962,0.021542,-0.018044,-0.025319,-0.003035,0.006715,0.012395,0.007993,-0.527868,-0.02633,-1.36686,-258.931039,0.268783,69.570748
2.5156,0.020774,-0.017787,-0.025264,-0.003005,0.006728,0.012397,0.008538,-0.527665,-0.024924,-1.358747,-258.936873,0.275376,69.569472
2.5359,0.020727,-0.017782,-0.025723,-0.002981,0.006739,0.012398,0.007943,-0.527617,-0.025214,-1.358747,-258.936873,0.275376,69.569472
2.556,0.021205,-0.017772,-0.026249,-0.00296,0.006748,0.012399,0.007943,-0.527617,-0.025214,-1.358747,-258.936873,0.275376,69.569472
2.5759,0.020877,-0.01723,-0.023727,-0.002943,0.006755,0.012399,0.007702,-0.527312,-0.02573,-1.363671,-258.942708,0.273527,69.568226
2.5957,0.020365,-0.017007,-0.024708,-0.002943,0.006755,0.012398,0.008124,-0.527188,-0.024859,-1.363671,-258.942708,0.273527,69.568226
2.6156,0.019948,-0.017019,-0.023674,-0.002944,0.006755,0.012397,0.007677,-0.526633,-0.024313,-1.368233,-258.948556,0.270924,69.567005
2.6357,0.019697,-0.016964,-0.023823,-0.002938,0.006757,0.012396,0.007853,-0.526843,-0.023712,-1.368233,-258.948556,0.270924,69.567005
2.6559,0.020316,-0.017057,-0.024417,-0.002933,0.006759,0.012396,0.007853,-0.526843,-0.023712,-1.368233,-258.948556,0.270924,69.567005
2.6761,0.019673,-0.016601,-0.023334,-0.002929,0.006761,0.012395,0.007748,-0.526619,-0.023898,-1.368111,-258.954413,0.270559,69.565781
2.6961,0.019743,-0.016659,-0.023901,-0.002927,0.006762,0.012395,0.007745,-0.526522,-0.023607,-1.368111,-258.954413,0.270559,69.565781
2.7157,0.019075,-0.016268,-0.02142,-0.002925,0.006762,0.012394,0.007467,-0.526296,-0.023506,-1.369172,-258.960265,0.269647,69.564565
2.7362,0.019204,-0.01633,-0.02362,-0.002945,0.006753,0.012392,0.008088,-0.526153,-0.021581,-1.369172,-258.960265,0.269647,69.564565
2.7558,0.019503,-0.01619,-0.021322,-0.002961,0.006745,0.012391,0.008088,-0.526153,-0.021581,-1.369172,-258.960265,0.269647,69.564565
2.7757,0.018951,-0.016,-0.022625,-0.002975,0.006739,0.01239,0.008513,-0.525788,-0.020803,-1.369453,-258.966123,0.269345,69.56335
2.7958,0.018798,-0.016106,-0.022559,-0.002993,0.00673,0.012389,0.008048,-0.525789,-0.021492,-1.369453,-258.966123,0.269345,69.56335
2.8159,0.018137,-0.015887,-0.019565,-0.003007,0.006723,0.012388,0.007204,-0.525759,-0.022164,-1.365756,-258.971967,0.271623,69.562115
2.8357,0.018428,-0.015572,-0.023238,-0.003019,0.006717,0.012388,0.008057,-0.525774,-0.019807,-1.365756,-258.971967,0.271623,69.562115
2.8557,0.018473,-0.015867,-0.020631,-0.003029,0.006712,0.012388,0.008057,-0.525774,-0.019807,-1.365756,-258.971967,0.271623,69.562115
2.8765,0.017638,-0.015071,-0.021649,-0.003037,0.006708,0.012387,0.007832,-0.525475,-0.020114,-1.363353,-258.977793,0.273435,69.560869
2.8959,0.017868,-0.015469,-0.021227,-0.003021,0.006714,0.012388,0.007315,-0.525229,-0.02068,-1.363353,-258.977793,0.273435,69.560869
2.9158,0.017396,-0.01477,-0.020906,-0.003008,0.006719,0.012388,0.006951,-0.525138,-0.020833,-1.361169,-258.983628,0.275183,69.559607
2.9359,0.01721,-0.014623,-0.020188,-0.00298,0.006729,0.012389,0.00675,-0.524692,-0.020878,-1.361169,-258.983628,0.275183,69.559607
2.9556,0.017565,-0.015212,-0.021375,-0.002957,0.006738,0.012388,0.00675,-0.524692,-0.020878,-1.361169,-258.983628,0.275183,69.559607
2.9761,0.017013,-0.014836,-0.019419,-0.002937,0.006746,0.012388,0.006544,-0.524811,-0.020856,-1.363252,-258.989467,0.274548,69.558357
2.9961,0.017077,-0.014768,-0.020026,-0.002919,0.006753,0.012387,0.00676,-0.524749,-0.020214,-1.363252,-258.989467,0.274548,69.558357
3.0156,0.016632,-0.014199,-0.021031,-0.002904,0.00676,0.012386,0.006775,-0.524449,-0.019631,-1.368401,-258.995333,0.272175,69.557133
3.0367,0.016855,-0.014334,-0.017623,-0.002862,0.006775,0.012386,0.005972,-0.524105,-0.020901,-1.368401,-258.995333,0.272175,69.557133
3.0559,0.016756,-0.0144,-0.017479,-0.002827,0.006787,0.012385,0.005972,-0.524105,-0.020901,-1.368401,-258.995333,0.272175,69.557133
3.0759,0.016155,-0.013798,-0.01862,-0.002798,0.006798,0.012384,0.007726,-0.524039,-0.016963,-1.370794,-259.001154,0.270546,69.555933
3.096,0.015962,-0.014044,-0.018846,-0.002848,0.006778,0.012378,0.007278,-0.523872,-0.017579,-1.370794,-259.001154,0.270546,69.555933
3.1156,0.0156,-0.013643,-0.016543,-0.002889,0.00676,0.012373,0.006266,-0.523735,-0.018451,-1.378378,-259.00701,0.266918,69.554772
3.1357,0.015748,-0.013382,-0.018088,-0.00292,0.006747,0.012369,0.007081,-0.523577,-0.016689,-1.378378,-259.00701,0.266918,69.554772
3.1559,0.015887,-0.013935,-0.017422,-0.002946,0.006736,0.012366,0.007081,-0.523577,-0.016689,-1.378378,-259.00701,0.266918,69.554772
3.1757,0.014874,-0.013297,-0.017516,-0.002968,0.006726,0.012363,0.006886,-0.523573,-0.016905,-1.3717,-259.012837,0.269174,69.553576
3.1956,0.014971,-0.013372,-0.016519,-0.002958,0.00673,0.012362,0.006489,-0.523397,-0.017094,-1.3717,-259.012837,0.269174,69.553576
3.2156,0.014873,-0.012746,-0.016448,-0.002949,0.006733,0.012361,0.006456,-0.523087,-0.016125,-1.365857,-259.018687,0.2711,69.552341
3.2362,0.014908,-0.012836,-0.015347,-0.00296,0.006727,0.012358,0.006478,-0.5227,-0.016404,-1.365857,-259.018687,0.2711,69.552341
3.2559,0.014855,-0.012894,-0.016514,-0.002968,0.006722,0.012355,0.006478,-0.5227,-0.016404,-1.365857,-259.018687,0.2711,69.552341
3.2757,0.013918,-0.012375,-0.016324,-0.002975,0.006718,0.012352,0.006315,-0.522542,-0.015998,-1.367165,-259.024507,0.270223,69.551119
3.2963,0.014267,-0.012626,-0.016193,-0.00296,0.006723,0.012349,0.006006,-0.522413,-0.016072,-1.367165,-259.024507,0.270223,69.551119
3.3155,0.013891,-0.012323,-0.01519,-0.002947,0.006728,0.012347,0.005918,-0.522344,-0.015799,-1.365142,-259.030336,0.270742,69.549884
3.3357,0.013497,-0.012111,-0.015533,-0.002947,0.006727,0.01234,0.00612,-0.522261,-0.015224,-1.365142,-259.030336,0.270742,69.549884
3.3565,0.013839,-0.012143,-0.016753,-0.002947,0.006727,0.012335,0.00612,-0.522261,-0.015224,-1.365142,-259.030336,0.270742,69.549884
3.3765,0.01336,-0.011597,-0.014301,-0.002947,0.006727,0.01233,0.005177,-0.521788,-0.016237,-1.367136,-259.036155,0.269157,69.548663
3.3962,0.013567,-0.011932,-0.013336,-0.002924,0.006734,0.012325,0.005523,-0.521657,-0.015395,-1.367136,-259.036155,0.269157,69.548663
3.4158,0.012832,-0.011707,-0.013102,-0.002905,0.00674,0.012321,0.006674,-0.521671,-0.012944,-1.366999,-259.041985,0.266244,69.54744
3.4362,0.012999,-0.011463,-0.012473,-0.002935,0.006734,0.012286,0.006191,-0.521654,-0.013069,-1.366999,-259.041985,0.266244,69.54744
3.4556,0.012612,-0.011694,-0.013624,-0.00296,0.006729,0.012257,0.006191,-0.521654,-0.013069,-1.366999,-259.041985,0.266244,69.54744
3.4759,0.012089,-0.011169,-0.013378,-0.002979,0.006725,0.012232,0.005546,-0.521363,-0.013108,-1.369879,-259.047799,0.263988,69.546238
3.4959,0.012181,-0.011171,-0.012405,-0.002955,0.006736,0.012213,0.005419,-0.521233,-0.013159,-1.369879,-259.047799,0.263988,69.546238
3.5161,0.012063,-0.010966,-0.013672,-0.002935,0.006746,0.012196,0.005763,-0.520917,-0.012017,-1.363922,-259.053576,0.245399,69.545015
3.5364,0.011792,-0.011073,-0.012639,-0.002907,0.006756,0.012187,0.005143,-0.520908,-0.013511,-1.363922,-259.053576,0.245399,69.545015
3.556,0.011945,-0.010739,-0.012465,-0.002883,0.006764,0.012179,0.005143,-0.520908,-0.013511,-1.363922,-259.053576,0.245399,69.545015
3.5756,0.010978,-0.010331,-0.012358,-0.002864,0.006771,0.012172,0.005469,-0.520416,-0.011955,-1.366918,-259.059353,0.235044,69.543812
3.5959,0.011079,-0.010715,-0.011775,-0.002867,0.006773,0.012122,0.005135,-0.520334,-0.012059,-1.366918,-259.059353,0.235044,69.543812
3.6161,0.010947,-0.010108,-0.010566,-0.002868,0.006774,0.01208,0.004985,-0.520463,-0.011387,-1.371879,-259.065152,0.227481,69.542636
3.636,0.011173,-0.010049,-0.012756,-0.002906,0.006761,0.011959,0.005505,-0.520102,-0.010617,-1.371879,-259.065152,0.227481,69.542636
3.656,0.011316,-0.010036,-0.010654,-0.002936,0.00675,0.011863,0.005505,-0.520102,-0.010617,-1.371879,-259.065152,0.227481,69.542636
3.6759,0.010707,-0.009568,-0.010813,-0.002958,0.006741,0.011785,0.005767,-0.519725,-0.010152,-1.370826,-259.07088,0.207366,69.541473
3.6961,0.010656,-0.009763,-0.009645,-0.002996,0.006722,0.011701,0.00552,-0.519616,-0.010363,-1.370826,-259.07088,0.207366,69.541473
3.716,0.010173,-0.009487,-0.009591,-0.003025,0.006707,0.011633,0.005649,-0.519534,-0.009287,-1.361667,-259.076326,0.15327,69.540329
3.7364,0.010457,-0.009245,-0.010767,-0.003041,0.006697,0.011501,0.005313,-0.519459,-0.009541,-1.361667,-259.076326,0.15327,69.540329
3.7559,0.010222,-0.009358,-0.01159,-0.003051,0.006689,0.011397,0.005313,-0.519459,-0.009541,-1.361667,-259.076326,0.15327,69.540329
3.7759,0.009579,-0.008926,-0.009862,-0.003058,0.006683,0.011313,0.004189,-0.519045,-0.011108,-1.355148,-259.081944,0.130833,69.539117
3.796,0.00958,-0.009011,-0.010476,-0.002994,0.006701,0.011324,0.004326,-0.518952,-0.010532,-1.355148,-259.081944,0.130833,69.539117
3.8156,0.009289,-0.008924,-0.008722,-0.002942,0.006716,0.01133,0.004147,-0.518781,-0.010136,-1.349486,-259.087214,0.074014,69.537957
3.8358,0.009529,-0.008895,-0.010381,-0.002948,0.00671,0.01117,0.004777,-0.518884,-0.008827,-1.349486,-259.087214,0.074014,69.537957
3.8557,0.009247,-0.008681,-0.007992,-0.002951,0.006706,0.011046,0.004777,-0.518884,-0.008827,-1.349486,-259.087214,0.074014,69.537957
3.876,0.008737,-0.008417,-0.007638,-0.002951,0.006703,0.010949,0.005051,-0.518383,-0.007519,-1.358326,-259.092779,0.06928,69.53678
3.8959,0.008793,-0.008571,-0.008183,-0.002999,0.006675,0.010672,0.004952,-0.518358,-0.007513,-1.358326,-259.092779,0.06928,69.53678
3.9158,0.00862,-0.008339,-0.008367,-0.003034,0.006654,0.010464,0.004535,-0.518358,-0.007864,-1.353897,-259.0978,-0.005415,69.5357
3.9358,0.008316,-0.008102,-0.008266,-0.002997,0.006662,0.010422,0.004365,-0.518315,-0.008308,-1.353897,-259.0978,-0.005415,69.5357
3.956,0.008417,-0.008426,-0.006498,-0.002967,0.006668,0.010388,0.004365,-0.518315,-0.008308,-1.353897,-259.0978,-0.005415,69.5357
3.9762,0.008207,-0.007562,-0.007905,-0.002941,0.006674,0.01036,0.004991,-0.518164,-0.006104,-1.342295,-259.102604,-0.080525,69.534607
3.9957,0.007826,-0.008196,-0.007815,-0.002981,0.006649,0.01008,0.004647,-0.517885,-0.00679,-1.342295,-259.102604,-0.080525,69.534607
4.0158,0.00773,-0.007569,-0.005685,-0.003009,0.006629,0.009872,0.00375,-0.517971,-0.007492,-1.348323,-259.107825,-0.117279,69.533447
4.0367,0.008145,-0.007667,-0.005529,-0.003064,0.006596,0.0095,0.004733,-0.517586,-0.005825,-1.348323,-259.107825,-0.117279,69.533447
4.0557,0.007992,-0.007626,-0.007425,-0.003102,0.006569,0.009226,0.004733,-0.517586,-0.005825,-1.348323,-259.107825,-0.117279,69.533447
4.0758,0.007437,-0.007523,-0.006403,-0.003129,0.006547,0.009023,0.004094,-0.517362,-0.007053,-1.337394,-259.112514,-0.192379,69.532342
4.0959,0.007475,-0.007594,-0.00508,-0.003082,0.006553,0.009055,0.004113,-0.517395,-0.006744,-1.337394,-259.112514,-0.192379,69.532342
4.1156,0.007096,-0.007015,-0.007026,-0.003043,0.006557,0.009077,0.004808,-0.517429,-0.004857,-1.316896,-259.116328,-0.267302,69.531332
4.1364,0.007147,-0.006545,-0.005368,-0.00297,0.006567,0.009096,0.003623,-0.517033,-0.006822,-1.316896,-259.116328,-0.267302,69.531332
4.156,0.007175,-0.007103,-0.006299,-0.002911,0.006575,0.009108,0.003623,-0.517033,-0.006822,-1.316896,-259.116328,-0.267302,69.531332
4.1757,0.007018,-0.006688,-0.005849,-0.002863,0.006582,0.009115,0.003843,-0.516831,-0.005937,-1.324407,-259.121087,-0.321492,69.530109
4.1963,0.006598,-0.006486,-0.004103,-0.002885,0.006559,0.00892,0.003909,-0.516738,-0.005859,-1.324407,-259.121087,-0.321492,69.530109
4.2161,0.006339,-0.006149,-0.003719,-0.002899,0.00654,0.008774,0.004416,-0.516274,-0.003815,-1.33938,-259.126031,-0.340581,69.528906
4.2364,0.006287,-0.006612,-0.005637,-0.00304,0.006468,0.008031,0.004435,-0.516147,-0.003713,-1.33938,-259.126031,-0.340581,69.528906
4.256,0.0062,-0.006302,-0.005137,-0.003143,0.006409,0.007501,0.004435,-0.516147,-0.003713,-1.33938,-259.126031,-0.340581,69.528906
4.2759,0.006085,-0.006245,-0.004489,-0.003217,0.006359,0.007123,0.003464,-0.51603,-0.004782,-1.331804,-259.13076,-0.386959,69.527697
4.2961,0.005895,-0.006218,-0.004548,-0.00315,0.006358,0.007129,0.003585,-0.516085,-0.004622,-1.331804,-259.13076,-0.386959,69.527697
4.3159,0.005613,-0.005767,-0.004724,-0.003096,0.006357,0.007131,0.003513,-0.516095,-0.004407,-1.279022,-259.133439,-0.46196,69.526789
4.3357,0.0053,-0.006148,-0.004442,-0.003015,0.006353,0.00714,0.003226,-0.515783,-0.004692,-1.279022,-259.133439,-0.46196,69.526789
4.3559,0.005702,-0.006332,-0.003742,-0.002951,0.00635,0.007143,0.003226,-0.515783,-0.004692,-1.279022,-259.133439,-0.46196,69.526789
4.3757,0.00566,-0.005764,-0.005114,-0.002899,0.006348,0.007143,0.003688,-0.516113,-0.003496,-1.289404,-259.137072,-0.537246,69.525587
4.3958,0.005349,-0.005747,-0.002979,-0.002884,0.006348,0.006982,0.003415,-0.515942,-0.004133,-1.289404,-259.137072,-0.537246,69.525587
4.4157,0.00525,-0.005161,-0.002061,-0.002869,0.006349,0.006862,0.003745,-0.515556,-0.002767,-1.306498,-259.14121,-0.600523,69.524277
4.4357,0.005331,-0.005075,-0.003919,-0.003041,0.00626,0.00599,0.004152,-0.515187,-0.002115,-1.306498,-259.14121,-0.600523,69.524277
4.4563,0.005446,-0.005131,-0.003605,-0.003168,0.006186,0.005368,0.004152,-0.515187,-0.002115,-1.306498,-259.14121,-0.600523,69.524277
4.476,0.004662,-0.005013,-0.003581,-0.003262,0.006125,0.004924,0.003492,-0.51487,-0.003327,-1.305045,-259.145445,-0.644792,69.522885
4.4959,0.005127,-0.004905,-0.003073,-0.003185,0.006092,0.005101,0.003209,-0.514897,-0.003399,-1.305045,-259.145445,-0.644792,69.522885
4.5156,0.00465,-0.004791,-0.003699,-0.003125,0.006066,0.00523,0.003484,-0.514763,-0.002956,-1.22998,-259.148263,-0.719857,69.521574
4.536,0.005124,-0.004628,-0.003166,-0.003014,0.006052,0.005387,0.002825,-0.514778,-0.003625,-1.22998,-259.148263,-0.719857,69.521574
4.5559,0.004907,-0.004811,-0.00267,-0.002927,0.006041,0.005501,0.002825,-0.514778,-0.003625,-1.22998,-259.148263,-0.719857,69.521574
4.5757,0.004527,-0.004183,-0.005586,-0.002861,0.006033,0.005583,0.003417,-0.514558,-0.002454,-1.245305,-259.152124,-0.743153,69.519897
4.596,0.004664,-0.004546,-0.004133,-0.002806,0.005987,0.005657,0.002696,-0.514373,-0.003701,-1.245305,-259.152124,-0.743153,69.519897
4.6158,0.003909,-0.004093,-0.001612,-0.002764,0.005953,0.00571,0.002466,-0.514351,-0.003957,-1.276647,-259.156009,-0.742054,69.518369
4.636,0.004402,-0.004261,-0.003563,-0.002848,0.005884,0.004998,0.003026,-0.514106,-0.001813,-1.276647,-259.156009,-0.742054,69.518369
4.6559,0.003863,-0.004085,-0.004394,-0.002906,0.005827,0.004487,0.003026,-0.514106,-0.001813,-1.276647,-259.156009,-0.742054,69.518369
4.6759,0.003577,-0.003936,-0.003307,-0.002946,0.005781,0.004121,0.001508,-0.513832,-0.004156,-1.285984,-259.159926,-0.728313,69.516895
4.6961,0.003663,-0.003994,-0.003489,-0.00264,0.00575,0.004564,0.001651,-0.513844,-0.003783,-1.285984,-259.159926,-0.728313,69.516895
4.7159,0.003617,-0.003779,-0.002151,-0.00241,0.005732,0.004892,0.001809,-0.513846,-0.003383,-1.229664,-259.1627,-0.803288,69.515509
4.736,0.003715,-0.003433,-0.003027,-0.002455,0.005689,0.004597,0.002453,-0.513777,-0.002255,-1.229664,-259.1627,-0.803288,69.515509
4.7561,0.003844,-0.003596,-0.002356,-0.002487,0.005656,0.004387,0.002453,-0.513777,-0.002255,-1.229664,-259.1627,-0.803288,69.515509
4.7756,0.003672,-0.003267,-0.002442,-0.002508,0.00563,0.004235,0.002553,-0.51338,-0.002174,-1.301175,-259.165919,-0.850143,69.51421
4.7959,0.003598,-0.003542,-0.003529,-0.00256,0.00553,0.004122,0.002491,-0.513309,-0.002263,-1.301175,-259.165919,-0.850143,69.51421
4.8156,0.003085,-0.003135,0.000112,-0.002599,0.005454,0.004042,0.001721,-0.513364,-0.003398,-1.27449,-259.169263,-0.881359,69.512675
4.8357,0.003451,-0.002945,-0.002959,-0.002787,0.005359,0.002974,0.00301,-0.513146,-0.000197,-1.27449,-259.169263,-0.881359,69.512675
4.8556,0.003183,-0.002822,-0.001861,-0.002925,0.005282,0.002198,0.00301,-0.513146,-0.000197,-1.27449,-259.169263,-0.881359,69.512675
4.8758,0.002804,-0.002949,-0.002001,-0.003025,0.00522,0.001638,0.002128,-0.512596,-0.001695,-1.25385,-259.172538,-0.854626,69.51112
4.896,0.002814,-0.002758,-0.003911,-0.002844,0.005103,0.002003,0.001975,-0.512714,-0.0018,-1.25385,-259.172538,-0.854626,69.51112
4.9161,0.00282,-0.002524,-0.00239,-0.002709,0.005018,0.002272,0.000761,-0.512645,-0.003874,-1.178846,-259.174324,-0.929629,69.50978
4.9361,0.002986,-0.002659,-0.0008,-0.002471,0.004923,0.002744,0.001523,-0.512528,-0.002521,-1.178846,-259.174324,-0.929629,69.50978
4.9561,0.002811,-0.003001,-0.00126,-0.002295,0.004856,0.003093,0.001523,-0.512528,-0.002521,-1.178846,-259.174324,-0.929629,69.50978
4.9759,0.002916,-0.002488,-0.000975,-0.002164,0.004809,0.003353,0.002054,-0.51279,-0.001165,-1.170717,-259.177103,-0.929794,69.50797
4.9957,0.002724,-0.002392,-0.002444,-0.002274,0.004794,0.002914,0.002189,-0.512644,-0.001077,-1.170717,-259.177103,-0.929794,69.50797
5.0155,0.002804,-0.002267,-0.001054,-0.002355,0.004781,0.002598,0.001417,-0.512259,-0.002354,-1.245729,-259.179577,-0.905938,69.506762
5.0358,0.002132,-0.002262,-0.001875,-0.002433,0.004677,0.002406,0.002188,-0.51226,-0.001165,-1.245729,-259.179577,-0.905938,69.506762
5.0558,0.002302,-0.002181,-0.001745,-0.002492,0.004596,0.002269,0.002188,-0.51226,-0.001165,-1.245729,-259.179577,-0.905938,69.506762
5.0764,0.00235,-0.00171,-0.001937,-0.002537,0.004535,0.002173,0.001317,-0.511985,-0.001639,-1.216594,-259.182215,-0.93557,69.505221
5.0956,0.002412,-0.001794,-0.000391,-0.002319,0.004387,0.002351,0.001324,-0.511851,-0.001747,-1.216594,-259.182215,-0.93557,69.505221
5.1158,0.001944,-0.002059,-0.000897,-0.002157,0.004282,0.002482,0.002137,-0.511659,-0.000326,-1.162315,-259.184612,-0.901609,69.503686
5.136,0.00214,-0.001978,-0.000865,-0.002118,0.004262,0.002152,0.001539,-0.512018,-0.000845,-1.162315,-259.184612,-0.901609,69.503686
5.1557,0.002012,-0.001693,-0.00319,-0.002086,0.004247,0.001914,0.001539,-0.512018,-0.000845,-1.162315,-259.184612,-0.901609,69.503686
5.176,0.00178,-0.00131,-0.001268,-0.002059,0.004237,0.001743,0.000299,-0.511519,-0.003091,-1.214668,-259.186977,-0.908487,69.502345
5.1961,0.001985,-0.001986,-0.002005,-0.001707,0.00404,0.002251,0.000633,-0.511413,-0.002328,-1.214668,-259.186977,-0.908487,69.502345
5.2154,0.001974,-0.001402,0.000642,-0.001446,0.003901,0.002628,0.000905,-0.511866,-0.001955,-1.200323,-259.188985,-0.98346,69.501009
5.2358,0.001847,-0.000842,-0.002552,-0.001792,0.003815,0.001623,0.002174,-0.511437,0.000413,-1.200323,-259.188985,-0.98346,69.501009
5.2558,0.001871,-0.001844,-0.00108,-0.002054,0.003745,0.000893,0.002174,-0.511437,0.000413,-1.200323,-259.188985,-0.98346,69.501009
5.2756,0.001666,-0.001383,-0.001636,-0.002252,0.003687,0.000362,0.001268,-0.511713,-0.000993,-1.275244,-259.19082,-1.008689,69.500135
5.2959,0.001618,-0.000946,-0.002096,-0.00203,0.003686,0.000803,0.001084,-0.511562,-0.001246,-1.275244,-259.19082,-1.008689,69.500135
5.316,0.001659,-0.001217,-0.001202,-0.001866,0.003687,0.001124,0.000523,-0.510892,-0.002087,-1.200173,-259.191602,-0.994653,69.499419
5.3362,0.001406,-0.001079,-0.000506,-0.001725,0.003568,0.001363,0.000999,-0.511186,-0.001278,-1.200173,-259.191602,-0.994653,69.499419
5.3562,0.001287,-0.001224,-0.001372,-0.001621,0.003481,0.001538,0.000999,-0.511186,-0.001278,-1.200173,-259.191602,-0.994653,69.499419
5.3764,0.001571,-0.00099,-0.001574,-0.001546,0.003419,0.001668,0.000511,-0.511072,-0.001327,-1.167561,-259.19346,-1.014512,69.498038
5.3961,0.001478,-0.001201,-0.002149,-0.001342,0.003313,0.001824,0.000608,-0.511021,-0.001423,-1.167561,-259.19346,-1.014512,69.498038
5.4161,0.001444,-0.000563,-0.001314,-0.00119,0.003238,0.001939,0.000337,-0.511099,-0.0021,-1.235572,-259.195197,-0.998538,69.496983
5.436,0.001282,-0.000675,-0.000987,-0.001132,0.003014,0.001995,0.000733,-0.510604,-0.001381,-1.235572,-259.195197,-0.998538,69.496983
5.4561,0.001211,-0.000598,-0.000111,-0.001091,0.00285,0.002039,0.000733,-0.510604,-0.001381,-1.235572,-259.195197,-0.998538,69.496983
5.4761,0.001412,-0.001104,-0.000389,-0.001062,0.00273,0.002076,0.001111,-0.510478,-3.9e-05,-1.307977,-259.196822,-1.045707,69.49614
5.4961,0.001275,-0.000767,-0.00069,-0.001222,0.00271,0.001502,0.001147,-0.510719,-0.000173,-1.307977,-259.196822,-1.045707,69.49614
5.5158,0.001561,-0.00083,-0.001512,-0.001339,0.002692,0.001087,0.000895,-0.510693,-0.000635,-1.311157,-259.198217,-0.970744,69.495531
5.536,0.001234,-0.000622,-0.001258,-0.001269,0.002705,0.001415,0.000798,-0.510814,-0.001431,-1.311157,-259.198217,-0.970744,69.495531
5.556,0.001156,-0.00015,-0.000324,-0.001219,0.002714,0.001654,0.000798,-0.510814,-0.001431,-1.311157,-259.198217,-0.970744,69.495531
5.5761,0.001239,-0.000704,0.000759,-0.001183,0.002722,0.001828,0.000949,-0.51006,-0.000287,-1.236129,-259.199359,-0.987302,69.494763
5.596,0.000975,-0.000369,0.000431,-0.001348,0.002548,0.001153,0.00122,-0.510313,0.000145,-1.236129,-259.199359,-0.987302,69.494763
5.6163,0.001159,-0.00014,-0.000205,-0.00147,0.002415,0.000664,0.001159,-0.510288,0.000486,-1.271811,-259.200867,-0.935582,69.494014
5.6358,0.001339,-0.00024,-0.000889,-0.001501,0.002238,0.000449,0.001062,-0.510149,-0.00014,-1.271811,-259.200867,-0.935582,69.494014
5.6558,0.000747,-0.000548,0.001222,-0.001524,0.002104,0.000295,0.001062,-0.510149,-0.00014,-1.271811,-259.200867,-0.935582,69.494014
5.6756,0.001225,0.00017,0.000864,-0.001542,0.002002,0.000184,0.001337,-0.510486,0.001241,-1.196822,-259.201616,-0.939153,69.493428
5.696,0.000806,4.5e-05,-0.00074,-0.001718,0.001981,-0.000485,0.001467,-0.510212,0.00109,-1.196822,-259.201616,-0.939153,69.493428
5.7159,0.001102,-0.00014,-0.000968,-0.001848,0.001961,-0.000977,0.000414,-0.509933,-0.000736,-1.121797,-259.201962,-0.886141,69.493106
5.7363,0.000948,-7.5e-05,-0.000704,-0.00158,0.001864,-0.000333,0.00059,-0.51012,-0.000946,-1.121797,-259.201962,-0.886141,69.493106
5.7561,0.000864,-0.000194,-0.000623,-0.001384,0.001794,0.000137,0.00059,-0.51012,-0.000946,-1.121797,-259.201962,-0.886141,69.493106
5.7762,0.000707,-0.000309,-0.000214,-0.00124,0.001742,0.000481,0.000545,-0.510192,-0.000624,-1.046826,-259.201979,-0.94506,69.493082
5.7958,0.00092,-0.000524,0.000511,-0.001156,0.00177,0.000496,0.000566,-0.510239,-0.000458,-1.046826,-259.201979,-0.94506,69.493082
5.8157,0.001311,-0.000209,0.000179,-0.001091,0.001792,0.000505,0.001145,-0.510475,0.000525,-1.02386,-259.202829,-0.870052,69.492402
5.8361,0.000646,-0.000228,-0.000558,-0.001344,0.001831,0.000178,0.001379,-0.510229,0.000208,-1.02386,-259.202829,-0.870052,69.492402
5.8562,0.0005,-0.000117,-0.000874,-0.001535,0.001857,-6.1e-05,0.001379,-0.510229,0.000208,-1.02386,-259.202829,-0.870052,69.492402
5.8761,0.000895,-0.000227,5.3e-05,-0.00168,0.001873,-0.000236,1.5e-05,-0.510051,-0.000856,-1.091467,-259.203649,-0.936518,69.491764
5.896,0.000699,-9.3e-05,-0.000102,-0.0014,0.0018,-1.9e-05,0.000378,-0.510115,-0.000485,-1.091467,-259.203649,-0.936518,69.491764
5.9157,0.000839,-4.3e-05,0.000509,-0.001191,0.00175,0.000136,0.000636,-0.510078,-0.000102,-1.016509,-259.203877,-0.876374,69.491516
5.9358,0.000774,-0.00035,0.000246,-0.001316,0.001725,-0.000231,0.001056,-0.510045,0.000453,-1.016509,-259.203877,-0.876374,69.491516
5.9557,0.000625,-0.0001,-0.001143,-0.001409,0.001703,-0.000498,0.001056,-0.510045,0.000453,-1.016509,-259.203877,-0.876374,69.491516
5.9757,0.000478,0.000146,0.000464,-0.001478,0.001684,-0.000694,-3e-06,-0.510033,-0.001138,-0.994872,-259.204671,-0.950581,69.490771
5.9965,0.000589,0.0001,-0.001235,-0.001204,0.001592,-0.000362,0.000285,-0.509952,-0.000482,-0.994872,-259.204671,-0.950581,69.490771
6.0161,0.000511,7.9e-05,-0.000666,-0.000999,0.001527,-0.000121,-5.2e-05,-0.509884,-0.001238,-0.919877,-259.204871,-0.959042,69.490507
6.0359,0.000843,0.000372,0.002492,-0.000781,0.001463,0.000173,0.00015,-0.509917,-0.000718,-0.919877,-259.204871,-0.959042,69.490507
6.0558,0.000691,0.00015,0.000735,-0.000619,0.001418,0.000388,0.00015,-0.509917,-0.000718,-0.919877,-259.204871,-0.959042,69.490507
6.076,0.000818,-9.7e-05,-0.001685,-0.000496,0.001386,0.000545,0.001027,-0.509791,0.00073,-0.968674,-259.20552,-1.013034,69.489812
6.096,0.000629,-0.000209,-0.000337,-0.000596,0.001384,0.000427,0.000585,-0.509909,-0.000258,-0.968674,-259.20552,-1.013034,69.489812
6.1159,0.000569,0.000173,-0.000634,-0.000671,0.001381,0.000343,0.000454,-0.510203,-0.000335,-1.043784,-259.205627,-1.088145,69.489743
