mach0312/omni-docking-bench/src/icros_test_setup/results/MPPI_sample/timeseries/trial_038.csv
t,x,y,yaw,vx,vy,wz,bl_x,bl_y,bl_yaw,front_steering_joint,front_wheel_joint,rear_steering_joint,rear_wheel_joint
0.0,-0.008348,-0.000416,-0.036024,-0.006054,-6.7e-05,0.001129,-0.024672,-0.510104,-0.033456,-0.102396,-262.404645,0.124408,71.382528
0.0006,-0.008521,-0.000568,-0.033689,-0.007513,-8.4e-05,0.001401,-0.024672,-0.510104,-0.033456,-0.102396,-262.406934,0.124408,71.380234
0.0009,-0.008921,-0.000405,-0.036249,-0.007569,-8.4e-05,0.001412,-0.024672,-0.510104,-0.033456,-0.102396,-262.409495,0.124408,71.377666
0.0012,-0.009004,-0.000321,-0.035596,-0.007588,-8.5e-05,0.001415,-0.025635,-0.510456,-0.035196,-0.102396,-262.412357,0.124408,71.374797
0.0015,-0.009331,-0.000808,-0.034709,-0.007569,-8.4e-05,0.001412,-0.02574,-0.510438,-0.034888,-0.102396,-262.415345,0.124408,71.371801
0.0019,-0.00928,-0.000556,-0.034863,-0.007512,-8.4e-05,0.001401,-0.02574,-0.510438,-0.034888,-0.102396,-262.418427,0.124408,71.368712
0.0022,-0.009629,-0.000638,-0.035091,-0.007416,-8.3e-05,0.001383,-0.025524,-0.510205,-0.033541,-0.102396,-262.421417,0.124408,71.365715
0.0026,-0.009672,-0.000424,-0.035337,-0.007285,-8.1e-05,0.001359,-0.025524,-0.510205,-0.033541,-0.102396,-262.421417,0.124408,71.365715
0.0028,-0.010454,-4.9e-05,-0.03367,-0.007114,-7.9e-05,0.001327,-0.026206,-0.510356,-0.035789,-0.102396,-262.421417,0.124408,71.365715
0.0031,-0.009848,-0.000374,-0.034038,-0.006904,-7.7e-05,0.001288,-0.026206,-0.510356,-0.035789,-0.102396,-262.421417,0.124408,71.365715
0.0175,-0.010229,-0.00037,-0.03412,0.0,0.0,0.0,-0.02766,-0.509789,-0.033806,-0.102396,-262.421417,0.124408,71.365715
0.0379,-0.010531,-0.000545,-0.034884,0.0,0.0,0.0,-0.027924,-0.510066,-0.034064,-0.102396,-262.424276,0.124408,71.362848
0.0575,-0.010429,-0.000216,-0.035159,0.0,0.0,0.0,-0.028118,-0.510134,-0.034389,-0.102396,-262.424276,0.124408,71.362848
0.0771,-0.010507,-0.000586,-0.034773,0.0,0.0,0.0,-0.028356,-0.509901,-0.035159,-0.102396,-262.424276,0.124408,71.362848
0.0971,-0.010272,-0.000377,-0.034588,0.0,0.0,0.0,-0.028248,-0.510245,-0.034806,-0.102396,-262.424276,0.124408,71.362848
0.1172,-0.010245,-0.000448,-0.033741,0.003781,-0.001297,0.010715,-0.028248,-0.510245,-0.034806,-0.102396,-262.424276,0.124408,71.362848
0.1374,-0.010145,-0.000419,-0.034646,0.004079,-0.001444,0.011626,-0.02745,-0.510158,-0.033741,-0.102396,-262.424276,0.124408,71.362848
0.1577,-0.010198,-0.00032,-0.034711,0.004323,-0.00158,0.012323,-0.027596,-0.51014,-0.034108,-0.102396,-262.424276,0.124408,71.362848
0.1777,-0.010596,-0.000399,-0.034362,0.004521,-0.001699,0.012885,-0.027897,-0.510013,-0.034711,-0.027526,-262.424276,0.049537,71.362848
0.1976,-0.010371,-7.2e-05,-0.035189,0.004682,-0.001806,0.013338,-0.028098,-0.510091,-0.034392,-0.027526,-262.424276,0.049537,71.362848
0.2176,-0.01021,-0.000359,-0.034109,0.004813,-0.0019,0.013702,-0.028098,-0.510091,-0.034392,-0.027526,-262.424276,0.049537,71.362848
0.2374,-0.010576,-0.000553,-0.034846,0.004919,-0.001984,0.013995,-0.027602,-0.510062,-0.034109,0.047615,-262.424276,-0.025603,71.362848
0.2578,-0.010315,-0.000944,-0.032966,0.005004,-0.002056,0.014229,-0.027923,-0.51014,-0.034428,0.047615,-262.424276,-0.025603,71.362848
0.2775,-0.010225,-0.000377,-0.035723,0.005072,-0.00212,0.014416,-0.027125,-0.510666,-0.032966,0.123233,-262.424276,-0.101221,71.362848
0.2973,-0.010272,-0.000222,-0.034493,0.005126,-0.002176,0.014565,-0.028328,-0.510104,-0.035487,0.123233,-262.424276,-0.101221,71.362848
0.3172,-0.010358,-0.00059,-0.035747,0.005168,-0.002225,0.014683,-0.028328,-0.510104,-0.035487,0.123233,-262.424276,-0.101221,71.362848
0.3372,-0.010583,-0.000155,-0.034765,0.0052,-0.002269,0.014777,-0.028585,-0.510264,-0.035747,0.197625,-262.424276,-0.175613,71.362848
0.3575,-0.010508,-8.2e-05,-0.035393,0.005225,-0.002307,0.014852,-0.028473,-0.510094,-0.035346,0.197625,-262.424276,-0.175613,71.362848
0.3772,-0.010389,-0.000414,-0.033979,0.005243,-0.00234,0.014912,-0.028555,-0.509763,-0.035393,0.272578,-262.424276,-0.250566,71.362848
0.3972,-0.010066,-0.000329,-0.035304,0.005257,-0.00237,0.014959,-0.027778,-0.510093,-0.034086,0.272578,-262.424276,-0.250566,71.362848
0.4175,-0.010225,-0.00043,-0.032621,0.005266,-0.002396,0.014997,-0.027778,-0.510093,-0.034086,0.272578,-262.424276,-0.250566,71.362848
0.4372,-0.010266,-0.000455,-0.034349,0.005273,-0.002419,0.015026,-0.026859,-0.510159,-0.032621,0.34792,-262.424276,-0.325908,71.362848
0.4575,-0.01051,-0.000407,-0.034235,0.005277,-0.002437,0.015049,-0.027236,-0.510157,-0.033327,0.34792,-262.424276,-0.325908,71.362848
0.4777,-0.010637,-0.000534,-0.034634,0.005279,-0.002452,0.015067,-0.027966,-0.510109,-0.034235,0.422568,-262.424276,-0.400557,71.362848
0.4978,-0.01025,-0.000631,-0.035824,0.005279,-0.002462,0.015081,-0.028267,-0.510218,-0.034598,0.422568,-262.424276,-0.400557,71.362848
0.5177,-0.010385,-0.000367,-0.033844,0.005279,-0.002471,0.015091,-0.028267,-0.510218,-0.034598,0.422568,-262.424276,-0.400557,71.362848
0.5375,-0.01047,-0.000675,-0.033738,0.005277,-0.002479,0.015099,-0.027642,-0.510075,-0.033844,0.497495,-262.424276,-0.475483,71.362848
0.5572,-0.010001,-0.000456,-0.035649,0.005275,-0.002487,0.015105,-0.027655,-0.510201,-0.033801,0.497495,-262.424276,-0.475483,71.362848
0.5775,-0.010421,-0.00059,-0.034721,0.005272,-0.002494,0.01511,-0.028179,-0.510132,-0.035649,0.572482,-262.424276,-0.55047,71.362848
0.5974,-0.010348,-0.000497,-0.033854,0.005269,-0.002496,0.015113,-0.02813,-0.510269,-0.034806,0.572482,-262.424276,-0.55047,71.362848
0.6172,-0.010474,-0.000658,-0.035128,0.005266,-0.002499,0.015115,-0.02813,-0.510269,-0.034806,0.572482,-262.424276,-0.55047,71.362848
0.6373,-0.010557,-0.000245,-0.035534,0.005263,-0.002501,0.015116,-0.028385,-0.510344,-0.035128,0.647473,-262.424275,-0.625461,71.36285
0.6572,-0.010009,-9.6e-05,-0.03275,0.00526,-0.002506,0.015117,-0.028503,-0.510173,-0.035293,0.647473,-262.424275,-0.625461,71.36285
0.6774,-0.010646,-0.000448,-0.034391,0.005256,-0.00251,0.015117,-0.026707,-0.509823,-0.032749,0.722477,-262.424263,-0.700465,71.362868
0.6972,-0.010364,-0.000618,-0.03301,0.005253,-0.002516,0.015118,-0.028049,-0.510118,-0.034243,0.722477,-262.424263,-0.700465,71.362868
0.7174,-0.01012,-0.000714,-0.032733,0.00525,-0.002522,0.015118,-0.028049,-0.510118,-0.034243,0.722477,-262.424263,-0.700465,71.362868
0.7374,-0.010459,-0.000621,-0.035462,0.005247,-0.002526,0.015118,-0.026805,-0.510442,-0.032723,0.797477,-262.424194,-0.775465,71.362972
0.7578,-0.010417,-0.000333,-0.035116,0.005245,-0.002521,0.015116,-0.027509,-0.510385,-0.033834,0.797477,-262.424194,-0.775465,71.362972
0.7777,-0.010671,-0.000418,-0.035958,0.005243,-0.002516,0.015115,-0.028305,-0.510023,-0.035081,0.872482,-262.423916,-0.85047,71.363393
0.7977,-0.010423,-0.000457,-0.03391,0.00524,-0.002522,0.015115,-0.028941,-0.510083,-0.035877,0.872482,-262.423916,-0.85047,71.363393
0.8176,-0.009823,-0.000547,-0.036331,0.005238,-0.002526,0.015115,-0.028941,-0.510083,-0.035877,0.872482,-262.423916,-0.85047,71.363393
0.8372,-0.010765,-0.000744,-0.035363,0.005236,-0.00253,0.015114,-0.028287,-0.51023,-0.036199,0.907936,-262.423146,-0.92547,71.364554
0.8572,-0.01057,-0.000494,-0.035385,0.005234,-0.002525,0.015113,-0.028485,-0.510311,-0.035848,0.907936,-262.423146,-0.92547,71.364554
0.8774,-0.010325,-0.000112,-0.032676,0.005233,-0.002521,0.015112,-0.028529,-0.510206,-0.035185,0.907552,-262.421657,-1.000476,71.366808
0.8973,-0.010306,-0.00069,-0.03389,0.00523,-0.002536,0.015185,-0.027114,-0.509872,-0.03288,0.907552,-262.421657,-1.000476,71.366808
0.9175,-0.010309,-0.000318,-0.032514,0.005228,-0.002549,0.015243,-0.027114,-0.509872,-0.03288,0.907552,-262.421657,-1.000476,71.366808
0.9375,-0.010286,-0.00058,-0.033191,0.005226,-0.002559,0.015289,-0.026726,-0.510121,-0.032087,0.908377,-262.419307,-1.075616,71.370362
0.9573,-0.010673,-0.000759,-0.032926,0.005226,-0.002557,0.015389,-0.026904,-0.510202,-0.032487,0.908377,-262.419307,-1.075616,71.370362
0.9774,-0.011057,-0.000855,-0.033529,0.005225,-0.002555,0.015468,-0.027313,-0.51056,-0.032488,0.913975,-262.416229,-1.15047,71.375035
0.9975,-0.010413,-0.000827,-0.032843,0.005224,-0.002539,0.015608,-0.02807,-0.510571,-0.033413,0.913975,-262.416229,-1.15047,71.375035
1.0173,-0.010857,-0.00064,-0.032669,0.005223,-0.002526,0.015721,-0.02807,-0.510571,-0.033413,0.913975,-262.416229,-1.15047,71.375035
1.0376,-0.010218,-0.000917,-0.03307,0.005222,-0.002515,0.015812,-0.027301,-0.510481,-0.032023,0.922184,-262.412778,-1.160211,71.380258
1.0574,-0.010821,-0.00127,-0.03214,0.005221,-0.002507,0.015962,-0.027186,-0.510558,-0.032376,0.922184,-262.412778,-1.160211,71.380258
1.0774,-0.010961,-0.000843,-0.03218,0.005219,-0.0025,0.016085,-0.027046,-0.511092,-0.031639,0.939434,-262.409258,-1.165535,71.385528
1.0974,-0.010686,-0.0007,-0.030547,0.005218,-0.00249,0.016247,-0.027332,-0.510631,-0.032104,0.939434,-262.409258,-1.165535,71.385528
1.1185,-0.01111,-0.000446,-0.030312,0.005216,-0.002482,0.01638,-0.027332,-0.510631,-0.032104,0.939434,-262.409258,-1.165535,71.385528
1.1377,-0.011143,-0.001378,-0.03015,0.005215,-0.002475,0.016489,-0.026351,-0.510323,-0.029639,0.951618,-262.40567,-1.170176,71.390867
1.1581,-0.0113,-0.000712,-0.031595,0.005213,-0.002468,0.016633,-0.026394,-0.510668,-0.029769,0.951618,-262.40567,-1.170176,71.390867
1.1773,-0.010979,-0.001231,-0.029078,0.005212,-0.002463,0.016753,-0.027248,-0.510541,-0.031073,0.969168,-262.401987,-1.17684,71.396298
1.1974,-0.011089,-0.001345,-0.029446,0.00521,-0.002446,0.0169,-0.025912,-0.510982,-0.029211,0.969168,-262.401987,-1.17684,71.396298
1.2173,-0.011096,-0.001231,-0.029755,0.005209,-0.002432,0.017022,-0.025912,-0.510982,-0.029211,0.969168,-262.401987,-1.17684,71.396298
1.2371,-0.0112,-0.001318,-0.028963,0.005207,-0.002421,0.017123,-0.026055,-0.511114,-0.029057,0.979904,-262.398272,-1.181237,71.401748
1.2575,-0.011525,-0.001227,-0.029222,0.005206,-0.002406,0.017252,-0.025996,-0.511122,-0.028939,0.979904,-262.398272,-1.181237,71.401748
1.2774,-0.011649,-0.001588,-0.027713,0.005204,-0.002393,0.01736,-0.026261,-0.511091,-0.028673,0.995921,-262.394458,-1.186561,71.407279
1.2971,-0.011568,-0.001401,-0.026576,0.005202,-0.002374,0.017488,-0.025817,-0.511369,-0.027775,0.995921,-262.394458,-1.186561,71.407279
1.3174,-0.011831,-0.001411,-0.027957,0.005201,-0.002358,0.017594,-0.025817,-0.511369,-0.027775,0.995921,-262.394458,-1.186561,71.407279
1.3374,-0.012015,-0.001434,-0.026264,0.005199,-0.002344,0.017683,-0.025872,-0.511318,-0.027231,1.005808,-262.390577,-1.189902,71.412869
1.3576,-0.011654,-0.001848,-0.026372,0.005197,-0.002336,0.017789,-0.025659,-0.511306,-0.026754,1.005808,-262.390577,-1.189902,71.412869
1.3771,-0.011899,-0.001364,-0.026123,0.005195,-0.002329,0.017877,-0.024939,-0.51175,-0.025811,1.019577,-262.38662,-1.19417,71.418504
1.3972,-0.011931,-0.001686,-0.024778,0.005193,-0.002325,0.017976,-0.025187,-0.511244,-0.026066,1.019577,-262.38662,-1.19417,71.418504
1.4175,-0.011983,-0.001323,-0.028014,0.005191,-0.002322,0.018058,-0.025187,-0.511244,-0.026066,1.019577,-262.38662,-1.19417,71.418504
1.4373,-0.011951,-0.00161,-0.024765,0.005189,-0.002319,0.018126,-0.026053,-0.511226,-0.027264,1.026891,-262.382609,-1.19709,71.42419
1.4576,-0.01225,-0.001661,-0.025806,0.005188,-0.002314,0.018199,-0.025433,-0.51133,-0.026168,1.026891,-262.382609,-1.19709,71.42419
1.4771,-0.012149,-0.001802,-0.023041,0.005186,-0.00231,0.01826,-0.025245,-0.511569,-0.025225,1.035573,-262.378545,-1.201062,71.429926
1.4972,-0.012253,-0.001939,-0.023782,0.005184,-0.002292,0.018319,-0.024014,-0.511662,-0.023211,1.035573,-262.378545,-1.201062,71.429926
1.5174,-0.012445,-0.0018,-0.024678,0.005182,-0.002277,0.018369,-0.024014,-0.511662,-0.023211,1.035573,-262.378545,-1.201062,71.429926
1.5371,-0.012139,-0.001647,-0.023485,0.00518,-0.002265,0.01841,-0.024815,-0.511747,-0.023914,1.040387,-262.374446,-1.203096,71.435694
1.5576,-0.012721,-0.002229,-0.023433,0.005178,-0.002256,0.018451,-0.024504,-0.51166,-0.023651,1.040387,-262.374446,-1.203096,71.435694
1.5778,-0.012728,-0.00204,-0.023484,0.005176,-0.002249,0.018485,-0.024508,-0.512165,-0.022847,1.047539,-262.370303,-1.204644,71.441476
1.5975,-0.012772,-0.002218,-0.022373,0.005174,-0.002232,0.018519,-0.024678,-0.511927,-0.023396,1.047539,-262.370303,-1.204644,71.441476
1.6174,-0.012801,-0.00195,-0.022298,0.005172,-0.002219,0.018547,-0.024678,-0.511927,-0.023396,1.047539,-262.370303,-1.204644,71.441476
1.6375,-0.01279,-0.002378,-0.021182,0.00517,-0.002208,0.018571,-0.023957,-0.511922,-0.021522,1.050845,-262.366137,-1.205617,71.447273
1.6576,-0.012955,-0.002556,-0.0208,0.005168,-0.002191,0.018593,-0.023785,-0.512072,-0.021296,1.050845,-262.366137,-1.205617,71.447273
1.6769,-0.013153,-0.002287,-0.021712,0.005166,-0.002177,0.018613,-0.023399,-0.512519,-0.020209,1.055743,-262.36194,-1.206285,71.453072
1.6973,-0.013283,-0.002354,-0.021139,0.005163,-0.002162,0.018634,-0.024143,-0.512202,-0.021547,1.055743,-262.36194,-1.206285,71.453072
1.7173,-0.013377,-0.002518,-0.021016,0.005161,-0.002149,0.018651,-0.024143,-0.512202,-0.021547,1.055743,-262.36194,-1.206285,71.453072
1.7376,-0.013542,-0.002221,-0.020417,0.005159,-0.002138,0.018666,-0.02388,-0.512501,-0.020236,1.058741,-262.357723,-1.206462,71.45887
1.7579,-0.013199,-0.002411,-0.018663,0.005157,-0.002123,0.01868,-0.023886,-0.512355,-0.02022,1.058741,-262.357723,-1.206462,71.45887
1.7773,-0.014001,-0.002765,-0.019245,0.005155,-0.00211,0.018692,-0.022554,-0.512393,-0.018069,1.062621,-262.353467,-1.206701,71.464686
1.7973,-0.013401,-0.002175,-0.018969,0.005153,-0.002089,0.0187,-0.023705,-0.512651,-0.019121,1.062621,-262.353467,-1.206701,71.464686
1.8172,-0.013565,-0.00248,-0.018656,0.005152,-0.002071,0.018706,-0.023705,-0.512651,-0.019121,1.062621,-262.353467,-1.206701,71.464686
1.8373,-0.013813,-0.002695,-0.017248,0.00515,-0.002056,0.018712,-0.022866,-0.512483,-0.017877,1.064916,-262.349229,-1.206665,71.470453
1.8575,-0.014256,-0.002479,-0.016913,0.005149,-0.002047,0.018707,-0.022737,-0.512549,-0.017532,1.064916,-262.349229,-1.206665,71.470453
1.8778,-0.014187,-0.002909,-0.016748,0.005149,-0.00204,0.018704,-0.022718,-0.512474,-0.016316,1.068367,-262.344952,-1.205959,71.476225
1.8977,-0.013906,-0.002728,-0.017866,0.005147,-0.002026,0.01869,-0.022719,-0.512808,-0.016677,1.068367,-262.344952,-1.205959,71.476225
1.9173,-0.01425,-0.002622,-0.017275,0.005146,-0.002015,0.01868,-0.022719,-0.512808,-0.016677,1.068367,-262.344952,-1.205959,71.476225
1.9375,-0.014509,-0.002602,-0.015005,0.005145,-0.002005,0.018672,-0.022845,-0.512635,-0.016492,1.068972,-262.34067,-1.205541,71.481991
1.9575,-0.014384,-0.002959,-0.014263,0.005144,-0.00201,0.018648,-0.022542,-0.512608,-0.015796,1.068972,-262.34067,-1.205541,71.481991
1.9777,-0.014309,-0.003208,-0.014865,0.005143,-0.002014,0.018629,-0.021495,-0.512973,-0.013668,1.069936,-262.336385,-1.204423,71.487735
1.9974,-0.014352,-0.003219,-0.014802,0.00514,-0.001998,0.018576,-0.021846,-0.513139,-0.014726,1.069936,-262.336385,-1.204423,71.487735
2.0173,-0.014164,-0.002984,-0.01633,0.005138,-0.001984,0.018535,-0.021846,-0.513139,-0.014726,1.069936,-262.336385,-1.204423,71.487735
2.0372,-0.015211,-0.003273,-0.013931,0.005137,-0.001972,0.018502,-0.022278,-0.513004,-0.015548,1.068491,-262.332112,-1.204104,71.493473
2.0573,-0.014401,-0.003044,-0.014726,0.005138,-0.001966,0.018481,-0.022269,-0.513103,-0.014806,1.068491,-262.332112,-1.204104,71.493473
2.0777,-0.015065,-0.002997,-0.013743,0.005139,-0.00196,0.018464,-0.021747,-0.513054,-0.014132,1.067392,-262.327853,-1.2015,71.499165
2.0976,-0.014678,-0.003295,-0.013444,0.005136,-0.001969,0.018397,-0.022028,-0.512965,-0.013749,1.067392,-262.327853,-1.2015,71.499165
2.1176,-0.015199,-0.003024,-0.014632,0.005135,-0.001975,0.018345,-0.022028,-0.512965,-0.013749,1.067392,-262.327853,-1.2015,71.499165
2.1374,-0.014892,-0.003291,-0.011501,0.005136,-0.00198,0.018304,-0.022446,-0.513055,-0.013858,1.066778,-262.323596,-1.200503,71.504845
2.1572,-0.014903,-0.003444,-0.012688,0.00513,-0.001981,0.018201,-0.021737,-0.513147,-0.012813,1.066778,-262.323596,-1.200503,71.504845
2.1774,-0.015205,-0.002904,-0.012555,0.005127,-0.001981,0.018122,-0.021211,-0.513468,-0.012106,1.061588,-262.319377,-1.198679,71.510503
2.1977,-0.015577,-0.003234,-0.011406,0.005124,-0.001993,0.018032,-0.021566,-0.512919,-0.012488,1.061588,-262.319377,-1.198679,71.510503
2.2174,-0.015528,-0.003221,-0.011553,0.005124,-0.002002,0.017963,-0.021566,-0.512919,-0.012488,1.061588,-262.319377,-1.198679,71.510503
2.2373,-0.015259,-0.003693,-0.009781,0.005126,-0.002009,0.017909,-0.021206,-0.513272,-0.010794,1.057067,-262.315212,-1.196418,71.516099
2.2573,-0.015568,-0.0034,-0.012694,0.005094,-0.002004,0.017594,-0.020796,-0.513441,-0.010299,1.057067,-262.315212,-1.196418,71.516099
2.2774,-0.015906,-0.003388,-0.008494,0.005075,-0.001998,0.01736,-0.021879,-0.513425,-0.012123,1.049662,-262.311085,-1.193802,71.521681
2.2975,-0.015605,-0.003288,-0.008729,0.00503,-0.002006,0.016905,-0.020364,-0.513377,-0.008764,1.049662,-262.311085,-1.193802,71.521681
2.3175,-0.015482,-0.003493,-0.009511,0.005005,-0.002009,0.016576,-0.020364,-0.513377,-0.008764,1.049662,-262.311085,-1.193802,71.521681
2.3373,-0.015769,-0.003777,-0.009066,0.004994,-0.002008,0.016338,-0.020122,-0.513555,-0.008789,1.037926,-262.307113,-1.187952,71.527083
2.3574,-0.016164,-0.003338,-0.008996,0.004991,-0.001991,0.016175,-0.020207,-0.513646,-0.008817,1.037926,-262.307113,-1.187952,71.527083
2.3775,-0.016048,-0.00343,-0.008166,0.004994,-0.001975,0.016057,-0.020595,-0.513382,-0.008482,1.011093,-262.303394,-1.176039,71.532217
2.3978,-0.016282,-0.003912,-0.007732,0.004987,-0.001979,0.015842,-0.020237,-0.513413,-0.008168,1.011093,-262.303394,-1.176039,71.532217
2.4176,-0.016154,-0.003314,-0.008351,0.004988,-0.00198,0.015688,-0.020237,-0.513413,-0.008168,1.011093,-262.303394,-1.176039,71.532217
2.4372,-0.016294,-0.003936,-0.007944,0.004994,-0.00198,0.015577,-0.020205,-0.51338,-0.007681,1.003148,-262.29968,-1.169852,71.537333
2.4573,-0.016576,-0.003835,-0.006776,0.004992,-0.001975,0.015398,-0.020239,-0.513613,-0.007712,1.003148,-262.29968,-1.169852,71.537333
2.4775,-0.01617,-0.003857,-0.00701,0.004995,-0.00197,0.015269,-0.019875,-0.513886,-0.006286,0.985343,-262.2961,-1.160883,71.542297
2.4975,-0.016503,-0.003751,-0.006955,0.00498,-0.001958,0.014984,-0.019749,-0.513851,-0.006919,0.985343,-262.2961,-1.160883,71.542297
2.5178,-0.016473,-0.003886,-0.005932,0.004975,-0.001946,0.014781,-0.019749,-0.513851,-0.006919,0.985343,-262.2961,-1.160883,71.542297
2.5374,-0.016542,-0.003804,-0.006899,0.004976,-0.001934,0.014637,-0.01929,-0.51396,-0.005294,0.974222,-262.292552,-1.154392,71.547225
2.5575,-0.016376,-0.004007,-0.005154,0.004953,-0.001932,0.014246,-0.01958,-0.513901,-0.005874,0.974222,-262.292552,-1.154392,71.547225
2.577,-0.016861,-0.004111,-0.004303,0.004943,-0.001928,0.01397,-0.018847,-0.514062,-0.004687,0.953216,-262.289148,-1.141649,71.551962
2.597,-0.0166,-0.003977,-0.005595,0.004898,-0.001928,0.013256,-0.019029,-0.514105,-0.004314,0.953216,-262.289148,-1.141649,71.551962
2.617,-0.017103,-0.003695,-0.004942,0.004877,-0.001922,0.012754,-0.019029,-0.514105,-0.004314,0.953216,-262.289148,-1.141649,71.551962
2.6372,-0.016671,-0.004172,-0.004308,0.004872,-0.001912,0.012401,-0.019419,-0.51377,-0.004365,0.928259,-262.285874,-1.129288,71.556553
2.6572,-0.016796,-0.004364,-0.003961,0.004878,-0.00191,0.012141,-0.019164,-0.513946,-0.004274,0.928259,-262.285874,-1.129288,71.556553
2.6777,-0.017011,-0.004036,-0.00358,0.004889,-0.001906,0.011958,-0.018676,-0.514416,-0.003603,0.860185,-262.283161,-1.09633,71.560428
2.6981,-0.017075,-0.004108,-0.00347,0.004883,-0.001903,0.011562,-0.018816,-0.51407,-0.003564,0.860185,-262.283161,-1.09633,71.560428
2.7177,-0.017,-0.004193,-0.003171,0.004887,-0.001896,0.011281,-0.018816,-0.51407,-0.003564,0.860185,-262.283161,-1.09633,71.560428
2.7371,-0.016724,-0.004099,-0.000314,0.004897,-0.001888,0.011082,-0.018415,-0.51427,-0.002677,0.834747,-262.280286,-1.082752,71.564543
2.7577,-0.017161,-0.004427,-0.002232,0.004849,-0.001888,0.010048,-0.017768,-0.514209,-0.001658,0.834747,-262.280286,-1.082752,71.564543
2.7769,-0.016781,-0.004586,-0.003322,0.004825,-0.001885,0.009305,-0.018151,-0.514484,-0.001897,0.783665,-262.277664,-1.055989,71.568315
2.7974,-0.01701,-0.004531,-0.00316,0.004866,-0.00184,0.009493,-0.018439,-0.514577,-0.003178,0.783665,-262.277664,-1.055989,71.568315
2.8172,-0.016997,-0.004312,-0.003231,0.004899,-0.001804,0.009632,-0.018439,-0.514577,-0.003178,0.783665,-262.277664,-1.055989,71.568315
2.8374,-0.017148,-0.004545,-0.00235,0.004925,-0.001774,0.009735,-0.018492,-0.514368,-0.002926,0.708667,-262.275777,-1.003221,71.571074
2.8576,-0.017226,-0.004659,-0.002188,0.004934,-0.001766,0.009596,-0.018415,-0.514446,-0.002656,0.708667,-262.275777,-1.003221,71.571074
2.8773,-0.017044,-0.004427,-0.00064,0.004944,-0.001757,0.009497,-0.018185,-0.514715,-0.001878,0.702714,-262.273196,-1.002912,71.574735
2.8975,-0.016659,-0.004329,-0.002566,0.004893,-0.00176,0.008456,-0.017437,-0.514456,-0.000737,0.702714,-262.273196,-1.002912,71.574735
2.9174,-0.016627,-0.004627,-0.003539,0.004865,-0.001759,0.007696,-0.017437,-0.514456,-0.000737,0.702714,-262.273196,-1.002912,71.574735
2.9371,-0.016581,-0.004706,-0.000873,0.004853,-0.001756,0.007145,-0.018227,-0.514698,-0.003145,0.685469,-262.270659,-0.991484,71.578323
2.9573,-0.017129,-0.004661,-0.001267,0.004899,-0.001716,0.007496,-0.017714,-0.51471,-0.002172,0.685469,-262.270659,-0.991484,71.578323
2.9772,-0.017023,-0.004798,-0.00123,0.004933,-0.001685,0.007751,-0.017704,-0.514684,-0.00115,0.61051,-262.269596,-0.916525,71.579829
2.9977,-0.017171,-0.004723,-0.000811,0.004927,-0.001673,0.007462,-0.017652,-0.514789,-0.001217,0.61051,-262.269596,-0.916525,71.579829
3.0172,-0.016816,-0.004745,-0.000934,0.004927,-0.001661,0.007253,-0.017652,-0.514789,-0.001217,0.61051,-262.269596,-0.916525,71.579829
3.0371,-0.016758,-0.005002,7e-05,0.004931,-0.00165,0.007102,-0.017096,-0.514812,-0.000626,0.553649,-262.267394,-0.915586,71.582904
3.0572,-0.016371,-0.004941,-0.000927,0.004905,-0.001633,0.006516,-0.016921,-0.514897,-0.000307,0.553649,-262.267394,-0.915586,71.582904
3.077,-0.016702,-0.004424,0.00093,0.004892,-0.001617,0.006087,-0.016697,-0.51499,-0.000715,0.498985,-262.265283,-0.881829,71.58582
3.0972,-0.017259,-0.005108,-0.001355,0.004859,-0.001621,0.005264,-0.016258,-0.514472,0.000807,0.498985,-262.265283,-0.881829,71.58582
3.1173,-0.016598,-0.004642,-0.000835,0.004842,-0.001622,0.004651,-0.016258,-0.514472,0.000807,0.498985,-262.265283,-0.881829,71.58582
3.1372,-0.017073,-0.004825,0.000124,0.004836,-0.001621,0.004195,-0.016855,-0.514697,-0.000622,0.423681,-262.26352,-0.828671,71.588216
3.1576,-0.016882,-0.005398,-0.000334,0.004875,-0.001598,0.004401,-0.016898,-0.514755,-0.000296,0.423681,-262.26352,-0.828671,71.588216
3.177,-0.016625,-0.005133,-0.001079,0.004904,-0.001581,0.004548,-0.017002,-0.515413,-0.00028,0.348993,-262.262851,-0.753983,71.589085
3.197,-0.016935,-0.004843,-0.00057,0.004947,-0.001537,0.005044,-0.017157,-0.515159,-0.001004,0.348993,-262.262851,-0.753983,71.589085
3.2171,-0.016608,-0.004807,0.001727,0.004976,-0.001505,0.005403,-0.017157,-0.515159,-0.001004,0.348993,-262.262851,-0.753983,71.589085
3.2375,-0.016593,-0.004934,0.00141,0.004995,-0.001481,0.005663,-0.01556,-0.514857,0.001887,0.273993,-262.261205,-0.726607,71.591224
3.2575,-0.016873,-0.005279,-0.00033,0.00493,-0.001471,0.004618,-0.015668,-0.514894,0.001712,0.273993,-262.261205,-0.726607,71.591224
3.2773,-0.016652,-0.005319,6.4e-05,0.004888,-0.001461,0.00383,-0.016912,-0.515318,-0.000187,0.348989,-262.259473,-0.779857,71.593489
3.2974,-0.016644,-0.005402,-0.000833,0.004909,-0.001431,0.003973,-0.016643,-0.515321,4.6e-05,0.348989,-262.259473,-0.779857,71.593489
3.3172,-0.016851,-0.004848,-0.000874,0.004924,-0.001407,0.004073,-0.016643,-0.515321,4.6e-05,0.348989,-262.259473,-0.779857,71.593489
3.3377,-0.016125,-0.005224,0.000964,0.004935,-0.001388,0.004143,-0.017198,-0.514876,-0.000782,0.273984,-262.258486,-0.704851,71.59472
3.3573,-0.016576,-0.005427,0.001203,0.00495,-0.001385,0.004257,-0.016553,-0.51502,-6.5e-05,0.273984,-262.258486,-0.704851,71.59472
3.3775,-0.01655,-0.004873,0.001732,0.004961,-0.001384,0.004339,-0.015812,-0.515468,0.001329,0.227538,-262.256564,-0.671063,71.597111
3.3974,-0.016332,-0.005175,0.002392,0.004917,-0.001386,0.003615,-0.015672,-0.514927,0.001703,0.227538,-262.256564,-0.671063,71.597111
3.4174,-0.016138,-0.005039,-0.000567,0.004889,-0.001387,0.003074,-0.015672,-0.514927,0.001703,0.227538,-262.256564,-0.671063,71.597111
3.4371,-0.016131,-0.005121,-0.000325,0.004872,-0.001386,0.00267,-0.016221,-0.515097,-0.000387,0.249846,-262.254537,-0.682707,71.599642
3.4574,-0.015939,-0.005093,0.000192,0.004928,-0.001357,0.003345,-0.016228,-0.515113,-0.000341,0.249846,-262.254537,-0.682707,71.599642
3.477,-0.016103,-0.005137,0.001412,0.004966,-0.001337,0.003832,-0.01578,-0.515108,0.000236,0.174886,-262.253748,-0.607747,71.600568
3.4975,-0.016283,-0.005122,0.000561,0.004933,-0.001328,0.003381,-0.015416,-0.515135,0.001308,0.174886,-262.253748,-0.607747,71.600568
3.5174,-0.016152,-0.00526,0.001625,0.00491,-0.00132,0.003047,-0.015416,-0.515135,0.001308,0.174886,-262.253748,-0.607747,71.600568
3.5371,-0.015876,-0.004994,0.001776,0.004896,-0.001312,0.002799,-0.01512,-0.515314,0.001782,0.199292,-262.251769,-0.637486,71.602982
3.5572,-0.015872,-0.005241,0.000333,0.004873,-0.001296,0.002425,-0.015036,-0.51519,0.001797,0.199292,-262.251769,-0.637486,71.602982
3.5773,-0.01564,-0.005506,0.00106,0.004859,-0.001281,0.002147,-0.015591,-0.515269,0.000401,0.124289,-262.250369,-0.562482,71.604622
3.5972,-0.016078,-0.005447,-0.00026,0.004872,-0.001246,0.002275,-0.015138,-0.515486,0.001005,0.124289,-262.250369,-0.562482,71.604622
3.6174,-0.015881,-0.00537,0.000109,0.00488,-0.001217,0.002366,-0.015138,-0.515486,0.001005,0.124289,-262.250369,-0.562482,71.604622
3.6372,-0.01577,-0.005359,0.002027,0.004884,-0.001195,0.00243,-0.015676,-0.515406,0.00018,0.049239,-262.248938,-0.490175,71.606245
3.6574,-0.015725,-0.005517,0.00132,0.004893,-0.001186,0.002508,-0.015275,-0.515391,0.000943,0.049239,-262.248938,-0.490175,71.606245
3.6769,-0.015488,-0.005649,0.002172,0.004898,-0.00118,0.002563,-0.014897,-0.515555,0.001397,0.05924,-262.24698,-0.50165,71.608474
3.6974,-0.015804,-0.005502,0.0013,0.004858,-0.001145,0.002126,-0.014412,-0.515642,0.002118,0.05924,-262.24698,-0.50165,71.608474
3.7172,-0.015572,-0.005354,0.002922,0.004831,-0.001116,0.001803,-0.014412,-0.515642,0.002118,0.05924,-262.24698,-0.50165,71.608474
3.737,-0.015377,-0.005513,0.001042,0.004812,-0.00109,0.001565,-0.013879,-0.5154,0.003028,0.078635,-262.24504,-0.510879,71.610691
3.7572,-0.015333,-0.005807,0.002261,0.0048,-0.001076,0.00135,-0.014248,-0.515451,0.002235,0.078635,-262.24504,-0.510879,71.610691
3.7772,-0.015572,-0.005582,0.001259,0.004792,-0.001063,0.001192,-0.014075,-0.515829,0.002301,0.00407,-262.24371,-0.436314,71.612135
3.7971,-0.014977,-0.005421,0.002358,0.004816,-0.001048,0.001428,-0.014853,-0.515603,0.001349,0.00407,-262.24371,-0.436314,71.612135
3.8171,-0.015375,-0.005558,0.00197,0.004832,-0.001038,0.001597,-0.014853,-0.515603,0.001349,0.00407,-262.24371,-0.436314,71.612135
3.8371,-0.015007,-0.005722,0.001345,0.004843,-0.001031,0.001719,-0.014205,-0.515594,0.002011,-0.069749,-262.242118,-0.361175,71.613831
3.8573,-0.015287,-0.005366,0.001663,0.004832,-0.001012,0.001642,-0.014233,-0.51565,0.001743,-0.069749,-262.242118,-0.361175,71.613831
3.8775,-0.014862,-0.00569,0.001307,0.004824,-0.000996,0.001585,-0.014302,-0.515394,0.001711,0.003853,-262.240395,-0.405762,71.615706
3.8974,-0.014476,-0.005827,0.001309,0.004831,-0.00098,0.001711,-0.014198,-0.515665,0.001344,0.003853,-262.240395,-0.405762,71.615706
3.9175,-0.014633,-0.00595,0.001192,0.004834,-0.000967,0.001802,-0.014198,-0.515665,0.001344,0.003853,-262.240395,-0.405762,71.615706
3.9376,-0.014687,-0.005546,0.002414,0.004835,-0.000957,0.001867,-0.013825,-0.51599,0.001258,-0.005872,-262.238483,-0.386751,71.617771
3.9575,-0.014658,-0.005653,0.002358,0.004816,-0.00093,0.001749,-0.013651,-0.515813,0.001737,-0.005872,-262.238483,-0.386751,71.617771
3.9771,-0.014609,-0.005985,0.003021,0.004801,-0.000908,0.001662,-0.013307,-0.51568,0.002415,0.037772,-262.236617,-0.409246,71.619803
3.9973,-0.01443,-0.006115,0.000706,0.004753,-0.000867,0.001183,-0.013081,-0.515958,0.002973,0.037772,-262.236617,-0.409246,71.619803
4.0173,-0.014568,-0.005694,0.003108,0.004719,-0.000832,0.000827,-0.013081,-0.515958,0.002973,0.037772,-262.236617,-0.409246,71.619803
4.0375,-0.014467,-0.005736,0.003356,0.004695,-0.000802,0.000564,-0.012786,-0.515729,0.003176,0.022438,-262.234728,-0.380959,71.621837
4.0573,-0.013798,-0.005971,0.002046,0.004674,-0.000782,0.000288,-0.012751,-0.515735,0.003257,0.022438,-262.234728,-0.380959,71.621837
4.077,-0.014049,-0.005735,0.003702,0.004661,-0.000764,8.2e-05,-0.012669,-0.515985,0.002064,-0.052558,-262.233633,-0.305963,71.622959
4.0971,-0.014275,-0.005769,0.002115,0.004639,-0.000732,-0.000164,-0.012191,-0.51575,0.003592,-0.052558,-262.233633,-0.305963,71.622959
4.1171,-0.014273,-0.005496,0.001445,0.004624,-0.000705,-0.000347,-0.012191,-0.51575,0.003592,-0.052558,-262.233633,-0.305963,71.622959
4.1372,-0.014034,-0.006037,0.001579,0.004614,-0.000682,-0.000483,-0.013413,-0.515518,0.001455,-0.128085,-262.232431,-0.230436,71.624165
4.1572,-0.014098,-0.005799,0.003259,0.004679,-0.000677,0.000161,-0.013323,-0.515732,0.001507,-0.128085,-262.232431,-0.230436,71.624165
4.1777,-0.0139,-0.005941,0.002267,0.004722,-0.000677,0.000622,-0.012342,-0.515813,0.003256,-0.202414,-262.231226,-0.156107,71.625348
4.1976,-0.013632,-0.005616,0.000976,0.004713,-0.000661,0.000615,-0.012702,-0.515929,0.002357,-0.202414,-262.231226,-0.156107,71.625348
4.2175,-0.013954,-0.006065,0.0034,0.004705,-0.000648,0.000609,-0.012702,-0.515929,0.002357,-0.202414,-262.231226,-0.156107,71.625348
4.2375,-0.013685,-0.005885,0.00168,0.004698,-0.000636,0.000603,-0.012086,-0.516086,0.00341,-0.127286,-262.229929,-0.220288,71.626675
4.2577,-0.014059,-0.005871,0.001352,0.004679,-0.000614,0.000479,-0.012379,-0.516005,0.002692,-0.127286,-262.229929,-0.220288,71.626675
4.2774,-0.013352,-0.00577,0.002601,0.004665,-0.000596,0.000387,-0.013232,-0.515889,0.00137,-0.057018,-262.228195,-0.210716,71.628445
4.2975,-0.013417,-0.005812,0.002,0.00466,-0.000586,0.000384,-0.012119,-0.515779,0.0025,-0.057018,-262.228195,-0.210716,71.628445
4.3174,-0.013746,-0.006187,0.002735,0.004655,-0.000577,0.000381,-0.012119,-0.515779,0.0025,-0.057018,-262.228195,-0.210716,71.628445
4.3372,-0.013097,-0.00611,0.001392,0.004651,-0.00057,0.000377,-0.012162,-0.516208,0.00275,-0.076864,-262.226373,-0.176503,71.630291
4.3573,-0.013361,-0.006204,0.001054,0.004648,-0.000541,0.000482,-0.012232,-0.516171,0.002196,-0.076864,-262.226373,-0.176503,71.630291
4.3771,-0.013006,-0.005644,0.002858,0.004644,-0.000516,0.000557,-0.012675,-0.516221,0.001066,-0.073001,-262.224505,-0.170465,71.632181
4.3971,-0.013151,-0.005879,0.002564,0.004629,-0.000512,0.000431,-0.011637,-0.515691,0.002707,-0.073001,-262.224505,-0.170465,71.632181
4.417,-0.012926,-0.006145,0.003224,0.004618,-0.000508,0.000339,-0.011637,-0.515691,0.002707,-0.073001,-262.224505,-0.170465,71.632181
4.4374,-0.012843,-0.006227,0.000593,0.00461,-0.000505,0.000272,-0.011091,-0.516163,0.003247,-0.03798,-262.22269,-0.182403,71.634025
4.4571,-0.012949,-0.005797,0.002235,0.004606,-0.000465,0.000412,-0.01166,-0.516191,0.002169,-0.03798,-262.22269,-0.182403,71.634025
4.4774,-0.012929,-0.006296,0.001978,0.004599,-0.000434,0.000512,-0.011669,-0.515811,0.002244,-0.073307,-262.220919,-0.144498,71.63581
4.4974,-0.012719,-0.005759,0.0022,0.004599,-0.000411,0.00065,-0.01189,-0.516251,0.002002,-0.073307,-262.220919,-0.144498,71.63581
4.5175,-0.012848,-0.006094,0.002414,0.004596,-0.000392,0.000749,-0.01189,-0.516251,0.002002,-0.073307,-262.220919,-0.144498,71.63581
4.5377,-0.012085,-0.005573,0.001621,0.004591,-0.000378,0.00082,-0.011431,-0.51611,0.002435,-0.026285,-262.219137,-0.160923,71.637615
4.5574,-0.012332,-0.005911,0.001344,0.004584,-0.000373,0.000836,-0.011337,-0.515885,0.002094,-0.026285,-262.219137,-0.160923,71.637615
4.577,-0.012197,-0.006076,0.001823,0.004578,-0.000369,0.000848,-0.01151,-0.515922,0.001368,0.026714,-262.217416,-0.189117,71.639366
4.597,-0.011727,-0.005747,0.002286,0.004575,-0.000348,0.000977,-0.011282,-0.516062,0.001783,0.026714,-262.217416,-0.189117,71.639366
4.617,-0.01243,-0.005905,0.002635,0.004571,-0.000332,0.001071,-0.011282,-0.516062,0.001783,0.026714,-262.217416,-0.189117,71.639366
4.6371,-0.011683,-0.006185,0.00323,0.004565,-0.00032,0.001138,-0.010894,-0.515918,0.002671,0.032567,-262.215583,-0.191242,71.641232
4.6571,-0.01244,-0.006304,0.002551,0.004518,-0.000289,0.000788,-0.010521,-0.516028,0.002903,0.032567,-262.215583,-0.191242,71.641232
4.6774,-0.011907,-0.006097,0.001354,0.004484,-0.000263,0.000529,-0.011001,-0.516312,0.002585,0.082072,-262.213834,-0.218744,71.643018
4.6973,-0.011561,-0.005912,0.001961,0.004508,-0.000246,0.000894,-0.011194,-0.516113,0.001446,0.082072,-262.213834,-0.218744,71.643018
4.7174,-0.012347,-0.006033,0.003381,0.004523,-0.000236,0.001156,-0.011194,-0.516113,0.001446,0.082072,-262.213834,-0.218744,71.643018
4.7374,-0.01129,-0.006394,0.002572,0.00453,-0.000229,0.001344,-0.01047,-0.516039,0.003401,0.013461,-262.212374,-0.143358,71.64449
4.7575,-0.011681,-0.006124,0.002303,0.004472,-0.000193,0.000893,-0.010252,-0.516185,0.003064,0.013461,-262.212374,-0.143358,71.64449
4.7772,-0.011364,-0.006167,0.00241,0.004428,-0.000162,0.000559,-0.010403,-0.51613,0.002329,0.088119,-262.211064,-0.218017,71.645824
4.7974,-0.011474,-0.005957,0.000966,0.004409,-0.000132,0.000526,-0.010153,-0.516163,0.002405,0.088119,-262.211064,-0.218017,71.645824
4.8172,-0.01134,-0.006033,0.001544,0.004393,-0.000106,0.000502,-0.010153,-0.516163,0.002405,0.088119,-262.211064,-0.218017,71.645824
4.8376,-0.011479,-0.00637,0.00244,0.004379,-8.5e-05,0.000484,-0.010404,-0.51604,0.001566,0.04035,-262.209633,-0.143039,71.647263
4.8576,-0.011324,-0.006115,0.00286,0.004386,-7e-05,0.000655,-0.010318,-0.516174,0.001922,0.04035,-262.209633,-0.143039,71.647263
4.8777,-0.011387,-0.006284,0.001656,0.004388,-5.9e-05,0.000778,-0.009733,-0.516115,0.002875,0.047988,-262.207963,-0.086791,71.648938
4.8977,-0.011248,-0.00616,0.001342,0.004393,-4.8e-05,0.000932,-0.010466,-0.516269,0.001761,0.047988,-262.207963,-0.086791,71.648938
4.9176,-0.011253,-0.006132,0.001266,0.004394,-4e-05,0.001043,-0.010466,-0.516269,0.001761,0.047988,-262.207963,-0.086791,71.648938
4.9376,-0.01117,-0.006156,0.001732,0.004392,-3.5e-05,0.001123,-0.010433,-0.516134,0.001297,0.094553,-262.206296,-0.121086,71.650609
4.9579,-0.010718,-0.006159,0.003621,0.0044,-3.1e-05,0.001302,-0.010354,-0.516143,0.001476,0.094553,-262.206296,-0.121086,71.650609
4.9772,-0.010724,-0.006273,0.003241,0.004403,-3e-05,0.001432,-0.00874,-0.516157,0.003655,0.147162,-262.20464,-0.162598,71.652269
4.9974,-0.010896,-0.006163,0.004103,0.004324,2.9e-05,0.000891,-0.009036,-0.516261,0.003278,0.147162,-262.20464,-0.162598,71.652269
5.0174,-0.0107,-0.006119,0.002431,0.004264,7.8e-05,0.000489,-0.009036,-0.516261,0.003278,0.147162,-262.20464,-0.162598,71.652269
5.0377,-0.010399,-0.005931,0.00358,0.004219,0.000119,0.000191,-0.009285,-0.516118,0.002487,0.189509,-262.202944,-0.202509,71.653969
5.0577,-0.010763,-0.006398,0.005046,0.004199,0.000141,7.5e-05,-0.00898,-0.516042,0.002932,0.189509,-262.202944,-0.202509,71.653969
5.0774,-0.010676,-0.006206,0.004418,0.004183,0.000159,-1e-05,-0.008138,-0.516392,0.005057,0.114646,-262.202291,-0.127645,71.654621
5.0976,-0.010948,-0.005983,0.003379,0.00412,0.000216,-0.000476,-0.008396,-0.516217,0.004473,0.114646,-262.202291,-0.127645,71.654621
5.1179,-0.010774,-0.006185,0.002408,0.004072,0.000262,-0.000828,-0.008396,-0.516217,0.004473,0.114646,-262.202291,-0.127645,71.654621
5.1375,-0.010428,-0.00636,0.003587,0.004037,0.0003,-0.001092,-0.009444,-0.516184,0.002416,0.039524,-262.201321,-0.052524,71.655591
5.1574,-0.010508,-0.006437,0.002952,0.004065,0.000302,-0.000845,-0.009086,-0.516255,0.002897,0.039524,-262.201321,-0.052524,71.655591
5.177,-0.010375,-0.005943,0.003544,0.004084,0.000303,-0.000665,-0.008977,-0.516435,0.002951,-0.035488,-262.200999,0.022488,71.655921
5.1974,-0.010308,-0.006298,0.001535,0.00408,0.000304,-0.000719,-0.008601,-0.515983,0.003493,-0.035488,-262.200999,0.022488,71.655921
5.2175,-0.010537,-0.006317,0.004303,0.004077,0.000305,-0.000759,-0.008601,-0.515983,0.003493,-0.035488,-262.200999,0.022488,71.655921
5.2375,-0.010017,-0.006482,0.002507,0.004076,0.000305,-0.000789,-0.008223,-0.516308,0.004291,-0.02514,-262.199862,0.097481,71.657075
5.2575,-0.009974,-0.005786,0.003782,0.004052,0.000343,-0.000837,-0.008417,-0.516377,0.00357,-0.02514,-262.199862,0.097481,71.657075
5.2775,-0.010203,-0.005939,0.002668,0.004032,0.000374,-0.000872,-0.007932,-0.515775,0.003762,-0.043204,-262.198442,0.172344,71.65852
5.2972,-0.010269,-0.005869,0.003254,0.004065,0.000354,-0.000633,-0.008766,-0.515924,0.002753,-0.043204,-262.198442,0.172344,71.65852
5.3173,-0.01016,-0.006251,0.003433,0.004088,0.000336,-0.00046,-0.008766,-0.515924,0.002753,-0.043204,-262.198442,0.172344,71.65852
5.3374,-0.010127,-0.00638,0.001545,0.004104,0.000321,-0.000335,-0.008248,-0.516232,0.003398,-0.039292,-262.196886,0.221262,71.660113
5.3573,-0.009736,-0.006098,0.004099,0.004102,0.00034,-0.0002,-0.00869,-0.516293,0.002612,-0.039292,-262.196886,0.221262,71.660113
5.3778,-0.009636,-0.006518,0.001879,0.004098,0.000355,-0.000102,-0.007541,-0.516084,0.004089,0.028295,-262.195562,0.14615,71.661448
5.3975,-0.009852,-0.006016,0.002533,0.004099,0.00039,0.000179,-0.00859,-0.516485,0.002041,0.028295,-262.195562,0.14615,71.661448
5.4177,-0.009447,-0.006291,0.003814,0.004094,0.000417,0.00038,-0.00859,-0.516485,0.002041,0.028295,-262.195562,0.14615,71.661448
5.4376,-0.009312,-0.00602,0.003187,0.004086,0.000438,0.000525,-0.007341,-0.516272,0.00381,0.071182,-262.194027,0.10141,71.662987
5.4576,-0.009464,-0.005985,0.002334,0.004013,0.000487,0.000133,-0.007463,-0.516168,0.003558,0.071182,-262.194027,0.10141,71.662987
5.4775,-0.009167,-0.006284,0.002377,0.003956,0.000527,-0.000158,-0.008176,-0.515975,0.002343,0.145677,-262.192772,0.028752,71.664221
5.498,-0.009396,-0.006093,0.001258,0.003956,0.000543,7e-06,-0.007968,-0.516259,0.002375,0.145677,-262.192772,0.028752,71.664221
5.5177,-0.009114,-0.006418,0.001382,0.003953,0.000555,0.000126,-0.007968,-0.516259,0.002375,0.145677,-262.192772,0.028752,71.664221
5.5377,-0.009172,-0.006103,0.002383,0.003947,0.000565,0.000212,-0.008285,-0.516404,0.001383,0.108294,-262.191581,0.104201,71.66542
5.5578,-0.009772,-0.006223,0.002929,0.003965,0.000571,0.000503,-0.008137,-0.516279,0.00179,0.108294,-262.191581,0.104201,71.66542
5.5772,-0.008942,-0.005908,0.002562,0.003974,0.000574,0.000713,-0.008161,-0.516204,0.002936,0.174038,-262.190075,0.109827,71.666912
5.5972,-0.009311,-0.006266,0.001567,0.003954,0.000569,0.000563,-0.007669,-0.515927,0.002589,0.174038,-262.190075,0.109827,71.666912
5.6176,-0.009124,-0.006071,0.002225,0.003938,0.000565,0.000453,-0.007669,-0.515927,0.002589,0.174038,-262.190075,0.109827,71.666912
5.6375,-0.008979,-0.006206,0.000853,0.003926,0.000563,0.000373,-0.007852,-0.51605,0.002249,0.248603,-262.188707,0.034769,71.668239
5.6576,-0.009047,-0.006076,0.002639,0.003953,0.000559,0.000671,-0.008127,-0.516113,0.001665,0.248603,-262.188707,0.034769,71.668239
5.6776,-0.008633,-0.005694,0.002303,0.00397,0.000554,0.000886,-0.007586,-0.516057,0.00265,0.198593,-262.187237,0.085102,71.669685
5.6976,-0.008569,-0.006138,0.002809,0.003952,0.00055,0.000776,-0.007464,-0.515725,0.002335,0.198593,-262.187237,0.085102,71.669685
5.718,-0.008897,-0.005884,0.003393,0.003939,0.000547,0.000695,-0.007464,-0.515725,0.002335,0.198593,-262.187237,0.085102,71.669685
5.7373,-0.008377,-0.006037,0.002896,0.003928,0.000545,0.000636,-0.007028,-0.515861,0.003423,0.269066,-262.18587,0.010502,71.671003
5.7572,-0.008775,-0.005723,0.00212,0.00387,0.000586,0.000303,-0.006961,-0.515929,0.003214,0.269066,-262.18587,0.010502,71.671003
5.777,-0.008489,-0.006163,0.000781,0.003825,0.00062,5.7e-05,-0.007573,-0.515705,0.00214,0.233167,-262.18431,0.039737,71.672522
5.7972,-0.008452,-0.005818,0.003481,0.003894,0.000626,0.000799,-0.008037,-0.51612,0.000906,0.233167,-262.18431,0.039737,71.672522
5.8174,-0.008435,-0.005945,0.004112,0.00394,0.000626,0.001331,-0.008037,-0.51612,0.000906,0.233167,-262.18431,0.039737,71.672522
5.837,-0.008428,-0.005747,0.00316,0.003968,0.000622,0.001711,-0.006215,-0.515922,0.004118,0.169509,-262.183121,0.114693,71.673708
5.8571,-0.008444,-0.005946,0.003358,0.003859,0.000676,0.000978,-0.006444,-0.515848,0.003731,0.169509,-262.183121,0.114693,71.673708
5.877,-0.008502,-0.005882,0.00298,0.003776,0.00072,0.000424,-0.006706,-0.515939,0.003363,0.244502,-262.182783,0.0397,71.674021
5.8972,-0.007907,-0.005948,0.00152,0.003753,0.000725,0.000212,-0.006955,-0.515885,0.003015,0.244502,-262.182783,0.0397,71.674021
5.9171,-0.008268,-0.005794,0.002593,0.003735,0.00073,5.4e-05,-0.006955,-0.515885,0.003015,0.244502,-262.182783,0.0397,71.674021
5.9375,-0.008072,-0.0061,0.003293,0.003723,0.000734,-6.2e-05,-0.006804,-0.515765,0.002609,0.253631,-262.181383,0.114701,71.675386
5.9577,-0.008227,-0.005758,0.002449,0.003699,0.000759,-0.000113,-0.00662,-0.515897,0.00289,0.253631,-262.181383,0.114701,71.675386
5.9771,-0.007759,-0.005807,0.002115,0.00368,0.000779,-0.000151,-0.006881,-0.515738,0.002449,0.184773,-262.180142,0.189706,71.676632
5.9975,-0.007938,-0.00608,0.00067,0.003693,0.000789,9e-05,-0.006691,-0.515799,0.002141,0.184773,-262.180142,0.189706,71.676632
6.0174,-0.007833,-0.005842,0.004694,0.0037,0.000796,0.000263,-0.006691,-0.515799,0.002141,0.184773,-262.180142,0.189706,71.676632
6.0371,-0.007758,-0.005782,0.004406,0.003703,0.0008,0.000387,-0.00529,-0.515804,0.004688,0.184552,-262.178694,0.232544,71.678095
6.058,-0.007737,-0.005771,0.003612,0.003574,0.000891,-0.000222,-0.005363,-0.515789,0.004572,0.184552,-262.178694,0.232544,71.678095
6.0771,-0.007991,-0.005707,0.002554,0.003474,0.000963,-0.000685,-0.005802,-0.515747,0.00362,0.259226,-262.177476,0.15787,71.679282
6.0977,-0.007448,-0.006106,0.003744,0.003517,0.000933,-0.000485,-0.006601,-0.515708,0.002653,0.259226,-262.177476,0.15787,71.679282
6.1176,-0.007889,-0.00567,0.002447,0.003549,0.000908,-0.000339,-0.006601,-0.515708,0.002653,0.259226,-262.177476,0.15787,71.679282
6.1371,-0.007072,-0.005596,0.002479,0.003573,0.000888,-0.000234,-0.006584,-0.515656,0.002445,0.184321,-262.176936,0.232775,71.679855
6.1576,-0.007508,-0.005901,0.002703,0.003582,0.000887,-9.3e-05,-0.006263,-0.51563,0.002458,0.184321,-262.176936,0.232775,71.679855
6.1771,-0.007424,-0.005867,0.002311,0.003588,0.000886,9e-06,-0.00602,-0.515871,0.002696,0.205444,-262.17554,0.280859,71.681277
6.1974,-0.007158,-0.005741,0.002495,0.003579,0.000907,0.000121,-0.00622,-0.515865,0.002345,0.205444,-262.17554,0.280859,71.681277
6.2177,-0.007316,-0.00564,0.002597,0.003569,0.000923,0.000201,-0.00622,-0.515865,0.002345,0.205444,-262.17554,0.280859,71.681277
6.2376,-0.007338,-0.005711,0.002396,0.00356,0.000936,0.000259,-0.005849,-0.515602,0.002598,0.24353,-262.174132,0.240533,71.682685
6.2582,-0.007141,-0.0055,0.003328,0.003541,0.000946,0.000238,-0.005942,-0.515642,0.002515,0.24353,-262.174132,0.240533,71.682685
6.2773,-0.006739,-0.005755,0.004916,0.003526,0.000954,0.000222,-0.005336,-0.515468,0.003336,0.298322,-262.172726,0.215173,71.68406
6.2974,-0.006861,-0.005863,0.002493,0.00334,0.001084,-0.000402,-0.00433,-0.515721,0.004767,0.298322,-262.172726,0.215173,71.68406
6.3174,-0.006951,-0.005816,0.00293,0.003195,0.001187,-0.000879,-0.00433,-0.515721,0.004767,0.298322,-262.172726,0.215173,71.68406
6.337,-0.00704,-0.005541,0.002694,0.003082,0.001269,-0.00124,-0.005309,-0.515774,0.002939,0.299701,-262.171254,0.228181,71.685503
6.3571,-0.006855,-0.005543,0.001403,0.003128,0.001253,-0.000969,-0.005437,-0.515674,0.002841,0.299701,-262.171254,0.228181,71.685503
6.3773,-0.006835,-0.005628,0.004024,0.003161,0.001239,-0.000772,-0.00613,-0.51554,0.001402,0.224708,-262.171134,0.303174,71.685646
6.3977,-0.007102,-0.005281,0.002908,0.003127,0.001258,-0.000921,-0.004905,-0.515616,0.003785,0.224708,-262.171134,0.303174,71.685646
6.4175,-0.006906,-0.005415,0.001678,0.003101,0.001273,-0.001032,-0.004905,-0.515616,0.003785,0.224708,-262.171134,0.303174,71.685646
6.4374,-0.00672,-0.005394,0.003121,0.003081,0.001286,-0.001114,-0.005975,-0.51539,0.001667,0.238089,-262.17042,0.378178,71.686434
6.4575,-0.006892,-0.005637,0.003076,0.003172,0.001235,-0.000657,-0.005621,-0.515388,0.002259,0.238089,-262.17042,0.378178,71.686434
6.4773,-0.006834,-0.005608,0.001948,0.003239,0.001191,-0.000329,-0.005268,-0.515616,0.003062,0.194037,-262.169738,0.453171,71.687228
6.4976,-0.006586,-0.005568,0.003419,0.003292,0.001164,-1e-05,-0.005786,-0.515606,0.002048,0.194037,-262.169738,0.453171,71.687228
6.5176,-0.006832,-0.005529,0.002858,0.003331,0.001141,0.000219,-0.005786,-0.515606,0.002048,0.194037,-262.169738,0.453171,71.687228
6.5375,-0.006202,-0.005274,0.002818,0.003359,0.001121,0.000383,-0.005263,-0.515488,0.002844,0.269032,-262.168635,0.405971,71.688376
6.5574,-0.006812,-0.005805,0.002258,0.003318,0.001135,0.000211,-0.005047,-0.515395,0.002832,0.269032,-262.168635,0.405971,71.688376
6.5772,-0.006448,-0.005265,0.002898,0.003287,0.001146,8.4e-05,-0.0056,-0.515782,0.002259,0.344031,-262.167808,0.330973,71.68917
6.5973,-0.006611,-0.005772,0.003657,0.003266,0.001149,-1.1e-05,-0.005027,-0.515311,0.002837,0.344031,-262.167808,0.330973,71.68917
6.6175,-0.006438,-0.005636,0.001818,0.00325,0.001151,-8.1e-05,-0.005027,-0.515311,0.002837,0.344031,-262.167808,0.330973,71.68917
6.6373,-0.006185,-0.00541,0.001845,0.003237,0.001152,-0.000133,-0.005374,-0.515587,0.001822,0.349377,-262.166409,0.321453,71.690555
6.6573,-0.006203,-0.005307,0.001159,0.003264,0.001159,0.000206,-0.005304,-0.515508,0.001832,0.349377,-262.166409,0.321453,71.690555
6.6772,-0.006295,-0.005611,0.005963,0.003281,0.001163,0.000449,-0.005513,-0.515271,0.001155,0.31947,-262.165103,0.363945,71.691882
6.6976,-0.006074,-0.005142,0.003534,0.003041,0.001312,-0.000361,-0.003443,-0.515572,0.00555,0.31947,-262.165103,0.363945,71.691882
6.7175,-0.006102,-0.005536,0.002097,0.002853,0.001429,-0.00099,-0.003443,-0.515572,0.00555,0.31947,-262.165103,0.363945,71.691882
6.7375,-0.006276,-0.005067,0.00225,0.002706,0.00152,-0.001477,-0.004931,-0.515498,0.002108,0.394489,-262.16404,0.288925,71.692891
6.7576,-0.005816,-0.005473,0.002131,0.002833,0.001461,-0.000892,-0.004999,-0.515317,0.002167,0.394489,-262.16404,0.288925,71.692891
6.7775,-0.005993,-0.005412,0.002617,0.002926,0.001411,-0.000472,-0.004726,-0.515471,0.002131,0.319501,-262.164012,0.363914,71.692927
6.7978,-0.005853,-0.005336,0.001774,0.002949,0.001397,-0.000329,-0.004665,-0.515416,0.002572,0.319501,-262.164012,0.363914,71.692927
6.8172,-0.005842,-0.005444,0.002773,0.002966,0.001386,-0.000227,-0.004665,-0.515416,0.002572,0.319501,-262.164012,0.363914,71.692927
6.8373,-0.005627,-0.005408,0.003977,0.002977,0.001376,-0.000154,-0.004349,-0.515408,0.002766,0.366375,-262.163215,0.438749,71.693788
6.8576,-0.005935,-0.005092,0.003508,0.002909,0.001412,-0.000338,-0.004028,-0.515402,0.003269,0.366375,-262.163215,0.438749,71.693788
6.8774,-0.006006,-0.005127,0.001262,0.002855,0.001441,-0.000475,-0.004055,-0.515046,0.003503,0.406681,-262.161966,0.458631,71.695067
6.8971,-0.005891,-0.005393,0.002574,0.002987,0.001364,0.000127,-0.005239,-0.515117,0.001466,0.406681,-262.161966,0.458631,71.695067
6.9172,-0.00592,-0.005195,0.00481,0.003085,0.0013,0.000557,-0.005239,-0.515117,0.001466,0.406681,-262.161966,0.458631,71.695067
6.9373,-0.005405,-0.005145,0.00446,0.003158,0.001247,0.000865,-0.003361,-0.515136,0.004794,0.383127,-262.160878,0.533268,71.696248
6.9576,-0.006031,-0.00508,0.002997,0.002944,0.001354,9.6e-05,-0.003253,-0.515132,0.004653,0.383127,-262.160878,0.533268,71.696248
6.9777,-0.005661,-0.00504,0.002887,0.002777,0.001437,-0.000494,-0.004487,-0.515069,0.002997,0.458474,-262.160644,0.457921,71.696456
6.9977,-0.005457,-0.005167,0.002412,0.002798,0.001414,-0.000466,-0.004211,-0.51504,0.002896,0.458474,-262.160644,0.457921,71.696456
7.0176,-0.005458,-0.005191,0.00264,0.002814,0.001397,-0.000446,-0.004211,-0.51504,0.002896,0.458474,-262.160644,0.457921,71.696456
7.0375,-0.005297,-0.004899,0.002268,0.002827,0.001383,-0.000434,-0.004021,-0.515143,0.002626,0.387953,-262.159708,0.532933,71.697478
7.0573,-0.005692,-0.005165,0.002444,0.002831,0.001386,-0.000286,-0.004058,-0.515039,0.00248,0.387953,-262.159708,0.532933,71.697478
7.0776,-0.00523,-0.005252,0.002279,0.002833,0.001388,-0.00018,-0.004356,-0.515119,0.00243,0.376571,-262.158494,0.527729,71.698786
7.0973,-0.005049,-0.004527,0.000292,0.002827,0.001406,-3.5e-05,-0.004089,-0.515237,0.002291,0.376571,-262.158494,0.527729,71.698786
7.1173,-0.005262,-0.004959,0.004206,0.002821,0.00142,6.9e-05,-0.004089,-0.515237,0.002291,0.376571,-262.158494,0.527729,71.698786
7.1372,-0.004862,-0.004993,0.002477,0.002813,0.00143,0.000144,-0.003006,-0.5149,0.004199,0.423861,-262.157327,0.486321,71.699989
7.1574,-0.005413,-0.004805,0.002722,0.002697,0.001475,-0.000199,-0.003238,-0.514931,0.003486,0.423861,-262.157327,0.486321,71.699989
7.177,-0.005335,-0.00487,0.00242,0.002606,0.001509,-0.000454,-0.003944,-0.514762,0.002726,0.494816,-262.156177,0.44514,71.70111
7.1972,-0.004862,-0.00487,0.001241,0.002666,0.001463,-0.000289,-0.004084,-0.514858,0.002445,0.494816,-262.156177,0.44514,71.70111
7.2174,-0.005097,-0.004931,0.002276,0.002712,0.001427,-0.00017,-0.004084,-0.514858,0.002445,0.494816,-262.156177,0.44514,71.70111
7.2375,-0.004895,-0.004208,0.00325,0.002746,0.001398,-8.4e-05,-0.003864,-0.514891,0.002269,0.44134,-262.155431,0.520286,71.701928
7.2579,-0.005022,-0.005048,0.003485,0.002729,0.001387,-0.000115,-0.003594,-0.514601,0.002677,0.44134,-262.155431,0.520286,71.701928
7.277,-0.004637,-0.004682,0.003269,0.002714,0.001378,-0.000138,-0.003159,-0.515001,0.003483,0.455701,-262.154236,0.485481,71.703141
7.2974,-0.004814,-0.004697,0.002473,0.002601,0.001425,-0.000362,-0.002982,-0.514704,0.003287,0.455701,-262.154236,0.485481,71.703141
7.3172,-0.004659,-0.005025,0.004211,0.002512,0.00146,-0.000528,-0.002982,-0.514704,0.003287,0.455701,-262.154236,0.485481,71.703141
7.3378,-0.004681,-0.004817,0.00334,0.002443,0.001488,-0.000651,-0.002399,-0.514962,0.004205,0.444756,-262.153039,0.49423,71.704368
7.3573,-0.004555,-0.00448,0.001826,0.002311,0.001554,-0.000904,-0.002618,-0.514896,0.003857,0.444756,-262.153039,0.49423,71.704368
7.3771,-0.004535,-0.004673,0.002155,0.002208,0.001606,-0.001093,-0.003572,-0.514451,0.001816,0.419675,-262.152347,0.569095,71.705167
7.3976,-0.004798,-0.004779,0.002331,0.002305,0.001566,-0.000643,-0.003446,-0.51465,0.002123,0.419675,-262.152347,0.569095,71.705167
7.4176,-0.004905,-0.004533,0.001718,0.002376,0.001533,-0.00032,-0.003446,-0.51465,0.002123,0.419675,-262.152347,0.569095,71.705167
7.4374,-0.00438,-0.004599,0.003255,0.002427,0.001505,-8.8e-05,-0.003987,-0.514507,0.001704,0.401939,-262.151943,0.644171,71.7057
7.4573,-0.004655,-0.004846,0.003581,0.002468,0.001467,-3e-06,-0.00346,-0.514541,0.002342,0.401939,-262.151943,0.644171,71.7057
7.4775,-0.004485,-0.004251,0.002352,0.002499,0.001438,5.8e-05,-0.002775,-0.514811,0.003577,0.477003,-262.151176,0.570949,71.706483
7.4972,-0.004448,-0.004534,0.002806,0.002505,0.001404,5.3e-05,-0.003238,-0.514297,0.002459,0.477003,-262.151176,0.570949,71.706483
7.5171,-0.004261,-0.004449,0.002981,0.002509,0.001377,4.8e-05,-0.003238,-0.514297,0.002459,0.477003,-262.151176,0.570949,71.706483
7.5372,-0.003956,-0.004632,0.00143,0.002512,0.001355,4.4e-05,-0.002647,-0.514393,0.002983,0.532609,-262.150134,0.511381,71.707512
7.5573,-0.004111,-0.004461,0.00146,0.002451,0.00139,6.9e-05,-0.002872,-0.514484,0.00235,0.532609,-262.150134,0.511381,71.707512
7.5775,-0.004061,-0.004512,0.00203,0.002402,0.001416,8.7e-05,-0.003288,-0.514418,0.001462,0.502881,-262.149014,0.486486,71.708622
7.5972,-0.0039,-0.004384,0.003827,0.002398,0.001426,0.000244,-0.003045,-0.514501,0.001979,0.502881,-262.149014,0.486486,71.708622
7.617,-0.003845,-0.00447,0.002498,0.002392,0.001434,0.000358,-0.003045,-0.514501,0.001979,0.502881,-262.149014,0.486486,71.708622
7.6376,-0.003982,-0.004044,0.002758,0.002385,0.001439,0.000439,-0.002475,-0.514412,0.002502,0.548922,-262.14794,0.516146,71.709675
7.6575,-0.003886,-0.004307,0.001882,0.00229,0.001453,0.000257,-0.002505,-0.514253,0.002608,0.548922,-262.14794,0.516146,71.709675
7.6774,-0.003636,-0.004114,0.003889,0.002216,0.001463,0.000123,-0.002861,-0.514266,0.001894,0.621198,-262.146922,0.456254,71.710597
7.6977,-0.004435,-0.004384,0.00238,0.001996,0.001501,-0.000307,-0.001758,-0.514122,0.003711,0.621198,-262.146922,0.456254,71.710597
7.7176,-0.004132,-0.004224,0.001692,0.001828,0.001529,-0.000629,-0.001758,-0.514122,0.003711,0.621198,-262.146922,0.456254,71.710597
7.7374,-0.003985,-0.004183,0.001019,0.001699,0.001549,-0.00087,-0.003191,-0.514173,0.001698,0.606651,-262.146015,0.531161,71.711477
7.7572,-0.003746,-0.004256,0.002132,0.001919,0.001471,-0.000189,-0.003294,-0.514171,0.001422,0.606651,-262.146015,0.531161,71.711477
7.7771,-0.004082,-0.00385,0.00178,0.002086,0.001409,0.000299,-0.002652,-0.51425,0.002131,0.539768,-262.145921,0.606264,71.711605
7.7975,-0.003733,-0.004036,0.002999,0.002197,0.001329,0.000477,-0.003129,-0.513884,0.00181,0.539768,-262.145921,0.606264,71.711605
7.8173,-0.003707,-0.004223,0.005523,0.002283,0.001266,0.000602,-0.003129,-0.513884,0.00181,0.539768,-262.145921,0.606264,71.711605
7.8373,-0.004038,-0.004155,0.001515,0.00235,0.001217,0.00069,-0.000824,-0.514172,0.00553,0.614771,-262.145137,0.531517,71.712328
7.8571,-0.003952,-0.004177,0.00277,0.002107,0.001309,7.4e-05,-0.001808,-0.51416,0.003901,0.614771,-262.145137,0.531517,71.712328
7.8776,-0.003506,-0.004062,0.003555,0.001921,0.001379,-0.000391,-0.002503,-0.514153,0.002777,0.609027,-262.144554,0.456571,71.712833
7.8978,-0.003789,-0.00419,0.001905,0.001779,0.001428,-0.000633,-0.00176,-0.514066,0.00349,0.609027,-262.144554,0.456571,71.712833
7.9178,-0.003608,-0.004118,0.001547,0.001669,0.001466,-0.000813,-0.00176,-0.514066,0.00349,0.609027,-262.144554,0.456571,71.712833
7.9374,-0.003996,-0.00425,0.003447,0.001585,0.001495,-0.000948,-0.002789,-0.5141,0.001545,0.535536,-262.144239,0.531669,71.713187
7.9576,-0.003619,-0.003517,0.001994,0.001693,0.001477,-0.000644,-0.002561,-0.514157,0.002319,0.535536,-262.144239,0.531669,71.713187
7.9779,-0.003668,-0.004028,0.002956,0.001774,0.001464,-0.000425,-0.002596,-0.513512,0.001993,0.524394,-262.144176,0.606656,71.713276
7.9975,-0.003977,-0.003988,0.003321,0.001769,0.001454,-0.000467,-0.0022,-0.513979,0.002868,0.524394,-262.144176,0.606656,71.713276
8.0177,-0.00378,-0.004073,0.001363,0.001765,0.001447,-0.000499,-0.0022,-0.513979,0.002868,0.524394,-262.144176,0.606656,71.713276
8.0372,-0.003659,-0.003814,0.001459,0.001762,0.001442,-0.000522,-0.003039,-0.514038,0.001355,0.596226,-262.143664,0.681521,71.713867
8.0576,-0.003626,-0.00371,0.001136,0.001937,0.001385,5.9e-05,-0.002983,-0.513942,0.001397,0.596226,-262.143664,0.681521,71.713867
8.0773,-0.003512,-0.00384,0.001983,0.002067,0.001339,0.000475,-0.003,-0.513672,0.001123,0.567147,-262.142968,0.756664,71.714696
8.0973,-0.003623,-0.00384,0.002164,0.002087,0.001316,0.000542,-0.00254,-0.513824,0.001911,0.567147,-262.142968,0.756664,71.714696
8.1176,-0.003591,-0.003904,0.002322,0.002101,0.001297,0.000588,-0.00254,-0.513824,0.001911,0.567147,-262.142968,0.756664,71.714696
8.1373,-0.003575,-0.003999,0.003155,0.002111,0.001282,0.000619,-0.002389,-0.513888,0.002323,0.642204,-262.142734,0.681607,71.714903
8.1573,-0.003525,-0.004074,0.002664,0.002036,0.001305,0.000362,-0.002216,-0.51393,0.002659,0.642204,-262.142734,0.681607,71.714903
8.1775,-0.003551,-0.004028,0.002623,0.001979,0.001322,0.000172,-0.002149,-0.514058,0.002666,0.666553,-262.142427,0.606803,71.715165
8.1974,-0.003675,-0.003918,0.002951,0.00194,0.001345,4.4e-05,-0.002207,-0.514028,0.002627,0.666553,-262.142427,0.606803,71.715165
8.2172,-0.003419,-0.00408,0.003126,0.001911,0.001363,-4.9e-05,-0.002207,-0.514028,0.002627,0.666553,-262.142427,0.606803,71.715165
8.2372,-0.003581,-0.003957,0.0019,0.001888,0.001377,-0.000118,-0.001748,-0.514026,0.003133,0.624725,-262.141522,0.551226,71.716027
8.2573,-0.003242,-0.004147,0.00331,0.001852,0.001392,-0.00017,-0.002093,-0.513991,0.002628,0.624725,-262.141522,0.551226,71.716027
8.2772,-0.002942,-0.00356,0.003722,0.001824,0.001402,-0.000208,-0.001503,-0.514109,0.003309,0.604868,-262.140753,0.626404,71.716824
8.2974,-0.00351,-0.003945,0.00257,0.001556,0.00141,-0.000549,-0.001082,-0.513603,0.003685,0.604868,-262.140753,0.626404,71.716824
8.3175,-0.003551,-0.003854,0.002329,0.001352,0.001415,-0.000806,-0.001082,-0.513603,0.003685,0.604868,-262.140753,0.626404,71.716824
8.3372,-0.003217,-0.00376,0.004299,0.001197,0.001417,-0.000999,-0.002293,-0.513798,0.002321,0.610343,-262.139933,0.697894,71.717701
8.3576,-0.003363,-0.003334,0.000797,0.00124,0.001408,-0.000983,-0.001763,-0.513774,0.003134,0.610343,-262.139933,0.697894,71.717701
8.377,-0.003368,-0.003698,0.00271,0.001273,0.001401,-0.000971,-0.00295,-0.513328,0.000794,0.593207,-262.139846,0.772922,71.717844
8.3974,-0.002742,-0.003902,0.001368,0.001392,0.001358,-0.000756,-0.00207,-0.513664,0.002543,0.593207,-262.139846,0.772922,71.717844
8.4173,-0.003452,-0.003633,0.003208,0.001482,0.001325,-0.0006,-0.00207,-0.513664,0.002543,0.593207,-262.139846,0.772922,71.717844
8.4372,-0.003524,-0.003724,0.001202,0.001551,0.0013,-0.000489,-0.001791,-0.513608,0.003194,0.565248,-262.139591,0.847946,71.718243
8.4572,-0.003122,-0.003589,0.002964,0.001642,0.001268,-0.000344,-0.002246,-0.513652,0.002377,0.565248,-262.139591,0.847946,71.718243
8.4775,-0.00334,-0.004024,0.001815,0.001713,0.001243,-0.00024,-0.001563,-0.513547,0.002949,0.573594,-262.138877,0.800625,71.719104
8.4974,-0.003041,-0.003667,0.003376,0.001771,0.001271,1.8e-05,-0.002348,-0.513986,0.0019,0.573594,-262.138877,0.800625,71.719104
8.5173,-0.003693,-0.003326,0.002289,0.001814,0.001292,0.000203,-0.002348,-0.513986,0.0019,0.573594,-262.138877,0.800625,71.719104
8.5376,-0.003109,-0.003368,0.001993,0.001845,0.001309,0.000337,-0.00247,-0.513282,0.002279,0.5692,-262.138233,0.725356,71.719802
8.5573,-0.003211,-0.003471,0.002382,0.00189,0.001222,0.000339,-0.002309,-0.513312,0.002161,0.5692,-262.138233,0.725356,71.719802
8.5774,-0.002792,-0.003198,0.003175,0.001925,0.001155,0.000338,-0.00197,-0.513449,0.002383,0.643759,-262.137798,0.650797,71.720195
8.5977,-0.003282,-0.003853,0.00313,0.001691,0.001145,1.4e-05,-0.001241,-0.513216,0.003106,0.643759,-262.137798,0.650797,71.720195
8.6173,-0.003074,-0.003454,0.002823,0.001514,0.001136,-0.000229,-0.001241,-0.513216,0.003106,0.643759,-262.137798,0.650797,71.720195
8.6372,-0.002912,-0.003848,0.001728,0.00138,0.001128,-0.00041,-0.001592,-0.513423,0.002826,0.615315,-262.137287,0.57575,71.72066
8.6572,-0.003098,-0.00394,0.002844,0.001402,0.001156,-0.000305,-0.001764,-0.513591,0.002384,0.615315,-262.137287,0.57575,71.72066
8.6775,-0.002662,-0.003673,0.003296,0.001418,0.001177,-0.00023,-0.001626,-0.513922,0.00284,0.566705,-262.136976,0.650682,71.721031
8.6979,-0.002885,-0.003934,0.00345,0.001237,0.001241,-0.000459,-0.001038,-0.513692,0.003255,0.566705,-262.136976,0.650682,71.721031
8.7177,-0.00321,-0.003353,0.003483,0.001098,0.001291,-0.000631,-0.001038,-0.513692,0.003255,0.566705,-262.136976,0.650682,71.721031
8.7373,-0.003,-0.003285,0.000917,0.000991,0.001329,-0.000758,-0.001386,-0.513311,0.003476,0.631559,-262.136413,0.725686,71.721651
8.7576,-0.003044,-0.003581,0.003711,0.00113,0.001255,-0.00057,-0.001843,-0.513296,0.002443,0.631559,-262.136413,0.725686,71.721651
8.7775,-0.002831,-0.003669,0.001747,0.001236,0.001198,-0.000436,-0.001146,-0.513573,0.003709,0.706568,-262.136342,0.800695,71.721761
8.7974,-0.003199,-0.003735,0.003499,0.00133,0.001212,-0.000145,-0.001867,-0.513659,0.001928,0.706568,-262.136342,0.800695,71.721761
8.8174,-0.002917,-0.003324,0.002694,0.0014,0.001222,6.5e-05,-0.001867,-0.513659,0.001928,0.706568,-262.136342,0.800695,71.721761
8.8377,-0.002731,-0.003403,0.002246,0.001452,0.001231,0.000216,-0.001498,-0.513279,0.002678,0.645948,-262.135801,0.869848,71.722431
8.8572,-0.003148,-0.003382,0.002704,0.001416,0.001203,0.000109,-0.001529,-0.513324,0.0025,0.645948,-262.135801,0.869848,71.722431
8.8779,-0.002623,-0.003418,0.003884,0.001389,0.00118,3e-05,-0.001752,-0.513365,0.002704,0.720948,-262.135503,0.794848,71.722704
8.8976,-0.002508,-0.003315,0.004182,0.001144,0.001209,-0.0004,-0.000742,-0.513409,0.003777,0.720948,-262.135503,0.794848,71.722704
8.9175,-0.002901,-0.003248,0.001495,0.000958,0.00123,-0.000725,-0.000742,-0.513409,0.003777,0.720948,-262.135503,0.794848,71.722704
8.9374,-0.002618,-0.003087,0.002074,0.000816,0.001245,-0.000968,-0.002089,-0.513205,0.001495,0.71181,-262.134875,0.719854,71.723323
8.9575,-0.002939,-0.003678,0.004274,0.00104,0.001166,-0.000432,-0.001868,-0.513152,0.001731,0.71181,-262.134875,0.719854,71.723323
8.977,-0.002738,-0.003154,0.003562,0.001208,0.001104,-5e-05,-0.000758,-0.513671,0.004273,0.675404,-262.134856,0.794858,71.723359
8.9975,-0.002609,-0.003231,0.002672,0.001056,0.001108,-0.000423,-0.000906,-0.513198,0.003626,0.675404,-262.134856,0.794858,71.723359
9.0173,-0.002722,-0.003412,0.001969,0.000941,0.00111,-0.000704,-0.000906,-0.513198,0.003626,0.675404,-262.134856,0.794858,71.723359
9.0371,-0.002776,-0.003324,0.002812,0.000855,0.001111,-0.000914,-0.00167,-0.513368,0.001967,0.726488,-262.134253,0.75399,71.723978
9.0573,-0.002396,-0.003391,0.002056,0.000969,0.001109,-0.000642,-0.001533,-0.513344,0.002308,0.726488,-262.134253,0.75399,71.723978
9.0773,-0.002731,-0.003375,0.002192,0.001055,0.001108,-0.000446,-0.001344,-0.513387,0.002054,0.651489,-262.134212,0.82899,71.724054
9.0979,-0.002756,-0.003522,0.003159,0.001135,0.001109,-0.000258,-0.00159,-0.513374,0.002181,0.651489,-262.134212,0.82899,71.724054
9.1179,-0.003198,-0.003676,0.002012,0.001194,0.00111,-0.000122,-0.00159,-0.513374,0.002181,0.651489,-262.134212,0.82899,71.724054
9.1377,-0.002453,-0.003414,0.003243,0.001239,0.001111,-2.4e-05,-0.002133,-0.513635,0.001996,0.669401,-262.133744,0.904656,71.724658
9.1576,-0.00268,-0.003267,0.002997,0.001257,0.001136,-7.1e-05,-0.001594,-0.513541,0.002494,0.669401,-262.133744,0.904656,71.724658
9.1771,-0.002427,-0.002856,0.003507,0.001272,0.001156,-0.000105,-0.001129,-0.513242,0.002995,0.724445,-262.133342,0.830322,71.725065
9.1974,-0.002561,-0.003274,0.003879,0.001047,0.001095,-0.000412,-0.000681,-0.512887,0.003461,0.724445,-262.133342,0.830322,71.725065
9.2173,-0.002735,-0.003448,0.003682,0.000879,0.001048,-0.000644,-0.000681,-0.512887,0.003461,0.724445,-262.133342,0.830322,71.725065
9.2376,-0.002606,-0.002946,0.002282,0.000752,0.00101,-0.000818,-0.000808,-0.5134,0.003678,0.709521,-262.132715,0.76478,71.725724
9.2576,-0.002232,-0.003521,0.001539,0.000762,0.001025,-0.000849,-0.001068,-0.513204,0.003093,0.709521,-262.132715,0.76478,71.725724
9.2772,-0.002388,-0.003134,0.001122,0.000769,0.001036,-0.000873,-0.001444,-0.513517,0.001537,0.634177,-262.132672,0.840124,71.725803
9.2972,-0.002605,-0.00313,0.002073,0.000999,0.001017,-0.000111,-0.001782,-0.513168,0.00116,0.634177,-262.132672,0.840124,71.725803
9.3183,-0.002489,-0.003066,0.00141,0.00117,0.001001,0.000434,-0.001782,-0.513168,0.00116,0.634177,-262.132672,0.840124,71.725803
9.3377,-0.00278,-0.003169,0.00355,0.001296,0.000987,0.000822,-0.001759,-0.513054,0.001402,0.579214,-262.13257,0.914792,71.725998
9.358,-0.002666,-0.003193,0.002836,0.001285,0.000972,0.000648,-0.001454,-0.513096,0.002227,0.579214,-262.13257,0.914792,71.725998
9.3774,-0.002439,-0.003188,0.003412,0.001279,0.000961,0.000519,-0.00122,-0.513191,0.002836,0.654207,-262.132569,0.839799,71.725999
9.3973,-0.002492,-0.003162,0.002173,0.001061,0.000996,6.5e-05,-0.000732,-0.513185,0.003376,0.654207,-262.132569,0.839799,71.725999
9.4174,-0.002386,-0.003424,0.004694,0.000898,0.001023,-0.000274,-0.000732,-0.513185,0.003376,0.654207,-262.132569,0.839799,71.725999
9.4373,-0.001882,-0.002671,0.002806,0.000774,0.001044,-0.000527,1.2e-05,-0.513415,0.004694,0.730002,-262.132513,0.764004,71.726043
9.4579,-0.00272,-0.003241,0.003292,0.000515,0.001055,-0.000844,-0.000176,-0.513111,0.003926,0.730002,-262.132513,0.764004,71.726043
9.4776,-0.002445,-0.003332,0.003604,0.000319,0.001063,-0.001083,-0.001034,-0.51323,0.003289,0.750344,-262.132407,0.838206,71.726201
9.4974,-0.002386,-0.003133,0.001934,0.000304,0.001096,-0.001186,-0.000642,-0.51332,0.003577,0.750344,-262.132407,0.838206,71.726201
9.5176,-0.00266,-0.002887,0.003875,0.000294,0.001122,-0.001262,-0.000642,-0.51332,0.003577,0.750344,-262.132407,0.838206,71.726201
9.5372,-0.002547,-0.003156,0.00346,0.000286,0.001143,-0.001319,-0.000684,-0.512883,0.003874,0.825536,-262.132406,0.913398,71.726204
9.5575,-0.002623,-0.002868,0.003664,0.000306,0.001098,-0.001393,-0.000724,-0.512993,0.003706,0.825536,-262.132406,0.913398,71.726204
9.5771,-0.002504,-0.00343,0.002448,0.000323,0.001065,-0.001448,-0.000754,-0.512864,0.003664,0.867326,-262.132404,0.988214,71.726214
9.5975,-0.002293,-0.003081,0.00378,0.000477,0.001088,-0.001127,-0.001211,-0.513378,0.002557,0.867326,-262.132404,0.988214,71.726214
9.6178,-0.00256,-0.003175,0.001885,0.000591,0.001107,-0.000896,-0.001211,-0.513378,0.002557,0.867326,-262.132404,0.988214,71.726214
9.6376,-0.002399,-0.003193,0.001851,0.000676,0.001122,-0.000729,-0.001598,-0.513173,0.001885,0.79218,-262.132403,1.06336,71.726219
9.6571,-0.002008,-0.00302,0.002085,0.000846,0.001088,-0.000336,-0.00154,-0.513181,0.001871,0.79218,-262.132403,1.06336,71.726219
9.677,-0.001922,-0.002482,0.003117,0.000973,0.001062,-5.4e-05,-0.000925,-0.512989,0.002066,0.785547,-262.132075,1.138213,71.726804
9.6976,-0.002186,-0.003086,0.003187,0.000734,0.000948,-0.000239,-0.000376,-0.512516,0.003037,0.785547,-262.132075,1.138213,71.726804
9.7175,-0.002247,-0.00306,0.00156,0.000555,0.00086,-0.00038,-0.000376,-0.512516,0.003037,0.785547,-262.132075,1.138213,71.726804
9.7374,-0.002428,-0.003368,0.001501,0.00042,0.000792,-0.000488,-0.001443,-0.513048,0.001558,0.813438,-262.131937,1.062742,71.726946
9.7579,-0.002319,-0.00348,0.003055,0.00065,0.000829,-1.9e-05,-0.001534,-0.51318,0.001534,0.813438,-262.131937,1.062742,71.726946
9.7772,-0.002136,-0.003097,0.002229,0.000824,0.000858,0.000316,-0.000751,-0.513461,0.003045,0.865446,-262.131757,1.137755,71.727271
9.7973,-0.002167,-0.00286,0.001156,0.000799,0.000895,0.000245,-0.000978,-0.513126,0.002298,0.865446,-262.131757,1.137755,71.727271
9.8172,-0.002485,-0.003429,0.003056,0.00078,0.000923,0.000193,-0.000978,-0.513126,0.002298,0.865446,-262.131757,1.137755,71.727271
9.8372,-0.002146,-0.002968,0.002648,0.000765,0.000945,0.000153,-0.000926,-0.513425,0.003056,0.906148,-262.131741,1.063093,71.727284
9.8571,-0.002268,-0.003042,0.002845,0.00071,0.000983,-7.8e-05,-0.000872,-0.513238,0.00289,0.906148,-262.131741,1.063093,71.727284
9.8774,-0.002623,-0.002856,0.001429,0.000669,0.001014,-0.000248,-0.000808,-0.513026,0.002846,0.936182,-262.131514,0.98824,71.727485
9.8972,-0.002091,-0.003358,0.001551,0.0,0.0,0.0,-0.001811,-0.512867,0.001537,0.936182,-262.131514,0.98824,71.727485
9.9172,-0.002259,-0.003079,0.00223,0.0,0.0,0.0,-0.001811,-0.512867,0.001537,0.936182,-262.131514,0.98824,71.727485
9.9376,-0.00252,-0.003355,0.001835,0.0,0.0,0.0,-0.001096,-0.513039,0.00222,0.910545,-262.131109,1.049379,71.727984
9.9578,-0.002505,-0.002947,0.001303,0.0,0.0,0.0,-0.001293,-0.513164,0.002061,0.910545,-262.131109,1.049379,71.727984
9.9774,-0.002166,-0.002908,0.003042,0.0,0.0,0.0,-0.00184,-0.512947,0.001303,0.910545,-262.131109,1.049379,71.727984
9.9974,-0.00247,-0.002946,0.003592,0.0,0.0,0.0,-0.000718,-0.512909,0.002894,0.910545,-262.131109,1.049379,71.727984
10.0172,-0.002219,-0.003043,0.002033,0.0,0.0,0.0,-0.000718,-0.512909,0.002894,0.910545,-262.131109,1.049379,71.727984
10.0372,-0.002203,-0.003201,0.002764,0.0,0.0,0.0,-0.001182,-0.513042,0.002033,0.910545,-262.131109,1.049379,71.727984
10.0575,-0.002244,-0.002797,0.003511,0.0,0.0,0.0,-0.001022,-0.513107,0.002333,0.910545,-262.131109,1.049379,71.727984
10.0774,-0.002496,-0.002554,0.000375,0.0,0.0,0.0,-0.000454,-0.512794,0.003511,0.910545,-262.131109,1.049379,71.727984
10.0975,-0.002311,-0.002989,0.001961,0.0,0.0,0.0,-0.002168,-0.512572,0.000606,0.910545,-262.131109,1.049379,71.727984
10.1173,-0.002556,-0.003144,0.001078,0.0,0.0,0.0,-0.002168,-0.512572,0.000606,0.910545,-262.131109,1.049379,71.727984
10.1372,-0.002568,-0.00282,0.002947,0.0,0.0,0.0,-0.002006,-0.513144,0.001078,0.910545,-262.131109,1.049379,71.727984
10.1577,-0.001989,-0.003057,0.00276,0.0,0.0,0.0,-0.001624,-0.513012,0.001836,0.910545,-262.131109,1.049379,71.727984
10.1772,-0.002367,-0.003107,0.002352,0.0,0.0,0.0,-0.000582,-0.513055,0.00276,0.910545,-262.131109,1.049379,71.727984
10.1975,-0.002102,-0.003052,0.00252,0.0,0.0,0.0,-0.00112,-0.513101,0.002385,0.910545,-262.131109,1.049379,71.727984
10.2176,-0.002336,-0.003023,0.001795,0.0,0.0,0.0,-0.00112,-0.513101,0.002385,0.910545,-262.131109,1.049379,71.727984
10.2372,-0.002346,-0.00279,0.002897,0.0,0.0,0.0,-0.00142,-0.513022,0.001795,0.910545,-262.131109,1.049379,71.727984
10.2575,-0.002523,-0.003333,0.001372,0.0,0.0,0.0,-0.001192,-0.512925,0.002251,0.910545,-262.131109,1.049379,71.727984
10.2776,-0.002245,-0.003413,0.00257,0.0,0.0,0.0,-0.001823,-0.513332,0.001372,0.910545,-262.131109,1.049379,71.727984
10.2977,-0.002116,-0.002664,0.001535,0.0,0.0,0.0,-0.00101,-0.513404,0.002469,0.910545,-262.131109,1.049379,71.727984
10.3175,-0.002235,-0.00318,0.002804,0.0,0.0,0.0,-0.00101,-0.513404,0.002469,0.910545,-262.131109,1.049379,71.727984
10.3379,-0.001891,-0.003049,0.00246,0.0,0.0,0.0,-0.000804,-0.513178,0.002804,0.910545,-262.131109,1.049379,71.727984
10.3577,-0.002302,-0.002759,0.002804,0.0,0.0,0.0,-0.000737,-0.513125,0.002666,0.910545,-262.131109,1.049379,71.727984
10.3778,-0.002152,-0.003063,0.002097,0.0,0.0,0.0,-0.000872,-0.512757,0.002804,0.910545,-262.131109,1.049379,71.727984
10.3975,-0.002013,-0.003004,0.001994,0.0,0.0,0.0,-0.001063,-0.513034,0.002162,0.910545,-262.131109,1.049379,71.727984
10.4174,-0.002173,-0.002786,0.001599,0.0,0.0,0.0,-0.001063,-0.513034,0.002162,0.910545,-262.131109,1.049379,71.727984
10.4374,-0.002387,-0.003108,0.00234,0.0,0.0,0.0,-0.001358,-0.512785,0.001599,0.910545,-262.131109,1.049379,71.727984
10.4575,-0.00182,-0.002891,0.001901,0.0,0.0,0.0,-0.001291,-0.512917,0.001903,0.910545,-262.131109,1.049379,71.727984
10.477,-0.002569,-0.002958,0.002756,0.0,0.0,0.0,-0.000851,-0.51289,0.001901,0.910545,-262.131109,1.049379,71.727984
10.4974,-0.002201,-0.003215,0.001499,0.0,0.0,0.0,-0.001135,-0.51295,0.002677,0.910545,-262.131109,1.049379,71.727984
10.5172,-0.002263,-0.002888,0.001424,0.0,0.0,0.0,-0.001135,-0.51295,0.002677,0.910545,-262.131109,1.049379,71.727984
10.5377,-0.002262,-0.002647,0.003725,0.0,0.0,0.0,-0.001537,-0.512887,0.001424,0.910545,-262.131109,1.049379,71.727984
10.5574,-0.00219,-0.002917,0.002412,0.0,0.0,0.0,-0.001053,-0.512787,0.002371,0.910545,-262.131109,1.049379,71.727984
10.5778,-0.002325,-0.003194,0.002212,0.0,0.0,0.0,-0.00096,-0.512916,0.002412,0.910545,-262.131109,1.049379,71.727984
10.5979,-0.002351,-0.00316,0.002443,0.0,0.0,0.0,-0.001175,-0.513168,0.00223,0.910545,-262.131109,1.049379,71.727984
10.6178,-0.002112,-0.003041,0.003506,0.0,0.0,0.0,-0.001175,-0.513168,0.00223,0.910545,-262.131109,1.049379,71.727984
10.6371,-0.00231,-0.00333,0.003301,0.0,0.0,0.0,-0.000324,-0.513038,0.003506,0.910545,-262.131109,1.049379,71.727984
10.6573,-0.002349,-0.003006,0.003105,0.0,0.0,0.0,-0.000446,-0.513154,0.003424,0.910545,-262.131109,1.049379,71.727984
10.6774,-0.002554,-0.002864,0.002687,0.0,0.0,0.0,-0.000766,-0.513004,0.003105,0.910545,-262.131109,1.049379,71.727984
10.6979,-0.002035,-0.002932,0.002955,0.0,0.0,0.0,-0.001145,-0.512875,0.002725,0.910545,-262.131109,1.049379,71.727984
10.7178,-0.002456,-0.003129,0.002819,0.0,0.0,0.0,-0.001145,-0.512875,0.002725,0.910545,-262.131109,1.049379,71.727984
10.7374,-0.002442,-0.002833,0.002836,0.0,0.0,0.0,-0.001018,-0.513127,0.002819,0.910545,-262.131109,1.049379,71.727984
10.7575,-0.001734,-0.003225,0.00347,0.0,0.0,0.0,-0.001009,-0.513003,0.002826,0.910545,-262.131109,1.049379,71.727984
10.7775,-0.002102,-0.002822,0.002338,0.0,0.0,0.0,3.5e-05,-0.513222,0.00347,0.910545,-262.131109,1.049379,71.727984
10.7974,-0.002108,-0.002863,0.002638,0.0,0.0,0.0,-0.000828,-0.512855,0.002436,0.910545,-262.131109,1.049379,71.727984
10.8174,-0.002503,-0.003015,0.002064,0.0,0.0,0.0,-0.000828,-0.512855,0.002436,0.910545,-262.131109,1.049379,71.727984
10.8372,-0.00239,-0.003021,0.003038,0.0,0.0,0.0,-0.00145,-0.513014,0.002064,0.910545,-262.131109,1.049379,71.727984
10.8572,-0.002192,-0.002954,0.002552,0.0,0.0,0.0,-0.001203,-0.513016,0.002459,0.910545,-262.131109,1.049379,71.727984
10.8776,-0.002026,-0.002766,0.004231,0.0,0.0,0.0,-0.00089,-0.512953,0.002552,0.910545,-262.131109,1.049379,71.727984
10.8972,-0.002184,-0.00286,0.002781,0.0,0.0,0.0,2.2e-05,-0.512782,0.004051,0.910545,-262.131109,1.049379,71.727984
10.9173,-0.002359,-0.002943,0.003064,0.0,0.0,0.0,2.2e-05,-0.512782,0.004051,0.910545,-262.131109,1.049379,71.727984
10.9369,-0.002086,-0.002637,0.003683,0.0,0.0,0.0,-0.000797,-0.51294,0.003064,0.910545,-262.131109,1.049379,71.727984
10.9571,-0.002574,-0.002566,0.00127,0.0,0.0,0.0,-0.000557,-0.512815,0.003317,0.910545,-262.131109,1.049379,71.727984
10.9774,-0.002136,-0.002729,0.001909,0.0,0.0,0.0,-0.001926,-0.512565,0.00127,0.910545,-262.131109,1.049379,71.727984
10.9975,-0.002073,-0.00328,0.002066,0.0,0.0,0.0,-0.001233,-0.512713,0.001849,0.910545,-262.131109,1.049379,71.727984
11.0172,-0.002378,-0.00307,0.001566,0.0,0.0,0.0,-0.001233,-0.512713,0.001849,0.910545,-262.131109,1.049379,71.727984
11.0371,-0.002205,-0.002903,0.00078,0.0,0.0,0.0,-0.00158,-0.513069,0.001566,0.910545,-262.131109,1.049379,71.727984
11.0571,-0.002185,-0.003074,0.003098,0.0,0.0,0.0,-0.001673,-0.513001,0.001244,0.910545,-262.131109,1.049379,71.727984
11.0776,-0.002656,-0.002798,0.002628,0.0,0.0,0.0,-0.000605,-0.513072,0.003098,0.910545,-262.131109,1.049379,71.727984
11.0974,-0.002546,-0.002789,0.002727,0.0,0.0,0.0,-0.001251,-0.512822,0.002672,0.910545,-262.131109,1.049379,71.727984
11.1173,-0.002313,-0.002877,0.002727,0.0,0.0,0.0,-0.001251,-0.512822,0.002672,0.910545,-262.131109,1.049379,71.727984
11.1373,-0.002536,-0.002754,0.003126,0.0,0.0,0.0,-0.000923,-0.512875,0.002727,0.910545,-262.131109,1.049379,71.727984
11.1573,-0.002064,-0.002847,0.002845,0.0,0.0,0.0,-0.000931,-0.512824,0.002891,0.910545,-262.131109,1.049379,71.727984
11.177,-0.002565,-0.002866,0.003147,0.0,0.0,0.0,-0.000613,-0.512845,0.002845,0.910545,-262.131109,1.049379,71.727984
11.1974,-0.002163,-0.002853,5.2e-05,0.0,0.0,0.0,-0.000931,-0.512862,0.003121,0.910545,-262.131109,1.049379,71.727984
11.2174,-0.002443,-0.002889,0.003203,0.0,0.0,0.0,-0.000931,-0.512862,0.003121,0.910545,-262.131109,1.049379,71.727984
11.2374,-0.002372,-0.003025,0.003194,0.0,0.0,0.0,-0.000809,-0.512886,0.003203,0.910545,-262.131109,1.049379,71.727984
11.2576,-0.002118,-0.003021,0.001524,0.0,0.0,0.0,-0.000781,-0.512944,0.003199,0.910545,-262.131109,1.049379,71.727984
11.2772,-0.002641,-0.003097,0.002019,0.0,0.0,0.0,-0.001341,-0.51302,0.001524,0.910545,-262.131109,1.049379,71.727984
11.2977,-0.002135,-0.002903,0.002228,0.0,0.0,0.0,-0.001589,-0.51309,0.001978,0.910545,-262.131109,1.049379,71.727984
11.3175,-0.002526,-0.003159,0.003432,0.0,0.0,0.0,-0.001589,-0.51309,0.001978,0.910545,-262.131109,1.049379,71.727984
11.3378,-0.002514,-0.003325,0.002603,0.0,0.0,0.0,-0.000775,-0.513156,0.003432,0.910545,-262.131109,1.049379,71.727984
11.3575,-0.00236,-0.003035,0.003624,0.0,0.0,0.0,-0.000944,-0.513225,0.003091,0.910545,-262.131109,1.049379,71.727984
11.3779,-0.002229,-0.002856,0.002777,0.0,0.0,0.0,-0.000512,-0.513032,0.003624,0.910545,-262.131109,1.049379,71.727984
11.3975,-0.001982,-0.003327,0.002994,0.0,0.0,0.0,-0.000786,-0.51287,0.002853,0.910545,-262.131109,1.049379,71.727984
11.4177,-0.00216,-0.002729,0.003593,0.0,0.0,0.0,-0.000786,-0.51287,0.002853,0.910545,-262.131109,1.049379,71.727984
11.4374,-0.002777,-0.003226,0.002144,0.0,0.0,0.0,-0.000327,-0.512725,0.003593,0.910545,-262.131109,1.049379,71.727984
11.4575,-0.001941,-0.003042,0.001934,0.0,0.0,0.0,-0.000877,-0.512928,0.003006,0.910545,-262.131109,1.049379,71.727984
11.477,-0.002134,-0.002796,0.001858,0.0,0.0,0.0,-0.000954,-0.513041,0.001934,0.910545,-262.131109,1.049379,71.727984
11.4974,-0.002494,-0.003164,0.003085,0.0,0.0,0.0,-0.001165,-0.512817,0.001865,0.910545,-262.131109,1.049379,71.727984
11.5172,-0.001802,-0.003061,0.002049,0.0,0.0,0.0,-0.001165,-0.512817,0.001865,0.910545,-262.131109,1.049379,71.727984
11.5371,-0.002381,-0.002822,0.003234,0.0,0.0,0.0,-0.000757,-0.51306,0.002049,0.910545,-262.131109,1.049379,71.727984
11.5572,-0.002271,-0.003122,0.003218,0.0,0.0,0.0,-0.000747,-0.512963,0.00253,0.910545,-262.131109,1.049379,71.727984
11.5769,-0.002557,-0.002749,0.001543,0.0,0.0,0.0,-0.00063,-0.51312,0.003218,0.910545,-262.131109,1.049379,71.727984
11.5971,-0.002106,-0.00297,0.001895,0.0,0.0,0.0,-0.001668,-0.512782,0.001693,0.910545,-262.131109,1.049379,71.727984
11.6171,-0.0021,-0.00275,0.00244,0.0,0.0,0.0,-0.001668,-0.512782,0.001693,0.910545,-262.131109,1.049379,71.727984
11.6373,-0.00217,-0.003223,0.004183,0.0,0.0,0.0,-0.000856,-0.512748,0.00244,0.910545,-262.131109,1.049379,71.727984
11.6574,-0.002787,-0.002857,0.002079,0.0,0.0,0.0,-0.000522,-0.51294,0.003149,0.910545,-262.131109,1.049379,71.727984
11.677,-0.002225,-0.002912,0.001023,0.0,0.0,0.0,-0.001727,-0.512855,0.002079,0.910545,-262.131109,1.049379,71.727984
11.6974,-0.001818,-0.003112,0.001861,0.0,0.0,0.0,-0.001705,-0.512907,0.001116,0.910545,-262.131109,1.049379,71.727984
11.7176,-0.002386,-0.003016,0.00395,0.0,0.0,0.0,-0.001705,-0.512907,0.001116,0.910545,-262.131109,1.049379,71.727984
11.7371,-0.00243,-0.003189,0.003316,0.0,0.0,0.0,-0.000371,-0.513012,0.00395,0.910545,-262.131109,1.049379,71.727984
11.7572,-0.00226,-0.002932,0.002824,0.0,0.0,0.0,-0.000521,-0.513083,0.003692,0.910545,-262.131109,1.049379,71.727984
11.7774,-0.002568,-0.00305,0.002957,0.0,0.0,0.0,-0.00082,-0.51293,0.002824,0.910545,-262.131109,1.049379,71.727984
11.7977,-0.002163,-0.002567,0.001305,0.0,0.0,0.0,-0.00104,-0.513038,0.002946,0.910545,-262.131109,1.049379,71.727984
11.8173,-0.002484,-0.003144,0.00335,0.0,0.0,0.0,-0.00104,-0.513038,0.002946,0.910545,-262.131109,1.049379,71.727984
11.8372,-0.002359,-0.002644,0.001294,0.0,0.0,0.0,-0.000775,-0.513141,0.00335,0.910545,-262.131109,1.049379,71.727984
11.8574,-0.002076,-0.002741,0.001397,0.0,0.0,0.0,-0.001163,-0.512933,0.002488,0.910545,-262.131109,1.049379,71.727984
11.8777,-0.001848,-0.00305,0.003951,0.0,0.0,0.0,-0.001363,-0.512741,0.001397,0.910545,-262.131109,1.049379,71.727984
11.898,-0.002233,-0.003085,0.003819,0.0,0.0,0.0,3.7e-05,-0.51302,0.003734,0.910545,-262.131109,1.049379,71.727984
11.9173,-0.002671,-0.003068,0.00202,0.0,0.0,0.0,3.7e-05,-0.51302,0.003734,0.910545,-262.131109,1.049379,71.727984
11.9373,-0.002178,-0.002678,0.00397,0.0,0.0,0.0,-0.001641,-0.513067,0.00202,0.910545,-262.131109,1.049379,71.727984
11.9572,-0.002202,-0.002947,0.00203,0.0,0.0,0.0,-0.001022,-0.512903,0.002832,0.910545,-262.131109,1.049379,71.727984
11.9775,-0.002272,-0.002789,0.002436,0.0,0.0,0.0,-0.001167,-0.512946,0.00203,0.910545,-262.131109,1.049379,71.727984
11.9974,-0.002238,-0.003134,0.00172,0.0,0.0,0.0,-0.001041,-0.512801,0.002402,0.910545,-262.131109,1.049379,71.727984
12.0173,-0.002568,-0.003168,0.00285,0.0,0.0,0.0,-0.001041,-0.512801,0.002402,0.910545,-262.131109,1.049379,71.727984
12.0375,-0.002331,-0.003138,0.001271,0.0,0.0,0.0,-0.001114,-0.513166,0.00285,0.910545,-262.131109,1.049379,71.727984
12.0576,-0.002207,-0.003112,0.001917,0.0,0.0,0.0,-0.001346,-0.513154,0.002205,0.910545,-262.131109,1.049379,71.727984
12.077,-0.002392,-0.002965,0.002846,0.0,0.0,0.0,-0.001229,-0.513111,0.001917,0.910545,-262.131109,1.049379,71.727984
12.0972,-0.002004,-0.002727,0.004307,0.0,0.0,0.0,-0.000965,-0.512975,0.002765,0.910545,-262.131109,1.049379,71.727984
12.1179,-0.001942,-0.003086,0.00102,0.0,0.0,0.0,-0.000965,-0.512975,0.002765,0.910545,-262.131109,1.049379,71.727984
12.1372,-0.001973,-0.002953,0.003404,0.0,0.0,0.0,-0.001422,-0.513086,0.00102,0.910545,-262.131109,1.049379,71.727984
12.1571,-0.002266,-0.002727,0.001419,0.0,0.0,0.0,-0.000947,-0.513031,0.001976,0.910545,-262.131109,1.049379,71.727984
12.1774,-0.002566,-0.003011,0.002132,0.0,0.0,0.0,-0.001542,-0.512726,0.001419,0.910545,-262.131109,1.049379,71.727984
12.1974,-0.002329,-0.002942,0.002781,0.0,0.0,0.0,-0.001483,-0.512987,0.002074,0.910545,-262.131109,1.049379,71.727984
12.2175,-0.002295,-0.003044,0.00463,0.0,0.0,0.0,-0.001483,-0.512987,0.002074,0.910545,-262.131109,1.049379,71.727984
12.2372,-0.002453,-0.002973,0.002124,0.0,0.0,0.0,6.6e-05,-0.513039,0.00463,0.910545,-262.131109,1.049379,71.727984
12.2577,-0.002323,-0.003062,0.002825,0.0,0.0,0.0,-0.000518,-0.513011,0.00361,0.910545,-262.131109,1.049379,71.727984
12.277,-0.002353,-0.003126,0.003525,0.0,0.0,0.0,-0.000882,-0.51306,0.002825,0.910545,-262.131109,1.049379,71.727984
12.2975,-0.002392,-0.002723,0.002825,0.0,0.0,0.0,-0.000583,-0.513117,0.003466,0.910545,-262.131109,1.049379,71.727984
12.318,-0.002352,-0.00258,0.002119,0.0,0.0,0.0,-0.000583,-0.513117,0.003466,0.910545,-262.131109,1.049379,71.727984
12.3374,-0.002309,-0.002523,0.003201,0.0,0.0,0.0,-0.001271,-0.512579,0.002119,0.910545,-262.131109,1.049379,71.727984
12.3575,-0.002286,-0.003099,0.001789,0.0,0.0,0.0,-0.001024,-0.512555,0.002568,0.910545,-262.131109,1.049379,71.727984
12.3775,-0.002096,-0.00283,0.002357,0.0,0.0,0.0,-0.001373,-0.513098,0.001789,0.910545,-262.131109,1.049379,71.727984
12.3971,-0.0023,-0.002952,0.002447,0.0,0.0,0.0,-0.000936,-0.512852,0.002308,0.910545,-262.131109,1.049379,71.727984
12.4172,-0.002338,-0.003166,0.002125,0.0,0.0,0.0,-0.000936,-0.512852,0.002308,0.910545,-262.131109,1.049379,71.727984
12.4374,-0.002222,-0.002538,0.003033,0.0,0.0,0.0,-0.001254,-0.513165,0.002125,0.910545,-262.131109,1.049379,71.727984
12.4574,-0.001985,-0.002999,0.0022,0.0,0.0,0.0,-0.001016,-0.512906,0.002499,0.910545,-262.131109,1.049379,71.727984
12.477,-0.00209,-0.002686,0.002953,0.0,0.0,0.0,-0.000863,-0.512998,0.0022,0.910545,-262.131109,1.049379,71.727984
12.4972,-0.002146,-0.003177,0.003435,0.0,0.0,0.0,-0.000608,-0.51271,0.002889,0.910545,-262.131109,1.049379,71.727984
12.5171,-0.002162,-0.002881,0.002945,0.0,0.0,0.0,-0.000608,-0.51271,0.002889,0.910545,-262.131109,1.049379,71.727984
12.5371,-0.002303,-0.002588,0.001994,0.0,0.0,0.0,-0.00066,-0.512879,0.002945,0.910545,-262.131109,1.049379,71.727984
12.5572,-0.002402,-0.002914,0.003134,0.0,0.0,0.0,-0.000918,-0.512759,0.002553,0.910545,-262.131109,1.049379,71.727984
12.5773,-0.002435,-0.003173,0.002967,0.0,0.0,0.0,-0.000804,-0.512912,0.003134,0.910545,-262.131109,1.049379,71.727984
12.5972,-0.001996,-0.003019,0.001311,0.0,0.0,0.0,-0.000912,-0.513149,0.002981,0.910545,-262.131109,1.049379,71.727984
12.6173,-0.002279,-0.003002,0.003154,0.0,0.0,0.0,-0.000912,-0.513149,0.002981,0.910545,-262.131109,1.049379,71.727984
12.637,-0.002388,-0.002914,0.003062,0.0,0.0,0.0,-0.000671,-0.513,0.003154,0.910545,-262.131109,1.049379,71.727984
12.6572,-0.002548,-0.002802,0.003149,0.0,0.0,0.0,-0.000735,-0.512963,0.003116,0.910545,-262.131109,1.049379,71.727984
12.6775,-0.002343,-0.003033,0.002888,0.0,0.0,0.0,-0.000942,-0.5128,0.003149,0.910545,-262.131109,1.049379,71.727984
12.6974,-0.002063,-0.002936,0.000999,0.0,0.0,0.0,-0.000877,-0.51301,0.002911,0.910545,-262.131109,1.049379,71.727984
12.7172,-0.00242,-0.002966,0.004559,0.0,0.0,0.0,-0.000877,-0.51301,0.002911,0.910545,-262.131109,1.049379,71.727984
12.7371,-0.002191,-0.003136,0.003119,0.0,0.0,0.0,-9.5e-05,-0.512961,0.004559,0.910545,-262.131109,1.049379,71.727984
12.7571,-0.002251,-0.003018,0.002184,0.0,0.0,0.0,-0.000303,-0.513032,0.003966,0.910545,-262.131109,1.049379,71.727984
12.777,-0.002153,-0.002764,0.002646,0.0,0.0,0.0,-0.001137,-0.513017,0.002184,0.910545,-262.131109,1.049379,71.727984
12.7972,-0.002391,-0.003024,0.002856,0.0,0.0,0.0,-0.000831,-0.512783,0.002608,0.910545,-262.131109,1.049379,71.727984
12.8173,-0.00233,-0.003193,0.003103,0.0,0.0,0.0,-0.000831,-0.512783,0.002608,0.910545,-262.131109,1.049379,71.727984
12.8372,-0.002163,-0.00291,0.001304,0.0,0.0,0.0,-0.000747,-0.513191,0.003103,0.910545,-262.131109,1.049379,71.727984
12.8571,-0.002312,-0.003132,0.002988,0.0,0.0,0.0,-0.001048,-0.513078,0.002381,0.910545,-262.131109,1.049379,71.727984
12.877,-0.002218,-0.003401,0.002664,0.0,0.0,0.0,-0.000788,-0.51313,0.002988,0.910545,-262.131109,1.049379,71.727984
12.8971,-0.001656,-0.003017,0.003827,0.0,0.0,0.0,-0.000853,-0.513374,0.002693,0.910545,-262.131109,1.049379,71.727984
12.9172,-0.002411,-0.003199,0.001664,0.0,0.0,0.0,-0.000853,-0.513374,0.002693,0.910545,-262.131109,1.049379,71.727984
12.9374,-0.002305,-0.002663,0.001978,0.0,0.0,0.0,-0.001562,-0.513198,0.001664,0.910545,-262.131109,1.049379,71.727984
12.9575,-0.002605,-0.002786,0.001236,0.0,0.0,0.0,-0.001455,-0.51298,0.001792,0.910545,-262.131109,1.049379,71.727984
12.9776,-0.002377,-0.003099,0.001767,0.0,0.0,0.0,-0.001974,-0.512785,0.001236,0.910545,-262.131109,1.049379,71.727984
12.9976,-0.002516,-0.002637,0.002311,0.0,0.0,0.0,-0.001518,-0.513072,0.001722,0.910545,-262.131109,1.049379,71.727984
13.0178,-0.002314,-0.00294,0.002522,0.0,0.0,0.0,-0.001518,-0.513072,0.001722,0.910545,-262.131109,1.049379,71.727984
13.0372,-0.002127,-0.002893,0.002395,0.0,0.0,0.0,-0.001028,-0.512938,0.002522,0.910545,-262.131109,1.049379,71.727984
13.0575,-0.002281,-0.002777,0.003383,0.0,0.0,0.0,-0.000976,-0.512918,0.002469,0.910545,-262.131109,1.049379,71.727984
13.0778,-0.002207,-0.003076,0.002533,0.0,0.0,0.0,-0.000555,-0.512774,0.003383,0.910545,-262.131109,1.049379,71.727984
13.0978,-0.002454,-0.002631,0.002387,0.0,0.0,0.0,-0.000889,-0.513053,0.002595,0.910545,-262.131109,1.049379,71.727984
13.1178,-0.002428,-0.003055,0.00241,0.0,0.0,0.0,-0.000889,-0.513053,0.002595,0.910545,-262.131109,1.049379,71.727984
13.1375,-0.002062,-0.003015,0.002564,0.0,0.0,0.0,-0.001199,-0.513054,0.00241,0.910545,-262.131109,1.049379,71.727984
13.1575,-0.002468,-0.003077,0.002699,0.0,0.0,0.0,-0.001018,-0.513037,0.002472,0.910545,-262.131109,1.049379,71.727984
13.177,-0.002342,-0.002606,0.002104,0.0,0.0,0.0,-0.001091,-0.513076,0.002699,0.910545,-262.131109,1.049379,71.727984
13.1977,-0.002163,-0.002969,0.003117,0.0,0.0,0.0,-0.001253,-0.512647,0.002157,0.910545,-262.131109,1.049379,71.727984
13.2176,-0.002517,-0.003173,0.000775,0.0,0.0,0.0,-0.001253,-0.512647,0.002157,0.910545,-262.131109,1.049379,71.727984
13.2377,-0.002314,-0.003396,0.002839,0.0,0.0,0.0,-0.002121,-0.513173,0.000775,0.910545,-262.131109,1.049379,71.727984
13.258,-0.002057,-0.002725,0.002247,0.0,0.0,0.0,-0.001585,-0.513267,0.001657,0.910545,-262.131109,1.049379,71.727984
13.2773,-0.002455,-0.002951,0.002009,0.0,0.0,0.0,-0.000911,-0.512724,0.002247,0.910545,-262.131109,1.049379,71.727984
13.2977,-0.00261,-0.002904,0.001493,0.0,0.0,0.0,-0.001385,-0.51293,0.00203,0.910545,-262.131109,1.049379,71.727984
13.3172,-0.002061,-0.003226,0.003063,0.0,0.0,0.0,-0.001385,-0.51293,0.00203,0.910545,-262.131109,1.049379,71.727984
13.3373,-0.002026,-0.002687,0.003601,0.0,0.0,0.0,-0.000499,-0.513223,0.003063,0.910545,-262.131109,1.049379,71.727984
13.3571,-0.002134,-0.002766,0.001373,0.0,0.0,0.0,-0.000365,-0.512988,0.003297,0.910545,-262.131109,1.049379,71.727984
13.3774,-0.002406,-0.003145,0.002322,0.0,0.0,0.0,-0.001434,-0.512765,0.001373,0.910545,-262.131109,1.049379,71.727984
13.3973,-0.002608,-0.003146,0.001604,0.0,0.0,0.0,-0.001239,-0.513112,0.002243,0.910545,-262.131109,1.049379,71.727984
13.4175,-0.002349,-0.002527,0.001443,0.0,0.0,0.0,-0.001239,-0.513112,0.002243,0.910545,-262.131109,1.049379,71.727984
13.4374,-0.002413,-0.003123,0.001921,0.0,0.0,0.0,-0.001614,-0.512526,0.001443,0.910545,-262.131109,1.049379,71.727984
13.4575,-0.002475,-0.003172,0.002942,0.0,0.0,0.0,-0.001534,-0.51279,0.001655,0.910545,-262.131109,1.049379,71.727984
13.4771,-0.002297,-0.003259,0.002544,0.0,0.0,0.0,-0.000974,-0.51317,0.002942,0.910545,-262.131109,1.049379,71.727984
13.4971,-0.002399,-0.003068,0.00294,0.0,0.0,0.0,-0.000997,-0.51325,0.00258,0.910545,-262.131109,1.049379,71.727984
13.5173,-0.002523,-0.003219,0.003616,0.0,0.0,0.0,-0.000997,-0.51325,0.00258,0.910545,-262.131109,1.049379,71.727984
13.5372,-0.002444,-0.002735,0.000123,0.0,0.0,0.0,-0.000679,-0.513215,0.003616,0.910545,-262.131109,1.049379,71.727984
13.5572,-0.002361,-0.002936,0.003932,0.0,0.0,0.0,-0.001376,-0.513018,0.002185,0.910545,-262.131109,1.049379,71.727984
13.577,-0.002094,-0.002771,0.002288,0.0,0.0,0.0,-0.000355,-0.512932,0.003932,0.910545,-262.131109,1.049379,71.727984
13.5974,-0.002381,-0.002779,0.001179,0.0,0.0,0.0,-0.000887,-0.512781,0.002402,0.910545,-262.131109,1.049379,71.727984
13.6173,-0.002311,-0.003112,0.001827,0.0,0.0,0.0,-0.000887,-0.512781,0.002402,0.910545,-262.131109,1.049379,71.727984
13.638,-0.002534,-0.002998,0.004074,0.0,0.0,0.0,-0.001379,-0.513111,0.001827,0.910545,-262.131109,1.049379,71.727984
13.6576,-0.002316,-0.002847,0.00324,0.0,0.0,0.0,-0.001011,-0.513064,0.002725,0.910545,-262.131109,1.049379,71.727984
13.6776,-0.002723,-0.003178,0.002955,0.0,0.0,0.0,-0.000664,-0.512844,0.00324,0.910545,-262.131109,1.049379,71.727984
13.6972,-0.002155,-0.002721,0.003433,0.0,0.0,0.0,-0.001166,-0.513145,0.002981,0.910545,-262.131109,1.049379,71.727984
13.7173,-0.002708,-0.003115,0.001741,0.0,0.0,0.0,-0.001166,-0.513145,0.002981,0.910545,-262.131109,1.049379,71.727984
13.7375,-0.002293,-0.003071,0.000657,0.0,0.0,0.0,-0.00182,-0.513114,0.001741,0.910545,-262.131109,1.049379,71.727984
13.7575,-0.002174,-0.003252,0.001741,0.0,0.0,0.0,-0.001876,-0.513096,0.001297,0.910545,-262.131109,1.049379,71.727984
13.7777,-0.002802,-0.003199,0.003536,0.0,0.0,0.0,-0.001286,-0.513251,0.001741,0.910545,-262.131109,1.049379,71.727984
13.7974,-0.002037,-0.002998,0.001759,0.0,0.0,0.0,-0.001024,-0.513201,0.003375,0.910545,-262.131109,1.049379,71.727984
13.8171,-0.002235,-0.002826,0.003003,0.0,0.0,0.0,-0.001024,-0.513201,0.003375,0.910545,-262.131109,1.049379,71.727984
13.8377,-0.00239,-0.002911,0.003112,0.0,0.0,0.0,-0.000703,-0.512824,0.003003,0.910545,-262.131109,1.049379,71.727984
13.8578,-0.002238,-0.002807,0.002826,0.0,0.0,0.0,-0.000744,-0.512859,0.003048,0.910545,-262.131109,1.049379,71.727984
13.8772,-0.002278,-0.002772,0.00196,0.0,0.0,0.0,-0.000797,-0.512805,0.002826,0.910545,-262.131109,1.049379,71.727984
13.8973,-0.002338,-0.002811,0.00242,0.0,0.0,0.0,-0.001238,-0.512774,0.002032,0.910545,-262.131109,1.049379,71.727984
13.9176,-0.002393,-0.002966,0.001221,0.0,0.0,0.0,-0.001238,-0.512774,0.002032,0.910545,-262.131109,1.049379,71.727984
13.9375,-0.002142,-0.002904,0.002171,0.0,0.0,0.0,-0.001771,-0.512965,0.001221,0.910545,-262.131109,1.049379,71.727984
13.9575,-0.002512,-0.002819,0.002545,0.0,0.0,0.0,-0.00147,-0.51294,0.001609,0.910545,-262.131109,1.049379,71.727984
13.9777,-0.00226,-0.00274,0.003921,0.0,0.0,0.0,-0.001214,-0.512817,0.002545,0.910545,-262.131109,1.049379,71.727984
13.9978,-0.002229,-0.003026,0.002957,0.0,0.0,0.0,-0.000346,-0.512743,0.003797,0.910545,-262.131109,1.049379,71.727984
14.0177,-0.001997,-0.003288,0.001527,0.0,0.0,0.0,-0.000346,-0.512743,0.003797,0.910545,-262.131109,1.049379,71.727984
14.0377,-0.002419,-0.003009,0.004039,0.0,0.0,0.0,-0.001218,-0.513287,0.001527,0.910545,-262.131109,1.049379,71.727984
14.0577,-0.002311,-0.003281,0.001453,0.0,0.0,0.0,-0.000862,-0.51317,0.002569,0.910545,-262.131109,1.049379,71.727984
14.0773,-0.002259,-0.003204,0.002891,0.0,0.0,0.0,-0.00157,-0.513281,0.001453,0.910545,-262.131109,1.049379,71.727984
14.0978,-0.002444,-0.003074,0.001852,0.0,0.0,0.0,-0.000848,-0.513209,0.002774,0.910545,-262.131109,1.049379,71.727984
14.1176,-0.002196,-0.002903,0.003311,0.0,0.0,0.0,-0.000848,-0.513209,0.002774,0.910545,-262.131109,1.049379,71.727984
14.1375,-0.002111,-0.002683,0.002822,0.0,0.0,0.0,-0.000508,-0.5129,0.003311,0.910545,-262.131109,1.049379,71.727984
14.1577,-0.002548,-0.003049,0.004006,0.0,0.0,0.0,-0.000575,-0.51281,0.00311,0.910545,-262.131109,1.049379,71.727984
14.1774,-0.002295,-0.003005,0.002862,0.0,0.0,0.0,-0.000505,-0.513045,0.004006,0.910545,-262.131109,1.049379,71.727984
14.1972,-0.002029,-0.002922,0.002098,0.0,0.0,0.0,-0.000806,-0.513007,0.002962,0.910545,-262.131109,1.049379,71.727984
14.2173,-0.002142,-0.003302,0.002678,0.0,0.0,0.0,-0.000806,-0.513007,0.002962,0.910545,-262.131109,1.049379,71.727984
14.2373,-0.002392,-0.002896,0.002459,0.0,0.0,0.0,-0.000776,-0.5133,0.002678,0.910545,-262.131109,1.049379,71.727984
14.2576,-0.002112,-0.002965,0.002801,0.0,0.0,0.0,-0.000923,-0.513135,0.002589,0.910545,-262.131109,1.049379,71.727984
14.2771,-0.001995,-0.002639,0.003137,0.0,0.0,0.0,-0.000684,-0.512963,0.002801,0.910545,-262.131109,1.049379,71.727984
14.2974,-0.002154,-0.00314,0.002355,0.0,0.0,0.0,-0.000421,-0.512666,0.003107,0.910545,-262.131109,1.049379,71.727984
14.3176,-0.002509,-0.002798,0.001969,0.0,0.0,0.0,-0.000421,-0.512666,0.003107,0.910545,-262.131109,1.049379,71.727984
14.3377,-0.002414,-0.003119,0.003011,0.0,0.0,0.0,-0.001505,-0.512797,0.001969,0.910545,-262.131109,1.049379,71.727984
14.3574,-0.0025,-0.002608,0.001713,0.0,0.0,0.0,-0.001243,-0.51293,0.002404,0.910545,-262.131109,1.049379,71.727984
14.3777,-0.002385,-0.00319,0.003282,0.0,0.0,0.0,-0.001626,-0.512608,0.001713,0.910545,-262.131109,1.049379,71.727984
14.3979,-0.002158,-0.003237,0.001457,0.0,0.0,0.0,-0.000787,-0.513139,0.003151,0.910545,-262.131109,1.049379,71.727984
14.4177,-0.002733,-0.003102,0.003065,0.0,0.0,0.0,-0.000787,-0.513139,0.003151,0.910545,-262.131109,1.049379,71.727984
14.4377,-0.00223,-0.002756,0.002034,0.0,0.0,0.0,-0.00117,-0.513099,0.003065,0.910545,-262.131109,1.049379,71.727984
14.4577,-0.002578,-0.003065,0.002019,0.0,0.0,0.0,-0.001179,-0.512959,0.002645,0.910545,-262.131109,1.049379,71.727984
14.4777,-0.002288,-0.003254,0.002568,0.0,0.0,0.0,-0.001548,-0.513064,0.002019,0.910545,-262.131109,1.049379,71.727984
14.4974,-0.002458,-0.002975,0.002984,0.0,0.0,0.0,-0.001028,-0.513236,0.00252,0.910545,-262.131109,1.049379,71.727984
14.5176,-0.00214,-0.002732,0.002458,0.0,0.0,0.0,-0.001028,-0.513236,0.00252,0.910545,-262.131109,1.049379,71.727984
14.5376,-0.001969,-0.002622,0.002055,0.0,0.0,0.0,-0.000886,-0.512731,0.002458,0.910545,-262.131109,1.049379,71.727984
14.5576,-0.002522,-0.002982,0.002221,0.0,0.0,0.0,-0.000901,-0.512685,0.002291,0.910545,-262.131109,1.049379,71.727984
14.5775,-0.002519,-0.002921,0.001823,0.0,0.0,0.0,-0.00139,-0.51298,0.002221,0.910545,-262.131109,1.049379,71.727984
14.5974,-0.002558,-0.003197,0.002351,0.0,0.0,0.0,-0.001572,-0.512925,0.001858,0.910545,-262.131109,1.049379,71.727984
14.6179,-0.002103,-0.002976,0.003132,0.0,0.0,0.0,-0.001572,-0.512925,0.001858,0.910545,-262.131109,1.049379,71.727984
14.6372,-0.002282,-0.002911,0.0037,0.0,0.0,0.0,-0.000506,-0.512974,0.003132,0.910545,-262.131109,1.049379,71.727984
14.6573,-0.002103,-0.003121,0.003326,0.0,0.0,0.0,-0.00046,-0.512947,0.003364,0.910545,-262.131109,1.049379,71.727984
14.6771,-0.002324,-0.003355,0.002629,0.0,0.0,0.0,-0.000407,-0.513118,0.003326,0.910545,-262.131109,1.049379,71.727984
14.6973,-0.00221,-0.00273,0.000543,0.0,0.0,0.0,-0.000927,-0.513331,0.002697,0.910545,-262.131109,1.049379,71.727984
14.7176,-0.002328,-0.002555,0.002652,0.0,0.0,0.0,-0.000927,-0.513331,0.002697,0.910545,-262.131109,1.049379,71.727984
14.7371,-0.001821,-0.003098,0.002493,0.0,0.0,0.0,-0.000975,-0.512553,0.002652,0.910545,-262.131109,1.049379,71.727984
14.7571,-0.002333,-0.003323,0.001654,0.0,0.0,0.0,-0.000802,-0.512774,0.002587,0.910545,-262.131109,1.049379,71.727984
14.7769,-0.002064,-0.002947,0.002915,0.0,0.0,0.0,-0.001489,-0.513322,0.001654,0.910545,-262.131109,1.049379,71.727984
14.797,-0.00246,-0.002892,0.001905,0.0,0.0,0.0,-0.000659,-0.512979,0.002802,0.910545,-262.131109,1.049379,71.727984
14.8171,-0.002537,-0.002925,0.000666,0.0,0.0,0.0,-0.000659,-0.512979,0.002802,0.910545,-262.131109,1.049379,71.727984
14.837,-0.002343,-0.00283,0.002509,0.0,0.0,0.0,-0.002197,-0.512925,0.000666,0.910545,-262.131109,1.049379,71.727984
14.8572,-0.002276,-0.002921,0.001533,0.0,0.0,0.0,-0.001735,-0.512885,0.001418,0.910545,-262.131109,1.049379,71.727984
14.877,-0.002137,-0.002871,0.002076,0.0,0.0,0.0,-0.001494,-0.512921,0.001533,0.910545,-262.131109,1.049379,71.727984
14.8972,-0.002198,-0.002937,0.001413,0.0,0.0,0.0,-0.001116,-0.512874,0.002026,0.910545,-262.131109,1.049379,71.727984
