mach0312/omni-docking-bench/src/icros_test_setup/results/MPPI_sample/timeseries/trial_006.csv
t,x,y,yaw,vx,vy,wz,bl_x,bl_y,bl_yaw,front_steering_joint,front_wheel_joint,rear_steering_joint,rear_wheel_joint
0.0,0.067778,-0.001466,-0.055353,0.013534,0.00036,-0.040893,0.038928,-0.510566,-0.049839,-1.068091,-263.937075,1.080184,62.569066
0.0005,0.069007,-0.001885,-0.057109,0.011397,0.000304,-0.034436,0.038928,-0.510566,-0.049839,-1.068091,-263.925833,1.080184,62.580561
0.0008,0.068864,-0.001595,-0.057973,0.01082,0.000288,-0.032695,0.038928,-0.510566,-0.049839,-1.068091,-263.914659,1.080184,62.591987
0.0012,0.070462,-0.001723,-0.059959,0.010176,0.000271,-0.030748,0.038663,-0.510743,-0.052149,-1.068091,-263.904106,1.080184,62.602779
0.0015,0.070781,-0.001702,-0.058144,0.009464,0.000252,-0.028596,0.038791,-0.510794,-0.052513,-1.068091,-263.894236,1.080184,62.612871
0.0018,0.070735,-0.001516,-0.05798,0.00868,0.000231,-0.026226,0.038791,-0.510794,-0.052513,-1.068091,-263.885774,1.080184,62.621525
0.0021,0.072071,-0.001836,-0.060038,0.007831,0.000209,-0.023662,0.038934,-0.510395,-0.054789,-1.068091,-263.878567,1.080184,62.628894
0.0025,0.07196,-0.001678,-0.058905,0.006919,0.000184,-0.020906,0.038934,-0.510395,-0.054789,-1.068091,-263.878567,1.080184,62.628894
0.0027,0.072944,-0.00182,-0.062407,0.005936,0.000158,-0.017937,0.038893,-0.510684,-0.055746,-1.068091,-263.878567,1.080184,62.628894
0.003,0.072909,-0.002196,-0.061769,0.004885,0.00013,-0.014761,0.038893,-0.510684,-0.055746,-1.068091,-263.878567,1.080184,62.628894
0.017,0.07323,-0.001392,-0.060723,0.0,0.0,0.0,0.041242,-0.510826,-0.06222,-1.068091,-263.878567,1.080184,62.628894
0.0373,0.073716,-0.001784,-0.061548,0.0,0.0,0.0,0.042529,-0.510461,-0.061473,-1.068091,-263.873647,1.080184,62.633926
0.0572,0.073845,-0.001837,-0.061506,0.0,0.0,0.0,0.042483,-0.510607,-0.06159,-1.068091,-263.873647,1.080184,62.633926
0.0765,0.073658,-0.001558,-0.062182,0.0,0.0,0.0,0.042497,-0.510872,-0.061506,-1.068091,-263.873647,1.080184,62.633926
0.0971,0.074111,-0.001898,-0.062764,0.0,0.0,0.0,0.04201,-0.510598,-0.062125,-1.068091,-263.873647,1.080184,62.633926
0.1173,0.073795,-0.001768,-0.062834,-0.006166,-0.000131,-0.005354,0.04201,-0.510598,-0.062125,-1.068091,-263.873647,1.080184,62.633926
0.1368,0.073419,-0.00185,-0.060985,-0.006701,-0.00013,-0.005143,0.041771,-0.510762,-0.062834,-1.068091,-263.873647,1.080184,62.633926
0.157,0.073615,-0.002001,-0.061972,-0.007151,-0.000124,-0.004187,0.042,-0.510819,-0.062085,-1.068091,-263.873647,1.080184,62.633926
0.1772,0.073709,-0.001436,-0.06146,-0.007534,-0.000119,-0.003531,0.04203,-0.511022,-0.061972,-0.993235,-263.873647,1.005328,62.633926
0.1974,0.073877,-0.001531,-0.062872,-0.007859,-0.000123,-0.002377,0.042352,-0.510522,-0.061506,-0.993235,-263.873647,1.005328,62.633926
0.2168,0.073996,-0.001856,-0.063213,-0.008138,-0.000129,-0.001543,0.042352,-0.510522,-0.061506,-0.993235,-263.873647,1.005328,62.633926
0.2374,0.073819,-0.001654,-0.061957,-0.008377,-0.000136,-0.000954,0.041779,-0.510837,-0.063213,-0.918232,-263.873647,0.930324,62.633926
0.2569,0.073974,-0.001625,-0.061238,-0.00858,-0.00014,7.5e-05,0.041967,-0.510771,-0.062701,-0.918232,-263.873647,0.930324,62.633926
0.2769,0.0737,-0.001575,-0.062648,-0.008756,-0.000147,0.00084,0.042763,-0.510669,-0.061238,-0.843234,-263.873647,0.855327,62.633926
0.297,0.073517,-0.00185,-0.061792,-0.008907,-0.000161,0.00188,0.04186,-0.510583,-0.06252,-0.843234,-263.873647,0.855327,62.633926
0.3172,0.073828,-0.002062,-0.061705,-0.009039,-0.000176,0.002677,0.04186,-0.510583,-0.06252,-0.843234,-263.873647,0.855327,62.633926
0.3375,0.073789,-0.001968,-0.062953,-0.009155,-0.000192,0.003283,0.042378,-0.511091,-0.061705,-0.768236,-263.873647,0.780329,62.633926
0.3575,0.073968,-0.001741,-0.062801,-0.009256,-0.000197,0.004121,0.042105,-0.511037,-0.062211,-0.768236,-263.873647,0.780329,62.633926
0.3765,0.073829,-0.001766,-0.062811,-0.009345,-0.000205,0.004778,0.041961,-0.510735,-0.062801,-0.693225,-263.873647,0.705318,62.633925
0.3966,0.073505,-0.001651,-0.062443,-0.009424,-0.000223,0.005548,0.041829,-0.510758,-0.06281,-0.693225,-263.873647,0.705318,62.633925
0.4166,0.073709,-0.001402,-0.062174,-0.009494,-0.000241,0.006168,0.041829,-0.510758,-0.06281,-0.693225,-263.873647,0.705318,62.633925
0.437,0.074089,-0.001712,-0.0618,-0.009556,-0.000259,0.006665,0.042019,-0.510416,-0.062171,-0.61816,-263.873669,0.630253,62.633903
0.4576,0.073765,-0.002203,-0.06343,-0.009611,-0.000281,0.007242,0.042252,-0.510548,-0.06202,-0.61816,-263.873669,0.630253,62.633903
0.4771,0.073718,-0.001747,-0.061569,-0.009661,-0.000302,0.007709,0.04138,-0.511175,-0.063373,-0.543229,-263.874503,0.555322,62.633053
0.4972,0.073583,-0.001969,-0.062518,-0.009705,-0.000315,0.008224,0.042245,-0.510817,-0.061734,-0.543229,-263.874503,0.555322,62.633053
0.5172,0.073736,-0.001398,-0.061879,-0.009745,-0.000329,0.008646,0.042245,-0.510817,-0.061734,-0.543229,-263.874503,0.555322,62.633053
0.5371,0.073433,-0.001749,-0.061473,-0.009782,-0.000341,0.008991,0.041905,-0.510408,-0.061632,-0.468226,-263.877625,0.480319,62.629853
0.557,0.073058,-0.001583,-0.060902,-0.009814,-0.00036,0.009342,0.041951,-0.510562,-0.061538,-0.468226,-263.877625,0.480319,62.629853
0.5765,0.07247,-0.001818,-0.06176,-0.009844,-0.000377,0.00963,0.041722,-0.51063,-0.060632,-0.484601,-263.881801,0.53769,62.62555
0.5967,0.072259,-0.001579,-0.06362,-0.009871,-0.000385,0.009931,0.041042,-0.510827,-0.061648,-0.484601,-263.881801,0.53769,62.62555
0.6168,0.072883,-0.001948,-0.061741,-0.009896,-0.000394,0.01018,0.041042,-0.510827,-0.061648,-0.484601,-263.881801,0.53769,62.62555
0.6366,0.071392,-0.001606,-0.060512,-0.009918,-0.000402,0.010385,0.041013,-0.510967,-0.061347,-0.50986,-263.886208,0.566256,62.620993
0.6566,0.071653,-0.001327,-0.059937,-0.009938,-0.000409,0.010588,0.040779,-0.510847,-0.060963,-0.50986,-263.886208,0.566256,62.620993
0.6766,0.070578,-0.001486,-0.059867,-0.009956,-0.000415,0.010756,0.040797,-0.510406,-0.059616,-0.539657,-263.890698,0.597218,62.616335
0.6966,0.071028,-0.001694,-0.060242,-0.009972,-0.000427,0.01093,0.040116,-0.510556,-0.059827,-0.539657,-263.890698,0.597218,62.616335
0.7168,0.07115,-0.001382,-0.060431,-0.009987,-0.000438,0.011073,0.040116,-0.510556,-0.059827,-0.539657,-263.890698,0.597218,62.616335
0.7368,0.070553,-0.001456,-0.060535,-0.010001,-0.000448,0.011192,0.039935,-0.510444,-0.059984,-0.553647,-263.895356,0.611766,62.611495
0.7568,0.069878,-0.001661,-0.059212,-0.010013,-0.000459,0.011325,0.03979,-0.510475,-0.060158,-0.553647,-263.895356,0.611766,62.611495
0.7767,0.06982,-0.00183,-0.058834,-0.010024,-0.000469,0.011437,0.039382,-0.510763,-0.058859,-0.568397,-263.900073,0.629466,62.606577
0.7969,0.069493,-0.001558,-0.05898,-0.010034,-0.000464,0.011564,0.039781,-0.510932,-0.05882,-0.568397,-263.900073,0.629466,62.606577
0.817,0.069192,-0.00163,-0.058782,-0.010044,-0.000461,0.011669,0.039781,-0.510932,-0.05882,-0.568397,-263.900073,0.629466,62.606577
0.8371,0.068491,-0.001278,-0.059905,-0.010053,-0.000459,0.011757,0.038812,-0.510745,-0.058306,-0.57642,-263.904825,0.639404,62.601612
0.8571,0.068384,-0.00158,-0.056543,-0.010061,-0.000465,0.011861,0.038423,-0.510592,-0.058889,-0.57642,-263.904825,0.639404,62.601612
0.877,0.068138,-0.00143,-0.057904,-0.010068,-0.000471,0.011948,0.039244,-0.510762,-0.056169,-0.589395,-263.909641,0.64981,62.596584
0.897,0.067679,-0.001692,-0.05695,-0.010075,-0.000476,0.012052,0.038667,-0.510594,-0.05771,-0.589395,-263.909641,0.64981,62.596584
0.9168,0.067882,-0.001613,-0.056789,-0.010082,-0.00048,0.012138,0.038667,-0.510594,-0.05771,-0.589395,-263.909641,0.64981,62.596584
0.9368,0.067312,-0.001626,-0.054925,-0.010088,-0.000484,0.01221,0.038513,-0.510787,-0.056288,-0.595789,-263.914499,0.657192,62.591504
0.9569,0.0672,-0.001634,-0.057556,-0.010094,-0.000479,0.012299,0.03879,-0.510814,-0.055678,-0.595789,-263.914499,0.657192,62.591504
0.9767,0.066169,-0.001202,-0.056259,-0.0101,-0.000476,0.012373,0.037542,-0.510786,-0.057168,-0.604812,-263.9194,0.666853,62.586373
0.9968,0.066135,-0.001389,-0.056953,-0.010105,-0.000484,0.012457,0.03748,-0.510428,-0.056317,-0.604812,-263.9194,0.666853,62.586373
1.017,0.066426,-0.001461,-0.057636,-0.01011,-0.000491,0.012527,0.03748,-0.510428,-0.056317,-0.604812,-263.9194,0.666853,62.586373
1.0377,0.065304,-0.001744,-0.055685,-0.010114,-0.000498,0.012586,0.036625,-0.51061,-0.057119,-0.611448,-263.924319,0.671898,62.581227
1.0573,0.065149,-0.001627,-0.056522,-0.010119,-0.000494,0.01265,0.036696,-0.510749,-0.056478,-0.611448,-263.924319,0.671898,62.581227
1.077,0.06497,-0.001398,-0.05461,-0.010123,-0.000491,0.012703,0.036015,-0.51081,-0.056122,-0.61793,-263.929283,0.680334,62.576023
1.0976,0.064755,-0.001577,-0.054768,-0.010127,-0.00049,0.012756,0.037015,-0.510653,-0.054727,-0.61793,-263.929283,0.680334,62.576023
1.1174,0.06471,-0.001458,-0.056179,-0.010131,-0.000489,0.012801,0.037015,-0.510653,-0.054727,-0.61793,-263.929283,0.680334,62.576023
1.1371,0.063868,-0.001439,-0.055448,-0.010134,-0.000489,0.012838,0.035649,-0.51065,-0.055647,-0.622665,-263.934256,0.683758,62.570811
1.1568,0.063612,-0.001401,-0.054189,-0.010137,-0.000488,0.012875,0.035583,-0.510652,-0.055506,-0.622665,-263.934256,0.683758,62.570811
1.1768,0.063,-0.001532,-0.055134,-0.01014,-0.000488,0.012907,0.035666,-0.510651,-0.053779,-0.627596,-263.939293,0.687956,62.565534
1.1967,0.062949,-0.001198,-0.054304,-0.010143,-0.000484,0.01294,0.034939,-0.510749,-0.055017,-0.627596,-263.939293,0.687956,62.565534
1.2169,0.062478,-0.001519,-0.055173,-0.010146,-0.000481,0.012967,0.034939,-0.510749,-0.055017,-0.627596,-263.939293,0.687956,62.565534
1.2367,0.061788,-0.001048,-0.053629,-0.010148,-0.000479,0.01299,0.033933,-0.51074,-0.054637,-0.630072,-263.94428,0.690124,62.560309
1.2573,0.061944,-0.001404,-0.052988,-0.010151,-0.000481,0.013014,0.034095,-0.510566,-0.054164,-0.630072,-263.94428,0.690124,62.560309
1.2767,0.061495,-0.001577,-0.053025,-0.010153,-0.000483,0.013034,0.034608,-0.510686,-0.052573,-0.633584,-263.949315,0.692151,62.555038
1.2971,0.061355,-0.001268,-0.054388,-0.010155,-0.000474,0.013056,0.034461,-0.510844,-0.052962,-0.633584,-263.949315,0.692151,62.555038
1.3169,0.061053,-0.001301,-0.052979,-0.010156,-0.000468,0.013074,0.034461,-0.510844,-0.052962,-0.633584,-263.949315,0.692151,62.555038
1.3366,0.060283,-0.00135,-0.052976,-0.010158,-0.000463,0.013089,0.03362,-0.510584,-0.052433,-0.634836,-263.954365,0.693715,62.54975
1.357,0.060699,-0.001205,-0.051741,-0.01016,-0.000464,0.013105,0.033431,-0.510604,-0.052592,-0.634836,-263.954365,0.693715,62.54975
1.3771,0.059844,-0.001222,-0.0521,-0.010161,-0.000466,0.013118,0.033999,-0.510521,-0.051325,-0.638002,-263.959416,0.694252,62.54447
1.3973,0.059341,-0.001484,-0.052586,-0.010162,-0.000469,0.013131,0.033332,-0.510529,-0.052009,-0.638002,-263.959416,0.694252,62.54447
1.4172,0.059716,-0.001619,-0.05199,-0.010164,-0.000471,0.013143,0.033332,-0.510529,-0.052009,-0.638002,-263.959416,0.694252,62.54447
1.4371,0.058796,-0.001008,-0.052152,-0.010165,-0.000473,0.013153,0.032787,-0.510927,-0.051441,-0.638758,-263.964488,0.695302,62.539167
1.4573,0.059031,-0.001048,-0.053033,-0.010166,-0.000469,0.013164,0.032501,-0.510676,-0.051669,-0.638758,-263.964488,0.695302,62.539167
1.4769,0.058116,-0.001007,-0.050952,-0.010167,-0.000466,0.013173,0.031673,-0.510329,-0.052614,-0.639453,-263.969553,0.696816,62.533868
1.497,0.057833,-0.001332,-0.050993,-0.010167,-0.000473,0.013182,0.032085,-0.510343,-0.051075,-0.639453,-263.969553,0.696816,62.533868
1.5169,0.058093,-0.001338,-0.048489,-0.010168,-0.000479,0.013189,0.032085,-0.510343,-0.051075,-0.639453,-263.969553,0.696816,62.533868
1.5369,0.05718,-0.001299,-0.050449,-0.010169,-0.000485,0.013196,0.032948,-0.510738,-0.047938,-0.640632,-263.974627,0.697018,62.528562
1.5569,0.057124,-0.001443,-0.049486,-0.010169,-0.000475,0.013204,0.032285,-0.510702,-0.048911,-0.640632,-263.974627,0.697018,62.528562
1.5771,0.056146,-0.000975,-0.049836,-0.01017,-0.000467,0.013212,0.031573,-0.510818,-0.049066,-0.640234,-263.979697,0.698792,62.523251
1.5969,0.056386,-0.001117,-0.047892,-0.01017,-0.00047,0.013217,0.030796,-0.510383,-0.049749,-0.640234,-263.979697,0.698792,62.523251
1.6172,0.05682,-0.001389,-0.048018,-0.010171,-0.000473,0.013222,0.030796,-0.510383,-0.049749,-0.640234,-263.979697,0.698792,62.523251
1.6366,0.055252,-0.001162,-0.049159,-0.010171,-0.000476,0.013227,0.031915,-0.510801,-0.047465,-0.641918,-263.984768,0.698245,62.517949
1.6571,0.055273,-0.00102,-0.04881,-0.010172,-0.000466,0.013233,0.031167,-0.510697,-0.048089,-0.641918,-263.984768,0.698245,62.517949
1.6772,0.054333,-0.001123,-0.049499,-0.010172,-0.000457,0.013238,0.030064,-0.510412,-0.048388,-0.641855,-263.989845,0.699239,62.512635
1.6973,0.054389,-0.001516,-0.049141,-0.010173,-0.000457,0.013241,0.02917,-0.510491,-0.049376,-0.641855,-263.989845,0.699239,62.512635
1.7172,0.054432,-0.001185,-0.046965,-0.010173,-0.000456,0.013245,0.02917,-0.510491,-0.049376,-0.641855,-263.989845,0.699239,62.512635
1.7371,0.053614,-0.001176,-0.046595,-0.010173,-0.000456,0.013247,0.030062,-0.510622,-0.046411,-0.643415,-263.994933,0.698497,62.50732
1.7573,0.053716,-0.000942,-0.048047,-0.010173,-0.000448,0.013251,0.02993,-0.510622,-0.046422,-0.643415,-263.994933,0.698497,62.50732
1.7766,0.052934,-0.001398,-0.046642,-0.010174,-0.000442,0.013254,0.028896,-0.510352,-0.047624,-0.643825,-264.000021,0.698724,62.502005
1.7971,0.052761,-0.001542,-0.047201,-0.010174,-0.00043,0.013258,0.029115,-0.510799,-0.046709,-0.643825,-264.000021,0.698724,62.502005
1.8169,0.053166,-0.001284,-0.047125,-0.010174,-0.000419,0.013261,0.029115,-0.510799,-0.046709,-0.643825,-264.000021,0.698724,62.502005
1.8366,0.052119,-0.001405,-0.045989,-0.010175,-0.000411,0.013263,0.028716,-0.510717,-0.04657,-0.644915,-264.005116,0.69815,62.496689
1.8575,0.052286,-0.001197,-0.045864,-0.010175,-0.000403,0.013265,0.028649,-0.510777,-0.046268,-0.644915,-264.005116,0.69815,62.496689
1.8769,0.050983,-0.001133,-0.044405,-0.010175,-0.000397,0.013267,0.028579,-0.510659,-0.045442,-0.647181,-264.010221,0.69661,62.49138
1.897,0.051498,-0.001292,-0.045637,-0.010175,-0.000395,0.013268,0.028348,-0.510633,-0.044473,-0.647181,-264.010221,0.69661,62.49138
1.9169,0.051101,-0.001325,-0.045629,-0.010176,-0.000393,0.013269,0.028348,-0.510633,-0.044473,-0.647181,-264.010221,0.69661,62.49138
1.937,0.050036,-0.000889,-0.045072,-0.010176,-0.000392,0.01327,0.027414,-0.510791,-0.045075,-0.648165,-264.015319,0.695923,62.486085
1.957,0.050443,-0.001076,-0.044754,-0.010176,-0.00039,0.013271,0.027219,-0.510619,-0.04501,-0.648165,-264.015319,0.695923,62.486085
1.977,0.04966,-0.001355,-0.045265,-0.010176,-0.000389,0.013272,0.027301,-0.510564,-0.044332,-0.648587,-264.020426,0.6957,62.480782
1.9972,0.049672,-0.001126,-0.04326,-0.010176,-0.000379,0.013273,0.026631,-0.510808,-0.045159,-0.648587,-264.020426,0.6957,62.480782
2.0169,0.04929,-0.000859,-0.04276,-0.010176,-0.000371,0.013274,0.026631,-0.510808,-0.045159,-0.648587,-264.020426,0.6957,62.480782
2.0366,0.048479,-0.00112,-0.0443,-0.010176,-0.000364,0.013275,0.027063,-0.510391,-0.042205,-0.648839,-264.025535,0.695564,62.47548
2.0566,0.048657,-0.001066,-0.042825,-0.010176,-0.000369,0.013275,0.026537,-0.510484,-0.042994,-0.648839,-264.025535,0.695564,62.47548
2.0766,0.047779,-0.001158,-0.041029,-0.010176,-0.000374,0.013275,0.026499,-0.510596,-0.042402,-0.650509,-264.03066,0.694276,62.470174
2.0971,0.047635,-0.001153,-0.043512,-0.010176,-0.000366,0.013276,0.026814,-0.510718,-0.041124,-0.650509,-264.03066,0.694276,62.470174
2.117,0.047642,-0.001235,-0.041387,-0.010176,-0.00036,0.013277,0.026814,-0.510718,-0.041124,-0.650509,-264.03066,0.694276,62.470174
2.137,0.046921,-0.001124,-0.041415,-0.010176,-0.000354,0.013278,0.026116,-0.510796,-0.040832,-0.649876,-264.035787,0.694804,62.464859
2.1568,0.046737,-0.00122,-0.042859,-0.010176,-0.000347,0.013278,0.025936,-0.51075,-0.041012,-0.649876,-264.035787,0.694804,62.464859
2.1772,0.046049,-0.001283,-0.041863,-0.010176,-0.000341,0.013279,0.024565,-0.510749,-0.042439,-0.651191,-264.04089,0.693787,62.45958
2.197,0.045857,-0.001076,-0.041813,-0.010175,-0.00033,0.013279,0.024678,-0.510829,-0.041891,-0.651191,-264.04089,0.693787,62.45958
2.2169,0.04607,-0.001084,-0.041419,-0.010175,-0.000322,0.01328,0.024678,-0.510829,-0.041891,-0.651191,-264.04089,0.693787,62.45958
2.2367,0.045423,-0.00134,-0.040918,-0.010175,-0.000315,0.01328,0.024528,-0.510643,-0.040865,-0.652095,-264.046,0.693045,62.454301
2.2567,0.045382,-0.000926,-0.040673,-0.010175,-0.000311,0.01328,0.024492,-0.510753,-0.040823,-0.652095,-264.046,0.693045,62.454301
2.2771,0.044183,-0.001307,-0.040614,-0.010175,-0.000308,0.01328,0.02432,-0.510501,-0.040249,-0.653771,-264.051127,0.691625,62.449017
2.2973,0.044502,-0.000696,-0.039659,-0.010174,-0.000298,0.01328,0.023535,-0.510851,-0.040559,-0.653771,-264.051127,0.691625,62.449017
2.3174,0.044537,-0.001205,-0.03955,-0.010174,-0.00029,0.01328,0.023535,-0.510851,-0.040559,-0.653771,-264.051127,0.691625,62.449017
2.3368,0.04342,-0.00113,-0.038913,-0.010174,-0.000283,0.01328,0.023946,-0.510802,-0.038994,-0.654217,-264.056265,0.691194,62.443725
2.3575,0.043578,-0.001029,-0.038975,-0.010174,-0.000279,0.01328,0.023745,-0.510778,-0.038896,-0.654217,-264.056265,0.691194,62.443725
2.377,0.042527,-0.000951,-0.039411,-0.010174,-0.000276,0.013279,0.023382,-0.510638,-0.038553,-0.655816,-264.061398,0.689797,62.438452
2.3973,0.042514,-0.001252,-0.039776,-0.010174,-0.000282,0.013278,0.022499,-0.510562,-0.039316,-0.655816,-264.061398,0.689797,62.438452
2.4171,0.042491,-0.001029,-0.038313,-0.010174,-0.000287,0.013277,0.022499,-0.510562,-0.039316,-0.655816,-264.061398,0.689797,62.438452
2.4366,0.041872,-0.000924,-0.038395,-0.010174,-0.00029,0.013276,0.022531,-0.51065,-0.037758,-0.656196,-264.066547,0.689401,62.433164
2.4571,0.041856,-0.001208,-0.037347,-0.010173,-0.00029,0.013276,0.022383,-0.510607,-0.03796,-0.656196,-264.066547,0.689401,62.433164
2.4768,0.040883,-0.001095,-0.036289,-0.010173,-0.000289,0.013275,0.022491,-0.510849,-0.036925,-0.655207,-264.071665,0.690127,62.427902
2.4968,0.041069,-0.001052,-0.03611,-0.010173,-0.000278,0.013276,0.022374,-0.510768,-0.036324,-0.655207,-264.071665,0.690127,62.427902
2.5169,0.040971,-0.000831,-0.036432,-0.010172,-0.00027,0.013277,0.022374,-0.510768,-0.036324,-0.655207,-264.071665,0.690127,62.427902
2.5367,0.039878,-0.001106,-0.036313,-0.010172,-0.000262,0.013277,0.021969,-0.510489,-0.035876,-0.65531,-264.076798,0.690038,62.422625
2.5569,0.039818,-0.000776,-0.036077,-0.010172,-0.000263,0.013276,0.021673,-0.510603,-0.03599,-0.65531,-264.076798,0.690038,62.422625
2.577,0.039319,-0.001354,-0.035721,-0.010172,-0.000263,0.013276,0.021099,-0.510441,-0.035654,-0.657056,-264.081936,0.688595,62.417356
2.597,0.039248,-0.000827,-0.036355,-0.01017,-0.000241,0.013277,0.021088,-0.510977,-0.035694,-0.657056,-264.081936,0.688595,62.417356
2.617,0.039333,-0.000752,-0.036029,-0.010169,-0.000223,0.013278,0.021088,-0.510977,-0.035694,-0.657056,-264.081936,0.688595,62.417356
2.6367,0.0379,-0.000954,-0.035231,-0.010169,-0.000208,0.013279,0.020536,-0.510417,-0.035473,-0.656985,-264.087101,0.688588,62.412059
2.6572,0.038489,-0.000836,-0.034973,-0.010169,-0.000219,0.013276,0.020233,-0.510509,-0.035307,-0.656985,-264.087101,0.688588,62.412059
2.677,0.037346,-0.000871,-0.034179,-0.010169,-0.000227,0.013274,0.020336,-0.51052,-0.034554,-0.66058,-264.092217,0.685628,62.40684
2.697,0.038005,-0.000996,-0.034746,-0.010169,-0.000229,0.013273,0.019939,-0.510568,-0.034191,-0.66058,-264.092217,0.685628,62.40684
2.7169,0.03775,-0.000788,-0.034227,-0.010168,-0.00023,0.013272,0.019939,-0.510568,-0.034191,-0.66058,-264.092217,0.685628,62.40684
2.737,0.036623,-0.000528,-0.031682,-0.010168,-0.000231,0.013271,0.019871,-0.510485,-0.03367,-0.659237,-264.097363,0.686576,62.401581
2.7567,0.036999,-0.000747,-0.033521,-0.010168,-0.000241,0.01327,0.020065,-0.510398,-0.032799,-0.659237,-264.097363,0.686576,62.401581
2.777,0.035848,-0.000461,-0.033837,-0.010168,-0.000248,0.013269,0.019582,-0.510457,-0.033098,-0.659014,-264.102514,0.686706,62.396315
2.7972,0.035898,-0.0006,-0.032688,-0.010168,-0.000265,0.013266,0.018664,-0.510194,-0.033752,-0.659014,-264.102514,0.686706,62.396315
2.8173,0.035863,-0.001032,-0.034033,-0.010167,-0.000279,0.013265,0.018664,-0.510194,-0.033752,-0.659014,-264.102514,0.686706,62.396315
2.8368,0.034991,-0.000866,-0.031487,-0.010166,-0.00029,0.013263,0.018083,-0.510733,-0.033477,-0.65779,-264.107647,0.687663,62.391059
2.8571,0.035163,-0.000782,-0.031965,-0.010165,-0.000266,0.013266,0.018377,-0.510684,-0.032613,-0.65779,-264.107647,0.687663,62.391059
2.8769,0.034049,-0.000727,-0.032244,-0.010163,-0.000247,0.013267,0.018539,-0.510521,-0.031542,-0.655097,-264.112774,0.689994,62.385787
2.8971,0.034123,-0.000861,-0.032359,-0.010163,-0.000242,0.013267,0.017676,-0.510467,-0.032158,-0.655097,-264.112774,0.689994,62.385787
2.9181,0.034177,-0.000712,-0.031268,-0.010162,-0.000238,0.013266,0.017676,-0.510467,-0.032158,-0.655097,-264.112774,0.689994,62.385787
2.937,0.033346,-0.001176,-0.03251,-0.010161,-0.000235,0.013266,0.017808,-0.51046,-0.030713,-0.658043,-264.117911,0.687762,62.380526
2.9571,0.033477,-0.001131,-0.030386,-0.01016,-0.000218,0.013266,0.017336,-0.510641,-0.03138,-0.658043,-264.117911,0.687762,62.380526
2.9767,0.032165,-0.000915,-0.029273,-0.010159,-0.000204,0.013267,0.017659,-0.510893,-0.029962,-0.658849,-264.123057,0.687089,62.375263
2.9971,0.032358,-0.000727,-0.029605,-0.010157,-0.000186,0.013267,0.017259,-0.510713,-0.029312,-0.658849,-264.123057,0.687089,62.375263
3.0168,0.032161,-0.001047,-0.030364,-0.010156,-0.00017,0.013268,0.017259,-0.510713,-0.029312,-0.658849,-264.123057,0.687089,62.375263
3.037,0.031539,-0.00088,-0.029348,-0.010156,-0.000157,0.013268,0.016253,-0.510807,-0.02981,-0.66086,-264.128198,0.68546,62.37002
3.0576,0.031452,-0.001142,-0.030205,-0.010154,-0.00014,0.013267,0.016334,-0.510747,-0.029558,-0.66086,-264.128198,0.68546,62.37002
3.077,0.030604,-0.000678,-0.029669,-0.010152,-0.000126,0.013267,0.015726,-0.510905,-0.029781,-0.663918,-264.133362,0.682849,62.364777
3.0974,0.030979,-0.000923,-0.03057,-0.010151,-0.000129,0.013264,0.01548,-0.510492,-0.029658,-0.663918,-264.133362,0.682849,62.364777
3.1172,0.0307,-0.000783,-0.03004,-0.01015,-0.000132,0.013262,0.01548,-0.510492,-0.029658,-0.663918,-264.133362,0.682849,62.364777
3.1371,0.030039,-0.000799,-0.028195,-0.010149,-0.000134,0.01326,0.014957,-0.510546,-0.029485,-0.665962,-264.138519,0.681126,62.359559
3.157,0.029677,-0.000633,-0.028288,-0.010147,-0.000128,0.013259,0.015194,-0.510565,-0.028899,-0.665962,-264.138519,0.681126,62.359559
3.1765,0.029068,-0.000598,-0.029473,-0.010146,-0.000122,0.013258,0.014925,-0.510424,-0.02786,-0.665367,-264.143703,0.681519,62.354307
3.1973,0.029034,-0.00065,-0.026238,-0.010143,-0.000128,0.013255,0.014093,-0.51038,-0.029332,-0.665367,-264.143703,0.681519,62.354307
3.2175,0.029183,-0.000566,-0.02887,-0.010141,-0.000133,0.013253,0.014093,-0.51038,-0.029332,-0.665367,-264.143703,0.681519,62.354307
3.2369,0.028054,-0.000709,-0.029193,-0.010139,-0.000137,0.013251,0.014038,-0.510347,-0.028317,-0.666152,-264.14884,0.680901,62.349109
3.2567,0.028105,-0.0004,-0.026069,-0.010136,-0.000135,0.01325,0.013637,-0.510405,-0.028608,-0.666152,-264.14884,0.680901,62.349109
3.2768,0.027701,-0.000678,-0.02747,-0.010134,-0.000133,0.013248,0.014488,-0.510223,-0.025646,-0.665322,-264.153996,0.681832,62.343885
3.297,0.027262,-0.00073,-0.026417,-0.010132,-0.000125,0.013248,0.013749,-0.510462,-0.027283,-0.665322,-264.153996,0.681832,62.343885
3.3169,0.02753,-0.001022,-0.025295,-0.010131,-0.000119,0.013247,0.013749,-0.510462,-0.027283,-0.665322,-264.153996,0.681832,62.343885
3.3367,0.026768,-0.000887,-0.028467,-0.010129,-0.000113,0.013247,0.014206,-0.510854,-0.02474,-0.665747,-264.15915,0.681732,62.338664
3.3572,0.026668,-0.00054,-0.025909,-0.010125,-7.6e-05,0.01325,0.013365,-0.510783,-0.026187,-0.665747,-264.15915,0.681732,62.338664
3.3765,0.025741,-0.0005,-0.023199,-0.010121,-4.5e-05,0.013251,0.013129,-0.510364,-0.025483,-0.667099,-264.164307,0.680763,62.33345
3.3971,0.025566,-0.000564,-0.026646,-0.010122,-5.8e-05,0.013248,0.013823,-0.510363,-0.023386,-0.667099,-264.164307,0.680763,62.33345
3.4176,0.025874,-0.000348,-0.026655,-0.010123,-6.9e-05,0.013245,0.013823,-0.510363,-0.023386,-0.667099,-264.164307,0.680763,62.33345
3.4374,0.024688,-0.00094,-0.025031,-0.010124,-7.7e-05,0.013243,0.011858,-0.510157,-0.0261,-0.67177,-264.169476,0.67722,62.328259
3.4576,0.025248,-0.000439,-0.025169,-0.010116,-6.9e-05,0.013242,0.011836,-0.510408,-0.025604,-0.67177,-264.169476,0.67722,62.328259
3.4773,0.024224,-0.000654,-0.024091,-0.010111,-6.3e-05,0.013241,0.01209,-0.510272,-0.024746,-0.669446,-264.17464,0.678724,62.323057
3.4968,0.024016,-0.000718,-0.025998,-0.010106,-4.9e-05,0.01324,0.011936,-0.510484,-0.024129,-0.669446,-264.17464,0.678724,62.323057
3.5174,0.024257,-0.000741,-0.024538,-0.010102,-3.8e-05,0.013239,0.011936,-0.510484,-0.024129,-0.669446,-264.17464,0.678724,62.323057
3.5372,0.023172,-0.000735,-0.023268,-0.010098,-2.8e-05,0.013238,0.01132,-0.51058,-0.023984,-0.6708,-264.179803,0.678435,62.317862
3.5572,0.023356,-0.000857,-0.021929,-0.010091,-2e-06,0.013239,0.011266,-0.510586,-0.02363,-0.6708,-264.179803,0.678435,62.317862
3.5768,0.022141,-0.000303,-0.021964,-0.010084,1.9e-05,0.013238,0.011851,-0.510728,-0.021506,-0.673431,-264.18498,0.676839,62.312671
3.597,0.022073,-0.00079,-0.023443,-0.01008,-2e-06,0.013234,0.011002,-0.510226,-0.021904,-0.673431,-264.18498,0.676839,62.312671
3.6172,0.022486,-0.000611,-0.023517,-0.010076,-1.8e-05,0.01323,0.011002,-0.510226,-0.021904,-0.673431,-264.18498,0.676839,62.312671
3.6369,0.021472,-0.000672,-0.021506,-0.010073,-3.1e-05,0.013227,0.010073,-0.510459,-0.022965,-0.67694,-264.190167,0.674689,62.307494
3.6574,0.021411,-0.000653,-0.021083,-0.010061,-0.0,0.013229,0.010204,-0.510497,-0.022292,-0.67694,-264.190167,0.674689,62.307494
3.6768,0.020695,-0.000249,-0.021691,-0.010051,2.4e-05,0.013229,0.01034,-0.510534,-0.020664,-0.674067,-264.195299,0.677787,62.302346
3.6967,0.021091,-0.00093,-0.019969,-0.010039,6e-06,0.013225,0.009682,-0.510166,-0.021574,-0.674067,-264.195299,0.677787,62.302346
3.7168,0.02065,-0.000764,-0.020895,-0.01003,-9e-06,0.013222,0.009682,-0.510166,-0.021574,-0.674067,-264.195299,0.677787,62.302346
3.7368,0.019948,-0.000577,-0.020688,-0.010021,-2.1e-05,0.013219,0.009575,-0.510643,-0.020342,-0.67855,-264.200494,0.675637,62.297163
3.7569,0.019744,-0.000428,-0.020919,-0.010006,3.1e-05,0.013223,0.00945,-0.510568,-0.020424,-0.67855,-264.200494,0.675637,62.297163
3.7765,0.019085,-0.000583,-0.021328,-0.009994,7.3e-05,0.013225,0.00876,-0.51031,-0.020502,-0.676922,-264.205603,0.679409,62.292044
3.797,0.019001,-0.000664,-0.019349,-0.009958,0.000107,0.013228,0.008241,-0.510453,-0.021234,-0.676922,-264.205603,0.679409,62.292044
3.8174,0.018642,-5e-05,-0.020724,-0.009929,0.000134,0.013229,0.008241,-0.510453,-0.021234,-0.676922,-264.205603,0.679409,62.292044
3.8372,0.01818,-0.000532,-0.019494,-0.009906,0.000156,0.013229,0.007655,-0.509929,-0.020171,-0.684064,-264.210774,0.675279,62.28691
3.857,0.018017,-0.000637,-0.018933,-0.009877,0.000126,0.013225,0.007848,-0.510137,-0.019827,-0.684064,-264.210774,0.675279,62.28691
3.8771,0.016845,-0.000406,-0.018034,-0.009854,0.000102,0.013221,0.008049,-0.510535,-0.018515,-0.693574,-264.2159,0.674679,62.281862
3.8973,0.017558,-0.000406,-0.019078,-0.009824,0.000128,0.013223,0.007668,-0.510342,-0.018055,-0.693574,-264.2159,0.674679,62.281862
3.9171,0.017239,-0.000237,-0.01861,-0.0098,0.000148,0.013223,0.007668,-0.510342,-0.018055,-0.693574,-264.2159,0.674679,62.281862
3.9372,0.016696,-0.000795,-0.018103,-0.009781,0.000163,0.013222,0.007336,-0.510137,-0.018057,-0.692667,-264.221019,0.680227,62.276794
3.957,0.01636,-0.000366,-0.01884,-0.00975,0.000186,0.013224,0.007341,-0.510369,-0.018012,-0.692667,-264.221019,0.680227,62.276794
3.9766,0.015541,-0.00072,-0.01685,-0.009725,0.000204,0.013223,0.006442,-0.510264,-0.01842,-0.700031,-264.226139,0.680158,62.271758
3.9967,0.015564,-0.00071,-0.015424,-0.009674,0.000278,0.013232,0.006891,-0.510615,-0.016961,-0.700031,-264.226139,0.680158,62.271758
4.0172,0.015551,-0.000504,-0.016359,-0.009633,0.000335,0.013236,0.006891,-0.510615,-0.016961,-0.700031,-264.226139,0.680158,62.271758
4.0367,0.015015,-0.000103,-0.016955,-0.009601,0.00038,0.013237,0.006802,-0.51042,-0.015806,-0.705326,-264.231237,0.680454,62.266764
4.0569,0.014622,-0.000182,-0.015979,-0.009562,0.000348,0.013233,0.006579,-0.51026,-0.016209,-0.705326,-264.231237,0.680454,62.266764
4.0769,0.013905,-0.000493,-0.015898,-0.009531,0.000325,0.013228,0.006169,-0.510101,-0.01556,-0.722558,-264.236345,0.676236,62.261852
4.0968,0.014582,-0.000577,-0.017683,-0.009433,0.000352,0.013236,0.005814,-0.5104,-0.015849,-0.722558,-264.236345,0.676236,62.261852
4.1172,0.013669,-0.000336,-0.01846,-0.009357,0.000373,0.013239,0.005814,-0.5104,-0.015849,-0.722558,-264.236345,0.676236,62.261852
4.1378,0.012963,-6.1e-05,-0.013001,-0.009298,0.000389,0.013238,0.003857,-0.510228,-0.017907,-0.722637,-264.241411,0.682999,62.256953
4.1571,0.01326,-0.000192,-0.014755,-0.009114,0.000352,0.013248,0.004778,-0.510144,-0.015924,-0.722637,-264.241411,0.682999,62.256953
4.1768,0.012507,-0.000547,-0.01346,-0.008974,0.000325,0.013249,0.005441,-0.51012,-0.014335,-0.7391,-264.24644,0.69141,62.252129
4.1971,0.012493,-0.00067,-0.015677,-0.008974,0.000378,0.013196,0.005614,-0.510471,-0.013508,-0.7391,-264.24644,0.69141,62.252129
4.2171,0.012274,0.000262,-0.014555,-0.008975,0.00042,0.013153,0.005614,-0.510471,-0.013508,-0.7391,-264.24644,0.69141,62.252129
4.2367,0.011975,5e-06,-0.014329,-0.008975,0.000453,0.013119,0.004481,-0.509665,-0.014009,-0.753352,-264.251292,0.713372,62.247448
4.2571,0.011293,-0.000236,-0.016101,-0.008827,0.000298,0.013109,0.004514,-0.509776,-0.014075,-0.753352,-264.251292,0.713372,62.247448
4.2768,0.010974,-0.000153,-0.013762,-0.008716,0.000184,0.013099,0.002798,-0.510151,-0.015685,-0.756151,-264.256212,0.699981,62.242768
4.2971,0.010771,-0.000491,-0.015019,-0.008488,0.000207,0.013114,0.003841,-0.510107,-0.013908,-0.756151,-264.256212,0.699981,62.242768
4.317,0.010573,-0.000643,-0.013625,-0.00832,0.000225,0.013116,0.003841,-0.510107,-0.013908,-0.756151,-264.256212,0.699981,62.242768
4.3373,0.009946,-0.000296,-0.01283,-0.008195,0.000239,0.01311,0.003266,-0.510583,-0.013085,-0.753957,-264.260913,0.731023,62.238165
4.3574,0.009936,-0.000278,-0.012652,-0.007953,0.000378,0.013099,0.00328,-0.510449,-0.01292,-0.753957,-264.260913,0.731023,62.238165
4.3768,0.009499,-0.00044,-0.013497,-0.007777,0.000483,0.013078,0.00323,-0.510227,-0.012247,-0.7885,-264.26542,0.758597,62.233788
4.3971,0.009577,-5.5e-05,-0.014346,-0.007466,0.000551,0.013099,0.002658,-0.510378,-0.013364,-0.7885,-264.26542,0.758597,62.233788
4.4171,0.009475,-1.6e-05,-0.010497,-0.00724,0.000604,0.013099,0.002658,-0.510378,-0.013364,-0.7885,-264.26542,0.758597,62.233788
4.4368,0.008498,-0.00022,-0.012055,-0.007076,0.000647,0.013086,0.003804,-0.509965,-0.009963,-0.828068,-264.2699,0.767584,62.229577
4.4572,0.008798,-4e-06,-0.012214,-0.007115,0.000554,0.01283,0.00318,-0.510051,-0.010747,-0.828068,-264.2699,0.767584,62.229577
4.4767,0.008187,-7.7e-05,-0.011388,-0.007143,0.000487,0.012636,0.002358,-0.509944,-0.011824,-0.884543,-264.274056,0.804107,62.225782
4.4968,0.008179,-0.000139,-0.010027,-0.006921,0.000436,0.012595,0.002367,-0.510034,-0.011407,-0.884543,-264.274056,0.804107,62.225782
4.5171,0.008015,-0.000372,-0.010405,-0.006759,0.000401,0.012555,0.002367,-0.510034,-0.011407,-0.884543,-264.274056,0.804107,62.225782
4.5373,0.007469,-2.7e-05,-0.010845,-0.006641,0.000377,0.012519,0.002415,-0.510322,-0.009885,-0.854483,-264.278333,0.791495,62.221786
4.5569,0.007413,2.1e-05,-0.009832,-0.006495,0.000419,0.012367,0.002188,-0.510187,-0.010215,-0.854483,-264.278333,0.791495,62.221786
4.5767,0.006704,8.6e-05,-0.010597,-0.006389,0.000454,0.012247,0.002194,-0.509941,-0.009447,-0.879335,-264.282359,0.830523,62.217979
4.597,0.006643,-9.8e-05,-0.008203,-0.005997,0.000352,0.012224,0.001368,-0.509889,-0.010477,-0.879335,-264.282359,0.830523,62.217979
4.617,0.006915,-3.9e-05,-0.010485,-0.005711,0.00028,0.012194,0.001368,-0.509889,-0.010477,-0.879335,-264.282359,0.830523,62.217979
4.6369,0.006151,-3.6e-05,-0.008858,-0.005501,0.00023,0.012162,0.001301,-0.509989,-0.009974,-0.892853,-264.286421,0.832822,62.214193
4.6572,0.00628,-3.2e-05,-0.007185,-0.005369,0.000239,0.011985,0.001406,-0.509998,-0.009461,-0.892853,-264.286421,0.832822,62.214193
4.6769,0.005555,3e-06,-0.008022,-0.005272,0.000248,0.011848,0.002466,-0.510011,-0.006858,-0.947875,-264.289624,0.907768,62.211115
4.6969,0.005454,-0.000121,-0.008613,-0.005265,0.000249,0.011407,0.001542,-0.509982,-0.007907,-0.947875,-264.289624,0.907768,62.211115
4.717,0.005489,-0.000203,-0.007908,-0.00526,0.000252,0.011091,0.001542,-0.509982,-0.007907,-0.947875,-264.289624,0.907768,62.211115
4.7367,0.005094,-0.000223,-0.009177,-0.005254,0.000257,0.010866,0.001237,-0.510175,-0.007415,-0.957166,-264.293256,0.924468,62.207642
4.7568,0.005065,0.000268,-0.007861,-0.004968,0.000346,0.010803,0.000878,-0.510184,-0.008072,-0.957166,-264.293256,0.924468,62.207642
4.7768,0.004743,0.000242,-0.007078,-0.004757,0.000416,0.010751,0.000897,-0.509708,-0.007532,-0.919545,-264.296548,0.881784,62.204504
4.7967,0.004746,2.9e-05,-0.007464,-0.004709,0.000272,0.010422,0.001103,-0.509741,-0.007102,-0.919545,-264.296548,0.881784,62.204504
4.8168,0.004232,-8.6e-05,-0.007608,-0.004672,0.000167,0.010188,0.001103,-0.509741,-0.007102,-0.919545,-264.296548,0.881784,62.204504
4.837,0.004322,-0.000262,-0.008677,-0.004644,9.1e-05,0.010022,0.000164,-0.510053,-0.007183,-0.972747,-264.299734,0.912422,62.201571
4.8569,0.003977,3e-06,-0.006011,-0.004159,0.000187,0.010166,3.3e-05,-0.510129,-0.007745,-0.972747,-264.299734,0.912422,62.201571
4.8767,0.003379,0.000136,-0.005474,-0.003793,0.000265,0.010257,0.000768,-0.509984,-0.005702,-0.928837,-264.302742,0.914597,62.19862
4.8969,0.003546,-6.7e-05,-0.005901,-0.003774,0.000223,0.009602,0.000596,-0.509867,-0.005478,-0.928837,-264.302742,0.914597,62.19862
4.9176,0.003573,4.2e-05,-0.006176,-0.003756,0.000194,0.009146,0.000596,-0.509867,-0.005478,-0.928837,-264.302742,0.914597,62.19862
4.9368,0.003057,-0.000374,-0.00556,-0.003739,0.000174,0.008831,0.000307,-0.509942,-0.005879,-1.003868,-264.304867,0.989628,62.196622
4.9568,0.003034,-2.8e-05,-0.005296,-0.003579,0.000268,0.008728,0.000258,-0.510115,-0.005714,-1.003868,-264.304867,0.989628,62.196622
4.9766,0.002904,0.000165,-0.006356,-0.003458,0.000342,0.008652,0.000219,-0.510015,-0.005026,-0.979387,-264.307456,0.949104,62.194144
4.9973,0.002557,0.000164,-0.006245,-0.003139,0.000265,0.008771,-0.000297,-0.509841,-0.006231,-0.979387,-264.307456,0.949104,62.194144
5.0171,0.00318,3.8e-05,-0.006725,-0.002898,0.000211,0.008848,-0.000297,-0.509841,-0.006231,-0.979387,-264.307456,0.949104,62.194144
5.0375,0.002577,0.00024,-0.005407,-0.002715,0.000173,0.008897,-0.000391,-0.509936,-0.006371,-1.019625,-264.31002,0.960287,62.191802
5.0574,0.002484,0.000274,-0.004182,-0.002572,0.000155,0.008845,-0.000324,-0.509862,-0.005953,-1.019625,-264.31002,0.960287,62.191802
5.077,0.002198,0.000418,-0.00602,-0.002463,0.000144,0.008803,0.000291,-0.509717,-0.004005,-1.094477,-264.311609,1.035138,62.190291
5.0969,0.002048,-0.00017,-0.003543,-0.002229,1.6e-05,0.00874,-0.000765,-0.509586,-0.005819,-1.094477,-264.311609,1.035138,62.190291
5.1173,0.002124,0.000118,-0.006299,-0.00205,-7.8e-05,0.008689,-0.000765,-0.509586,-0.005819,-1.094477,-264.311609,1.035138,62.190291
5.1366,0.001785,1.5e-05,-0.004543,-0.001913,-0.000147,0.008647,-0.001175,-0.509865,-0.005998,-1.151139,-264.313593,1.110118,62.188393
5.1573,0.001651,0.000219,-0.0054,-0.001767,-6.9e-05,0.008499,-0.000922,-0.509911,-0.005368,-1.151139,-264.313593,1.110118,62.188393
5.1766,0.001431,4.9e-05,-0.004132,-0.001654,-9e-06,0.008389,-0.001151,-0.509775,-0.005198,-1.214083,-264.315214,1.185148,62.186691
5.1975,0.001591,-0.000568,-0.004349,-0.001643,5.3e-05,0.007889,-0.000722,-0.509931,-0.004218,-1.214083,-264.315214,1.185148,62.186691
5.2174,0.001826,0.000315,-0.004555,-0.00163,0.000102,0.007541,-0.000722,-0.509931,-0.004218,-1.214083,-264.315214,1.185148,62.186691
5.237,0.001085,0.000206,-0.00447,-0.001617,0.00014,0.007298,-0.000559,-0.509679,-0.004243,-1.257959,-264.317133,1.258961,62.184766
5.257,0.001166,0.000371,-0.003683,-0.001572,8.3e-05,0.007153,-0.000833,-0.509725,-0.004302,-1.257959,-264.317133,1.258961,62.184766
5.2769,0.000987,-0.000152,-0.003011,-0.001537,4.1e-05,0.007049,-0.000761,-0.509621,-0.003463,-1.232488,-264.318988,1.212323,62.183011
5.2974,0.001256,0.000131,-0.0029,-0.00162,0.000177,0.006473,-0.00057,-0.510102,-0.00304,-1.232488,-264.318988,1.212323,62.183011
5.3171,0.001328,0.000487,-0.004494,-0.001678,0.000281,0.006079,-0.00057,-0.510102,-0.00304,-1.232488,-264.318988,1.212323,62.183011
5.3373,0.001057,0.000401,-0.002675,-0.001718,0.00036,0.005809,-0.001028,-0.509506,-0.004199,-1.230971,-264.32083,1.224927,62.1812
5.3571,0.001041,-5e-06,-0.004973,-0.001686,0.000179,0.005808,-0.000739,-0.509543,-0.003539,-1.230971,-264.32083,1.224927,62.1812
5.3768,0.00084,2.8e-05,-0.001943,-0.00166,4.6e-05,0.005807,-0.001528,-0.509992,-0.004852,-1.156529,-264.321927,1.149803,62.180269
5.3969,0.000701,0.00015,-0.003445,-0.001841,0.00014,0.005201,-0.00027,-0.509973,-0.002185,-1.156529,-264.321927,1.149803,62.180269
5.4172,0.000949,0.00033,-0.001706,-0.001971,0.000211,0.004787,-0.00027,-0.509973,-0.002185,-1.156529,-264.321927,1.149803,62.180269
5.4371,0.000736,0.000544,-0.002458,-0.002065,0.000264,0.004503,1.1e-05,-0.509667,-0.001466,-1.137928,-264.323486,1.127968,62.178743
5.4571,0.000687,0.000127,-0.003661,-0.002165,0.000128,0.004115,-0.000212,-0.509581,-0.001842,-1.137928,-264.323486,1.127968,62.178743
5.4766,0.000532,-0.00033,-0.004399,-0.002236,2.8e-05,0.003849,-0.001193,-0.509868,-0.003625,-1.063062,-264.323824,1.053102,62.178444
5.4969,0.000309,0.000319,-0.003056,-0.001833,0.000192,0.00479,-0.001665,-0.510284,-0.004327,-1.063062,-264.323824,1.053102,62.178444
5.5174,0.000821,0.000233,-0.002534,-0.001523,0.000318,0.005456,-0.001665,-0.510284,-0.004327,-1.063062,-264.323824,1.053102,62.178444
5.5369,0.000524,0.000325,-0.003103,-0.001287,0.000415,0.005921,-0.000482,-0.509765,-0.002509,-0.988062,-264.324003,0.978102,62.178267
5.557,0.000284,0.000215,-0.003557,-0.001398,0.000304,0.005544,-0.000716,-0.509727,-0.002746,-0.988062,-264.324003,0.978102,62.178267
5.5771,0.000463,0.000503,-0.002531,-0.001477,0.000222,0.005282,-0.001539,-0.50978,-0.003532,-1.063058,-264.324249,1.053098,62.178067
5.5969,0.000787,-0.000281,-0.003442,-0.001472,7.4e-05,0.005048,-0.000894,-0.509522,-0.002621,-1.063058,-264.324249,1.053098,62.178067
5.6173,0.000346,-9.5e-05,-0.003166,-0.001465,-3.5e-05,0.004884,-0.000894,-0.509522,-0.002621,-1.063058,-264.324249,1.053098,62.178067
5.6369,0.0006,0.000162,-0.001025,-0.001458,-0.000117,0.004769,-0.001319,-0.510086,-0.002991,-1.138055,-264.325442,1.113838,62.177002
5.6569,0.000603,7.4e-05,-0.00296,-0.001504,1.9e-05,0.004507,-0.000762,-0.509985,-0.002178,-1.138055,-264.325442,1.113838,62.177002
5.6766,1.9e-05,0.000367,-0.001757,-0.001536,0.000121,0.004323,-0.000951,-0.509927,-0.002813,-1.090009,-264.326656,1.122156,62.175708
5.6969,0.000365,-7.9e-05,-0.002303,-0.001515,5.8e-05,0.004028,-0.000886,-0.509659,-0.001845,-1.090009,-264.326656,1.122156,62.175708
5.7168,0.000278,0.000416,-0.003089,-0.001498,1.2e-05,0.003821,-0.000886,-0.509659,-0.001845,-1.090009,-264.326656,1.122156,62.175708
5.7369,0.000225,4e-05,-0.002317,-0.001483,-2e-05,0.003677,-0.00135,-0.509578,-0.002935,-1.063023,-264.327724,1.047154,62.17471
5.7571,0.000353,2.7e-05,-0.001716,-0.001364,-1.9e-05,0.003976,-0.001197,-0.509732,-0.002667,-1.063023,-264.327724,1.047154,62.17471
5.7765,1.8e-05,0.00018,-0.001481,-0.001276,-1.8e-05,0.004181,-0.000563,-0.509972,-0.001615,-0.988025,-264.328642,0.991385,62.17378
5.7973,0.000189,4.9e-05,-0.001746,-0.001381,3.3e-05,0.003744,-0.000724,-0.509834,-0.001488,-0.988025,-264.328642,0.991385,62.17378
5.8171,-7.9e-05,-4.9e-05,-0.002224,-0.001457,7.1e-05,0.00344,-0.000724,-0.509834,-0.001488,-0.988025,-264.328642,0.991385,62.17378
5.837,-0.000557,0.000528,-0.002867,-0.001512,0.000101,0.003228,-0.00125,-0.510048,-0.002114,-1.063024,-264.329375,1.066384,62.173039
5.8567,-0.000583,0.000146,-0.002714,-0.001293,9.6e-05,0.003572,-0.001579,-0.509804,-0.002419,-1.063024,-264.329375,1.066384,62.173039
5.8765,-0.000241,7.5e-05,-0.001931,-0.001127,9.3e-05,0.003808,-0.001988,-0.509851,-0.002662,-0.98749,-264.329864,0.990851,62.172581
5.8968,-0.000441,0.000266,-0.001842,-0.001087,0.000142,0.003765,-0.001295,-0.509918,-0.001994,-0.98749,-264.329864,0.990851,62.172581
5.9168,-0.000647,0.000268,-0.001858,-0.001057,0.00018,0.003733,-0.001295,-0.509918,-0.001994,-0.98749,-264.329864,0.990851,62.172581
5.9367,-0.000419,0.000335,-0.000172,-0.001033,0.000209,0.003708,-0.001625,-0.50973,-0.001769,-1.06196,-264.330479,1.06532,62.172004
5.9569,-0.000567,4.1e-05,-0.002294,-0.001058,0.000144,0.00323,-0.001174,-0.509703,-0.00111,-1.06196,-264.330479,1.06532,62.172004
5.9765,-0.000445,0.000158,-0.001166,-0.001075,9.8e-05,0.002895,-0.001764,-0.509953,-0.002201,-1.136956,-264.33133,1.105289,62.171274
5.9966,-0.000813,4.1e-05,3.4e-05,-0.001107,0.000127,0.002737,-0.001106,-0.509851,-0.001254,-1.136956,-264.33133,1.105289,62.171274
6.0169,-0.000115,0.000294,-0.00154,-0.00113,0.000149,0.002626,-0.001106,-0.509851,-0.001254,-1.136956,-264.33133,1.105289,62.171274
6.0367,-0.000748,0.000168,-0.000744,-0.001145,0.000166,0.002547,-0.000933,-0.509703,-0.001449,-1.061949,-264.331963,1.030282,62.17069
6.0567,-0.000972,0.000309,-0.001608,-0.001187,0.000141,0.002425,-0.001015,-0.509755,-0.001153,-1.061949,-264.331963,1.030282,62.17069
6.0766,-0.000835,0.00041,-0.001797,-0.001217,0.000123,0.00234,-0.001814,-0.509688,-0.001555,-0.98695,-264.332489,0.955283,62.170232
6.097,-0.000605,1.6e-05,-0.001254,-0.001017,4.3e-05,0.002629,-0.001758,-0.509598,-0.001773,-0.98695,-264.332489,0.955283,62.170232
6.1171,-0.00092,0.000379,-0.001657,-0.000866,-1.7e-05,0.00283,-0.001758,-0.509598,-0.001773,-0.98695,-264.332489,0.955283,62.170232
6.1372,-0.000962,0.000446,-0.001553,-0.000752,-6.1e-05,0.00297,-0.001798,-0.509618,-0.001589,-0.911948,-264.333021,0.880282,62.169751
6.1572,-0.000407,0.000368,-0.001346,-0.000662,-9.8e-05,0.002968,-0.001784,-0.509591,-0.001567,-0.911948,-264.333021,0.880282,62.169751
6.1771,-0.001155,0.000271,-0.001082,-0.000593,-0.000125,0.002965,-0.001096,-0.509632,-0.00134,-0.987073,-264.333078,0.955407,62.16969
6.197,-0.000822,0.000145,-0.000792,-0.000578,-9.8e-05,0.002728,-0.001662,-0.509721,-0.001101,-0.987073,-264.333078,0.955407,62.16969
6.2172,-0.000723,-0.000166,-0.00071,-0.000565,-7.8e-05,0.00256,-0.001662,-0.509721,-0.001101,-0.987073,-264.333078,0.955407,62.16969
6.2371,-0.000696,0.00011,-0.000422,-0.000554,-6.1e-05,0.00244,-0.001088,-0.510166,-0.000701,-1.062457,-264.33313,1.03079,62.169632
6.2573,-0.000541,0.000368,-0.002189,-0.000756,9.8e-05,0.002056,-0.001016,-0.510053,-0.000586,-1.062457,-264.33313,1.03079,62.169632
6.277,-0.000753,0.000338,-0.000609,-0.000902,0.000216,0.001787,-0.001666,-0.509631,-0.00216,-1.136942,-264.333372,1.105276,62.169371
6.2972,-0.001271,2e-06,-0.001735,-0.000972,0.00014,0.001661,-0.001111,-0.509659,-0.000729,-1.136942,-264.333372,1.105276,62.169371
6.3173,-0.000592,8.3e-05,-0.003146,-0.001022,8.5e-05,0.001573,-0.001111,-0.509659,-0.000729,-1.136942,-264.333372,1.105276,62.169371
6.3368,-0.000744,0.000391,-0.001904,-0.001058,4.4e-05,0.001511,-0.0022,-0.509913,-0.003138,-1.061603,-264.333436,1.029937,62.169321
6.3569,-0.001355,0.000355,-0.001488,-0.000833,5.1e-05,0.002418,-0.001999,-0.509787,-0.002626,-1.061603,-264.333436,1.029937,62.169321
6.3769,-0.001051,0.000113,-0.001413,-0.000664,5.5e-05,0.003059,-0.002115,-0.509644,-0.001486,-0.986772,-264.333452,0.955106,62.169305
6.3969,-0.00078,3.2e-05,-0.001196,-0.000592,8.9e-05,0.002957,-0.001803,-0.509865,-0.001419,-0.986772,-264.333452,0.955106,62.169305
6.4172,-0.00087,-1.3e-05,0.001108,-0.000537,0.000115,0.002885,-0.001803,-0.509865,-0.001419,-0.986772,-264.333452,0.955106,62.169305
6.4368,-0.000967,0.000118,-0.003022,-0.000496,0.000135,0.002834,-0.00031,-0.510013,0.001122,-1.061611,-264.333547,1.029945,62.169215
6.4568,-0.000401,-2.6e-05,-0.001584,-0.000638,0.000198,0.002349,-0.001235,-0.509957,-0.00062,-1.061611,-264.333547,1.029945,62.169215
6.4765,-0.001047,0.000192,-0.00127,-0.00074,0.000245,0.002009,-0.001213,-0.510025,-0.001572,-1.13705,-264.333658,1.105384,62.169119
6.4967,-0.000859,0.000335,-0.001199,0.0,0.0,0.0,-0.001651,-0.509827,-0.001296,-1.13705,-264.333658,1.105384,62.169119
