mach0312/omni-docking-bench/src/icros_test_setup/results/MPPI_sample/timeseries/trial_065.csv
t,x,y,yaw,vx,vy,wz,bl_x,bl_y,bl_yaw,front_steering_joint,front_wheel_joint,rear_steering_joint,rear_wheel_joint
0.0,0.041497,-0.018872,0.359114,-0.002969,-0.001835,-0.05,0.22051,-0.495912,0.36491,-1.514231,-257.709371,1.506586,70.962977
0.0003,0.04156,-0.018773,0.359241,-0.003259,-0.001609,-0.05,0.22051,-0.495912,0.36491,-1.553185,-257.697,1.550536,70.973731
0.0006,0.042459,-0.018444,0.355813,-0.003352,-0.00168,-0.05,0.220362,-0.496042,0.363055,-1.583688,-257.684442,1.585359,70.984847
0.0008,0.042445,-0.018704,0.355855,-0.004304,-0.001686,-0.05,0.220362,-0.496042,0.363055,-1.619472,-257.672033,1.62629,70.995733
0.001,0.043602,-0.018228,0.35436,-0.0042,-0.001448,-0.05,0.220362,-0.496042,0.363055,-1.671825,-257.660296,1.682975,71.006308
0.0013,0.043701,-0.018292,0.355149,-0.005448,-0.001499,-0.05,0.220381,-0.496497,0.36175,-1.701362,-257.64774,1.714188,71.017748
0.0015,0.043675,-0.018093,0.353805,-0.00552,-0.0014,-0.05,0.220539,-0.496187,0.361409,-1.701362,-257.64774,1.714188,71.017748
0.0017,0.044485,-0.017594,0.351661,-0.005563,-0.001603,-0.05,0.220539,-0.496187,0.361409,-1.701362,-257.64774,1.714188,71.017748
0.0019,0.044627,-0.017984,0.352523,-0.006492,-0.001804,-0.05,0.220969,-0.49588,0.361641,-1.701362,-257.64774,1.714188,71.017748
0.0153,0.044459,-0.018041,0.352753,0.0,0.0,0.0,0.220708,-0.496668,0.352273,-1.741958,-257.645239,1.638998,71.019135
0.0357,0.044315,-0.017772,0.350278,0.0,0.0,0.0,0.220659,-0.496643,0.3527,-1.741958,-257.645239,1.638998,71.019135
0.0554,0.044739,-0.017875,0.351281,0.0,0.0,0.0,0.220659,-0.496643,0.3527,-1.741958,-257.645239,1.638998,71.019135
0.0754,0.044747,-0.017641,0.352411,0.0,0.0,0.0,0.220231,-0.496731,0.351281,-1.741958,-257.645239,1.638998,71.019135
0.0955,0.044549,-0.017892,0.351629,0.0,0.0,0.0,0.220461,-0.496549,0.351755,-1.741958,-257.645239,1.638998,71.019135
0.1153,0.044656,-0.017936,0.3514,-0.004835,0.000918,-0.014879,0.220207,-0.496687,0.351629,-1.741958,-257.645239,1.638998,71.019135
0.1355,0.044504,-0.017918,0.353331,-0.005275,0.001025,-0.013934,0.220204,-0.496763,0.35142,-1.741958,-257.645239,1.638998,71.019135
0.1555,0.044449,-0.01808,0.351284,-0.005646,0.00112,-0.013238,0.220204,-0.496763,0.35142,-1.741958,-257.645239,1.638998,71.019135
0.175,0.044685,-0.017959,0.351858,-0.005959,0.001204,-0.01273,0.219943,-0.496935,0.351284,-1.667288,-257.645239,1.564328,71.019135
0.1955,0.044618,-0.01827,0.351609,-0.006226,0.00128,-0.011784,0.220149,-0.496845,0.351517,-1.667288,-257.645239,1.564328,71.019135
0.2149,0.044768,-0.017941,0.351271,-0.006451,0.001348,-0.01106,0.220266,-0.497068,0.351609,-1.592296,-257.645239,1.489336,71.019135
0.235,0.045235,-0.017802,0.352523,-0.006643,0.00141,-0.01007,0.220256,-0.496822,0.351302,-1.592296,-257.645239,1.489336,71.019135
0.255,0.044907,-0.01771,0.351361,-0.006804,0.001464,-0.009291,0.220256,-0.496822,0.351302,-1.592296,-257.645239,1.489336,71.019135
0.2752,0.044816,-0.018122,0.350593,-0.00694,0.001512,-0.008679,0.220437,-0.496551,0.351361,-1.517292,-257.645239,1.414332,71.019135
0.2953,0.044782,-0.017686,0.353389,-0.007054,0.001555,-0.007855,0.220251,-0.496773,0.351049,-1.517292,-257.645239,1.414332,71.019135
0.3151,0.044633,-0.018154,0.351889,-0.007151,0.001593,-0.007197,0.221283,-0.49617,0.353389,-1.44231,-257.645239,1.339351,71.019135
0.3351,0.044757,-0.017776,0.351642,-0.007232,0.00163,-0.006394,0.220494,-0.496837,0.352024,-1.44231,-257.645239,1.339351,71.019135
0.3555,0.044381,-0.017739,0.352344,-0.0073,0.001662,-0.005744,0.220494,-0.496837,0.352024,-1.44231,-257.645239,1.339351,71.019135
0.3754,0.044594,-0.017979,0.351948,-0.007357,0.001692,-0.005217,0.220381,-0.496407,0.352344,-1.367303,-257.645239,1.264343,71.019135
0.3955,0.044728,-0.017713,0.351988,-0.007405,0.001717,-0.004563,0.220391,-0.496533,0.352184,-1.367303,-257.645239,1.264343,71.019135
0.4149,0.044923,-0.017749,0.352868,-0.007445,0.00174,-0.004028,0.220558,-0.496444,0.351988,-1.292215,-257.645239,1.189255,71.019135
0.4354,0.044656,-0.017882,0.350677,-0.007479,0.001762,-0.003418,0.221121,-0.496336,0.352793,-1.292215,-257.645239,1.189255,71.019135
0.4552,0.044657,-0.017983,0.35176,-0.007506,0.001782,-0.002915,0.221121,-0.496336,0.352793,-1.292215,-257.645239,1.189255,71.019135
0.4751,0.044512,-0.017784,0.352076,-0.007529,0.0018,-0.002501,0.220378,-0.496754,0.35176,-1.217185,-257.645239,1.114225,71.019135
0.4951,0.044532,-0.017956,0.353582,-0.007547,0.001817,-0.001977,0.22038,-0.496651,0.351889,-1.217185,-257.645239,1.114225,71.019135
0.5158,0.044618,-0.017601,0.353308,-0.007562,0.001832,-0.001543,0.221125,-0.496407,0.353582,-1.142293,-257.645239,1.039334,71.019135
0.5352,0.044676,-0.017673,0.352891,-0.007575,0.001845,-0.001183,0.221083,-0.496129,0.353333,-1.142293,-257.645239,1.039334,71.019135
0.5553,0.044561,-0.01795,0.351194,-0.007585,0.001858,-0.000884,0.221083,-0.496129,0.353333,-1.142293,-257.645239,1.039334,71.019135
0.5753,0.044435,-0.017643,0.352136,-0.007593,0.001869,-0.000637,0.220011,-0.496821,0.351194,-1.067308,-257.645239,0.964348,71.019135
0.5954,0.044961,-0.017852,0.352308,-0.0076,0.001879,-0.000432,0.220144,-0.496627,0.35158,-1.067308,-257.645239,0.964348,71.019135
0.6148,0.044443,-0.018228,0.352002,-0.007605,0.001888,-0.000263,0.220944,-0.496527,0.352308,-0.99221,-257.645239,0.889251,71.019135
0.6351,0.044582,-0.017844,0.353175,-0.007609,0.001898,-0.000123,0.220335,-0.496921,0.352028,-0.99221,-257.645239,0.889251,71.019135
0.6553,0.04485,-0.018082,0.352874,-0.007613,0.001906,-6e-06,0.220335,-0.496921,0.352028,-0.99221,-257.645239,0.889251,71.019135
0.6759,0.044542,-0.017727,0.35233,-0.007616,0.001914,9e-05,0.221104,-0.496657,0.352874,-0.917101,-257.645239,0.814141,71.019135
0.6957,0.044451,-0.017555,0.350659,-0.007618,0.00192,0.000171,0.220864,-0.496548,0.352644,-0.917101,-257.645239,0.814141,71.019135
0.7156,0.044741,-0.017481,0.350913,-0.007621,0.001925,0.000238,0.219644,-0.49652,0.350659,-0.841779,-257.645239,0.738819,71.019135
0.7359,0.044581,-0.017566,0.351806,-0.007623,0.001927,0.000294,0.220019,-0.496412,0.35089,-0.841779,-257.645239,0.738819,71.019135
0.7556,0.044833,-0.01795,0.350697,-0.007626,0.00193,0.00034,0.220019,-0.496412,0.35089,-0.841779,-257.645239,0.738819,71.019135
0.7754,0.044097,-0.017919,0.352636,-0.007627,0.001932,0.000379,0.220045,-0.496908,0.350697,-0.767308,-257.645239,0.664348,71.019135
0.7956,0.044933,-0.01763,0.352232,-0.007629,0.001936,0.000412,0.220123,-0.496758,0.35148,-0.767308,-257.645239,0.664348,71.019135
0.8152,0.044833,-0.017659,0.351807,-0.00763,0.001939,0.000439,0.22088,-0.496318,0.352232,-0.692315,-257.645239,0.589355,71.019135
0.8352,0.044636,-0.017629,0.35089,-0.007631,0.001941,0.000462,0.220604,-0.496413,0.351845,-0.692315,-257.645239,0.589355,71.019135
0.8558,0.04484,-0.017899,0.352483,-0.007632,0.001943,0.000481,0.220604,-0.496413,0.351845,-0.692315,-257.645239,0.589355,71.019135
0.8757,0.04491,-0.017969,0.351486,-0.007633,0.001945,0.000497,0.220907,-0.496544,0.352483,-0.617275,-257.645239,0.514315,71.019135
0.8955,0.0446,-0.017915,0.351358,-0.007633,0.001947,0.000511,0.220742,-0.496642,0.35208,-0.617275,-257.645239,0.514315,71.019135
0.9154,0.04455,-0.017936,0.351805,-0.007633,0.00195,0.000522,0.220128,-0.496758,0.351358,-0.542295,-257.645239,0.439335,71.019135
0.9357,0.044416,-0.017632,0.351285,-0.007634,0.001952,0.000532,0.220278,-0.496705,0.351764,-0.542295,-257.645239,0.439335,71.019135
0.9552,0.044919,-0.017956,0.352887,-0.007634,0.001953,0.00054,0.220278,-0.496705,0.351764,-0.542295,-257.645239,0.439335,71.019135
0.9754,0.044582,-0.01804,0.351137,-0.007635,0.001955,0.000547,0.221179,-0.496529,0.352887,-0.467312,-257.64524,0.364352,71.019134
0.9952,0.044576,-0.018362,0.35159,-0.007635,0.001956,0.000553,0.220705,-0.496687,0.35218,-0.467312,-257.64524,0.364352,71.019134
1.0151,0.044522,-0.017417,0.352423,-0.007635,0.001958,0.000558,0.220215,-0.497163,0.35159,-0.392285,-257.645247,0.289326,71.019127
1.0352,0.044884,-0.017565,0.352008,-0.007636,0.001957,0.000562,0.22053,-0.496169,0.352349,-0.392285,-257.645247,0.289326,71.019127
1.0556,0.044162,-0.017615,0.353472,-0.007636,0.001956,0.000566,0.22053,-0.496169,0.352349,-0.392285,-257.645247,0.289326,71.019127
1.0749,0.044781,-0.01808,0.350948,-0.007637,0.001956,0.000569,0.220698,-0.496086,0.353474,-0.317284,-257.645291,0.214324,71.019085
1.0957,0.044702,-0.018348,0.35298,-0.007637,0.001957,0.000571,0.220459,-0.496457,0.352443,-0.317284,-257.645291,0.214324,71.019085
1.1153,0.044751,-0.017673,0.351215,-0.007637,0.001957,0.000573,0.220995,-0.496909,0.352984,-0.292901,-257.645458,0.139253,71.018921
1.1354,0.044643,-0.017734,0.351937,-0.007637,0.001957,0.000575,0.22028,-0.496574,0.351373,-0.292901,-257.645458,0.139253,71.018921
1.1556,0.044867,-0.017876,0.351836,-0.007638,0.001957,0.000577,0.22028,-0.496574,0.351373,-0.292901,-257.645458,0.139253,71.018921
1.1749,0.044503,-0.018217,0.351518,-0.007638,0.001958,0.000578,0.220579,-0.496645,0.351849,-0.293432,-257.645909,0.06432,71.01848
1.1951,0.044571,-0.01749,0.351424,-0.007638,0.001959,0.00058,0.220377,-0.496807,0.351712,-0.293432,-257.645909,0.06432,71.01848
1.2148,0.04427,-0.017896,0.351433,-0.007638,0.00196,0.000581,0.220057,-0.496336,0.351442,-0.29379,-257.646872,-0.011066,71.017539
1.2349,0.043896,-0.017813,0.353451,-0.007638,0.00196,0.000582,0.219851,-0.496691,0.351435,-0.29379,-257.646872,-0.011066,71.017539
1.255,0.044124,-0.018237,0.350159,-0.007638,0.00196,0.000582,0.219851,-0.496691,0.351435,-0.29379,-257.646872,-0.011066,71.017539
1.2754,0.044179,-0.017818,0.351214,-0.007638,0.00196,0.000583,0.218903,-0.497317,0.35019,-0.294271,-257.648592,-0.085639,71.015856
1.2955,0.044065,-0.017981,0.352422,-0.007638,0.001961,0.000584,0.219184,-0.497062,0.350612,-0.294271,-257.648592,-0.085639,71.015856
1.3149,0.044033,-0.018173,0.350783,-0.007638,0.001962,0.000584,0.219905,-0.496661,0.352444,-0.294462,-257.65111,-0.160762,71.013394
1.3353,0.043956,-0.017889,0.352747,-0.007638,0.001963,0.000584,0.219332,-0.497076,0.350933,-0.294462,-257.65111,-0.160762,71.013394
1.3552,0.043866,-0.018366,0.352429,-0.007637,0.001963,0.000585,0.219332,-0.497076,0.350933,-0.294462,-257.65111,-0.160762,71.013394
1.3751,0.043633,-0.017733,0.351077,-0.007637,0.001964,0.000585,0.219589,-0.497052,0.352452,-0.294701,-257.654193,-0.20712,71.010379
1.3952,0.043682,-0.018109,0.35134,-0.007637,0.001965,0.000585,0.219326,-0.496883,0.3519,-0.294701,-257.654193,-0.20712,71.010379
1.4158,0.042964,-0.017899,0.351058,-0.007637,0.001966,0.000586,0.21895,-0.496979,0.351358,-0.295105,-257.65739,-0.20736,71.007253
1.435,0.04287,-0.018065,0.352593,-0.007637,0.001965,0.000586,0.218389,-0.496812,0.351085,-0.295105,-257.65739,-0.20736,71.007253
1.455,0.043316,-0.0181,0.35164,-0.007638,0.001964,0.000586,0.218389,-0.496812,0.351085,-0.295105,-257.65739,-0.20736,71.007253
1.4757,0.04269,-0.017861,0.351939,-0.007638,0.001964,0.000586,0.218651,-0.496925,0.351665,-0.295314,-257.66058,-0.207496,71.004134
1.4956,0.042736,-0.017879,0.352482,-0.007638,0.001964,0.000586,0.218551,-0.496798,0.351779,-0.295314,-257.66058,-0.207496,71.004134
1.5151,0.042498,-0.017798,0.352936,-0.007638,0.001964,0.000586,0.21855,-0.496549,0.352501,-0.295106,-257.663773,-0.207218,71.001013
1.5357,0.042007,-0.017841,0.352091,-0.007638,0.001964,0.000586,0.218748,-0.496381,0.352897,-0.295106,-257.663773,-0.207218,71.001013
1.5558,0.042109,-0.018379,0.352986,-0.007638,0.001963,0.000587,0.218748,-0.496381,0.352897,-0.295106,-257.663773,-0.207218,71.001013
1.5753,0.041739,-0.017769,0.352089,-0.007638,0.001962,0.000587,0.218088,-0.496968,0.353011,-0.295179,-257.666966,-0.207258,70.997891
1.5951,0.041603,-0.0184,0.351101,-0.007638,0.001963,0.000587,0.217858,-0.496774,0.352638,-0.295179,-257.666966,-0.207258,70.997891
1.6151,0.041582,-0.018058,0.351073,-0.007638,0.001964,0.000587,0.216758,-0.497312,0.351119,-0.294971,-257.670159,-0.20702,70.99477
1.6358,0.04137,-0.017954,0.352049,-0.007638,0.001964,0.000587,0.216941,-0.496984,0.351078,-0.294971,-257.670159,-0.20702,70.99477
1.6556,0.041464,-0.018484,0.353409,-0.007638,0.001963,0.000587,0.216941,-0.496984,0.351078,-0.294971,-257.670159,-0.20702,70.99477
1.6753,0.041123,-0.018199,0.3512,-0.007638,0.001963,0.000587,0.217645,-0.496998,0.353433,-0.295168,-257.673352,-0.207198,70.991648
1.6953,0.041041,-0.018171,0.351754,-0.007638,0.001965,0.000587,0.217173,-0.497031,0.35253,-0.295168,-257.673352,-0.207198,70.991648
1.7149,0.040477,-0.018524,0.353123,-0.007637,0.001966,0.000587,0.216509,-0.496968,0.351772,-0.295098,-257.676545,-0.207111,70.988526
1.7354,0.040503,-0.01802,0.353206,-0.007637,0.001967,0.000587,0.216806,-0.497049,0.353002,-0.295098,-257.676545,-0.207111,70.988526
1.7555,0.040859,-0.018437,0.352617,-0.007636,0.001969,0.000587,0.216806,-0.497049,0.353002,-0.295098,-257.676545,-0.207111,70.988526
1.7751,0.040384,-0.018415,0.352985,-0.007636,0.00197,0.000587,0.216662,-0.497091,0.352642,-0.295456,-257.679743,-0.207456,70.9854
1.7954,0.040389,-0.018519,0.352379,-0.007636,0.00197,0.000587,0.216636,-0.497045,0.352786,-0.295456,-257.679743,-0.207456,70.9854
1.8151,0.039874,-0.018459,0.351948,-0.007636,0.001971,0.000587,0.216156,-0.497207,0.352398,-0.295954,-257.682936,-0.207937,70.982279
1.8352,0.039769,-0.01827,0.353009,-0.007636,0.001971,0.000587,0.215713,-0.497199,0.351988,-0.295954,-257.682936,-0.207937,70.982279
1.8554,0.039959,-0.018417,0.353736,-0.007636,0.001971,0.000587,0.215713,-0.497199,0.351988,-0.295954,-257.682936,-0.207937,70.982279
1.875,0.039789,-0.018406,0.352516,-0.007636,0.001971,0.000587,0.216297,-0.496874,0.353761,-0.296109,-257.686132,-0.208087,70.979154
1.8954,0.039831,-0.018082,0.35237,-0.007636,0.001972,0.000587,0.216084,-0.496948,0.353251,-0.296109,-257.686132,-0.208087,70.979154
1.9154,0.038992,-0.018423,0.352006,-0.007636,0.001972,0.000587,0.215594,-0.496772,0.352388,-0.296155,-257.689321,-0.208133,70.976036
1.9356,0.038928,-0.018364,0.351977,-0.007636,0.001971,0.000587,0.214885,-0.497119,0.35204,-0.296155,-257.689321,-0.208133,70.976036
1.9554,0.038989,-0.018466,0.353967,-0.007636,0.001971,0.000587,0.214885,-0.497119,0.35204,-0.296155,-257.689321,-0.208133,70.976036
1.9752,0.038725,-0.018903,0.351914,-0.007636,0.001971,0.000587,0.215438,-0.496882,0.353992,-0.296223,-257.692512,-0.208203,70.972917
1.995,0.03892,-0.018684,0.353175,-0.007636,0.001972,0.000587,0.215028,-0.497196,0.353152,-0.296223,-257.692512,-0.208203,70.972917
2.015,0.038199,-0.018594,0.351343,-0.007635,0.001973,0.000587,0.215068,-0.497231,0.353194,-0.296054,-257.695706,-0.208042,70.969795
2.0356,0.038224,-0.018776,0.352637,-0.007635,0.001972,0.000587,0.213828,-0.497422,0.351509,-0.296054,-257.695706,-0.208042,70.969795
2.0554,0.038014,-0.018343,0.352137,-0.007635,0.001972,0.000587,0.213828,-0.497422,0.351509,-0.296054,-257.695706,-0.208042,70.969795
2.0751,0.037817,-0.018613,0.351306,-0.007635,0.001972,0.000587,0.213586,-0.497081,0.352162,-0.296318,-257.698899,-0.208305,70.966674
2.0953,0.037933,-0.018532,0.351635,-0.007636,0.001972,0.000587,0.213441,-0.497241,0.351817,-0.296318,-257.698899,-0.208305,70.966674
2.1159,0.037199,-0.018836,0.352086,-0.007636,0.001971,0.000587,0.213344,-0.49735,0.351653,-0.296291,-257.702092,-0.208281,70.963552
2.1361,0.037158,-0.018244,0.352306,-0.007636,0.001972,0.000587,0.213087,-0.497534,0.352049,-0.296291,-257.702092,-0.208281,70.963552
2.1558,0.03729,-0.018326,0.352368,-0.007635,0.001973,0.000587,0.213087,-0.497534,0.352049,-0.296291,-257.702092,-0.208281,70.963552
2.1756,0.036842,-0.018915,0.351693,-0.007635,0.001974,0.000587,0.212972,-0.497024,0.352392,-0.296135,-257.705285,-0.20813,70.960431
2.1953,0.036984,-0.019091,0.352902,-0.007635,0.001973,0.000587,0.212757,-0.497298,0.352115,-0.296135,-257.705285,-0.20813,70.960431
2.2155,0.036402,-0.018135,0.352023,-0.007635,0.001973,0.000587,0.213001,-0.497687,0.352921,-0.296445,-257.708478,-0.208438,70.957309
2.2353,0.036568,-0.01899,0.351859,-0.007636,0.001971,0.000587,0.212304,-0.496937,0.352106,-0.296445,-257.708478,-0.208438,70.957309
2.2552,0.036625,-0.018884,0.35243,-0.007636,0.001969,0.000587,0.212304,-0.496937,0.352106,-0.296445,-257.708478,-0.208438,70.957309
2.2755,0.036284,-0.018915,0.352163,-0.007637,0.001967,0.000587,0.212338,-0.49757,0.352454,-0.296327,-257.711672,-0.208323,70.954188
2.2957,0.035948,-0.018886,0.351387,-0.007636,0.001969,0.000587,0.212243,-0.497592,0.352339,-0.296327,-257.711672,-0.208323,70.954188
2.3154,0.035505,-0.01882,0.354125,-0.007636,0.001971,0.000587,0.21124,-0.497748,0.351406,-0.295641,-257.714865,-0.207649,70.951066
2.3352,0.035494,-0.0187,0.351257,-0.007636,0.001972,0.000587,0.212243,-0.497228,0.353878,-0.295641,-257.714865,-0.207649,70.951066
2.3554,0.035564,-0.018764,0.352292,-0.007635,0.001973,0.000587,0.212243,-0.497228,0.353878,-0.295641,-257.714865,-0.207649,70.951066
2.3753,0.035296,-0.018766,0.352274,-0.007635,0.001974,0.000587,0.211208,-0.497475,0.352317,-0.296075,-257.718058,-0.208079,70.947944
2.3956,0.035624,-0.019012,0.353193,-0.007635,0.001974,0.000587,0.211193,-0.497468,0.352303,-0.296075,-257.718058,-0.208079,70.947944
2.4159,0.034903,-0.018896,0.352494,-0.007635,0.001974,0.000587,0.211781,-0.497556,0.353212,-0.296456,-257.721251,-0.208451,70.944823
2.4351,0.035205,-0.018787,0.352707,-0.007635,0.001974,0.000587,0.211036,-0.497542,0.352561,-0.296456,-257.721251,-0.208451,70.944823
2.4552,0.035387,-0.018998,0.351509,-0.007635,0.001975,0.000587,0.211036,-0.497542,0.352561,-0.296456,-257.721251,-0.208451,70.944823
2.4755,0.034597,-0.019024,0.352816,-0.007635,0.001975,0.000587,0.210659,-0.497846,0.351534,-0.296454,-257.724444,-0.208449,70.941701
2.495,0.034358,-0.018839,0.352304,-0.007635,0.001976,0.000587,0.210688,-0.497754,0.352058,-0.296454,-257.724444,-0.208449,70.941701
2.5151,0.033863,-0.019143,0.354917,-0.007634,0.001976,0.000587,0.210089,-0.49754,0.352322,-0.296628,-257.727638,-0.208621,70.938579
2.5353,0.034271,-0.018752,0.351989,-0.007634,0.001977,0.000587,0.210991,-0.497375,0.354683,-0.296628,-257.727638,-0.208621,70.938579
2.5553,0.034158,-0.019364,0.352608,-0.007634,0.001979,0.000587,0.210991,-0.497375,0.354683,-0.296628,-257.727638,-0.208621,70.938579
2.5756,0.033686,-0.018983,0.352764,-0.007633,0.00198,0.000587,0.209956,-0.498019,0.352633,-0.296793,-257.730832,-0.208786,70.935457
2.5955,0.033856,-0.018932,0.353922,-0.007633,0.00198,0.000587,0.20989,-0.497844,0.352689,-0.296793,-257.730832,-0.208786,70.935457
2.6153,0.033309,-0.019131,0.353061,-0.007633,0.001981,0.000587,0.210362,-0.497347,0.353941,-0.297245,-257.73404,-0.209235,70.932322
2.6353,0.033305,-0.019568,0.353979,-0.007633,0.001981,0.000587,0.209696,-0.497649,0.35313,-0.297245,-257.73404,-0.209235,70.932322
2.6558,0.033222,-0.019261,0.351268,-0.007633,0.001981,0.000587,0.209696,-0.497649,0.35313,-0.297245,-257.73404,-0.209235,70.932322
2.6754,0.033032,-0.018993,0.351905,-0.007633,0.001981,0.000587,0.20838,-0.49815,0.351293,-0.297424,-257.737228,-0.209415,70.929205
2.6956,0.032756,-0.019028,0.351898,-0.007633,0.001981,0.000587,0.208526,-0.497984,0.35155,-0.297424,-257.737228,-0.209415,70.929205
2.7151,0.032292,-0.019151,0.353408,-0.007633,0.001981,0.000587,0.208294,-0.497799,0.351916,-0.297436,-257.740432,-0.209432,70.926074
2.7356,0.032656,-0.019396,0.351439,-0.007633,0.001981,0.000587,0.208753,-0.497646,0.353299,-0.297436,-257.740432,-0.209432,70.926074
2.7553,0.032076,-0.01914,0.353283,-0.007633,0.001981,0.000587,0.208753,-0.497646,0.353299,-0.297436,-257.740432,-0.209432,70.926074
2.775,0.032217,-0.019255,0.351941,-0.007633,0.001981,0.000587,0.2082,-0.497676,0.353308,-0.297369,-257.743606,-0.209371,70.922972
2.795,0.03248,-0.019209,0.351801,-0.007633,0.001981,0.000587,0.208091,-0.49781,0.352753,-0.297369,-257.743606,-0.209371,70.922972
2.8153,0.031746,-0.019414,0.353618,-0.007633,0.001981,0.000587,0.20797,-0.497998,0.35182,-0.297365,-257.746798,-0.209376,70.919851
2.8353,0.031694,-0.019386,0.352106,-0.007633,0.001982,0.000587,0.208307,-0.497873,0.353452,-0.297365,-257.746798,-0.209376,70.919851
2.8564,0.031605,-0.019567,0.352161,-0.007633,0.001982,0.000587,0.208307,-0.497873,0.353452,-0.297365,-257.746798,-0.209376,70.919851
2.8752,0.03131,-0.019143,0.352268,-0.007632,0.001983,0.000587,0.207185,-0.4983,0.352186,-0.297372,-257.750041,-0.209387,70.916682
2.8959,0.031541,-0.019443,0.353554,-0.007632,0.001983,0.000587,0.207186,-0.4981,0.352224,-0.297372,-257.750041,-0.209387,70.916682
2.9152,0.031037,-0.019721,0.352031,-0.007632,0.001984,0.000587,0.207876,-0.497923,0.353572,-0.29771,-257.75319,-0.209725,70.913603
2.935,0.030944,-0.019423,0.352424,-0.007632,0.001985,0.000587,0.206961,-0.498401,0.352165,-0.29771,-257.75319,-0.209725,70.913603
2.955,0.030791,-0.019396,0.354068,-0.007632,0.001986,0.000587,0.206961,-0.498401,0.352165,-0.29771,-257.75319,-0.209725,70.913603
2.9756,0.030543,-0.019268,0.353319,-0.007631,0.001987,0.000587,0.207288,-0.497793,0.354093,-0.297755,-257.756379,-0.209772,70.910486
2.9955,0.030541,-0.019416,0.35235,-0.007631,0.001987,0.000587,0.207138,-0.497785,0.353782,-0.297755,-257.756379,-0.209772,70.910486
3.0157,0.029983,-0.019508,0.352891,-0.007631,0.001986,0.000587,0.206294,-0.498108,0.352369,-0.298214,-257.759594,-0.210228,70.907344
3.0352,0.03019,-0.019676,0.351928,-0.007631,0.001986,0.000587,0.206235,-0.498085,0.352838,-0.298214,-257.759594,-0.210228,70.907344
3.0556,0.02991,-0.019521,0.353065,-0.007631,0.001986,0.000587,0.206235,-0.498085,0.352838,-0.298214,-257.759594,-0.210228,70.907344
3.0754,0.029875,-0.019387,0.353895,-0.007631,0.001986,0.000587,0.205929,-0.498095,0.353089,-0.298125,-257.762766,-0.210143,70.904244
3.0953,0.029691,-0.019573,0.353704,-0.007631,0.001986,0.000587,0.206171,-0.497972,0.35342,-0.298125,-257.762766,-0.210143,70.904244
3.115,0.028996,-0.01966,0.351962,-0.007631,0.001986,0.000587,0.206092,-0.498026,0.353723,-0.298111,-257.765963,-0.210136,70.901119
3.1356,0.029473,-0.019497,0.352341,-0.007631,0.001986,0.000587,0.204912,-0.498365,0.352115,-0.298111,-257.765963,-0.210136,70.901119
3.1552,0.029441,-0.019581,0.353887,-0.007631,0.001987,0.000587,0.204912,-0.498365,0.352115,-0.298111,-257.765963,-0.210136,70.901119
3.1751,0.028947,-0.019642,0.352624,-0.007631,0.001987,0.000587,0.205852,-0.49801,0.353911,-0.298107,-257.769153,-0.210137,70.898002
3.1952,0.029206,-0.019446,0.354456,-0.007631,0.001987,0.000587,0.2055,-0.498117,0.353389,-0.298107,-257.769153,-0.210137,70.898002
3.2148,0.02831,-0.019482,0.353066,-0.007631,0.001987,0.000587,0.205967,-0.497767,0.354475,-0.298179,-257.772346,-0.210212,70.894881
3.2351,0.02825,-0.019648,0.353462,-0.007631,0.001987,0.000587,0.204761,-0.498002,0.353194,-0.298179,-257.772346,-0.210212,70.894881
3.255,0.028628,-0.019625,0.35348,-0.007631,0.001986,0.000587,0.204761,-0.498002,0.353194,-0.298179,-257.772346,-0.210212,70.894881
3.2757,0.027648,-0.019759,0.352835,-0.007632,0.001986,0.000587,0.204844,-0.498127,0.353505,-0.298263,-257.775539,-0.210298,70.891759
3.2957,0.027622,-0.019854,0.353489,-0.007631,0.001986,0.000587,0.204415,-0.498218,0.353235,-0.298263,-257.775539,-0.210298,70.891759
3.3154,0.027619,-0.019769,0.353862,-0.007631,0.001987,0.000587,0.203919,-0.498346,0.353508,-0.298048,-257.778733,-0.210089,70.888638
3.3353,0.027848,-0.019423,0.35231,-0.007631,0.001988,0.000587,0.204295,-0.498187,0.353831,-0.298048,-257.778733,-0.210089,70.888638
3.3555,0.027794,-0.01989,0.353473,-0.007631,0.001988,0.000587,0.204295,-0.498187,0.353831,-0.298048,-257.778733,-0.210089,70.888638
3.375,0.027189,-0.020105,0.350733,-0.007631,0.001989,0.000587,0.204005,-0.498392,0.353497,-0.298175,-257.781939,-0.210216,70.885504
3.3954,0.02718,-0.019801,0.353935,-0.00763,0.00199,0.000587,0.20331,-0.498672,0.352354,-0.298175,-257.781939,-0.210216,70.885504
3.4154,0.026893,-0.019829,0.352846,-0.00763,0.001991,0.000587,0.203693,-0.498214,0.353954,-0.298429,-257.785126,-0.210468,70.88239
3.4352,0.026842,-0.020328,0.352757,-0.00763,0.001991,0.000587,0.203168,-0.498394,0.35294,-0.298429,-257.785126,-0.210468,70.88239
3.455,0.026796,-0.019863,0.35277,-0.00763,0.001991,0.000587,0.203168,-0.498394,0.35294,-0.298429,-257.785126,-0.210468,70.88239
3.475,0.026332,-0.019773,0.352327,-0.00763,0.001991,0.000587,0.202672,-0.498489,0.352795,-0.298677,-257.788319,-0.210712,70.879269
3.4951,0.025993,-0.020354,0.35305,-0.00763,0.00199,0.000587,0.202492,-0.498475,0.352606,-0.298677,-257.788319,-0.210712,70.879269
3.5148,0.026181,-0.019915,0.352457,-0.00763,0.00199,0.000587,0.202082,-0.498923,0.353069,-0.298671,-257.791512,-0.210709,70.876148
3.5358,0.025352,-0.020011,0.352525,-0.00763,0.001991,0.000587,0.20221,-0.498596,0.35251,-0.298671,-257.791512,-0.210709,70.876148
3.5554,0.026226,-0.020051,0.352134,-0.00763,0.001991,0.000587,0.20221,-0.498596,0.35251,-0.298671,-257.791512,-0.210709,70.876148
3.5749,0.025436,-0.019607,0.353502,-0.00763,0.001991,0.000587,0.201795,-0.498789,0.352158,-0.298639,-257.794709,-0.21068,70.873024
3.5949,0.025352,-0.019784,0.35391,-0.00763,0.001991,0.000587,0.201837,-0.498503,0.352704,-0.298639,-257.794709,-0.21068,70.873024
3.6155,0.025194,-0.019859,0.354581,-0.00763,0.001991,0.000587,0.201854,-0.498201,0.353929,-0.298736,-257.797894,-0.210781,70.869911
3.6349,0.025195,-0.019988,0.353708,-0.00763,0.001991,0.000587,0.202198,-0.498143,0.354503,-0.298736,-257.797894,-0.210781,70.869911
3.6555,0.025224,-0.020018,0.352629,-0.00763,0.001991,0.000587,0.202198,-0.498143,0.354503,-0.298736,-257.797894,-0.210781,70.869911
3.6753,0.024521,-0.019704,0.353538,-0.00763,0.001991,0.000587,0.201033,-0.498669,0.352654,-0.298695,-257.801087,-0.210743,70.86679
3.6956,0.024667,-0.020141,0.353316,-0.00763,0.001991,0.000587,0.201019,-0.498466,0.353016,-0.298695,-257.801087,-0.210743,70.86679
3.7153,0.024592,-0.020339,0.352278,-0.00763,0.00199,0.000587,0.200883,-0.498663,0.353334,-0.298695,-257.80428,-0.210747,70.863669
3.7355,0.024292,-0.019932,0.352255,-0.00763,0.001992,0.000587,0.200577,-0.498989,0.352374,-0.298695,-257.80428,-0.210747,70.863669
3.7553,0.024603,-0.020124,0.354422,-0.007629,0.001993,0.000587,0.200577,-0.498989,0.352374,-0.298695,-257.80428,-0.210747,70.863669
3.7753,0.02395,-0.020211,0.352615,-0.007629,0.001994,0.000587,0.201269,-0.498459,0.354446,-0.298642,-257.807474,-0.210696,70.860547
3.7956,0.024137,-0.019885,0.35346,-0.007629,0.001995,0.000587,0.200745,-0.498615,0.353701,-0.298642,-257.807474,-0.210696,70.860547
3.8151,0.023765,-0.020095,0.35266,-0.007629,0.001995,0.000587,0.200419,-0.498382,0.353479,-0.299156,-257.810673,-0.211204,70.857422
3.8351,0.023145,-0.020308,0.352961,-0.007629,0.001995,0.000587,0.199948,-0.498681,0.352732,-0.299156,-257.810673,-0.211204,70.857422
3.8551,0.023684,-0.020066,0.353463,-0.007629,0.001994,0.000587,0.199948,-0.498681,0.352732,-0.299156,-257.810673,-0.211204,70.857422
3.8752,0.023347,-0.019996,0.354258,-0.007629,0.001994,0.000587,0.199893,-0.498569,0.353488,-0.299274,-257.813861,-0.211321,70.854305
3.8952,0.023374,-0.020396,0.354031,-0.007629,0.001994,0.000587,0.200004,-0.498475,0.353801,-0.299274,-257.813861,-0.211321,70.854305
3.9152,0.022645,-0.020147,0.353976,-0.007629,0.001994,0.000587,0.199931,-0.498792,0.354049,-0.299121,-257.817072,-0.211172,70.851168
3.9355,0.022599,-0.020247,0.355538,-0.0076,0.002117,-0.001325,0.199453,-0.498549,0.353983,-0.299121,-257.817072,-0.211172,70.851168
3.955,0.022698,-0.020392,0.352308,-0.007582,0.0022,-0.002867,0.199453,-0.498549,0.353983,-0.299121,-257.817072,-0.211172,70.851168
3.9749,0.022388,-0.020321,0.353878,-0.007572,0.002253,-0.004117,0.198354,-0.499099,0.352333,-0.299067,-257.820248,-0.211123,70.848064
3.9949,0.021804,-0.020292,0.35303,-0.007568,0.002283,-0.005133,0.198629,-0.498948,0.352963,-0.299067,-257.820248,-0.211123,70.848064
4.0149,0.022746,-0.020353,0.353645,-0.007567,0.002297,-0.00596,0.198127,-0.498841,0.35303,-0.224513,-257.820314,-0.285677,70.847985
4.0353,0.022543,-0.020421,0.354598,-0.007568,0.0023,-0.006632,0.199263,-0.498797,0.353593,-0.224513,-257.820314,-0.285677,70.847985
4.0558,0.022542,-0.020038,0.35223,-0.007571,0.002294,-0.007181,0.199263,-0.498797,0.353593,-0.224513,-257.820314,-0.285677,70.847985
4.0751,0.022228,-0.020442,0.353012,-0.007575,0.002282,-0.007628,0.198485,-0.498727,0.352229,-0.149373,-257.820335,-0.360817,70.84796
4.0951,0.022333,-0.020234,0.353391,-0.007579,0.002266,-0.007994,0.19851,-0.498833,0.35254,-0.149373,-257.820335,-0.360817,70.84796
4.1148,0.022324,-0.020139,0.354279,-0.007583,0.002248,-0.008294,0.198833,-0.498719,0.35339,-0.074513,-257.820345,-0.435677,70.847947
4.1349,0.022359,-0.019917,0.354182,-0.007586,0.002229,-0.00854,0.199214,-0.498489,0.3542,-0.074513,-257.820345,-0.435677,70.847947
4.1551,0.022301,-0.020382,0.354528,-0.00759,0.00221,-0.008743,0.199214,-0.498489,0.3542,-0.074513,-257.820345,-0.435677,70.847947
4.1751,0.022098,-0.02034,0.35437,-0.007593,0.002191,-0.008909,0.199343,-0.498665,0.354526,0.000515,-257.82037,-0.510705,70.847914
4.1951,0.021971,-0.020065,0.353349,-0.007596,0.002173,-0.009045,0.199233,-0.49866,0.354464,0.000515,-257.82037,-0.510705,70.847914
4.2148,0.022316,-0.019999,0.353145,-0.007599,0.002157,-0.009156,0.198447,-0.498557,0.353346,0.075484,-257.820435,-0.585673,70.84783
4.2348,0.022374,-0.020476,0.354483,-0.007603,0.002139,-0.009248,0.198676,-0.498529,0.353162,0.075484,-257.820435,-0.585673,70.84783
4.2557,0.022592,-0.020137,0.352792,-0.007605,0.002123,-0.009324,0.198676,-0.498529,0.353162,0.075484,-257.820435,-0.585673,70.84783
4.2753,0.022442,-0.020435,0.354284,-0.007608,0.002109,-0.009386,0.198782,-0.498728,0.352773,0.150505,-257.820659,-0.660695,70.847537
4.295,0.022158,-0.020263,0.353722,-0.007609,0.002097,-0.009437,0.19902,-0.498742,0.35339,0.150505,-257.820659,-0.660695,70.847537
4.3151,0.022158,-0.019966,0.353776,-0.00761,0.002086,-0.009479,0.198769,-0.49869,0.353679,0.225503,-257.821264,-0.735693,70.846753
4.3349,0.022232,-0.020225,0.35286,-0.007611,0.002075,-0.009513,0.198834,-0.49841,0.353765,0.225503,-257.821264,-0.735693,70.846753
4.3554,0.022321,-0.020461,0.352496,-0.007612,0.002065,-0.009542,0.198834,-0.49841,0.353765,0.225503,-257.821264,-0.735693,70.846753
4.3753,0.02207,-0.02048,0.354527,-0.007613,0.002056,-0.009566,0.198254,-0.499106,0.352352,0.300489,-257.822633,-0.802511,70.844982
4.395,0.022327,-0.020266,0.352408,-0.007613,0.00205,-0.009586,0.198582,-0.498969,0.353207,0.300489,-257.822633,-0.802511,70.844982
4.415,0.021694,-0.020011,0.35245,-0.007612,0.002044,-0.009602,0.198187,-0.498932,0.352218,0.375488,-257.824874,-0.803806,70.842091
4.4349,0.021684,-0.020515,0.353683,-0.007613,0.002037,-0.009657,0.197775,-0.498686,0.35242,0.375488,-257.824874,-0.803806,70.842091
4.4549,0.022312,-0.019881,0.353023,-0.007613,0.00203,-0.009703,0.197775,-0.498686,0.35242,0.375488,-257.824874,-0.803806,70.842091
4.475,0.021726,-0.020206,0.351716,-0.007614,0.002024,-0.00974,0.198346,-0.498455,0.352673,0.450508,-257.827869,-0.804469,70.838231
4.4953,0.021951,-0.020014,0.350867,-0.007614,0.002019,-0.009802,0.197938,-0.498674,0.352242,0.450508,-257.827869,-0.804469,70.838231
4.5152,0.021583,-0.020037,0.351605,-0.007614,0.002014,-0.009853,0.196996,-0.498964,0.350559,0.475962,-257.831259,-0.808446,70.833868
4.535,0.02191,-0.019918,0.351426,-0.007615,0.002009,-0.009928,0.197193,-0.49885,0.351485,0.475962,-257.831259,-0.808446,70.833868
4.5549,0.021429,-0.020445,0.35379,-0.007615,0.002005,-0.009989,0.197193,-0.49885,0.351485,0.475962,-257.831259,-0.808446,70.833868
4.5751,0.021574,-0.020056,0.350875,-0.007616,0.002001,-0.01004,0.197793,-0.49889,0.353378,0.484091,-257.834696,-0.812032,70.829447
4.595,0.021713,-0.019905,0.352048,-0.007616,0.001999,-0.010115,0.197382,-0.498931,0.352317,0.484091,-257.834696,-0.812032,70.829447
4.615,0.021238,-0.019749,0.350954,-0.007616,0.001997,-0.010177,0.197323,-0.49865,0.351729,0.496971,-257.838152,-0.818269,70.825002
4.6352,0.021448,-0.020367,0.3517,-0.007617,0.001992,-0.01026,0.196626,-0.498663,0.351005,0.496971,-257.838152,-0.818269,70.825002
4.6556,0.02131,-0.019953,0.351193,-0.007618,0.001988,-0.010329,0.196626,-0.498663,0.351005,0.496971,-257.838152,-0.818269,70.825002
4.6753,0.021056,-0.019869,0.350145,-0.007619,0.001984,-0.010387,0.196428,-0.498856,0.350763,0.505813,-257.84166,-0.82309,70.820489
4.6953,0.021092,-0.01992,0.350138,-0.00762,0.001981,-0.010465,0.196213,-0.498888,0.350456,0.505813,-257.84166,-0.82309,70.820489
4.7153,0.021291,-0.019491,0.349855,-0.007621,0.001978,-0.010529,0.19579,-0.498999,0.349813,0.519735,-257.845129,-0.829815,70.816028
4.7354,0.020624,-0.019633,0.347945,-0.007622,0.001973,-0.010613,0.196061,-0.498632,0.349836,0.519735,-257.845129,-0.829815,70.816028
4.7554,0.020644,-0.020007,0.350044,-0.007623,0.001969,-0.010682,0.196061,-0.498632,0.349836,0.519735,-257.845129,-0.829815,70.816028
4.7753,0.020787,-0.020114,0.348693,-0.007624,0.001966,-0.010739,0.195215,-0.499111,0.349604,0.528814,-257.848649,-0.834531,70.811502
4.7952,0.020979,-0.019739,0.35168,-0.007625,0.001965,-0.010816,0.195106,-0.49924,0.349185,0.528814,-257.848649,-0.834531,70.811502
4.815,0.02103,-0.019549,0.350643,-0.007626,0.001963,-0.01088,0.196413,-0.498549,0.351339,0.542186,-257.8522,-0.841082,70.806939
4.8354,0.0213,-0.019763,0.348136,-0.007627,0.00196,-0.01096,0.196221,-0.498521,0.350687,0.542186,-257.8522,-0.841082,70.806939
4.8553,0.020739,-0.019963,0.348664,-0.007628,0.001958,-0.011027,0.196221,-0.498521,0.350687,0.542186,-257.8522,-0.841082,70.806939
4.8754,0.020705,-0.019919,0.348966,-0.007629,0.001955,-0.011082,0.194649,-0.499308,0.348209,0.550585,-257.85577,-0.845829,70.802351
4.8954,0.020557,-0.019683,0.347525,-0.00763,0.001954,-0.01115,0.194788,-0.49926,0.348461,0.550585,-257.85577,-0.845829,70.802351
4.9152,0.020719,-0.019781,0.348328,-0.007631,0.001953,-0.011206,0.193999,-0.499218,0.347173,0.562849,-257.859367,-0.85222,70.797729
4.9354,0.020837,-0.019835,0.347348,-0.007632,0.001951,-0.011268,0.19471,-0.499161,0.348204,0.562849,-257.859367,-0.85222,70.797729
4.9559,0.020524,-0.019953,0.349072,-0.007632,0.001949,-0.011319,0.19471,-0.499161,0.348204,0.562849,-257.859367,-0.85222,70.797729
4.9755,0.02007,-0.019559,0.347312,-0.007633,0.001947,-0.011361,0.194625,-0.499228,0.348597,0.57005,-257.862989,-0.856265,70.793076
4.9953,0.020603,-0.019739,0.3475,-0.007634,0.001946,-0.011405,0.194214,-0.499185,0.348046,0.57005,-257.862989,-0.856265,70.793076
5.0154,0.020316,-0.019725,0.347867,-0.007635,0.001944,-0.011441,0.194034,-0.499279,0.347139,0.579125,-257.866635,-0.8611,70.788394
5.0352,0.020391,-0.019703,0.348258,-0.007635,0.001942,-0.011476,0.194147,-0.499187,0.347786,0.579125,-257.866635,-0.8611,70.788394
5.0556,0.020606,-0.019451,0.347674,-0.007636,0.001941,-0.011505,0.194147,-0.499187,0.347786,0.579125,-257.866635,-0.8611,70.788394
5.0754,0.020226,-0.019668,0.34586,-0.007636,0.00194,-0.01153,0.194042,-0.498969,0.347196,0.583793,-257.870297,-0.863533,70.783691
5.0953,0.020236,-0.019259,0.345067,-0.007637,0.001937,-0.011555,0.193625,-0.499178,0.346593,0.583793,-257.870297,-0.863533,70.783691
5.1157,0.020267,-0.019458,0.344833,-0.007638,0.001935,-0.011576,0.1925,-0.49922,0.3447,0.58901,-257.873962,-0.866153,70.778987
5.1354,0.020252,-0.019759,0.345391,-0.007639,0.001932,-0.011598,0.192636,-0.499415,0.344799,0.58901,-257.873962,-0.866153,70.778987
5.1555,0.019914,-0.018931,0.345482,-0.00764,0.00193,-0.011616,0.192636,-0.499415,0.344799,0.58901,-257.873962,-0.866153,70.778987
5.1754,0.019833,-0.018998,0.345388,-0.00764,0.001928,-0.011632,0.192298,-0.498828,0.344998,0.591879,-257.877647,-0.86734,70.774259
5.1953,0.020364,-0.019375,0.345695,-0.007641,0.001924,-0.011649,0.192342,-0.498853,0.345101,0.591879,-257.877647,-0.86734,70.774259
5.215,0.019717,-0.019242,0.343864,-0.007643,0.00192,-0.011663,0.192928,-0.499228,0.345325,0.595449,-257.881337,-0.868677,70.769528
5.235,0.019967,-0.019094,0.34504,-0.007643,0.001918,-0.011679,0.19175,-0.499373,0.343971,0.595449,-257.881337,-0.868677,70.769528
5.2551,0.019911,-0.01907,0.345438,-0.007644,0.001917,-0.011693,0.19175,-0.499373,0.343971,0.595449,-257.881337,-0.868677,70.769528
5.2751,0.01974,-0.019602,0.342477,-0.007644,0.001915,-0.011704,0.192274,-0.498976,0.344951,0.597747,-257.885036,-0.869153,70.764791
5.2953,0.01998,-0.019195,0.343404,-0.007644,0.001914,-0.011716,0.191715,-0.499395,0.343875,0.597747,-257.885036,-0.869153,70.764791
5.315,0.019577,-0.019221,0.343479,-0.007645,0.001913,-0.011727,0.191444,-0.499442,0.343032,0.600286,-257.888735,-0.870131,70.760057
5.3355,0.01951,-0.019234,0.342159,-0.007645,0.001912,-0.011739,0.191325,-0.499434,0.34342,0.600286,-257.888735,-0.870131,70.760057
5.3557,0.019336,-0.018944,0.342611,-0.007646,0.00191,-0.011749,0.191325,-0.499434,0.34342,0.600286,-257.888735,-0.870131,70.760057
5.3751,0.019237,-0.019276,0.340636,-0.007646,0.00191,-0.011757,0.190338,-0.499336,0.342115,0.601722,-257.892444,-0.870739,70.755311
5.3951,0.019502,-0.019298,0.342167,-0.007647,0.001907,-0.011767,0.190019,-0.499591,0.341477,0.601722,-257.892444,-0.870739,70.755311
5.4153,0.019006,-0.01923,0.341612,-0.007647,0.001905,-0.011775,0.190372,-0.499757,0.341792,0.6036,-257.896172,-0.871492,70.750543
5.4352,0.019224,-0.018967,0.341364,-0.007647,0.001905,-0.011784,0.189892,-0.499761,0.341609,0.6036,-257.896172,-0.871492,70.750543
5.4554,0.019318,-0.01915,0.341254,-0.007648,0.001904,-0.011791,0.189892,-0.499761,0.341609,0.6036,-257.896172,-0.871492,70.750543
5.4753,0.019244,-0.018813,0.340783,-0.007648,0.001903,-0.011798,0.189672,-0.499773,0.340763,0.604854,-257.899883,-0.871776,70.745799
5.4951,0.019377,-0.018851,0.341947,-0.007648,0.001901,-0.011804,0.189645,-0.499658,0.340714,0.604854,-257.899883,-0.871776,70.745799
5.5149,0.019559,-0.018941,0.341504,-0.007649,0.0019,-0.01181,0.190141,-0.499349,0.341572,0.606198,-257.903606,-0.872366,70.741041
5.5355,0.019351,-0.018401,0.34135,-0.007649,0.001898,-0.011816,0.190329,-0.499478,0.341492,0.606198,-257.903606,-0.872366,70.741041
5.5552,0.019638,-0.019073,0.340439,-0.007649,0.001897,-0.011821,0.190329,-0.499478,0.341492,0.606198,-257.903606,-0.872366,70.741041
5.5753,0.019236,-0.018895,0.34005,-0.00765,0.001896,-0.011826,0.1896,-0.499835,0.339945,0.607128,-257.907325,-0.872529,70.73629
5.5951,0.018919,-0.018283,0.339838,-0.00765,0.001895,-0.01183,0.189456,-0.49978,0.339931,0.607128,-257.907325,-0.872529,70.73629
5.6148,0.019278,-0.018718,0.338624,-0.00765,0.001894,-0.011834,0.188669,-0.49914,0.339461,0.608212,-257.911061,-0.872783,70.73152
5.6349,0.019105,-0.019046,0.34116,-0.007651,0.001892,-0.011839,0.18868,-0.499704,0.338678,0.608212,-257.911061,-0.872783,70.73152
5.6548,0.019128,-0.018488,0.339521,-0.007652,0.00189,-0.011842,0.18868,-0.499704,0.338678,0.608212,-257.911061,-0.872783,70.73152
5.6751,0.019202,-0.018951,0.340889,-0.007652,0.001888,-0.011845,0.188649,-0.499406,0.339028,0.608814,-257.914784,-0.872919,70.726767
5.6951,0.018816,-0.018681,0.337983,-0.007653,0.001886,-0.011848,0.189045,-0.499491,0.339732,0.608814,-257.914784,-0.872919,70.726767
5.7155,0.018686,-0.018662,0.337457,-0.007653,0.001885,-0.011851,0.189045,-0.499491,0.339732,0.609845,-257.918527,-0.872797,70.721992
5.7352,0.018548,-0.018647,0.340287,-0.007653,0.001883,-0.011854,0.18754,-0.499895,0.337451,0.609845,-257.918527,-0.872797,70.721992
5.7553,0.019146,-0.019048,0.339231,-0.007654,0.001882,-0.011856,0.18754,-0.499895,0.337451,0.609845,-257.918527,-0.872797,70.721992
5.7753,0.018787,-0.018747,0.334861,-0.007654,0.001881,-0.011858,0.188527,-0.500016,0.338736,0.610362,-257.922255,-0.872784,70.717239
5.7949,0.018678,-0.018532,0.338559,-0.007654,0.001881,-0.01186,0.18762,-0.500184,0.337101,0.610362,-257.922255,-0.872784,70.717239
5.8149,0.018777,-0.018851,0.3373,-0.007654,0.001881,-0.011862,0.187814,-0.499606,0.338181,0.611056,-257.925998,-0.872714,70.712469
5.835,0.018772,-0.018604,0.337466,-0.007654,0.00188,-0.011864,0.187566,-0.500071,0.337357,0.611056,-257.925998,-0.872714,70.712469
5.8553,0.018842,-0.01846,0.33742,-0.007654,0.00188,-0.011866,0.187566,-0.500071,0.337357,0.611056,-257.925998,-0.872714,70.712469
5.8754,0.018516,-0.018581,0.33447,-0.007655,0.00188,-0.011867,0.187352,-0.499734,0.336924,0.61126,-257.929735,-0.872851,70.707707
5.8953,0.018582,-0.018465,0.336999,-0.007655,0.001878,-0.011869,0.186735,-0.499976,0.335866,0.61126,-257.929735,-0.872851,70.707707
5.9153,0.018224,-0.018372,0.336052,-0.007656,0.001876,-0.01187,0.186967,-0.499803,0.336621,0.611579,-257.933474,-0.872955,70.702943
5.9352,0.018463,-0.018433,0.33524,-0.007656,0.001874,-0.011871,0.186441,-0.499842,0.336084,0.611579,-257.933474,-0.872955,70.702943
5.9556,0.018284,-0.01878,0.335519,-0.007657,0.001872,-0.011873,0.186441,-0.499842,0.336084,0.611579,-257.933474,-0.872955,70.702943
5.9753,0.018241,-0.018844,0.335911,-0.007657,0.00187,-0.011874,0.185878,-0.500373,0.335022,0.612031,-257.937211,-0.872751,70.698184
5.9958,0.018569,-0.018445,0.335601,-0.007657,0.001871,-0.011875,0.186032,-0.500363,0.335324,0.612031,-257.937211,-0.872751,70.698184
6.0155,0.018359,-0.018039,0.334818,-0.007657,0.001871,-0.011876,0.186279,-0.500017,0.335221,0.612622,-257.94096,-0.872473,70.693414
6.0356,0.018473,-0.018425,0.335999,-0.007658,0.001868,-0.011877,0.18596,-0.499746,0.334834,0.612622,-257.94096,-0.872473,70.693414
6.0555,0.018308,-0.018445,0.335624,-0.007659,0.001865,-0.011878,0.18596,-0.499746,0.334834,0.612622,-257.94096,-0.872473,70.693414
6.0752,0.017858,-0.018258,0.336061,-0.007659,0.001863,-0.011878,0.185952,-0.500021,0.335126,0.612669,-257.944698,-0.872589,70.688656
6.0954,0.018185,-0.018556,0.334978,-0.007659,0.001862,-0.011879,0.18595,-0.499908,0.335445,0.612669,-257.944698,-0.872589,70.688656
6.1152,0.018187,-0.018313,0.332886,-0.00766,0.001861,-0.01188,0.185596,-0.500233,0.334597,0.6134,-257.948445,-0.872088,70.683893
6.1353,0.018274,-0.018407,0.33445,-0.00766,0.00186,-0.01188,0.184897,-0.50031,0.333022,0.6134,-257.948445,-0.872088,70.683893
6.1551,0.017974,-0.017957,0.335362,-0.00766,0.00186,-0.011881,0.184897,-0.50031,0.333022,0.6134,-257.948445,-0.872088,70.683893
6.175,0.017839,-0.018164,0.333194,-0.00766,0.001859,-0.011881,0.185493,-0.499577,0.334865,0.613554,-257.952192,-0.87205,70.67913
6.1953,0.017914,-0.018108,0.333377,-0.007661,0.001857,-0.011882,0.185107,-0.4998,0.334126,0.613554,-257.952192,-0.87205,70.67913
6.2156,0.017784,-0.017819,0.33301,-0.007661,0.001855,-0.011882,0.184552,-0.500053,0.332996,0.613824,-257.955941,-0.871924,70.674367
6.2357,0.01786,-0.018268,0.332786,-0.007662,0.001852,-0.011883,0.184489,-0.499825,0.332989,0.613824,-257.955941,-0.871924,70.674367
6.2556,0.017799,-0.01812,0.334975,-0.007663,0.00185,-0.011883,0.184489,-0.499825,0.332989,0.613824,-257.955941,-0.871924,70.674367
6.2751,0.017172,-0.018068,0.330827,-0.007663,0.001848,-0.011884,0.185131,-0.499805,0.334478,0.614149,-257.959691,-0.871686,70.669605
6.2955,0.017777,-0.018362,0.330919,-0.007663,0.001848,-0.011884,0.184157,-0.500057,0.332932,0.614149,-257.959691,-0.871686,70.669605
6.3152,0.017783,-0.017915,0.331384,-0.007663,0.001847,-0.011884,0.183232,-0.500715,0.33054,0.614686,-257.963443,-0.871252,70.664845
6.3357,0.017519,-0.018199,0.330531,-0.007664,0.001846,-0.011885,0.183656,-0.500219,0.331288,0.614686,-257.963443,-0.871252,70.664845
6.3557,0.017613,-0.017717,0.331253,-0.007664,0.001845,-0.011885,0.183656,-0.500219,0.331288,0.614686,-257.963443,-0.871252,70.664845
6.3753,0.01743,-0.018189,0.330175,-0.007664,0.001844,-0.011885,0.183149,-0.500023,0.330753,0.614796,-257.9672,-0.871194,70.660078
6.3958,0.017661,-0.018029,0.329828,-0.007665,0.001843,-0.011885,0.182962,-0.500275,0.330464,0.614796,-257.9672,-0.871194,70.660078
6.4153,0.017283,-0.018316,0.330075,-0.007665,0.001841,-0.011886,0.182589,-0.500562,0.329448,0.615069,-257.970949,-0.870984,70.655324
6.4356,0.01756,-0.017921,0.329715,-0.007665,0.001842,-0.011886,0.182569,-0.500765,0.329997,0.615069,-257.970949,-0.870984,70.655324
6.4556,0.017308,-0.017513,0.32933,-0.007665,0.001843,-0.011886,0.182569,-0.500765,0.329997,0.615069,-257.970949,-0.870984,70.655324
6.4751,0.016962,-0.01797,0.328202,-0.007665,0.001844,-0.011886,0.181918,-0.500136,0.328832,0.615285,-257.974703,-0.870806,70.650565
6.4959,0.017041,-0.017796,0.330083,-0.007665,0.001841,-0.011886,0.181652,-0.500388,0.328519,0.615285,-257.974703,-0.870806,70.650565
6.5153,0.01718,-0.017669,0.330078,-0.007666,0.001838,-0.011886,0.182089,-0.500288,0.329698,0.615145,-257.978457,-0.870973,70.645805
6.5353,0.016887,-0.017457,0.32961,-0.007666,0.001836,-0.011887,0.182428,-0.500154,0.330021,0.615145,-257.978457,-0.870973,70.645805
6.5554,0.017051,-0.017803,0.329623,-0.007667,0.001835,-0.011887,0.182428,-0.500154,0.330021,0.615145,-257.978457,-0.870973,70.645805
6.5753,0.017095,-0.017493,0.329262,-0.007667,0.001834,-0.011887,0.181803,-0.500378,0.329126,0.615558,-257.982213,-0.870593,70.641046
6.595,0.017245,-0.017896,0.328599,-0.007668,0.001832,-0.011887,0.181846,-0.500267,0.329124,0.615558,-257.982213,-0.870593,70.641046
6.6148,0.016756,-0.017591,0.326902,-0.007668,0.001831,-0.011887,0.18158,-0.500633,0.32822,0.615897,-257.985971,-0.870292,70.636288
6.6357,0.016825,-0.017359,0.326242,-0.007668,0.001829,-0.011887,0.180605,-0.500588,0.327001,0.615897,-257.985971,-0.870292,70.636288
6.6549,0.016956,-0.017561,0.329381,-0.007669,0.001828,-0.011887,0.180605,-0.500588,0.327001,0.615897,-257.985971,-0.870292,70.636288
6.6754,0.016763,-0.017839,0.327241,-0.007669,0.001826,-0.011887,0.181591,-0.500176,0.328884,0.616103,-257.989769,-0.870104,70.63148
6.6956,0.016962,-0.017394,0.326336,-0.007669,0.001826,-0.011887,0.181162,-0.50044,0.328111,0.616103,-257.989769,-0.870104,70.63148
6.7149,0.016737,-0.017646,0.327973,-0.007669,0.001825,-0.011887,0.180209,-0.500501,0.325964,0.616438,-257.993488,-0.869796,70.626775
6.7353,0.016782,-0.017302,0.32714,-0.00767,0.001824,-0.011888,0.180936,-0.500466,0.327774,0.616438,-257.993488,-0.869796,70.626775
6.755,0.016295,-0.017779,0.326275,-0.00767,0.001824,-0.011888,0.180936,-0.500466,0.327774,0.616438,-257.993488,-0.869796,70.626775
6.7751,0.016358,-0.017146,0.326603,-0.00767,0.001823,-0.011888,0.17943,-0.500904,0.325777,0.616527,-257.997248,-0.869712,70.622019
6.7952,0.016497,-0.017422,0.327135,-0.00767,0.001822,-0.011888,0.179615,-0.500616,0.326055,0.616527,-257.997248,-0.869712,70.622019
6.8155,0.016826,-0.017385,0.325361,-0.007671,0.00182,-0.011888,0.180126,-0.500399,0.326756,0.616662,-258.001009,-0.869582,70.617264
6.8352,0.016596,-0.017652,0.323174,-0.007671,0.001819,-0.011888,0.179863,-0.500605,0.325487,0.616662,-258.001009,-0.869582,70.617264
6.8555,0.016723,-0.017396,0.327783,-0.007672,0.001817,-0.011888,0.179863,-0.500605,0.325487,0.616662,-258.001009,-0.869582,70.617264
6.875,0.0163,-0.017395,0.326878,-0.007672,0.001816,-0.011888,0.180586,-0.500274,0.327285,0.616878,-258.004772,-0.869369,70.612507
6.8953,0.016163,-0.017254,0.326568,-0.007672,0.001815,-0.011888,0.180332,-0.500325,0.327062,0.616878,-258.004772,-0.869369,70.612507
6.9151,0.015855,-0.017233,0.322363,-0.007672,0.001814,-0.011888,0.179518,-0.500323,0.326189,0.617191,-258.008533,-0.869064,70.607755
6.9349,0.016363,-0.017407,0.324963,-0.007673,0.001812,-0.011888,0.177603,-0.500906,0.322689,0.617191,-258.008533,-0.869064,70.607755
6.9552,0.016718,-0.017275,0.324455,-0.007673,0.00181,-0.011888,0.177603,-0.500906,0.322689,0.617191,-258.008533,-0.869064,70.607755
6.9749,0.016553,-0.016887,0.323138,-0.007674,0.001808,-0.011888,0.178974,-0.500695,0.323957,0.617309,-258.012297,-0.868951,70.603002
6.9949,0.016454,-0.016941,0.325013,-0.007674,0.001806,-0.011888,0.178743,-0.500616,0.323566,0.617309,-258.012297,-0.868951,70.603002
7.0153,0.015759,-0.017106,0.323353,-0.007675,0.001805,-0.011888,0.179058,-0.500264,0.324635,0.617763,-258.016062,-0.868508,70.59825
7.0351,0.016169,-0.017473,0.323361,-0.007675,0.001803,-0.011888,0.177909,-0.50064,0.323448,0.617763,-258.016062,-0.868508,70.59825
7.0554,0.015846,-0.017355,0.323048,-0.007676,0.001802,-0.011888,0.177909,-0.50064,0.323448,0.617763,-258.016062,-0.868508,70.59825
7.0749,0.015626,-0.017126,0.32329,-0.007676,0.0018,-0.011888,0.177421,-0.501004,0.32255,0.618013,-258.019829,-0.868264,70.593499
7.0949,0.015767,-0.017314,0.323259,-0.007676,0.0018,-0.011888,0.177475,-0.500886,0.322794,0.618013,-258.019829,-0.868264,70.593499
7.1149,0.01588,-0.016839,0.320878,-0.007676,0.0018,-0.011888,0.177523,-0.500922,0.322881,0.618301,-258.023603,-0.867978,70.58874
7.1351,0.015878,-0.016991,0.321894,-0.007677,0.001797,-0.011888,0.17679,-0.500819,0.321033,0.618301,-258.023603,-0.867978,70.58874
7.155,0.016069,-0.01678,0.321231,-0.007677,0.001795,-0.011888,0.17679,-0.500819,0.321033,0.618301,-258.023603,-0.867978,70.58874
7.1751,0.01598,-0.017235,0.321337,-0.007678,0.001793,-0.011888,0.176765,-0.500722,0.320735,0.618352,-258.02737,-0.867918,70.583992
7.195,0.015545,-0.01724,0.32099,-0.007678,0.001792,-0.011888,0.176847,-0.500893,0.320925,0.618352,-258.02737,-0.867918,70.583992
7.215,0.015766,-0.017021,0.31949,-0.007678,0.001791,-0.011888,0.176204,-0.501214,0.320612,0.618804,-258.031142,-0.867467,70.579242
7.2349,0.015351,-0.016805,0.32058,-0.007679,0.00179,-0.011888,0.175958,-0.501214,0.319568,0.618804,-258.031142,-0.867467,70.579242
7.255,0.015672,-0.017009,0.322172,-0.007679,0.00179,-0.011888,0.175958,-0.501214,0.319568,0.618804,-258.031142,-0.867467,70.579242
7.2751,0.015899,-0.016723,0.320816,-0.007679,0.001789,-0.011888,0.176824,-0.5008,0.321676,0.618962,-258.034906,-0.867306,70.574503
7.295,0.015441,-0.016455,0.320974,-0.007679,0.001788,-0.011888,0.176745,-0.500763,0.321268,0.618962,-258.034906,-0.867306,70.574503
7.315,0.015443,-0.016698,0.320741,-0.007679,0.001787,-0.011888,0.176091,-0.500432,0.320595,0.619086,-258.038684,-0.867172,70.569747
7.3349,0.015393,-0.016633,0.32136,-0.00768,0.001785,-0.011888,0.176207,-0.500669,0.320711,0.619086,-258.038684,-0.867172,70.569747
7.3554,0.015618,-0.016979,0.320276,-0.00768,0.001784,-0.011888,0.176207,-0.500669,0.320711,0.619086,-258.038684,-0.867172,70.569747
7.3751,0.015439,-0.016803,0.320583,-0.007681,0.001783,-0.011888,0.175853,-0.501075,0.319779,0.619217,-258.042456,-0.867039,70.565
7.3951,0.015934,-0.016543,0.317637,-0.007681,0.001782,-0.011888,0.175936,-0.500974,0.320051,0.619217,-258.042456,-0.867039,70.565
7.415,0.015486,-0.016685,0.317584,-0.007681,0.001782,-0.011888,0.174968,-0.501053,0.317258,0.619562,-258.046229,-0.866695,70.560256
7.4353,0.01517,-0.016875,0.31829,-0.007681,0.00178,-0.011888,0.174752,-0.501171,0.317537,0.619562,-258.046229,-0.866695,70.560256
7.4556,0.015274,-0.016401,0.318624,-0.007682,0.001779,-0.011888,0.174752,-0.501171,0.317537,0.619562,-258.046229,-0.866695,70.560256
7.4749,0.014892,-0.01693,0.317088,-0.007682,0.001777,-0.011888,0.174706,-0.500761,0.318123,0.619592,-258.049997,-0.866658,70.555516
7.4952,0.015675,-0.016474,0.317407,-0.007682,0.001776,-0.011888,0.174354,-0.501059,0.317657,0.619592,-258.049997,-0.866658,70.555516
7.5155,0.015004,-0.016971,0.318122,-0.007683,0.001774,-0.011888,0.174597,-0.501021,0.317027,0.619918,-258.053773,-0.866329,70.550771
7.5357,0.014817,-0.016387,0.318059,-0.007683,0.001775,-0.011888,0.174516,-0.501341,0.317969,0.619918,-258.053773,-0.866329,70.550771
7.5555,0.015076,-0.016514,0.317072,-0.007683,0.001775,-0.011888,0.174516,-0.501341,0.317969,0.619918,-258.053773,-0.866329,70.550771
7.5755,0.014981,-0.01654,0.319037,-0.007682,0.001776,-0.011888,0.173756,-0.501122,0.316572,0.620139,-258.057549,-0.866106,70.546027
7.5955,0.015123,-0.016324,0.316956,-0.007683,0.001774,-0.011888,0.174195,-0.500997,0.317504,0.620139,-258.057549,-0.866106,70.546027
7.6151,0.01455,-0.01644,0.315402,-0.007683,0.001772,-0.011888,0.173826,-0.500943,0.316576,0.620023,-258.061325,-0.866206,70.541283
7.635,0.014665,-0.016285,0.317215,-0.007684,0.00177,-0.011888,0.172835,-0.501253,0.315488,0.620023,-258.061325,-0.866206,70.541283
7.6555,0.014399,-0.016436,0.316799,-0.007684,0.001768,-0.011888,0.172835,-0.501253,0.315488,0.620023,-258.061325,-0.866206,70.541283
7.6754,0.014999,-0.016593,0.316431,-0.007685,0.001766,-0.011888,0.172948,-0.501087,0.3163,0.620282,-258.065102,-0.865946,70.536539
7.6952,0.014588,-0.016269,0.315171,-0.007685,0.001765,-0.011888,0.173215,-0.501166,0.316296,0.620282,-258.065102,-0.865946,70.536539
7.7148,0.014715,-0.016356,0.314724,-0.007685,0.001764,-0.011888,0.172427,-0.501171,0.314792,0.620707,-258.06888,-0.865527,70.531798
7.7352,0.014055,-0.016429,0.316306,-0.007686,0.001763,-0.011888,0.17256,-0.501295,0.31471,0.620707,-258.06888,-0.865527,70.531798
7.7557,0.014237,-0.016616,0.314672,-0.007686,0.001761,-0.011888,0.17256,-0.501295,0.31471,0.620707,-258.06888,-0.865527,70.531798
7.7749,0.014311,-0.016053,0.313884,-0.007686,0.00176,-0.011888,0.171753,-0.501604,0.314171,0.620842,-258.07266,-0.865391,70.527056
7.7949,0.014466,-0.015977,0.314626,-0.007687,0.001759,-0.011888,0.171725,-0.50142,0.314,0.620842,-258.07266,-0.865391,70.527056
7.8151,0.014236,-0.016767,0.313121,-0.007687,0.001758,-0.011888,0.17204,-0.500965,0.314246,0.621155,-258.076447,-0.865082,70.522308
7.8351,0.014137,-0.016055,0.314211,-0.007687,0.001758,-0.011888,0.171379,-0.501885,0.313199,0.621155,-258.076447,-0.865082,70.522308
7.855,0.014543,-0.016249,0.314156,-0.007687,0.001759,-0.011888,0.171379,-0.501885,0.313199,0.621155,-258.076447,-0.865082,70.522308
7.8751,0.014337,-0.016002,0.312773,-0.007687,0.001759,-0.011888,0.171812,-0.501317,0.313659,0.62132,-258.080229,-0.864913,70.517568
7.8952,0.01419,-0.015767,0.313278,-0.007687,0.001757,-0.011888,0.171549,-0.501297,0.313239,0.62132,-258.080229,-0.864913,70.517568
7.9154,0.014418,-0.015806,0.311333,-0.007688,0.001755,-0.011888,0.171111,-0.500966,0.3129,0.621172,-258.084007,-0.865036,70.51283
7.9353,0.01419,-0.015848,0.313209,-0.007689,0.001751,-0.011888,0.170673,-0.501261,0.311451,0.621172,-258.084007,-0.865036,70.51283
7.9551,0.014428,-0.015631,0.311945,-0.00769,0.001747,-0.011888,0.170673,-0.501261,0.311451,0.621172,-258.084007,-0.865036,70.51283
7.9751,0.013999,-0.01579,0.311979,-0.00769,0.001744,-0.011888,0.170623,-0.501046,0.311447,0.621519,-258.087785,-0.864693,70.508097
7.9951,0.013898,-0.015883,0.31311,-0.007691,0.001741,-0.011888,0.170552,-0.5011,0.311604,0.621519,-258.087785,-0.864693,70.508097
8.0148,0.014297,-0.015914,0.31263,-0.007692,0.001738,-0.011888,0.170738,-0.501109,0.312731,0.622254,-258.091572,-0.863975,70.503359
8.0354,0.013752,-0.015903,0.311084,-0.007692,0.001738,-0.011888,0.171103,-0.501187,0.31262,0.622254,-258.091572,-0.863975,70.503359
8.0558,0.014118,-0.016008,0.311477,-0.007692,0.001737,-0.011888,0.171103,-0.501187,0.31262,0.622254,-258.091572,-0.863975,70.503359
8.0752,0.01362,-0.016058,0.310924,-0.007692,0.001736,-0.011888,0.170084,-0.501497,0.310976,0.62268,-258.095365,-0.863561,70.498617
8.0952,0.013995,-0.01609,0.310135,-0.007693,0.001736,-0.011888,0.169872,-0.501543,0.310899,0.62268,-258.095365,-0.863561,70.498617
8.1151,0.013711,-0.016117,0.310426,-0.007693,0.001735,-0.011888,0.169391,-0.501781,0.309757,0.62281,-258.099152,-0.863418,70.493883
8.1353,0.013515,-0.015743,0.309793,-0.007693,0.001736,-0.011888,0.169476,-0.501745,0.310348,0.62281,-258.099152,-0.863418,70.493883
8.1551,0.01396,-0.015791,0.310023,-0.007693,0.001736,-0.011888,0.169476,-0.501745,0.310348,0.62281,-258.099152,-0.863418,70.493883
8.1753,0.013912,-0.015715,0.309043,-0.007693,0.001736,-0.011888,0.169222,-0.501507,0.309525,0.622867,-258.102941,-0.863348,70.489148
8.195,0.013674,-0.015439,0.308531,-0.007693,0.001734,-0.011888,0.169105,-0.501529,0.309272,0.622867,-258.102941,-0.863348,70.489148
8.2154,0.013565,-0.015841,0.30783,-0.007694,0.001732,-0.011888,0.16829,-0.501379,0.308153,0.622831,-258.10673,-0.863356,70.484412
8.2352,0.013839,-0.016066,0.307311,-0.007694,0.00173,-0.011888,0.168096,-0.501827,0.307839,0.622831,-258.10673,-0.863356,70.484412
8.2555,0.013759,-0.015893,0.308897,-0.007694,0.001729,-0.011888,0.168096,-0.501827,0.307839,0.622831,-258.10673,-0.863356,70.484412
8.2751,0.013306,-0.015698,0.308656,-0.007695,0.001728,-0.011888,0.168475,-0.501783,0.3084,0.623121,-258.110513,-0.863067,70.479687
8.2954,0.013574,-0.015646,0.309218,-0.007695,0.001727,-0.011888,0.168339,-0.501711,0.308447,0.623121,-258.110513,-0.863067,70.479687
8.3154,0.013214,-0.015483,0.307836,-0.007695,0.001726,-0.011888,0.168523,-0.50148,0.308839,0.623404,-258.114304,-0.862778,70.474954
8.3354,0.01306,-0.015912,0.307777,-0.007696,0.001723,-0.011888,0.1678,-0.501507,0.307907,0.623404,-258.114304,-0.862778,70.474954
8.3552,0.013105,-0.015674,0.308873,-0.007696,0.001721,-0.011888,0.1678,-0.501507,0.307907,0.623404,-258.114304,-0.862778,70.474954
8.3754,0.01312,-0.015613,0.307606,-0.007697,0.001719,-0.011888,0.167808,-0.501568,0.308375,0.623529,-258.118096,-0.862648,70.470222
8.3953,0.013593,-0.015741,0.30662,-0.007697,0.001719,-0.011888,0.167661,-0.501615,0.308006,0.623529,-258.118096,-0.862648,70.470222
8.4151,0.012855,-0.015346,0.305569,-0.007697,0.001718,-0.011888,0.16728,-0.501976,0.306241,0.623981,-258.12189,-0.862199,70.46549
8.4356,0.01322,-0.015104,0.305922,-0.007698,0.001715,-0.011888,0.166356,-0.501744,0.305609,0.623981,-258.12189,-0.862199,70.46549
8.455,0.013315,-0.015056,0.307141,-0.007698,0.001713,-0.011888,0.166356,-0.501744,0.305609,0.623981,-258.12189,-0.862199,70.46549
8.4756,0.012928,-0.015318,0.30608,-0.007699,0.001711,-0.011888,0.167177,-0.501218,0.306644,0.624092,-258.125688,-0.862081,70.460754
8.4954,0.01308,-0.015777,0.305111,-0.007699,0.001709,-0.011888,0.166907,-0.501382,0.306358,0.624092,-258.125688,-0.862081,70.460754
8.5151,0.012856,-0.015198,0.304803,-0.0077,0.001706,-0.011888,0.166033,-0.502243,0.304732,0.624552,-258.129485,-0.861625,70.456024
8.5353,0.012973,-0.015298,0.305415,-0.0077,0.001705,-0.011888,0.165908,-0.501739,0.304778,0.624552,-258.129485,-0.861625,70.456024
8.5553,0.012914,-0.015218,0.30675,-0.007701,0.001703,-0.011888,0.165908,-0.501739,0.304778,0.624552,-258.129485,-0.861625,70.456024
8.5754,0.012898,-0.015385,0.306533,-0.007701,0.001702,-0.011888,0.166586,-0.50144,0.306253,0.624906,-258.133295,-0.861274,70.451281
8.5953,0.012319,-0.014848,0.305896,-0.007701,0.001701,-0.011888,0.166634,-0.501515,0.306312,0.624906,-258.133295,-0.861274,70.451281
8.6154,0.012759,-0.015369,0.304394,-0.007701,0.001701,-0.011888,0.165656,-0.501194,0.30552,0.625216,-258.137081,-0.860957,70.44657
8.6359,0.01279,-0.015458,0.30501,-0.007702,0.0017,-0.011888,0.165603,-0.501851,0.304486,0.625216,-258.137081,-0.860957,70.44657
8.6557,0.012644,-0.015445,0.304653,-0.007702,0.001699,-0.011888,0.165603,-0.501851,0.304486,0.625216,-258.137081,-0.860957,70.44657
8.6753,0.01246,-0.015013,0.304375,-0.007702,0.001699,-0.011888,0.165297,-0.501989,0.304156,0.6253,-258.140876,-0.860864,70.441851
8.6955,0.012419,-0.01507,0.304349,-0.007702,0.001698,-0.011888,0.165262,-0.501822,0.304188,0.6253,-258.140876,-0.860864,70.441851
8.7151,0.012977,-0.015088,0.302512,-0.007702,0.001697,-0.011888,0.165002,-0.501654,0.30397,0.625402,-258.144677,-0.860742,70.437123
8.7355,0.012774,-0.014731,0.303868,-0.007703,0.001696,-0.011888,0.16491,-0.501907,0.302621,0.625402,-258.144677,-0.860742,70.437123
8.7557,0.012768,-0.015005,0.30304,-0.007703,0.001694,-0.011888,0.16491,-0.501907,0.302621,0.625402,-258.144677,-0.860742,70.437123
8.7752,0.01194,-0.015759,0.301332,-0.007703,0.001693,-0.011888,0.164634,-0.501794,0.302541,0.625516,-258.148476,-0.860616,70.432399
8.7952,0.012505,-0.015267,0.304207,-0.007703,0.001693,-0.011888,0.164064,-0.502192,0.302,0.625516,-258.148476,-0.860616,70.432399
8.8148,0.012179,-0.015139,0.30283,-0.007703,0.001692,-0.011888,0.165017,-0.501873,0.303825,0.625829,-258.152278,-0.860295,70.427675
8.8349,0.012245,-0.01508,0.302086,-0.007704,0.001691,-0.011888,0.164328,-0.501927,0.302902,0.625829,-258.152278,-0.860295,70.427675
8.855,0.012515,-0.014765,0.301483,-0.007704,0.001691,-0.011888,0.164328,-0.501927,0.302902,0.625829,-258.152278,-0.860295,70.427675
8.875,0.012491,-0.015216,0.301134,-0.007704,0.00169,-0.011887,0.163624,-0.50179,0.300985,0.625861,-258.15608,-0.860253,70.422951
8.8951,0.012546,-0.014792,0.301429,-0.007705,0.001688,-0.011888,0.163641,-0.501986,0.300988,0.625861,-258.15608,-0.860253,70.422951
8.9151,0.012394,-0.014756,0.301074,-0.007705,0.001686,-0.011888,0.163706,-0.501819,0.30105,0.625998,-258.159883,-0.860103,70.418227
8.9352,0.011986,-0.015234,0.300452,-0.007706,0.001684,-0.011888,0.163626,-0.501817,0.301052,0.625998,-258.159883,-0.860103,70.418227
8.9552,0.012105,-0.015045,0.301876,-0.007706,0.001682,-0.011888,0.163626,-0.501817,0.301052,0.625998,-258.159883,-0.860103,70.418227
8.9752,0.011781,-0.014759,0.301051,-0.007706,0.00168,-0.011888,0.163405,-0.502012,0.301378,0.626279,-258.163687,-0.859828,70.413504
8.9953,0.012242,-0.015023,0.298884,-0.007707,0.001679,-0.011888,0.163206,-0.501938,0.301188,0.626279,-258.163687,-0.859828,70.413504
9.0151,0.011812,-0.014861,0.300048,-0.007707,0.001679,-0.011888,0.162163,-0.502433,0.298505,0.626724,-258.167498,-0.85939,70.408776
9.0355,0.01214,-0.015047,0.298308,-0.007707,0.001678,-0.011888,0.162505,-0.502108,0.299896,0.626724,-258.167498,-0.85939,70.408776
9.0559,0.011829,-0.01481,0.297612,-0.007707,0.001677,-0.011888,0.162505,-0.502108,0.299896,0.626724,-258.167498,-0.85939,70.408776
9.0755,0.011878,-0.015098,0.299093,-0.007707,0.001676,-0.011888,0.161052,-0.502417,0.297115,0.626826,-258.171299,-0.859281,70.404061
9.0956,0.011767,-0.015195,0.297633,-0.007708,0.001675,-0.011888,0.161461,-0.502436,0.297861,0.626826,-258.171299,-0.859281,70.404061
9.1154,0.011473,-0.014615,0.297015,-0.007708,0.001674,-0.011887,0.161078,-0.502793,0.297253,0.627008,-258.175112,-0.85909,70.399333
9.1356,0.011941,-0.014919,0.297818,-0.007708,0.001672,-0.011888,0.160751,-0.502329,0.297017,0.627008,-258.175112,-0.85909,70.399333
9.1557,0.011567,-0.014853,0.296755,-0.007709,0.00167,-0.011888,0.160751,-0.502329,0.297017,0.627008,-258.175112,-0.85909,70.399333
9.1753,0.01148,-0.014668,0.296256,-0.007709,0.001668,-0.011888,0.16037,-0.502588,0.296255,0.627128,-258.178914,-0.858963,70.394621
9.1954,0.01181,-0.014835,0.297404,-0.00771,0.001667,-0.011888,0.160333,-0.502536,0.296199,0.627128,-258.178914,-0.858963,70.394621
9.215,0.011125,-0.014542,0.297453,-0.00771,0.001666,-0.011887,0.16101,-0.502468,0.297025,0.627544,-258.182729,-0.858549,70.389895
9.2352,0.011388,-0.014738,0.297508,-0.00771,0.001665,-0.011887,0.160624,-0.502176,0.297394,0.627544,-258.182729,-0.858549,70.389895
9.255,0.011282,-0.014495,0.297714,-0.007711,0.001663,-0.011887,0.160624,-0.502176,0.297394,0.627544,-258.182729,-0.858549,70.389895
9.275,0.011391,-0.01434,0.297382,-0.007711,0.001662,-0.011887,0.160554,-0.502088,0.297216,0.627682,-258.186534,-0.858404,70.385184
9.2955,0.011551,-0.014635,0.298063,-0.007711,0.00166,-0.011887,0.160629,-0.502037,0.297227,0.627682,-258.186534,-0.858404,70.385184
9.3149,0.010988,-0.014648,0.295965,-0.007712,0.001658,-0.011888,0.161072,-0.502169,0.297684,0.627984,-258.190351,-0.8581,70.38046
9.3356,0.010936,-0.014472,0.298055,-0.007712,0.001658,-0.011887,0.159839,-0.502449,0.296095,0.627984,-258.190351,-0.8581,70.38046
9.3554,0.011253,-0.014386,0.29688,-0.007712,0.001658,-0.011887,0.159839,-0.502449,0.296095,0.627984,-258.190351,-0.8581,70.38046
9.3761,0.011293,-0.014036,0.294815,-0.007712,0.001657,-0.011887,0.160118,-0.502103,0.296383,0.628244,-258.194167,-0.857842,70.375739
9.3951,0.011193,-0.014402,0.294909,-0.007713,0.001655,-0.011887,0.159823,-0.502078,0.295694,0.628244,-258.194167,-0.857842,70.375739
9.4153,0.011084,-0.014482,0.294915,-0.007713,0.001652,-0.011887,0.159176,-0.502406,0.294531,0.628297,-258.197971,-0.857773,70.371035
9.4352,0.010992,-0.014516,0.294801,-0.007713,0.001652,-0.011887,0.159294,-0.50246,0.294862,0.628297,-258.197971,-0.857773,70.371035
9.4551,0.011287,-0.014258,0.294915,-0.007713,0.001651,-0.011887,0.159294,-0.50246,0.294862,0.628297,-258.197971,-0.857773,70.371035
9.4753,0.011014,-0.014426,0.29327,-0.007714,0.001651,-0.011887,0.159193,-0.502267,0.294417,0.628656,-258.201792,-0.857417,70.366313
9.4953,0.011251,-0.014432,0.293229,-0.007714,0.001649,-0.011887,0.158849,-0.502428,0.293889,0.628656,-258.201792,-0.857417,70.366313
9.5152,0.010835,-0.014282,0.293697,-0.007714,0.001648,-0.011887,0.158413,-0.502684,0.29285,0.628774,-258.205608,-0.857285,70.361597
9.5358,0.011031,-0.014332,0.294145,-0.007715,0.001646,-0.011887,0.158458,-0.502466,0.293605,0.628774,-258.205608,-0.857285,70.361597
9.5551,0.010922,-0.014228,0.292118,-0.007715,0.001645,-0.011887,0.158458,-0.502466,0.293605,0.628774,-258.205608,-0.857285,70.361597
9.5751,0.010821,-0.014133,0.291636,-0.007715,0.001644,-0.011887,0.157464,-0.50265,0.291622,0.628987,-258.209416,-0.85707,70.356893
9.5955,0.010767,-0.014523,0.291813,-0.007716,0.001642,-0.011887,0.157423,-0.502632,0.29157,0.628987,-258.209416,-0.85707,70.356893
9.6152,0.010667,-0.014108,0.293621,-0.007716,0.00164,-0.011887,0.157237,-0.502983,0.291433,0.629228,-258.213233,-0.856822,70.35218
9.6353,0.010732,-0.014282,0.292988,-0.007716,0.001639,-0.011887,0.158161,-0.502348,0.293394,0.629228,-258.213233,-0.856822,70.35218
9.6552,0.010939,-0.014061,0.291141,-0.007717,0.001638,-0.011887,0.158161,-0.502348,0.293394,0.629228,-258.213233,-0.856822,70.35218
9.675,0.010428,-0.013935,0.2918,-0.007717,0.001637,-0.011887,0.157004,-0.502626,0.290644,0.629495,-258.217057,-0.856557,70.347462
9.6951,0.010604,-0.014397,0.293583,-0.007717,0.001635,-0.011887,0.157023,-0.502526,0.29106,0.629495,-258.217057,-0.856557,70.347462
9.7151,0.010552,-0.013862,0.291678,-0.007718,0.001633,-0.011887,0.157941,-0.502597,0.293206,0.629715,-258.220876,-0.856329,70.342751
9.7356,0.010602,-0.013915,0.291457,-0.007718,0.001631,-0.011887,0.157258,-0.502346,0.291791,0.629715,-258.220876,-0.856329,70.342751
9.7555,0.010351,-0.014024,0.292247,-0.007719,0.001629,-0.011887,0.157258,-0.502346,0.291791,0.629715,-258.220876,-0.856329,70.342751
9.7749,0.010078,-0.014002,0.290691,-0.007719,0.001628,-0.011887,0.156956,-0.502427,0.29175,0.630006,-258.224691,-0.856042,70.338048
9.7955,0.01042,-0.014148,0.291586,-0.007719,0.001627,-0.011887,0.15663,-0.502503,0.29126,0.630006,-258.224691,-0.856042,70.338048
9.8153,0.010202,-0.013843,0.29056,-0.007719,0.001626,-0.011887,0.15678,-0.502641,0.291207,0.630353,-258.228513,-0.855694,70.333339
9.8352,0.009872,-0.013749,0.290429,-0.00772,0.001625,-0.011887,0.156341,-0.502483,0.290599,0.630353,-258.228513,-0.855694,70.333339
9.8554,0.010063,-0.014138,0.28975,-0.00772,0.001624,-0.011887,0.156341,-0.502483,0.290599,0.630353,-258.228513,-0.855694,70.333339
9.8756,0.010248,-0.013854,0.288674,-0.00772,0.001622,-0.011887,0.155447,-0.502905,0.289252,0.630471,-258.232336,-0.855569,70.328631
9.8952,0.010047,-0.013603,0.289892,-0.00772,0.001622,-0.011887,0.155405,-0.502846,0.288961,0.630471,-258.232336,-0.855569,70.328631
9.9152,0.01027,-0.014067,0.290525,-0.00772,0.001621,-0.011887,0.155579,-0.502344,0.289513,0.63074,-258.23616,-0.855296,70.323923
9.9353,0.009983,-0.01393,0.287535,-0.00772,0.001622,-0.011887,0.156279,-0.502664,0.290415,0.63074,-258.23616,-0.855296,70.323923
9.9554,0.010034,-0.013817,0.289046,-0.00772,0.001622,-0.011887,0.156279,-0.502664,0.290415,0.63074,-258.23616,-0.855296,70.323923
9.9749,0.010116,-0.014246,0.288047,-0.00772,0.001622,-0.011887,0.155074,-0.502687,0.288548,0.630806,-258.239984,-0.855217,70.319216
9.9949,0.010021,-0.01408,0.287312,-0.007721,0.001621,-0.011887,0.155005,-0.502913,0.288287,0.630806,-258.239984,-0.855217,70.319216
10.0149,0.009669,-0.01371,0.287338,-0.007721,0.00162,-0.011887,0.154292,-0.503194,0.286933,0.630772,-258.243809,-0.855225,70.314508
10.0352,0.009925,-0.013989,0.287861,-0.007721,0.001618,-0.011887,0.154198,-0.502839,0.287279,0.630772,-258.243809,-0.855225,70.314508
10.055,0.009647,-0.013459,0.287781,-0.007722,0.001616,-0.011887,0.154198,-0.502839,0.287279,0.630772,-258.243809,-0.855225,70.314508
10.0754,0.009699,-0.013712,0.286828,-0.007722,0.001615,-0.011887,0.154069,-0.502513,0.287284,0.630873,-258.247633,-0.855118,70.309801
10.0952,0.009688,-0.013868,0.286315,-0.007723,0.001612,-0.011887,0.153996,-0.502664,0.28704,0.630873,-258.247633,-0.855118,70.309801
10.115,0.009871,-0.013571,0.287119,-0.007723,0.00161,-0.011887,0.153471,-0.503127,0.285936,0.631275,-258.251465,-0.854726,70.305089
10.1352,0.009757,-0.013521,0.287226,-0.007724,0.001608,-0.011887,0.154205,-0.502736,0.286984,0.631275,-258.251465,-0.854726,70.305089
10.1551,0.009626,-0.013348,0.283547,-0.007724,0.001607,-0.011887,0.154205,-0.502736,0.286984,0.631275,-258.251465,-0.854726,70.305089
10.1755,0.009374,-0.013582,0.284426,-0.007724,0.001606,-0.011887,0.151977,-0.503009,0.283051,0.63163,-258.255286,-0.854383,70.300392
10.1952,0.00971,-0.01365,0.286735,-0.007725,0.001603,-0.011887,0.152147,-0.503046,0.283556,0.63163,-258.255286,-0.854383,70.300392
10.2151,0.009903,-0.013489,0.284056,-0.007725,0.001601,-0.011887,0.153699,-0.502848,0.286356,0.631898,-258.259115,-0.854113,70.295689
10.2356,0.009085,-0.013259,0.284851,-0.007726,0.001599,-0.011887,0.152906,-0.503032,0.284269,0.631898,-258.259115,-0.854113,70.295689
10.2556,0.009742,-0.01333,0.286037,-0.007726,0.001598,-0.011887,0.152906,-0.503032,0.284269,0.631898,-258.259115,-0.854113,70.295689
10.2753,0.009555,-0.013593,0.285034,-0.007726,0.001597,-0.011887,0.15331,-0.502636,0.285539,0.632272,-258.262946,-0.853748,70.290986
10.2953,0.009611,-0.013799,0.284122,-0.007726,0.001596,-0.011887,0.15313,-0.502793,0.285276,0.632272,-258.262946,-0.853748,70.290986
10.3152,0.009426,-0.01324,0.284036,-0.007727,0.001595,-0.011887,0.152321,-0.503372,0.283744,0.632494,-258.266777,-0.853518,70.286286
10.3353,0.008961,-0.013692,0.285396,-0.007727,0.001593,-0.011887,0.15233,-0.502857,0.283991,0.632494,-258.266777,-0.853518,70.286286
10.3553,0.009256,-0.013298,0.284128,-0.007727,0.001592,-0.011887,0.15233,-0.502857,0.283991,0.632494,-258.266777,-0.853518,70.286286
10.3753,0.008863,-0.013193,0.28354,-0.007728,0.00159,-0.011887,0.15189,-0.502877,0.28363,0.63265,-258.27061,-0.853356,70.281584
10.3951,0.009456,-0.012984,0.283034,-0.007728,0.001588,-0.011887,0.15171,-0.502861,0.283536,0.63265,-258.27061,-0.853356,70.281584
10.4152,0.009255,-0.013167,0.282186,-0.007728,0.001587,-0.011887,0.151634,-0.502712,0.282656,0.632997,-258.274451,-0.853004,70.276875
10.4356,0.00929,-0.013165,0.284547,-0.007729,0.001585,-0.011887,0.151287,-0.502973,0.282208,0.632997,-258.274451,-0.853004,70.276875
10.4559,0.008771,-0.01321,0.282507,-0.007729,0.001583,-0.011887,0.151287,-0.502973,0.282208,0.632997,-258.274451,-0.853004,70.276875
10.4754,0.008933,-0.013047,0.283429,-0.00773,0.001582,-0.011887,0.150611,-0.50302,0.28201,0.633228,-258.278284,-0.852774,70.272179
10.4951,0.009066,-0.013244,0.282542,-0.00773,0.00158,-0.011887,0.150959,-0.502892,0.282532,0.633228,-258.278284,-0.852774,70.272179
10.5153,0.008608,-0.01305,0.282936,-0.00773,0.001579,-0.011887,0.151003,-0.503043,0.282164,0.633578,-258.282122,-0.852417,70.267479
10.535,0.008733,-0.013097,0.282291,-0.00773,0.001578,-0.011887,0.150977,-0.502797,0.282851,0.633578,-258.282122,-0.852417,70.267479
10.5553,0.008874,-0.013207,0.282536,-0.007731,0.001576,-0.011887,0.150977,-0.502797,0.282851,0.633578,-258.282122,-0.852417,70.267479
10.5751,0.008709,-0.013238,0.280458,-0.007731,0.001575,-0.011887,0.150729,-0.503013,0.282038,0.63377,-258.285952,-0.852219,70.262791
10.5953,0.008517,-0.013192,0.280418,-0.007731,0.001575,-0.011887,0.150346,-0.503137,0.281342,0.63377,-258.285952,-0.852219,70.262791
10.6157,0.008504,-0.012967,0.281546,-0.007731,0.001575,-0.011887,0.149411,-0.503291,0.280037,0.634013,-258.289797,-0.851967,70.258087
10.6349,0.008468,-0.012705,0.279436,-0.007732,0.001573,-0.011887,0.150113,-0.502927,0.28138,0.634013,-258.289797,-0.851967,70.258087
10.6552,0.008461,-0.012824,0.278171,-0.007732,0.001572,-0.011887,0.150113,-0.502927,0.28138,0.634013,-258.289797,-0.851967,70.258087
10.6755,0.008646,-0.01317,0.280247,-0.007732,0.001571,-0.011887,0.148177,-0.503244,0.277674,0.634051,-258.293629,-0.851916,70.253399
10.6951,0.008112,-0.013141,0.280158,-0.007733,0.001569,-0.011887,0.148757,-0.503259,0.278654,0.634051,-258.293629,-0.851916,70.253399
10.7152,0.00851,-0.012693,0.280877,-0.007733,0.001567,-0.011887,0.14888,-0.503277,0.279779,0.634334,-258.297469,-0.851626,70.248704
10.735,0.008597,-0.012915,0.280309,-0.007733,0.001565,-0.011887,0.149772,-0.502762,0.280752,0.634334,-258.297469,-0.851626,70.248704
10.755,0.008391,-0.013007,0.278245,-0.007734,0.001563,-0.011887,0.149772,-0.502762,0.280752,0.634334,-258.297469,-0.851626,70.248704
10.775,0.008608,-0.012966,0.277305,-0.007734,0.001562,-0.011887,0.148141,-0.503418,0.277746,0.634574,-258.301327,-0.851383,70.243989
10.7954,0.008247,-0.013238,0.279449,-0.007734,0.001561,-0.011887,0.148139,-0.503447,0.277506,0.634574,-258.301327,-0.851383,70.243989
10.8154,0.008653,-0.012834,0.277639,-0.007734,0.001561,-0.011887,0.148666,-0.503474,0.279068,0.634967,-258.305158,-0.850993,70.239311
10.8353,0.007917,-0.012785,0.278556,-0.007735,0.00156,-0.011887,0.148446,-0.503321,0.277753,0.634967,-258.305158,-0.850993,70.239311
10.855,0.00822,-0.012806,0.277197,-0.007735,0.001559,-0.011887,0.148446,-0.503321,0.277753,0.634967,-258.305158,-0.850993,70.239311
10.8749,0.008497,-0.012862,0.276235,-0.007735,0.001558,-0.011887,0.147458,-0.503363,0.2767,0.635036,-258.308995,-0.850912,70.234624
10.8953,0.007835,-0.012697,0.277598,-0.007735,0.001557,-0.011887,0.147475,-0.503433,0.276454,0.635036,-258.308995,-0.850912,70.234624
10.9149,0.008215,-0.012899,0.275739,-0.007735,0.001556,-0.011887,0.147349,-0.503192,0.27722,0.635192,-258.312839,-0.850745,70.229933
10.9352,0.008028,-0.012651,0.277365,-0.007736,0.001555,-0.011887,0.147079,-0.503594,0.275854,0.635192,-258.312839,-0.850745,70.229933
10.9555,0.007832,-0.012682,0.276153,-0.007736,0.001555,-0.011886,0.147079,-0.503594,0.275854,0.635192,-258.312839,-0.850745,70.229933
10.9753,0.007693,-0.012627,0.275101,-0.007736,0.001554,-0.011886,0.146557,-0.503384,0.275655,0.635364,-258.316683,-0.850567,70.225242
10.9954,0.007822,-0.012843,0.27505,-0.007736,0.001552,-0.011886,0.146388,-0.503414,0.275374,0.635364,-258.316683,-0.850567,70.225242
11.0153,0.007574,-0.012975,0.277378,-0.007737,0.00155,-0.011886,0.146084,-0.503692,0.27467,0.635472,-258.320528,-0.850447,70.220551
11.0351,0.007882,-0.012852,0.277244,-0.007737,0.001551,-0.011886,0.147113,-0.503501,0.277114,0.635472,-258.320528,-0.850447,70.220551
11.0555,0.008197,-0.012711,0.275443,-0.007736,0.001552,-0.011886,0.147113,-0.503501,0.277114,0.635472,-258.320528,-0.850447,70.220551
11.0755,0.008358,-0.012473,0.275737,-0.007736,0.001552,-0.011886,0.146573,-0.503512,0.274944,0.635756,-258.324374,-0.850164,70.21586
11.0956,0.007712,-0.012854,0.273847,-0.007737,0.00155,-0.011886,0.146793,-0.503392,0.275208,0.635756,-258.324374,-0.850164,70.21586
11.1152,0.007296,-0.013036,0.273265,-0.007737,0.001548,-0.011886,0.145384,-0.50387,0.273468,0.635596,-258.328229,-0.850299,70.211159
11.1353,0.007555,-0.012306,0.274709,-0.007737,0.001549,-0.011886,0.144959,-0.504093,0.273264,0.635596,-258.328229,-0.850299,70.211159
11.1553,0.007566,-0.012491,0.272794,-0.007737,0.00155,-0.011886,0.144959,-0.504093,0.273264,0.635596,-258.328229,-0.850299,70.211159
11.1754,0.007594,-0.012539,0.2753,-0.007737,0.00155,-0.011886,0.144644,-0.503657,0.272298,0.635868,-258.332066,-0.850032,70.206481
11.1955,0.007402,-0.012396,0.273178,-0.007737,0.001547,-0.011886,0.145251,-0.503529,0.273461,0.635868,-258.332066,-0.850032,70.206481
11.2151,0.007534,-0.012736,0.272388,-0.007738,0.001545,-0.011886,0.144746,-0.503503,0.2728,0.635742,-258.335919,-0.850136,70.201783
11.235,0.007648,-0.01245,0.273169,-0.007738,0.001544,-0.011886,0.144728,-0.503896,0.272405,0.635742,-258.335919,-0.850136,70.201783
11.256,0.007669,-0.01243,0.273879,-0.007738,0.001543,-0.011886,0.144728,-0.503896,0.272405,0.635742,-258.335919,-0.850136,70.201783
11.2755,0.007553,-0.012523,0.271198,-0.007739,0.001542,-0.011886,0.145276,-0.503447,0.273378,0.636133,-258.339767,-0.849756,70.197095
11.295,0.007309,-0.012762,0.271762,-0.007739,0.00154,-0.011886,0.144805,-0.503622,0.272463,0.636133,-258.339767,-0.849756,70.197095
11.3149,0.007459,-0.012746,0.272319,-0.007739,0.001538,-0.011886,0.143958,-0.504063,0.271385,0.636295,-258.34361,-0.849589,70.192413
11.335,0.007144,-0.012219,0.27321,-0.007739,0.001538,-0.011886,0.144559,-0.503963,0.272218,0.636295,-258.34361,-0.849589,70.192413
11.3557,0.007307,-0.012083,0.271578,-0.007739,0.001539,-0.011886,0.144559,-0.503963,0.272218,0.636295,-258.34361,-0.849589,70.192413
11.3752,0.007246,-0.012343,0.271315,-0.007739,0.001539,-0.011886,0.143784,-0.503416,0.271078,0.636588,-258.347466,-0.849298,70.187719
11.3954,0.007066,-0.01267,0.272552,-0.00774,0.001535,-0.011886,0.143804,-0.503528,0.271117,0.636588,-258.347466,-0.849298,70.187719
11.4149,0.007055,-0.012458,0.271144,-0.007741,0.001532,-0.011886,0.144102,-0.503863,0.272173,0.636528,-258.351308,-0.849337,70.183041
11.435,0.007024,-0.012232,0.270867,-0.007741,0.001531,-0.011886,0.143678,-0.503829,0.271219,0.636528,-258.351308,-0.849337,70.183041
11.4554,0.006855,-0.011883,0.272177,-0.007741,0.00153,-0.011886,0.143678,-0.503829,0.271219,0.636528,-258.351308,-0.849337,70.183041
11.4752,0.006281,-0.012157,0.271374,-0.007741,0.00153,-0.011886,0.143628,-0.503134,0.271679,0.637042,-258.35516,-0.848839,70.178355
11.4952,0.006777,-0.012625,0.27059,-0.007742,0.001526,-0.011886,0.143331,-0.503282,0.271498,0.637042,-258.35516,-0.848839,70.178355
11.515,0.007173,-0.011996,0.269367,-0.007743,0.001522,-0.011886,0.142849,-0.504087,0.27021,0.637177,-258.359012,-0.84869,70.173671
11.5351,0.006944,-0.012192,0.269264,-0.007743,0.00152,-0.011886,0.142877,-0.50365,0.269425,0.637177,-258.359012,-0.84869,70.173671
11.5559,0.006795,-0.011935,0.269011,-0.007744,0.001518,-0.011886,0.142877,-0.50365,0.269425,0.637177,-258.359012,-0.84869,70.173671
11.575,0.006452,-0.011754,0.269481,-0.007744,0.001516,-0.011886,0.14201,-0.503618,0.26851,0.63769,-258.362875,-0.848194,70.168978
11.5952,0.006749,-0.011914,0.268775,-0.007745,0.001513,-0.011886,0.142062,-0.503511,0.268846,0.63769,-258.362875,-0.848194,70.168978
11.6153,0.006398,-0.012299,0.269083,-0.007745,0.00151,-0.011886,0.14193,-0.503622,0.268398,0.638138,-258.366724,-0.847748,70.164306
11.6357,0.006234,-0.012258,0.267837,-0.007745,0.00151,-0.011886,0.141963,-0.503918,0.268999,0.638138,-258.366724,-0.847748,70.164306
11.6552,0.006659,-0.01206,0.269295,-0.007745,0.001511,-0.011886,0.141963,-0.503918,0.268999,0.638138,-258.366724,-0.847748,70.164306
11.6751,0.00634,-0.011685,0.268105,-0.007745,0.001511,-0.011886,0.142016,-0.503704,0.268798,0.638558,-258.370584,-0.847332,70.159623
11.6952,0.006516,-0.011797,0.267551,-0.007746,0.001509,-0.011886,0.141743,-0.503609,0.268457,0.638558,-258.370584,-0.847332,70.159623
11.715,0.006328,-0.01196,0.268536,-0.007746,0.001507,-0.011886,0.141094,-0.50367,0.267172,0.63846,-258.374446,-0.847398,70.154939
11.7351,0.006322,-0.011932,0.267378,-0.007746,0.001506,-0.011886,0.141581,-0.503682,0.268398,0.63846,-258.374446,-0.847398,70.154939
11.755,0.006422,-0.012043,0.26752,-0.007747,0.001504,-0.011886,0.141581,-0.503682,0.268398,0.63846,-258.374446,-0.847398,70.154939
11.775,0.006168,-0.01155,0.265346,-0.007747,0.001503,-0.011886,0.140907,-0.503926,0.267024,0.63876,-258.3783,-0.847092,70.150266
11.7954,0.006392,-0.011916,0.265933,-0.007747,0.001501,-0.011886,0.140461,-0.503837,0.266278,0.63876,-258.3783,-0.847092,70.150266
11.8153,0.006029,-0.011894,0.266297,-0.007748,0.0015,-0.011886,0.140173,-0.504006,0.265553,0.638987,-258.38216,-0.846847,70.145588
11.8353,0.006203,-0.01196,0.264779,-0.007748,0.001499,-0.011886,0.140222,-0.503927,0.26621,0.638987,-258.38216,-0.846847,70.145588
11.8555,0.006323,-0.012375,0.266206,-0.007748,0.001498,-0.011886,0.140222,-0.503927,0.26621,0.638987,-258.38216,-0.846847,70.145588
11.8755,0.005943,-0.011525,0.264185,-0.007748,0.001497,-0.011885,0.140159,-0.504435,0.265706,0.639258,-258.386027,-0.846571,70.140904
11.8957,0.005761,-0.011339,0.266595,-0.007748,0.001497,-0.011885,0.1397,-0.504194,0.265034,0.639258,-258.386027,-0.846571,70.140904
11.915,0.005776,-0.012049,0.264698,-0.007748,0.001497,-0.011885,0.139869,-0.503342,0.266217,0.639441,-258.389885,-0.846372,70.136233
11.9353,0.006182,-0.012348,0.265912,-0.007748,0.001496,-0.011885,0.139248,-0.504204,0.264814,0.639441,-258.389885,-0.846372,70.136233
11.9552,0.006309,-0.011655,0.26686,-0.007749,0.001496,-0.011885,0.139248,-0.504204,0.264814,0.639441,-258.389885,-0.846372,70.136233
11.9752,0.005783,-0.01166,0.266383,-0.007749,0.001496,-0.011885,0.140468,-0.503628,0.266363,0.639452,-258.393747,-0.846349,70.131557
11.995,0.006164,-0.011501,0.264344,-0.007749,0.001493,-0.011885,0.140256,-0.503649,0.266314,0.639452,-258.393747,-0.846349,70.131557
12.0152,0.005968,-0.011582,0.262181,-0.007749,0.001492,-0.011885,0.139164,-0.503804,0.263965,0.639513,-258.39761,-0.846275,70.12688
12.0351,0.005736,-0.011669,0.263898,-0.00775,0.001489,-0.011885,0.138231,-0.504123,0.26232,0.639513,-258.39761,-0.846275,70.12688
12.0553,0.005488,-0.011446,0.264442,-0.007751,0.001486,-0.011885,0.138231,-0.504123,0.26232,0.639513,-258.39761,-0.846275,70.12688
12.075,0.005556,-0.011699,0.262862,-0.007751,0.001484,-0.011885,0.138457,-0.503742,0.263944,0.639801,-258.401481,-0.845989,70.122196
12.0951,0.005734,-0.011471,0.262627,-0.007751,0.001482,-0.011885,0.138263,-0.503925,0.263443,0.639801,-258.401481,-0.845989,70.122196
12.1149,0.005283,-0.011458,0.26408,-0.007752,0.001481,-0.011885,0.137889,-0.504002,0.262249,0.640305,-258.40534,-0.845492,70.117531
12.1353,0.005623,-0.011302,0.263044,-0.007752,0.001479,-0.011885,0.138345,-0.503799,0.263896,0.640305,-258.40534,-0.845492,70.117531
12.1558,0.005416,-0.011413,0.261488,-0.007752,0.001477,-0.011885,0.138345,-0.503799,0.263896,0.640305,-258.40534,-0.845492,70.117531
12.1752,0.005319,-0.011279,0.262645,-0.007753,0.001476,-0.011885,0.136931,-0.5041,0.260991,0.640561,-258.409207,-0.845237,70.112859
12.1951,0.005688,-0.011545,0.260689,-0.007753,0.001474,-0.011885,0.137221,-0.503976,0.261609,0.640561,-258.409207,-0.845237,70.112859
12.2154,0.005234,-0.011437,0.260665,-0.007754,0.001472,-0.011885,0.136888,-0.504332,0.260311,0.640887,-258.413075,-0.844905,70.108187
12.2355,0.005355,-0.011181,0.260347,-0.007754,0.00147,-0.011885,0.13668,-0.504221,0.260613,0.640887,-258.413075,-0.844905,70.108187
12.2558,0.005248,-0.011275,0.261161,-0.007754,0.001469,-0.011885,0.13668,-0.504221,0.260613,0.640887,-258.413075,-0.844905,70.108187
12.2754,0.005419,-0.011086,0.261527,-0.007754,0.001469,-0.011885,0.136598,-0.504006,0.260658,0.6412,-258.416946,-0.844592,70.103516
12.2951,0.005331,-0.011562,0.261043,-0.007755,0.001466,-0.011885,0.13683,-0.503906,0.260944,0.6412,-258.416946,-0.844592,70.103516
12.3152,0.005256,-0.011492,0.261508,-0.007755,0.001464,-0.011885,0.136705,-0.504302,0.260665,0.641405,-258.420817,-0.844373,70.098847
12.3352,0.005097,-0.011165,0.260814,-0.007755,0.001464,-0.011885,0.137061,-0.504166,0.261414,0.641405,-258.420817,-0.844373,70.098847
12.3555,0.005105,-0.011131,0.260356,-0.007755,0.001465,-0.011885,0.137061,-0.504166,0.261414,0.641405,-258.420817,-0.844373,70.098847
12.3754,0.004982,-0.011255,0.259587,-0.007755,0.001465,-0.011885,0.136061,-0.503967,0.259857,0.641729,-258.424689,-0.844046,70.094178
12.3954,0.004732,-0.011429,0.259821,-0.007756,0.001463,-0.011885,0.135954,-0.504051,0.259692,0.641729,-258.424689,-0.844046,70.094178
12.4151,0.005014,-0.011415,0.258379,-0.007756,0.00146,-0.011885,0.135504,-0.50433,0.259443,0.641628,-258.428561,-0.844115,70.089509
12.435,0.00499,-0.011294,0.259949,-0.007756,0.00146,-0.011885,0.135329,-0.504473,0.258456,0.641628,-258.428561,-0.844115,70.089509
12.4554,0.004705,-0.011082,0.259674,-0.007756,0.00146,-0.011885,0.135329,-0.504473,0.258456,0.641628,-258.428561,-0.844115,70.089509
12.4749,0.005033,-0.011442,0.258391,-0.007756,0.00146,-0.011885,0.135325,-0.504008,0.259176,0.641948,-258.432435,-0.843795,70.084841
12.4951,0.004457,-0.01103,0.259258,-0.007756,0.001458,-0.011885,0.135298,-0.504214,0.258802,0.641948,-258.432435,-0.843795,70.084841
12.5154,0.004499,-0.01119,0.258003,-0.007757,0.001457,-0.011885,0.134951,-0.504004,0.258879,0.641979,-258.436309,-0.843747,70.080173
12.5355,0.004772,-0.011039,0.258077,-0.007757,0.001455,-0.011885,0.134642,-0.504284,0.258061,0.641979,-258.436309,-0.843747,70.080173
12.5554,0.004665,-0.01096,0.259375,-0.007757,0.001454,-0.011885,0.134642,-0.504284,0.258061,0.641979,-258.436309,-0.843747,70.080173
12.5754,0.00486,-0.011059,0.256285,-0.007758,0.001453,-0.011885,0.135138,-0.503925,0.258877,0.642187,-258.440183,-0.843537,70.075507
12.5952,0.004538,-0.010956,0.258153,-0.007758,0.001451,-0.011885,0.134699,-0.504119,0.257778,0.642187,-258.440183,-0.843537,70.075507
12.615,0.004219,-0.010985,0.257229,-0.007758,0.001449,-0.011885,0.134488,-0.504074,0.257774,0.642465,-258.444059,-0.84325,70.070841
12.6356,0.004419,-0.011252,0.255747,-0.007759,0.001447,-0.011885,0.133999,-0.504195,0.257258,0.642465,-258.444059,-0.84325,70.070841
12.6554,0.004685,-0.011475,0.256925,-0.007759,0.001445,-0.011885,0.133999,-0.504195,0.257258,0.642465,-258.444059,-0.84325,70.070841
12.675,0.004788,-0.011217,0.254362,-0.007759,0.001444,-0.011884,0.13395,-0.504758,0.256426,0.64277,-258.447936,-0.842947,70.066176
12.6951,0.004627,-0.010888,0.258664,-0.007759,0.001445,-0.011884,0.133577,-0.504781,0.255537,0.64277,-258.447936,-0.842947,70.066176
12.715,0.004641,-0.010744,0.25564,-0.007759,0.001446,-0.011884,0.134829,-0.503941,0.258285,0.643105,-258.451815,-0.842607,70.061511
12.7352,0.004143,-0.01108,0.255464,-0.00776,0.001443,-0.011884,0.133698,-0.504151,0.255854,0.643105,-258.451815,-0.842607,70.061511
12.7553,0.004568,-0.010737,0.25534,-0.00776,0.00144,-0.011884,0.133698,-0.504151,0.255854,0.643105,-258.451815,-0.842607,70.061511
12.775,0.004234,-0.01127,0.253376,-0.007761,0.001438,-0.011884,0.133052,-0.504225,0.254842,0.642937,-258.455692,-0.84275,70.056848
12.7955,0.004201,-0.010631,0.254282,-0.007761,0.001437,-0.011884,0.132618,-0.504537,0.254189,0.642937,-258.455692,-0.84275,70.056848
12.815,0.004533,-0.011147,0.254232,-0.007761,0.001436,-0.011884,0.132241,-0.504249,0.253903,0.643521,-258.459573,-0.842179,70.052186
12.8353,0.004147,-0.011251,0.252909,-0.007761,0.001436,-0.011884,0.132733,-0.504708,0.254181,0.643521,-258.459573,-0.842179,70.052186
12.8554,0.004364,-0.010619,0.254625,-0.007761,0.001436,-0.011884,0.132733,-0.504708,0.254181,0.643521,-258.459573,-0.842179,70.052186
12.876,0.004259,-0.01087,0.254154,-0.007761,0.001437,-0.011884,0.132492,-0.504199,0.254124,0.643666,-258.463453,-0.842027,70.047524
12.8953,0.004221,-0.01086,0.254761,-0.007761,0.001434,-0.011884,0.132452,-0.504316,0.25408,0.643666,-258.463453,-0.842027,70.047524
12.9152,0.003792,-0.010889,0.253298,-0.007762,0.001432,-0.011884,0.132497,-0.504417,0.254382,0.643579,-258.467335,-0.842082,70.042862
12.935,0.004003,-0.010507,0.254013,-0.007762,0.001431,-0.011884,0.131665,-0.504599,0.253375,0.643579,-258.467335,-0.842082,70.042862
12.955,0.003575,-0.010404,0.253764,-0.007762,0.00143,-0.011884,0.131665,-0.504599,0.253375,0.643579,-258.467335,-0.842082,70.042862
12.9754,0.003629,-0.010251,0.251369,-0.007762,0.001429,-0.011884,0.131281,-0.504094,0.253266,0.643932,-258.471216,-0.841735,70.038202
12.9953,0.004291,-0.010478,0.251502,-0.007763,0.001425,-0.011884,0.130919,-0.504149,0.25244,0.643932,-258.471216,-0.841735,70.038202
13.0148,0.003696,-0.010762,0.251999,-0.007764,0.00142,-0.011884,0.130958,-0.504451,0.251123,0.64408,-258.475106,-0.841577,70.033534
13.0349,0.004015,-0.010703,0.250981,-0.007764,0.00142,-0.011884,0.130856,-0.504637,0.251906,0.64408,-258.475106,-0.841577,70.033534
13.0551,0.003943,-0.010802,0.252931,-0.007764,0.001419,-0.011884,0.130856,-0.504637,0.251906,0.64408,-258.475106,-0.841577,70.033534
13.0751,0.003758,-0.010867,0.251069,-0.007764,0.001419,-0.011884,0.131237,-0.504599,0.252433,0.644717,-258.47899,-0.840962,70.028877
13.0951,0.003633,-0.010654,0.251445,-0.007764,0.001419,-0.011884,0.130885,-0.504715,0.251823,0.644717,-258.47899,-0.840962,70.028877
13.1153,0.003594,-0.010167,0.251893,-0.007764,0.001419,-0.011884,0.130272,-0.504634,0.251067,0.6448,-258.482871,-0.84086,70.024227
13.1355,0.003333,-0.010471,0.251244,-0.007765,0.001415,-0.011884,0.130653,-0.504124,0.251799,0.6448,-258.482871,-0.84086,70.024227
13.1555,0.003239,-0.010705,0.250369,-0.007766,0.001412,-0.011884,0.130653,-0.504124,0.251799,0.6448,-258.482871,-0.84086,70.024227
13.1752,0.003312,-0.010076,0.249823,-0.007766,0.001409,-0.011884,0.129266,-0.504826,0.24987,0.644769,-258.486757,-0.840871,70.019568
13.1956,0.0036,-0.010175,0.25051,-0.007767,0.001407,-0.011884,0.129283,-0.504593,0.249794,0.644769,-258.486757,-0.840871,70.019568
13.2153,0.003523,-0.010213,0.249636,-0.007767,0.001406,-0.011884,0.129777,-0.504273,0.250131,0.645533,-258.490654,-0.840125,70.014904
13.2353,0.003307,-0.010513,0.248067,-0.007768,0.001403,-0.011884,0.129529,-0.504394,0.249659,0.645533,-258.490654,-0.840125,70.014904
13.2555,0.00351,-0.010312,0.250416,-0.007768,0.001401,-0.011884,0.129529,-0.504394,0.249659,0.645533,-258.490654,-0.840125,70.014904
13.2754,0.003206,-0.010277,0.24866,-0.007768,0.001399,-0.011884,0.129563,-0.504428,0.24992,0.645727,-258.494542,-0.839924,70.010252
13.2954,0.002998,-0.010412,0.248964,-0.007769,0.001398,-0.011884,0.129178,-0.504498,0.249345,0.645727,-258.494542,-0.839924,70.010252
13.3158,0.003326,-0.010505,0.248596,-0.007769,0.001397,-0.011884,0.128412,-0.504705,0.248586,0.646189,-258.498428,-0.839459,70.005607
13.3351,0.002844,-0.010197,0.24767,-0.007769,0.001397,-0.011884,0.128744,-0.504814,0.24857,0.646189,-258.498428,-0.839459,70.005607
13.3554,0.003437,-0.010527,0.249223,-0.007769,0.001398,-0.011883,0.128744,-0.504814,0.24857,0.646189,-258.498428,-0.839459,70.005607
13.3757,0.003173,-0.01014,0.24747,-0.007769,0.001398,-0.011883,0.128899,-0.504794,0.248725,0.646342,-258.502327,-0.839292,70.000947
13.3954,0.002988,-0.009751,0.245531,-0.007769,0.001397,-0.011883,0.128539,-0.50472,0.248163,0.646342,-258.502327,-0.839292,70.000947
13.4148,0.002863,-0.010276,0.246732,-0.007769,0.001397,-0.011883,0.126704,-0.504472,0.245153,0.646229,-258.506213,-0.839367,69.996302
13.4353,0.002824,-0.010467,0.246999,-0.007769,0.001395,-0.011883,0.127346,-0.5048,0.246572,0.646229,-258.506213,-0.839367,69.996302
13.4553,0.003253,-0.010327,0.246489,-0.00777,0.001393,-0.011883,0.127346,-0.5048,0.246572,0.646229,-258.506213,-0.839367,69.996302
13.4753,0.002857,-0.010101,0.245804,-0.00777,0.001392,-0.011883,0.127363,-0.504935,0.245991,0.646325,-258.510105,-0.839253,69.991651
13.495,0.002796,-0.010101,0.246092,-0.00777,0.00139,-0.011883,0.12716,-0.504871,0.245858,0.646325,-258.510105,-0.839253,69.991651
13.5152,0.003207,-0.010247,0.246481,-0.00777,0.001389,-0.011883,0.126788,-0.504753,0.245712,0.646659,-258.513999,-0.838914,69.987
13.5358,0.002865,-0.010343,0.246116,-0.007771,0.001389,-0.011883,0.127554,-0.504827,0.246393,0.646659,-258.513999,-0.838914,69.987
13.5552,0.002886,-0.010068,0.245541,-0.007771,0.001388,-0.011883,0.127554,-0.504827,0.246393,0.646659,-258.513999,-0.838914,69.987
13.5752,0.002252,-0.009922,0.245275,-0.007771,0.001388,-0.011883,0.126527,-0.504794,0.245043,0.64683,-258.517895,-0.838737,69.982349
13.5951,0.002863,-0.010098,0.244943,-0.007771,0.001385,-0.011883,0.126311,-0.504741,0.245081,0.64683,-258.517895,-0.838737,69.982349
13.6153,0.002347,-0.009989,0.245447,-0.007772,0.001383,-0.011883,0.126287,-0.504892,0.244564,0.646941,-258.52179,-0.838608,69.9777
13.6353,0.002883,-0.010096,0.244916,-0.007772,0.001381,-0.011883,0.12626,-0.504722,0.245348,0.646941,-258.52179,-0.838608,69.9777
13.6553,0.002511,-0.010011,0.243862,-0.007772,0.001379,-0.011883,0.12626,-0.504722,0.245348,0.646941,-258.52179,-0.838608,69.9777
13.6754,0.002195,-0.009917,0.243503,-0.007773,0.001378,-0.011883,0.125321,-0.504944,0.243363,0.647292,-258.525687,-0.838267,69.973052
13.6955,0.002437,-0.009996,0.24255,-0.007773,0.001376,-0.011883,0.125218,-0.504918,0.243362,0.647292,-258.525687,-0.838267,69.973052
13.7152,0.002209,-0.009996,0.24302,-0.007773,0.001374,-0.011883,0.124676,-0.505084,0.24217,0.647619,-258.529591,-0.837938,69.968398
13.7349,0.002045,-0.010063,0.243416,-0.007773,0.001373,-0.011883,0.124898,-0.505017,0.242926,0.647619,-258.529591,-0.837938,69.968398
13.7549,0.002452,-0.010023,0.243338,-0.007774,0.001372,-0.011883,0.124898,-0.505017,0.242926,0.647619,-258.529591,-0.837938,69.968398
13.7753,0.001988,-0.010156,0.24216,-0.007774,0.001372,-0.011883,0.125004,-0.505021,0.242842,0.647858,-258.533484,-0.837695,69.963758
13.7955,0.002106,-0.009758,0.242414,-0.007774,0.001371,-0.011883,0.124673,-0.505127,0.242506,0.647858,-258.533484,-0.837695,69.963758
13.8151,0.002013,-0.009826,0.242418,-0.007774,0.001371,-0.011883,0.124278,-0.504864,0.242033,0.648051,-258.537385,-0.83749,69.959112
13.8353,0.002141,-0.009986,0.242675,-0.007774,0.001369,-0.011883,0.124412,-0.50491,0.242364,0.648051,-258.537385,-0.83749,69.959112
13.855,0.002249,-0.009794,0.242599,-0.007775,0.001367,-0.011883,0.124412,-0.50491,0.242364,0.648051,-258.537385,-0.83749,69.959112
13.875,0.002197,-0.009543,0.241701,-0.007775,0.001366,-0.011883,0.124434,-0.504882,0.242101,0.648087,-258.54129,-0.837442,69.954461
13.8951,0.001871,-0.010212,0.242982,-0.007775,0.001363,-0.011883,0.124328,-0.504818,0.24188,0.648087,-258.54129,-0.837442,69.954461
13.9149,0.002162,-0.009752,0.24244,-0.007776,0.001361,-0.011883,0.124326,-0.505248,0.242605,0.64846,-258.545192,-0.837066,69.949816
13.9353,0.002078,-0.009554,0.242422,-0.007776,0.00136,-0.011883,0.124563,-0.504873,0.242436,0.64846,-258.545192,-0.837066,69.949816
13.9554,0.001789,-0.009753,0.241529,-0.007776,0.00136,-0.011883,0.124563,-0.504873,0.242436,0.64846,-258.545192,-0.837066,69.949816
13.9751,0.001918,-0.009942,0.239799,-0.007776,0.001359,-0.011882,0.123445,-0.504972,0.241032,0.648776,-258.549091,-0.836751,69.945179
13.9951,0.0018,-0.009491,0.241591,-0.007776,0.001358,-0.011882,0.123244,-0.505128,0.240471,0.648776,-258.549091,-0.836751,69.945179
14.0151,0.001705,-0.009688,0.241305,-0.007777,0.001358,-0.011882,0.123566,-0.504697,0.241213,0.648898,-258.552994,-0.836608,69.940537
14.035,0.00167,-0.009573,0.239564,-0.007777,0.001356,-0.011882,0.123565,-0.504894,0.241277,0.648898,-258.552994,-0.836608,69.940537
14.0551,0.001893,-0.009308,0.240403,-0.007777,0.001355,-0.011882,0.123565,-0.504894,0.241277,0.648898,-258.552994,-0.836608,69.940537
14.0749,0.001396,-0.009581,0.239823,-0.007777,0.001354,-0.011882,0.122991,-0.504664,0.239904,0.648996,-258.556899,-0.836498,69.935895
14.095,0.001617,-0.009475,0.239683,-0.007778,0.001351,-0.011882,0.122769,-0.504796,0.239814,0.648996,-258.556899,-0.836498,69.935895
14.115,0.00182,-0.009756,0.23816,-0.007778,0.001348,-0.011882,0.122437,-0.504912,0.239304,0.64926,-258.560811,-0.836224,69.931246
14.1352,0.001389,-0.00982,0.239168,-0.007778,0.001348,-0.011882,0.12215,-0.505323,0.238241,0.64926,-258.560811,-0.836224,69.931246
14.1552,0.001421,-0.009767,0.238465,-0.007778,0.001348,-0.011882,0.12215,-0.505323,0.238241,0.64926,-258.560811,-0.836224,69.931246
14.1751,0.001545,-0.009513,0.237695,-0.007778,0.001348,-0.011882,0.12156,-0.505356,0.237969,0.64969,-258.564712,-0.835803,69.926614
14.1951,0.001596,-0.009794,0.23705,-0.007779,0.001347,-0.011882,0.121551,-0.505284,0.2378,0.64969,-258.564712,-0.835803,69.926614
14.2153,0.001206,-0.009327,0.238043,-0.007779,0.001346,-0.011882,0.121112,-0.505548,0.236671,0.649686,-258.56862,-0.835788,69.921974
14.2348,0.001163,-0.00958,0.238351,-0.007779,0.001343,-0.011882,0.12142,-0.505,0.2379,0.649686,-258.56862,-0.835788,69.921974
14.2551,0.001416,-0.009202,0.237293,-0.00778,0.001341,-0.011882,0.12142,-0.505,0.2379,0.649686,-258.56862,-0.835788,69.921974
14.276,0.001297,-0.009283,0.236828,-0.00778,0.001339,-0.011882,0.120973,-0.504933,0.236796,0.649799,-258.572528,-0.835664,69.917334
14.2953,0.001283,-0.009487,0.23781,-0.007781,0.001336,-0.011882,0.120927,-0.504982,0.236751,0.649799,-258.572528,-0.835664,69.917334
14.3152,0.001155,-0.009455,0.236216,-0.007781,0.001333,-0.011882,0.121175,-0.505151,0.237432,0.650163,-258.576446,-0.835305,69.912685
14.3352,0.000919,-0.009149,0.236932,-0.007781,0.001333,-0.011882,0.120552,-0.505282,0.2363,0.650163,-258.576446,-0.835305,69.912685
14.3555,0.001097,-0.009055,0.235531,-0.007781,0.001332,-0.011882,0.120552,-0.505282,0.2363,0.650163,-258.576446,-0.835305,69.912685
14.3751,0.001346,-0.009644,0.236725,-0.007781,0.001332,-0.011882,0.119782,-0.504996,0.235035,0.650707,-258.580354,-0.834768,69.908054
14.395,0.000815,-0.009487,0.236406,-0.007782,0.00133,-0.011882,0.120225,-0.505173,0.235673,0.650707,-258.580354,-0.834768,69.908054
14.4151,0.000982,-0.009646,0.235725,-0.007782,0.001328,-0.011882,0.120011,-0.505318,0.236028,0.650777,-258.584267,-0.834675,69.903417
14.4352,0.001233,-0.009519,0.234386,-0.007782,0.00133,-0.011882,0.120072,-0.505524,0.235733,0.650777,-258.584267,-0.834675,69.903417
14.4552,0.001269,-0.009495,0.235044,-0.007782,0.001331,-0.011882,0.120072,-0.505524,0.235733,0.650777,-258.584267,-0.834675,69.903417
14.4752,0.000588,-0.009125,0.2347,-0.007781,0.001332,-0.011881,0.119711,-0.505494,0.234547,0.651009,-258.58818,-0.834437,69.898783
14.4954,0.00098,-0.009272,0.234966,-0.007782,0.00133,-0.011881,0.119459,-0.505352,0.234553,0.651009,-258.58818,-0.834437,69.898783
14.5153,0.000681,-0.009328,0.235701,-0.007782,0.001329,-0.011881,0.119462,-0.505275,0.234587,0.650736,-258.592094,-0.834672,69.894145
14.5352,0.000808,-0.009109,0.234471,-0.007782,0.001328,-0.011881,0.119739,-0.505232,0.235588,0.650736,-258.592094,-0.834672,69.894145
14.5552,0.000624,-0.009267,0.233768,-0.007782,0.001327,-0.011881,0.119739,-0.505232,0.235588,0.650736,-258.592094,-0.834672,69.894145
14.575,0.000603,-0.009095,0.233673,-0.007783,0.001326,-0.011881,0.118433,-0.505416,0.23327,0.650964,-258.596017,-0.834439,69.889497
14.5954,0.000857,-0.009333,0.234603,-0.007783,0.001323,-0.011881,0.118504,-0.505343,0.233381,0.650964,-258.596017,-0.834439,69.889497
14.6152,0.000547,-0.009268,0.232933,-0.007783,0.001322,-0.011881,0.119161,-0.505379,0.234227,0.651167,-258.599939,-0.834228,69.884853
14.6353,0.00052,-0.009148,0.232955,-0.007784,0.001321,-0.011881,0.118326,-0.505487,0.233011,0.651167,-258.599939,-0.834228,69.884853
14.6554,0.000626,-0.009197,0.231124,-0.007784,0.00132,-0.011881,0.118326,-0.505487,0.233011,0.651167,-258.599939,-0.834228,69.884853
14.675,0.000258,-0.009566,0.230992,-0.007784,0.001319,-0.011881,0.117126,-0.505656,0.230631,0.65147,-258.603828,-0.833932,69.880251
14.6952,0.000519,-0.008802,0.231912,-0.007784,0.001319,-0.011881,0.117045,-0.505807,0.230721,0.65147,-258.603828,-0.833932,69.880251
14.715,0.000773,-0.008893,0.231402,-0.007784,0.001318,-0.011881,0.117486,-0.505164,0.231533,0.651629,-258.60775,-0.833757,69.875612
14.7355,0.000373,-0.008763,0.232265,-0.007785,0.001314,-0.011881,0.117704,-0.505288,0.231394,0.651629,-258.60775,-0.833757,69.875612
14.7557,0.000207,-0.009005,0.231364,-0.007785,0.001311,-0.011881,0.117704,-0.505288,0.231394,0.651629,-258.60775,-0.833757,69.875612
14.7754,0.000291,-0.009024,0.230462,-0.007786,0.001309,-0.011881,0.116823,-0.505437,0.230866,0.6517,-258.61166,-0.833679,69.870987
14.7955,0.000624,-0.008921,0.229722,-0.007786,0.001307,-0.011881,0.116771,-0.505481,0.230646,0.6517,-258.61166,-0.833679,69.870987
14.8158,0.00017,-0.009072,0.230311,-0.007786,0.001305,-0.011881,0.116504,-0.505539,0.229344,0.652375,-258.615585,-0.833024,69.86635
14.8354,-6.4e-05,-0.008726,0.231034,-0.007786,0.001305,-0.011881,0.116572,-0.505601,0.230208,0.652375,-258.615585,-0.833024,69.86635
14.8558,-3.9e-05,-0.009195,0.231303,-0.007787,0.001304,-0.011881,0.116572,-0.505601,0.230208,0.652375,-258.615585,-0.833024,69.86635
14.8756,-5.2e-05,-0.00885,0.230085,-0.007787,0.001303,-0.011881,0.116547,-0.505635,0.230805,0.652597,-258.619505,-0.832799,69.861721
14.8954,-0.000269,-0.009036,0.229467,-0.007787,0.001303,-0.011881,0.116392,-0.505546,0.230455,0.652597,-258.619505,-0.832799,69.861721
14.9151,9.9e-05,-0.008675,0.228362,-0.007787,0.001302,-0.011881,0.115484,-0.505684,0.229089,0.652724,-258.623426,-0.832652,69.857092
14.9353,-0.000307,-0.008907,0.228149,-0.007788,0.001298,-0.011881,0.115536,-0.505457,0.228405,0.652724,-258.623426,-0.832652,69.857092
14.9553,-9e-06,-0.008998,0.229642,-0.007788,0.001296,-0.011881,0.115536,-0.505457,0.228405,0.652724,-258.623426,-0.832652,69.857092
14.9752,-7.1e-05,-0.009069,0.228683,-0.007789,0.001293,-0.011881,0.115752,-0.50563,0.229145,0.652814,-258.627341,-0.832548,69.85247
