mach0312/omni-docking-bench/src/icros_test_setup/results/MPPI_sample/timeseries/trial_057.csv
t,x,y,yaw,vx,vy,wz,bl_x,bl_y,bl_yaw,front_steering_joint,front_wheel_joint,rear_steering_joint,rear_wheel_joint
0.0,-0.020686,-0.026862,0.030668,0.0,0.0,0.0,-0.005627,-0.536526,0.030576,-1.358017,-259.132997,1.622272,72.475952
0.0005,-0.021343,-0.026732,0.03045,0.0,0.0,0.0,-0.005627,-0.536526,0.030576,-1.358017,-259.132997,1.622272,72.475952
0.0008,-0.021081,-0.027398,0.033485,6.8e-05,-7.3e-05,0.0,-0.005419,-0.536275,0.030758,-1.358017,-259.132997,1.622272,72.475952
0.0012,-0.021177,-0.026871,0.031008,6.8e-05,-7.3e-05,0.0,-0.005045,-0.53643,0.031376,-1.358017,-259.132997,1.622272,72.475952
0.0016,-0.021377,-0.026882,0.031209,6.8e-05,-7.3e-05,0.0,-0.005045,-0.53643,0.031376,-1.358017,-259.132997,1.622272,72.475952
0.002,-0.020967,-0.026759,0.031308,6.8e-05,-7.3e-05,0.0,-0.006039,-0.536413,0.029256,-1.283136,-259.132997,1.547391,72.475952
0.0024,-0.021238,-0.026696,0.031854,6.8e-05,-7.3e-05,0.0,-0.006039,-0.536413,0.029256,-1.207966,-259.132997,1.47222,72.475952
0.0027,-0.021025,-0.026779,0.030342,6.8e-05,-7.3e-05,0.0,-0.005538,-0.536095,0.031056,-1.207966,-259.132997,1.47222,72.475952
0.0029,-0.021084,-0.026655,0.032114,6.8e-05,-7.3e-05,0.0,-0.005538,-0.536095,0.031056,-1.207966,-259.132997,1.47222,72.475952
0.0032,-0.021347,-0.026721,0.02988,6.8e-05,-7.3e-05,0.0,-0.005538,-0.536095,0.031056,-1.207966,-259.132997,1.47222,72.475952
0.0157,-0.020468,-0.026386,0.029755,0.0,0.0,0.0,-0.004784,-0.536406,0.031956,-1.207966,-259.132997,1.47222,72.475952
0.0361,-0.021574,-0.026676,0.031083,0.0,0.0,0.0,-0.005295,-0.536161,0.029755,-1.133129,-259.132997,1.397383,72.475952
0.0559,-0.0212,-0.02642,0.031409,0.0,0.0,0.0,-0.005469,-0.53627,0.030293,-1.133129,-259.132997,1.397383,72.475952
0.0754,-0.02119,-0.027159,0.031678,0.0,0.0,0.0,-0.005184,-0.536169,0.031409,-1.133129,-259.132997,1.397383,72.475952
0.0957,-0.021006,-0.026589,0.029697,0.0,0.0,0.0,-0.00505,-0.536841,0.031655,-1.133129,-259.132997,1.397383,72.475952
0.1159,-0.021101,-0.027006,0.031013,0.000889,0.006724,-0.011977,-0.00505,-0.536841,0.031655,-1.133129,-259.132997,1.397383,72.475952
0.1362,-0.021186,-0.026974,0.031528,0.001034,0.007353,-0.012887,-0.005287,-0.536761,0.031013,-1.133129,-259.132997,1.397383,72.475952
0.1556,-0.021011,-0.026978,0.032809,0.001179,0.007892,-0.013609,-0.005215,-0.536744,0.031222,-1.133129,-259.132997,1.397383,72.475952
0.1755,-0.021164,-0.026803,0.031906,0.001316,0.008356,-0.014177,-0.004281,-0.536704,0.032809,-1.058286,-259.132997,1.472226,72.475954
0.1957,-0.020971,-0.027009,0.031078,0.001434,0.00876,-0.014623,-0.00484,-0.536558,0.031987,-1.058286,-259.132997,1.472226,72.475954
0.2158,-0.021038,-0.026505,0.031251,0.001545,0.009109,-0.014973,-0.00484,-0.536558,0.031987,-1.058286,-259.132997,1.472226,72.475954
0.236,-0.020684,-0.027103,0.033755,0.001649,0.00941,-0.015249,-0.005103,-0.536256,0.031251,-0.983282,-259.132997,1.493606,72.475955
0.2562,-0.021036,-0.027037,0.0309,0.001733,0.009675,-0.015463,-0.004445,-0.536481,0.032262,-0.983282,-259.132997,1.493606,72.475955
0.2763,-0.021111,-0.026811,0.029615,0.001811,0.009904,-0.01563,-0.005279,-0.536793,0.0309,-0.908287,-259.132996,1.482939,72.475956
0.2959,-0.021088,-0.026895,0.031709,0.001936,0.010088,-0.01576,-0.005946,-0.536605,0.029726,-0.908287,-259.132996,1.482939,72.475956
0.3159,-0.020843,-0.02675,0.031436,0.002046,0.010248,-0.015861,-0.005946,-0.536605,0.029726,-0.908287,-259.132996,1.482939,72.475956
0.336,-0.02121,-0.026801,0.030514,0.002145,0.010387,-0.015939,-0.004814,-0.536498,0.031436,-0.833124,-259.132996,1.477951,72.475957
0.3559,-0.02115,-0.026905,0.033186,0.002206,0.010517,-0.015999,-0.005157,-0.536525,0.031057,-0.833124,-259.132996,1.477951,72.475957
0.3764,-0.021122,-0.02687,0.032053,0.002262,0.01063,-0.016045,-0.004228,-0.536625,0.033186,-0.758182,-259.132996,1.464604,72.475957
0.3963,-0.021036,-0.026434,0.030437,0.002297,0.010732,-0.016081,-0.004728,-0.536609,0.032155,-0.758182,-259.132996,1.464604,72.475957
0.4161,-0.021543,-0.026394,0.032425,0.002331,0.010821,-0.016109,-0.004728,-0.536609,0.032155,-0.758182,-259.132996,1.464604,72.475957
0.4361,-0.02132,-0.026777,0.030375,0.002362,0.010898,-0.01613,-0.005009,-0.536126,0.032425,-0.683277,-259.132996,1.460541,72.475958
0.4558,-0.021427,-0.027069,0.030276,0.002416,0.010958,-0.016147,-0.005346,-0.536296,0.031586,-0.683277,-259.132996,1.460541,72.475958
0.4756,-0.021198,-0.026891,0.031953,0.002463,0.01101,-0.01616,-0.005989,-0.536835,0.030276,-0.608172,-259.132996,1.457451,72.475959
0.496,-0.021338,-0.027171,0.030765,0.002489,0.011061,-0.01617,-0.004998,-0.536648,0.031808,-0.608172,-259.132996,1.457451,72.475959
0.5164,-0.021048,-0.026719,0.031062,0.002514,0.011105,-0.016177,-0.004998,-0.536648,0.031808,-0.608172,-259.132996,1.457451,72.475959
0.5357,-0.021584,-0.026732,0.03044,0.002536,0.011144,-0.016183,-0.005209,-0.536473,0.031062,-0.533186,-259.132996,1.453378,72.47596
0.5557,-0.021179,-0.026889,0.030281,0.002576,0.011171,-0.016188,-0.00555,-0.536482,0.030813,-0.533186,-259.132996,1.453378,72.47596
0.5762,-0.021324,-0.02667,0.031671,0.002611,0.011196,-0.016192,-0.005739,-0.536655,0.030281,-0.458124,-259.132996,1.450792,72.475961
0.5959,-0.020902,-0.026939,0.030601,0.002631,0.011221,-0.016195,-0.005228,-0.536436,0.031541,-0.458124,-259.132996,1.450792,72.475961
0.6162,-0.021247,-0.026879,0.030181,0.002649,0.011243,-0.016197,-0.005228,-0.536436,0.031541,-0.458124,-259.132996,1.450792,72.475961
0.6364,-0.021021,-0.026769,0.031415,0.002664,0.011262,-0.016199,-0.005857,-0.536647,0.030181,-0.383254,-259.132996,1.447584,72.475962
0.6561,-0.021098,-0.026935,0.031019,0.002686,0.011277,-0.0162,-0.005509,-0.536594,0.030683,-0.383254,-259.132996,1.447584,72.475962
0.6762,-0.021119,-0.026984,0.030246,0.002706,0.01129,-0.016201,-0.005281,-0.536689,0.031019,-0.30826,-259.132996,1.445521,72.475963
0.6961,-0.021363,-0.026759,0.031915,0.002726,0.0113,-0.016202,-0.005659,-0.536745,0.030315,-0.30826,-259.132996,1.445521,72.475963
0.7164,-0.021211,-0.026733,0.031346,0.002744,0.011309,-0.016203,-0.005659,-0.536745,0.030315,-0.30826,-259.132996,1.445521,72.475963
0.7359,-0.021219,-0.027087,0.031505,0.002759,0.011318,-0.016203,-0.005227,-0.536483,0.031346,-0.233264,-259.132995,1.443767,72.475964
0.7563,-0.021387,-0.026781,0.032963,0.002758,0.01133,-0.016203,-0.005197,-0.536626,0.03141,-0.233264,-259.132995,1.443767,72.475964
0.7763,-0.021021,-0.02693,0.031253,0.002757,0.01134,-0.016203,-0.004579,-0.536503,0.032963,-0.158143,-259.132995,1.44145,72.475966
0.796,-0.02138,-0.026822,0.031916,0.002751,0.011351,-0.016203,-0.005037,-0.536665,0.031415,-0.158143,-259.132995,1.44145,72.475966
0.8162,-0.021134,-0.02724,0.030798,0.002746,0.01136,-0.016203,-0.005037,-0.536665,0.031415,-0.158143,-259.132995,1.44145,72.475966
0.8366,-0.020911,-0.026974,0.032558,0.002742,0.011368,-0.016203,-0.00543,-0.536997,0.030797,-0.083283,-259.132994,1.441689,72.475974
0.8562,-0.021233,-0.027209,0.030397,0.002735,0.011376,-0.016203,-0.004974,-0.536878,0.031513,-0.083283,-259.132994,1.441689,72.475974
0.8764,-0.021459,-0.026726,0.031921,0.00273,0.011382,-0.016203,-0.005732,-0.536972,0.030395,-0.008262,-259.132989,1.442554,72.476005
0.8961,-0.020757,-0.026902,0.031089,0.002738,0.011384,-0.016203,-0.005231,-0.536511,0.031784,-0.008262,-259.132989,1.442554,72.476005
0.9159,-0.021067,-0.026881,0.030024,0.002745,0.011386,-0.016203,-0.005231,-0.536511,0.031784,-0.008262,-259.132989,1.442554,72.476005
0.936,-0.021416,-0.026807,0.031042,0.002751,0.011388,-0.016203,-0.005756,-0.536645,0.030014,0.066713,-259.132972,1.443192,72.476123
0.9559,-0.021198,-0.026679,0.031594,0.002771,0.011385,-0.016203,-0.005687,-0.53661,0.030435,0.066713,-259.132972,1.443192,72.476123
0.9761,-0.021187,-0.026766,0.030576,0.002788,0.011383,-0.016204,-0.005084,-0.536408,0.031568,0.14182,-259.132914,1.442236,72.476527
0.996,-0.021189,-0.026777,0.031559,0.002797,0.011383,-0.016204,-0.00555,-0.536516,0.030663,0.14182,-259.132914,1.442236,72.476527
1.016,-0.02103,-0.02654,0.032202,0.002806,0.011383,-0.016204,-0.00555,-0.536516,0.030663,0.14182,-259.132914,1.442236,72.476527
1.0357,-0.021159,-0.026932,0.030806,0.002813,0.011383,-0.016204,-0.004595,-0.536211,0.032104,0.216713,-259.132738,1.440539,72.477722
1.056,-0.021164,-0.02643,0.032732,0.002799,0.011389,-0.016203,-0.004956,-0.536407,0.031542,0.216713,-259.132738,1.440539,72.477722
1.0762,-0.020489,-0.02679,0.030957,0.002787,0.011394,-0.016203,-0.004449,-0.536048,0.03257,0.292341,-259.132348,1.439375,72.480353
1.0956,-0.020675,-0.026796,0.032014,0.002766,0.011401,-0.016203,-0.00468,-0.536498,0.031087,0.292341,-259.132348,1.439375,72.480353
1.1161,-0.020746,-0.026833,0.031093,0.002748,0.011407,-0.016203,-0.00468,-0.536498,0.031087,0.292341,-259.132348,1.439375,72.480353
1.1362,-0.020462,-0.026381,0.030356,0.002734,0.011412,-0.016202,-0.004836,-0.53634,0.030733,0.366855,-259.131688,1.440639,72.484828
1.1561,-0.020891,-0.026138,0.030651,0.002731,0.011413,-0.016325,-0.004889,-0.536233,0.030539,0.366855,-259.131688,1.440639,72.484828
1.1754,-0.020308,-0.026054,0.02886,0.002729,0.011414,-0.016423,-0.005205,-0.535632,0.030269,0.441719,-259.130774,1.443192,72.491109
1.196,-0.020268,-0.025782,0.030499,0.002754,0.011406,-0.016576,-0.005553,-0.535809,0.028968,0.441719,-259.130774,1.443192,72.491109
1.2161,-0.020127,-0.02577,0.029128,0.002775,0.011399,-0.016698,-0.005553,-0.535809,0.028968,0.441719,-259.130774,1.443192,72.491109
1.2364,-0.019508,-0.025354,0.028456,0.002793,0.011394,-0.016796,-0.005175,-0.535079,0.02845,0.469195,-259.129565,1.444215,72.499653
1.2561,-0.019868,-0.025083,0.02991,0.002796,0.011392,-0.016966,-0.005091,-0.535052,0.028374,0.469195,-259.129565,1.444215,72.499653
1.2754,-0.019222,-0.025046,0.028787,0.002798,0.01139,-0.017104,-0.004546,-0.534528,0.029432,0.39419,-259.128485,1.442519,72.507475
1.296,-0.01918,-0.024637,0.028297,0.002779,0.011394,-0.01729,-0.00454,-0.534792,0.028819,0.39419,-259.128485,1.442519,72.507475
1.3159,-0.019234,-0.024628,0.027651,0.002764,0.011397,-0.017442,-0.00454,-0.534792,0.028819,0.39419,-259.128485,1.442519,72.507475
1.3355,-0.018394,-0.024065,0.027581,0.00275,0.011398,-0.017565,-0.005037,-0.533988,0.026987,0.325256,-259.127391,1.443339,72.515631
1.356,-0.018588,-0.024407,0.027842,0.002753,0.011395,-0.017736,-0.004738,-0.53389,0.027153,0.325256,-259.127391,1.443339,72.515631
1.3758,-0.018076,-0.023662,0.026325,0.002755,0.011392,-0.017877,-0.004322,-0.533885,0.027346,0.250299,-259.126385,1.447136,72.523549
1.3961,-0.018106,-0.023569,0.026323,0.002754,0.011389,-0.018051,-0.004618,-0.533504,0.026391,0.250299,-259.126385,1.447136,72.523549
1.4163,-0.018257,-0.023768,0.027069,0.002753,0.011387,-0.018194,-0.004618,-0.533504,0.026391,0.250299,-259.126385,1.447136,72.523549
1.4362,-0.017852,-0.023093,0.02409,0.002752,0.011384,-0.018312,-0.00436,-0.533147,0.026393,0.175314,-259.125375,1.447938,72.531673
1.4561,-0.01775,-0.022951,0.027204,0.002764,0.011377,-0.018465,-0.00484,-0.533015,0.02538,0.175314,-259.125375,1.447938,72.531673
1.4758,-0.016875,-0.022643,0.025551,0.002773,0.011371,-0.018591,-0.003812,-0.532452,0.026712,0.100211,-259.124443,1.449467,72.53935
1.496,-0.016952,-0.0227,0.02571,0.002742,0.011376,-0.018738,-0.00384,-0.53246,0.025626,0.100211,-259.124443,1.449467,72.53935
1.5161,-0.017183,-0.022675,0.02693,0.002716,0.011379,-0.018861,-0.00384,-0.53246,0.025626,0.100211,-259.124443,1.449467,72.53935
1.5361,-0.016858,-0.022397,0.023452,0.002694,0.011381,-0.018962,-0.00336,-0.532074,0.026257,0.025172,-259.123482,1.449363,72.547287
1.5561,-0.016716,-0.022343,0.023309,0.002684,0.01138,-0.019083,-0.003973,-0.5321,0.025042,0.025172,-259.123482,1.449363,72.547287
1.5761,-0.015858,-0.021532,0.02286,0.002676,0.011378,-0.019183,-0.004763,-0.531892,0.022794,-0.049807,-259.122561,1.454014,72.555172
1.5958,-0.016181,-0.021565,0.025463,0.002685,0.011371,-0.019292,-0.004247,-0.531427,0.022828,-0.049807,-259.122561,1.454014,72.555172
1.6169,-0.016191,-0.021374,0.023078,0.002693,0.011364,-0.019382,-0.004247,-0.531427,0.022828,-0.049807,-259.122561,1.454014,72.555172
1.6361,-0.01581,-0.02133,0.021193,0.002699,0.011359,-0.019458,-0.004328,-0.530795,0.022335,-0.124716,-259.121577,1.455454,72.563649
1.6559,-0.015561,-0.021069,0.022962,0.002725,0.011347,-0.01954,-0.004578,-0.53091,0.021814,-0.124716,-259.121577,1.455454,72.563649
1.6755,-0.015086,-0.020481,0.022212,0.002746,0.011338,-0.019609,-0.003779,-0.530596,0.022386,-0.192186,-259.120555,1.455171,72.57235
1.6955,-0.014807,-0.020373,0.021797,0.002729,0.011339,-0.01968,-0.003757,-0.53036,0.022198,-0.192186,-259.120555,1.455171,72.57235
1.7159,-0.015128,-0.020638,0.021566,0.002714,0.01134,-0.019738,-0.003757,-0.53036,0.022198,-0.192186,-259.120555,1.455171,72.57235
1.7362,-0.014101,-0.019524,0.021054,0.002702,0.01134,-0.019788,-0.004027,-0.530049,0.020757,-0.228599,-259.119451,1.453568,72.581543
1.756,-0.014953,-0.019706,0.020402,0.002697,0.011338,-0.019835,-0.003754,-0.529744,0.020782,-0.228599,-259.119451,1.453568,72.581543
1.7757,-0.01397,-0.019151,0.017992,0.002692,0.011336,-0.019874,-0.004471,-0.529246,0.019786,-0.269203,-259.118359,1.455947,72.590729
1.7958,-0.013715,-0.019455,0.019814,0.002747,0.011317,-0.019913,-0.004762,-0.529066,0.018122,-0.269203,-259.118359,1.455947,72.590729
1.8156,-0.013729,-0.019466,0.019425,0.002792,0.011301,-0.019946,-0.004762,-0.529066,0.018122,-0.269203,-259.118359,1.455947,72.590729
1.8359,-0.013119,-0.018753,0.018842,0.002829,0.011288,-0.019974,-0.003719,-0.528897,0.0186,-0.289472,-259.117243,1.456605,72.600118
1.8561,-0.013075,-0.018487,0.019174,0.002803,0.011295,-0.020005,-0.003622,-0.528746,0.018604,-0.289472,-259.117243,1.456605,72.600118
1.8758,-0.012818,-0.018322,0.018864,0.002781,0.011299,-0.020032,-0.003214,-0.528036,0.018544,-0.311401,-259.116063,1.450923,72.609503
1.8962,-0.012641,-0.018407,0.018163,0.002745,0.011307,-0.020063,-0.003195,-0.528195,0.018802,-0.311401,-259.116063,1.450923,72.609503
1.916,-0.012502,-0.018311,0.017913,0.002716,0.011313,-0.020088,-0.003195,-0.528195,0.018802,-0.311401,-259.116063,1.450923,72.609503
1.9358,-0.012126,-0.017952,0.016656,0.002691,0.011318,-0.02011,-0.003259,-0.527755,0.017075,-0.324317,-259.114893,1.453172,72.618956
1.9559,-0.011777,-0.017883,0.017015,0.002685,0.011317,-0.020131,-0.003397,-0.527752,0.01681,-0.324317,-259.114893,1.453172,72.618956
1.9755,-0.011032,-0.01747,0.017245,0.00268,0.011317,-0.020149,-0.00302,-0.527449,0.016378,-0.344221,-259.113757,1.45726,72.628395
1.996,-0.011152,-0.017309,0.01556,0.002614,0.011331,-0.020172,-0.002303,-0.527381,0.017136,-0.344221,-259.113757,1.45726,72.628395
2.0157,-0.011433,-0.016515,0.01501,0.002559,0.011342,-0.020192,-0.002303,-0.527381,0.017136,-0.344221,-259.113757,1.45726,72.628395
2.0355,-0.010613,-0.016816,0.015506,0.002514,0.01135,-0.020208,-0.003673,-0.525983,0.014167,-0.353519,-259.112616,1.457837,72.63789
2.0558,-0.010494,-0.016468,0.015032,0.00255,0.011338,-0.020201,-0.003268,-0.526242,0.014614,-0.353519,-259.112616,1.457837,72.63789
2.0759,-0.009975,-0.015952,0.014339,0.002579,0.011328,-0.020195,-0.002754,-0.526052,0.014394,-0.37603,-259.111543,1.465077,72.647348
2.0958,-0.010316,-0.016276,0.014711,0.002567,0.011329,-0.02019,-0.002666,-0.525895,0.014313,-0.37603,-259.111543,1.465077,72.647348
2.1159,-0.01017,-0.016226,0.012246,0.002558,0.01133,-0.020186,-0.002666,-0.525895,0.014313,-0.37603,-259.111543,1.465077,72.647348
2.1361,-0.009206,-0.01504,0.014959,0.00255,0.011331,-0.020184,-0.003823,-0.525712,0.011401,-0.371985,-259.110438,1.462246,72.656854
2.1563,-0.009428,-0.015453,0.012606,0.002567,0.011326,-0.020122,-0.002906,-0.525364,0.012737,-0.371985,-259.110438,1.462246,72.656854
2.1755,-0.008822,-0.014682,0.011545,0.002581,0.011322,-0.020074,-0.002922,-0.525049,0.01196,-0.372548,-259.109341,1.463411,72.666385
2.1959,-0.008719,-0.014683,0.012437,0.002606,0.011314,-0.01995,-0.002929,-0.524665,0.011549,-0.372548,-259.109341,1.463411,72.666385
2.2159,-0.008947,-0.014852,0.011321,0.002627,0.011309,-0.019856,-0.002929,-0.524665,0.011549,-0.372548,-259.109341,1.463411,72.666385
2.2359,-0.008093,-0.014421,0.011943,0.002644,0.011304,-0.019784,-0.003072,-0.524349,0.010489,-0.34893,-259.108254,1.461798,72.675776
2.256,-0.008159,-0.01404,0.010719,0.002642,0.011304,-0.019673,-0.002627,-0.524309,0.010981,-0.34893,-259.108254,1.461798,72.675776
2.276,-0.007329,-0.013626,0.01164,0.00264,0.011304,-0.019589,-0.002616,-0.523672,0.010127,-0.286631,-259.107218,1.458233,72.68462
2.296,-0.007589,-0.013363,0.010573,0.002558,0.011321,-0.019569,-0.001499,-0.523581,0.011474,-0.286631,-259.107218,1.458233,72.68462
2.316,-0.007364,-0.013824,0.009695,0.002491,0.011333,-0.019554,-0.001499,-0.523581,0.011474,-0.286631,-259.107218,1.458233,72.68462
2.336,-0.00654,-0.013203,0.008872,0.002436,0.011343,-0.019543,-0.002316,-0.523338,0.008898,-0.244742,-259.106159,1.457827,72.693736
2.3562,-0.007022,-0.013327,0.008474,0.002454,0.011333,-0.019156,-0.002182,-0.523222,0.008795,-0.244742,-259.106159,1.457827,72.693736
2.3755,-0.006249,-0.012655,0.007993,0.002469,0.011325,-0.018877,-0.002626,-0.522948,0.007853,-0.23898,-259.105159,1.466545,72.703075
2.3961,-0.006026,-0.012725,0.008101,0.002493,0.011315,-0.018498,-0.002209,-0.522648,0.007949,-0.23898,-259.105159,1.466545,72.703075
2.4161,-0.005921,-0.012461,0.007063,0.002513,0.011307,-0.01823,-0.002209,-0.522648,0.007949,-0.23898,-259.105159,1.466545,72.703075
2.4355,-0.005584,-0.012108,0.008605,0.00253,0.011301,-0.018041,-0.002252,-0.52213,0.006524,-0.164011,-259.104489,1.463188,72.709291
2.4562,-0.005822,-0.012203,0.007115,0.002517,0.0113,-0.017758,-0.001809,-0.522077,0.007318,-0.164011,-259.104489,1.463188,72.709291
2.4757,-0.005728,-0.01201,0.007454,0.002507,0.011298,-0.017558,-0.002171,-0.522087,0.006943,-0.088886,-259.10419,1.45792,72.711925
2.4962,-0.005819,-0.011666,0.007359,0.002513,0.011294,-0.017427,-0.001947,-0.521999,0.0074,-0.088886,-259.10419,1.45792,72.711925
2.5161,-0.005849,-0.012043,0.008119,0.002518,0.011289,-0.017332,-0.001947,-0.521999,0.0074,-0.088886,-259.10419,1.45792,72.711925
2.5362,-0.005429,-0.011418,0.007291,0.002521,0.011286,-0.017264,-0.001687,-0.521934,0.007968,-0.014015,-259.103984,1.457439,72.7137
2.5561,-0.005692,-0.011667,0.007493,0.002506,0.011286,-0.01726,-0.001694,-0.52171,0.007678,-0.014015,-259.103984,1.457439,72.7137
2.5757,-0.005559,-0.011989,0.006416,0.002494,0.011287,-0.017254,-0.001852,-0.521572,0.007362,0.060943,-259.103741,1.455809,72.715732
2.5958,-0.005661,-0.011741,0.006445,0.00253,0.011275,-0.016965,-0.002248,-0.521938,0.006494,0.060943,-259.103741,1.455809,72.715732
2.6158,-0.005393,-0.012057,0.005169,0.002561,0.011266,-0.016754,-0.002248,-0.521938,0.006494,0.060943,-259.103741,1.455809,72.715732
2.6356,-0.005087,-0.011849,0.005095,0.002585,0.011258,-0.016599,-0.002713,-0.521853,0.004857,0.135957,-259.1033,1.457018,72.719452
2.6555,-0.005203,-0.011189,0.008349,0.002636,0.011239,-0.016011,-0.002617,-0.521826,0.004918,0.135957,-259.1033,1.457018,72.719452
2.6757,-0.005069,-0.011105,0.00518,0.002678,0.011225,-0.015596,-0.00092,-0.521066,0.008188,0.21096,-259.102964,1.450552,72.722026
2.696,-0.005061,-0.011416,0.008087,0.002704,0.011218,-0.015463,-0.002288,-0.52109,0.005446,0.21096,-259.102964,1.450552,72.722026
2.7165,-0.005161,-0.011454,0.006885,0.002724,0.011212,-0.015366,-0.002288,-0.52109,0.005446,0.21096,-259.102964,1.450552,72.722026
2.7358,-0.004875,-0.011165,0.006749,0.002741,0.011208,-0.015294,-0.001634,-0.521383,0.006796,0.285954,-259.102802,1.442428,72.723097
2.7561,-0.005088,-0.011482,0.007218,0.00268,0.011227,-0.015537,-0.001556,-0.521289,0.006769,0.285954,-259.102802,1.442428,72.723097
2.7758,-0.00472,-0.01112,0.006388,0.00263,0.011241,-0.015711,-0.001388,-0.521397,0.007114,0.360984,-259.102529,1.438172,72.7248
2.7959,-0.004867,-0.011317,0.006989,0.002582,0.011252,-0.015742,-0.001455,-0.521131,0.006447,0.360984,-259.102529,1.438172,72.7248
2.8158,-0.00515,-0.011115,0.004672,0.002543,0.01126,-0.015757,-0.001455,-0.521131,0.006447,0.360984,-259.102529,1.438172,72.7248
2.8355,-0.00477,-0.01118,0.00493,0.002512,0.011267,-0.015761,-0.002709,-0.520876,0.004338,0.435994,-259.10187,1.445231,72.729003
2.8561,-0.00441,-0.010388,0.005901,0.002589,0.01124,-0.015213,-0.002518,-0.520971,0.00454,0.435994,-259.10187,1.445231,72.729003
2.8759,-0.004018,-0.010399,0.004294,0.002653,0.011221,-0.014827,-0.001343,-0.520121,0.005534,0.510996,-259.101005,1.451145,72.735072
2.896,-0.003922,-0.010567,0.003322,0.00265,0.011219,-0.014498,-0.001773,-0.52035,0.004404,0.510996,-259.101005,1.451145,72.735072
2.9157,-0.004269,-0.010587,0.0049,0.002649,0.011218,-0.014266,-0.001773,-0.52035,0.004404,0.510996,-259.101005,1.451145,72.735072
2.9357,-0.004138,-0.01008,0.002565,0.002649,0.011217,-0.014101,-0.001701,-0.520295,0.004512,0.585991,-259.100163,1.4407,72.740097
2.9561,-0.004042,-0.010249,0.004286,0.002689,0.011201,-0.013732,-0.00215,-0.520174,0.00368,0.585991,-259.100163,1.4407,72.740097
2.9755,-0.003738,-0.009744,0.002906,0.002722,0.011189,-0.013477,-0.001808,-0.520048,0.004032,0.660976,-259.099338,1.43801,72.744539
2.9968,-0.00361,-0.01027,0.005166,0.00276,0.011169,-0.013036,-0.002212,-0.51976,0.002995,0.660976,-259.099338,1.43801,72.744539
3.0157,-0.003442,-0.009884,0.001597,0.00279,0.011155,-0.012732,-0.002212,-0.51976,0.002995,0.660976,-259.099338,1.43801,72.744539
3.0359,-0.003452,-0.009564,0.002862,0.002816,0.011144,-0.012523,-0.002551,-0.519586,0.001229,0.735965,-259.098306,1.431528,72.749572
3.0562,-0.003613,-0.009406,0.003259,0.002851,0.01112,-0.011843,-0.002316,-0.519542,0.001849,0.735965,-259.098306,1.431528,72.749572
3.0756,-0.003228,-0.00902,0.002891,0.002881,0.011104,-0.01137,-0.001888,-0.519166,0.002986,0.81096,-259.097099,1.422075,72.754684
3.0958,-0.002868,-0.008885,0.002364,0.002861,0.01111,-0.011519,-0.001763,-0.519019,0.002885,0.81096,-259.097099,1.422075,72.754684
3.1159,-0.002912,-0.009071,0.003942,0.002846,0.011113,-0.011631,-0.001763,-0.519019,0.002885,0.81096,-259.097099,1.422075,72.754684
3.1361,-0.002604,-0.008714,0.003178,0.002833,0.011116,-0.011716,-0.000816,-0.518752,0.003611,0.885965,-259.095719,1.412524,72.759667
3.1563,-0.00273,-0.008874,0.002772,0.002717,0.011139,-0.011975,-0.000873,-0.5187,0.003398,0.885965,-259.095719,1.412524,72.759667
3.1757,-0.002131,-0.008145,0.001272,0.002624,0.011155,-0.012164,-0.001231,-0.518534,0.002416,0.949842,-259.093893,1.416977,72.766602
3.1961,-0.002132,-0.008652,0.002314,0.002634,0.011123,-0.011342,-0.001456,-0.518163,0.001357,0.949842,-259.093893,1.416977,72.766602
3.216,-0.002461,-0.008222,0.000644,0.002643,0.011099,-0.010763,-0.001456,-0.518163,0.001357,0.949842,-259.093893,1.416977,72.766602
3.236,-0.001967,-0.007196,0.001304,0.002653,0.011082,-0.010357,-0.002023,-0.517756,0.000136,0.957181,-259.092077,1.430518,72.774081
3.2559,-0.002088,-0.007376,0.002041,0.002721,0.011033,-0.009606,-0.00172,-0.517476,0.000549,0.957181,-259.092077,1.430518,72.774081
3.2761,-0.00141,-0.007147,0.001271,0.002777,0.010997,-0.009075,-0.000975,-0.517081,0.001764,1.032188,-259.090257,1.419567,72.779967
3.2957,-0.001327,-0.006832,0.001236,0.002686,0.010993,-0.009111,-0.000779,-0.517123,0.001304,1.032188,-259.090257,1.419567,72.779967
3.3158,-0.000989,-0.007293,0.001033,0.002614,0.010987,-0.009144,-0.000779,-0.517123,0.001304,1.032188,-259.090257,1.419567,72.779967
3.3357,-0.000995,-0.006573,0.002248,0.002556,0.010981,-0.009176,-0.000355,-0.516864,0.000679,1.099842,-259.08799,1.404447,72.786178
3.356,-0.001069,-0.00665,0.000357,0.002403,0.01097,-0.009169,-0.000139,-0.516698,0.00127,1.099842,-259.08799,1.404447,72.786178
3.3761,-0.000608,-0.006064,-0.000364,0.002282,0.010957,-0.009172,-0.000806,-0.516305,6.9e-05,1.127032,-259.08564,1.417881,72.792802
3.3959,-0.000735,-0.006133,-8.2e-05,0.00232,0.010879,-0.008314,-0.000791,-0.516067,-0.000341,1.127032,-259.08564,1.417881,72.792802
3.4159,-0.000819,-0.006304,-0.000661,0.002349,0.010817,-0.007697,-0.000791,-0.516067,-0.000341,1.127032,-259.08564,1.417881,72.792802
3.4358,-0.000545,-0.005904,0.000115,0.002371,0.010768,-0.007257,-0.001063,-0.51586,-0.001032,1.168002,-259.083383,1.433849,72.799283
3.4557,-0.000676,-0.005751,-0.000734,0.002402,0.010709,-0.006807,-0.000819,-0.515826,-0.000612,1.168002,-259.083383,1.433849,72.799283
3.4758,-7.1e-05,-0.004914,-0.001116,0.002425,0.010662,-0.006488,-0.000977,-0.51542,-0.000957,1.212772,-259.080779,1.416076,72.805205
3.4957,-5.6e-05,-0.005219,-0.000967,0.002446,0.010542,-0.006008,-0.000668,-0.514944,-0.001113,1.212772,-259.080779,1.416076,72.805205
3.5159,-0.000399,-0.005042,-0.001123,0.002459,0.010446,-0.005669,-0.000668,-0.514944,-0.001113,1.212772,-259.080779,1.416076,72.805205
3.5355,0.00025,-0.004371,0.000244,0.002466,0.01037,-0.005434,-0.00087,-0.514597,-0.001393,1.223525,-259.077938,1.406482,72.811114
3.5559,0.000244,-0.004822,-0.000467,0.002413,0.010261,-0.005405,-0.00035,-0.514453,-0.000755,1.223525,-259.077938,1.406482,72.811114
3.5757,0.000368,-0.003815,-0.001542,0.002368,0.010172,-0.005392,8.4e-05,-0.514493,-0.000639,1.234367,-259.074965,1.392553,72.81665
3.5957,0.000305,-0.003928,-0.002492,0.002358,0.01,-0.005047,-0.000369,-0.513858,-0.00147,1.234367,-259.074965,1.392553,72.81665
3.6158,0.000425,-0.00408,-0.001241,0.002345,0.009864,-0.004809,-0.000369,-0.513858,-0.00147,1.234367,-259.074965,1.392553,72.81665
3.6355,0.000874,-0.003615,-0.000559,0.00233,0.009757,-0.004648,-0.000108,-0.513653,-0.001467,1.239309,-259.072057,1.396734,72.822116
3.6555,0.000721,-0.003306,-0.001825,0.002163,0.00964,-0.004652,0.000185,-0.513589,-0.001126,1.239309,-259.072057,1.396734,72.822116
3.6755,0.0009,-0.003095,-0.002785,0.00203,0.009544,-0.004665,-0.000135,-0.512996,-0.001972,1.245942,-259.069142,1.387885,72.827229
3.6958,0.000719,-0.003049,-0.001023,0.002149,0.009328,-0.004085,-0.000482,-0.513069,-0.00272,1.245942,-259.069142,1.387885,72.827229
3.7156,0.000634,-0.003059,-0.003264,0.002231,0.009163,-0.003671,-0.000482,-0.513069,-0.00272,1.245942,-259.069142,1.387885,72.827229
3.7355,0.001204,-0.002899,-0.002162,0.002287,0.009035,-0.00338,-0.000946,-0.512664,-0.003456,1.276369,-259.066399,1.408426,72.832153
3.7558,0.001365,-0.00231,-0.002451,0.002359,0.008855,-0.003077,-0.000508,-0.512715,-0.002949,1.276369,-259.066399,1.408426,72.832153
3.776,0.001267,-0.002176,-0.00185,0.002406,0.008715,-0.002866,0.000186,-0.512032,-0.002554,1.253774,-259.063561,1.36758,72.836537
3.7959,0.001451,-0.002105,-0.002015,0.002179,0.008495,-0.003022,0.000316,-0.51215,-0.001913,1.253774,-259.063561,1.36758,72.836537
3.816,0.001221,-0.002573,-0.002411,0.001998,0.008318,-0.003145,0.000316,-0.51215,-0.001913,1.253774,-259.063561,1.36758,72.836537
3.8357,0.001342,-0.001737,-0.001501,0.001853,0.008174,-0.003243,9.2e-05,-0.512212,-0.002529,1.238126,-259.060659,1.344806,72.840768
3.8559,0.001195,-0.001806,-0.000834,0.001747,0.008009,-0.003226,0.000299,-0.511978,-0.002127,1.238126,-259.060659,1.344806,72.840768
3.876,0.001926,-0.00106,-0.001653,0.001659,0.007877,-0.003222,0.000825,-0.511561,-0.000931,1.280058,-259.058226,1.390281,72.844651
3.8959,0.001738,-0.001582,-0.002359,0.001355,0.007508,-0.003354,0.001062,-0.511093,-0.001592,1.280058,-259.058226,1.390281,72.844651
3.916,0.001739,-0.001318,-0.001237,0.001108,0.007212,-0.003465,0.001062,-0.511093,-0.001592,1.280058,-259.058226,1.390281,72.844651
3.936,0.001879,-0.001088,-0.002226,0.000907,0.006972,-0.003557,0.001178,-0.510989,-0.001371,1.29706,-259.055789,1.403829,72.848615
3.9558,0.001882,-0.001108,-0.002658,0.000763,0.006746,-0.003571,0.00101,-0.510991,-0.001732,1.29706,-259.055789,1.403829,72.848615
3.9755,0.002125,-0.000607,-0.003078,0.000642,0.006563,-0.003591,0.000551,-0.510924,-0.002752,1.372064,-259.054181,1.471972,72.851641
3.9959,0.002117,-0.00096,-0.001356,0.000718,0.006262,-0.003124,0.000556,-0.510623,-0.003055,1.372064,-259.054181,1.471972,72.851641
4.0161,0.002147,-0.000676,-0.002443,0.000764,0.006027,-0.002793,0.000556,-0.510623,-0.003055,1.372064,-259.054181,1.471972,72.851641
4.0363,0.001912,-0.000343,-0.005695,0.000789,0.005843,-0.002561,0.000927,-0.510414,-0.002585,1.42496,-259.052511,1.497618,72.854959
4.0563,0.002107,-0.000516,-0.002327,0.000978,0.005582,-0.00216,0.000151,-0.510352,-0.003863,1.42496,-259.052511,1.497618,72.854959
4.0758,0.002211,0.00022,-0.003246,0.001114,0.00538,-0.001873,0.000945,-0.510335,-0.002406,1.388392,-259.050835,1.464636,72.857829
4.0959,0.002099,0.000172,-0.003799,0.00108,0.005079,-0.001822,0.000591,-0.509817,-0.003176,1.388392,-259.050835,1.464636,72.857829
4.1161,0.002138,-0.000306,-0.002086,0.001044,0.004839,-0.001796,0.000591,-0.509817,-0.003176,1.388392,-259.050835,1.464636,72.857829
4.1359,0.002016,-3.2e-05,-0.003357,0.001009,0.004646,-0.001787,0.001115,-0.510112,-0.002153,1.313605,-259.049334,1.401663,72.860098
4.1558,0.002366,0.000428,-0.003184,0.000889,0.004596,-0.001987,0.000789,-0.510056,-0.002651,1.313605,-259.049334,1.401663,72.860098
4.1757,0.002504,0.000391,-0.001579,0.000793,0.004549,-0.002132,0.000774,-0.509423,-0.00324,1.29413,-259.047866,1.396662,72.862413
4.1957,0.00242,0.000481,-0.001475,0.000504,0.004438,-0.002566,0.001617,-0.509584,-0.001733,1.29413,-259.047866,1.396662,72.862413
4.2156,0.002529,0.0008,-0.003713,0.000275,0.00434,-0.00288,0.001617,-0.509584,-0.001733,1.29413,-259.047866,1.396662,72.862413
4.2359,0.002377,0.000499,-0.002816,9.3e-05,0.004254,-0.003109,0.000668,-0.509015,-0.003798,1.331126,-259.046589,1.436013,72.864667
4.2558,0.002003,0.000915,-0.003494,0.000237,0.004001,-0.002668,0.000783,-0.509192,-0.003407,1.331126,-259.046589,1.436013,72.864667
4.2757,0.002538,0.000829,-0.003962,0.000337,0.003804,-0.002351,0.000226,-0.509025,-0.003536,1.406132,-259.046197,1.51102,72.865693
4.2959,0.002419,0.000932,-0.003245,0.000512,0.003627,-0.001988,0.000493,-0.509152,-0.003926,1.406132,-259.046197,1.51102,72.865693
4.3161,0.002589,0.000835,-0.003537,0.000638,0.00349,-0.001723,0.000493,-0.509152,-0.003926,1.406132,-259.046197,1.51102,72.865693
4.3363,0.002702,0.000826,-0.002908,0.000731,0.003383,-0.001531,0.000799,-0.509004,-0.003635,1.429408,-259.045248,1.506554,72.867774
4.3559,0.002844,0.000596,-0.004199,0.000656,0.003314,-0.001547,0.00097,-0.509054,-0.003353,1.429408,-259.045248,1.506554,72.867774
4.3761,0.002572,0.001017,-0.002345,0.000597,0.003256,-0.001562,0.000713,-0.509335,-0.004227,1.354432,-259.044644,1.431579,72.86881
4.396,0.002478,0.001135,-0.004591,0.000443,0.003236,-0.001872,0.00132,-0.509009,-0.002508,1.354432,-259.044644,1.431579,72.86881
4.4162,0.002521,0.000878,-0.004133,0.000322,0.003214,-0.002095,0.00132,-0.509009,-0.002508,1.354432,-259.044644,1.431579,72.86881
4.4363,0.002644,0.001157,-0.00334,0.000227,0.003191,-0.002256,0.000439,-0.508984,-0.004196,1.316915,-259.043715,1.429852,72.87047
4.456,0.002714,0.001384,-0.002937,0.00038,0.003091,-0.001944,0.000645,-0.50891,-0.003857,1.316915,-259.043715,1.429852,72.87047
4.4759,0.002617,0.001335,-0.003841,0.000493,0.003015,-0.001715,0.001223,-0.508546,-0.002985,1.391787,-259.043226,1.504725,72.871696
4.496,0.002824,0.001211,-0.002719,0.000571,0.002902,-0.001556,0.000708,-0.508648,-0.003768,1.391787,-259.043226,1.504725,72.871696
4.5158,0.002657,0.001297,-0.003976,0.000627,0.002814,-0.001443,0.000708,-0.508648,-0.003768,1.391787,-259.043226,1.504725,72.871696
4.5356,0.002942,0.001738,-0.002818,0.000667,0.002746,-0.001364,0.000648,-0.508587,-0.00404,1.32538,-259.042505,1.450067,72.87315
4.5556,0.002829,0.001296,-0.004081,0.000614,0.002671,-0.001354,0.000999,-0.508441,-0.003549,1.32538,-259.042505,1.450067,72.87315
4.5758,0.002943,0.001269,-0.003397,0.00057,0.00261,-0.001351,0.000765,-0.508628,-0.004117,1.250392,-259.041838,1.386468,72.874348
4.5957,0.002689,0.001724,-0.004354,0.000457,0.002645,-0.001394,0.001172,-0.508715,-0.003463,1.250392,-259.041838,1.386468,72.874348
4.6164,0.00284,0.001505,-0.00546,0.000371,0.002668,-0.001424,0.001172,-0.508715,-0.003463,1.250392,-259.041838,1.386468,72.874348
4.6365,0.003291,0.001847,-0.003683,0.000305,0.002683,-0.001446,7.9e-05,-0.508379,-0.005516,1.261419,-259.041095,1.406243,72.875729
4.656,0.002893,0.001209,-0.003305,0.000464,0.002549,-0.001099,0.000617,-0.508274,-0.004787,1.261419,-259.041095,1.406243,72.875729
4.6759,0.003139,0.001838,-0.003363,0.00058,0.002447,-0.000843,0.001215,-0.508733,-0.003336,1.336394,-259.040615,1.481217,72.87667
4.6957,0.002817,0.001879,-0.003445,0.000429,0.002422,-0.001042,0.001406,-0.508207,-0.003362,1.336394,-259.040615,1.481217,72.87667
4.7158,0.002589,0.001731,-0.005367,0.000311,0.002398,-0.001187,0.001406,-0.508207,-0.003362,1.336394,-259.040615,1.481217,72.87667
4.7358,0.003007,0.001875,-0.004074,0.00022,0.002374,-0.001294,-0.000129,-0.50818,-0.005395,1.279062,-259.039972,1.406119,72.877633
4.7559,0.003098,0.001681,-0.004008,0.000498,0.002267,-0.000996,0.000305,-0.508146,-0.004859,1.279062,-259.039972,1.406119,72.877633
4.7758,0.002837,0.002042,-0.003988,0.000708,0.002186,-0.000773,0.001061,-0.50827,-0.004032,1.353966,-259.039593,1.481023,72.878383
4.7961,0.00266,0.001721,-0.003907,0.000708,0.002124,-0.000807,0.000826,-0.507979,-0.003993,1.353966,-259.039593,1.481023,72.878383
4.8162,0.002922,0.001736,-0.002789,0.000706,0.002074,-0.000833,0.000826,-0.507979,-0.003993,1.353966,-259.039593,1.481023,72.878383
4.8358,0.002858,0.002124,-0.004637,0.000703,0.002033,-0.000854,0.001507,-0.508226,-0.002802,1.278798,-259.03931,1.405855,72.878803
4.856,0.003097,0.001793,-0.004011,0.000606,0.002047,-0.001011,0.001102,-0.50808,-0.003538,1.278798,-259.03931,1.405855,72.878803
4.8765,0.002934,0.002081,-0.003088,0.000532,0.002055,-0.001124,0.001064,-0.508163,-0.004027,1.203966,-259.038907,1.331023,72.879444
4.8962,0.003225,0.001849,-0.004852,0.000419,0.00205,-0.001315,0.001332,-0.507938,-0.003178,1.203966,-259.038907,1.331023,72.879444
4.916,0.003244,0.001985,-0.003977,0.000332,0.002041,-0.001453,0.001332,-0.507938,-0.003178,1.203966,-259.038907,1.331023,72.879444
4.936,0.002867,0.002129,-0.005974,0.000263,0.002032,-0.001552,0.001238,-0.507928,-0.004022,1.199733,-259.03834,1.378948,72.880522
4.9564,0.003273,0.002287,-0.004006,0.000417,0.00196,-0.001172,0.000654,-0.507891,-0.004835,1.199733,-259.03834,1.378948,72.880522
4.9756,0.002918,0.002555,-0.00511,0.000532,0.001907,-0.000887,0.001237,-0.507668,-0.004038,1.274871,-259.038057,1.454086,72.88128
4.996,0.003108,0.002142,-0.003266,0.000721,0.00178,-0.000622,0.000395,-0.507457,-0.005015,1.274871,-259.038057,1.454086,72.88128
5.0162,0.003006,0.001729,-0.004536,0.000863,0.001681,-0.000427,0.000395,-0.507457,-0.005015,1.274871,-259.038057,1.454086,72.88128
5.0357,0.003161,0.003073,-0.003611,0.000968,0.001605,-0.000285,0.00071,-0.508203,-0.004565,1.199974,-259.037598,1.37919,72.882066
5.0557,0.003018,0.002226,-0.005234,0.000863,0.001622,-0.000396,0.000961,-0.507674,-0.004179,1.199974,-259.037598,1.37919,72.882066
5.0756,0.002873,0.002178,-0.00357,0.000784,0.001632,-0.000477,0.000351,-0.507762,-0.005235,1.125007,-259.037532,1.304222,72.882143
5.096,0.002945,0.002133,-0.003974,0.000706,0.001671,-0.000683,0.000987,-0.507813,-0.003726,1.125007,-259.037532,1.304222,72.882143
5.1157,0.003477,0.002327,-0.004435,0.000648,0.001698,-0.000829,0.000987,-0.507813,-0.003726,1.125007,-259.037532,1.304222,72.882143
5.1362,0.003226,0.002225,-0.003744,0.000604,0.001718,-0.000932,0.001237,-0.507619,-0.004449,1.049959,-259.037091,1.229175,72.882733
5.156,0.003247,0.002578,-0.00418,0.000494,0.001725,-0.000857,0.001272,-0.507676,-0.004162,1.049959,-259.037091,1.229175,72.882733
5.1759,0.003376,0.002199,-0.003384,0.000409,0.001728,-0.000804,0.001132,-0.50737,-0.004206,1.086324,-259.036636,1.304193,72.883562
5.196,0.003235,0.002227,-0.003779,0.000246,0.001776,-0.000988,0.001605,-0.507758,-0.003458,1.086324,-259.036636,1.304193,72.883562
5.2162,0.003561,0.002309,-0.004503,0.000122,0.00181,-0.001119,0.001605,-0.507758,-0.003458,1.086324,-259.036636,1.304193,72.883562
5.2363,0.003295,0.002877,-0.003628,2.6e-05,0.001832,-0.001212,0.001276,-0.507645,-0.004524,1.16134,-259.036334,1.379209,72.884085
5.2561,0.003307,0.002352,-0.004147,5e-05,0.001761,-0.001053,0.001347,-0.507424,-0.004158,1.16134,-259.036334,1.379209,72.884085
5.276,0.003388,0.002267,-0.00552,6.5e-05,0.001706,-0.00094,0.001192,-0.507641,-0.004149,1.236697,-259.036311,1.454566,72.884138
5.2962,0.003323,0.002196,-0.003202,0.000267,0.001669,-0.000608,0.000628,-0.507717,-0.005397,1.236697,-259.036311,1.454566,72.884138
5.3162,0.003588,0.002232,-0.00524,0.00042,0.001644,-0.000355,0.000628,-0.507717,-0.005397,1.236697,-259.036311,1.454566,72.884138
5.3357,0.003255,0.002398,-0.004079,0.000536,0.001627,-0.000164,0.000918,-0.507743,-0.00525,1.311261,-259.036196,1.52913,72.88437
5.3564,0.003181,0.002309,-0.005196,0.000505,0.001636,-0.000149,0.001023,-0.507681,-0.004771,1.311261,-259.036196,1.52913,72.88437
5.3762,0.003945,0.002512,-0.003033,0.000482,0.001641,-0.000139,0.000535,-0.507668,-0.005198,1.236144,-259.035998,1.454013,72.884592
5.3963,0.00331,0.001978,-0.004306,0.0,0.0,0.0,0.00223,-0.507501,-0.003229,1.236144,-259.035998,1.454013,72.884592
5.4161,0.003068,0.002487,-0.004192,0.0,0.0,0.0,0.00223,-0.507501,-0.003229,1.236144,-259.035998,1.454013,72.884592
5.4361,0.003191,0.002105,-0.004556,0.0,0.0,0.0,0.000942,-0.507463,-0.004197,1.270389,-259.035565,1.378991,72.885068
5.4557,0.003267,0.002357,-0.002351,0.0,0.0,0.0,0.000913,-0.507633,-0.004345,1.270389,-259.035565,1.378991,72.885068
5.4755,0.003096,0.002437,-0.004566,0.0,0.0,0.0,0.002068,-0.507641,-0.002351,1.270389,-259.035565,1.378991,72.885068
5.4955,0.003297,0.002604,-0.003691,0.0,0.0,0.0,0.000885,-0.507565,-0.004365,1.270389,-259.035565,1.378991,72.885068
5.5158,0.003158,0.00254,-0.003883,0.0,0.0,0.0,0.000885,-0.507565,-0.004365,1.270389,-259.035565,1.378991,72.885068
5.5357,0.003006,0.002327,-0.004429,0.0,0.0,0.0,0.001177,-0.507456,-0.003883,1.270389,-259.035565,1.378991,72.885068
5.5562,0.003306,0.002646,-0.004672,0.0,0.0,0.0,0.001,-0.507544,-0.004109,1.270389,-259.035565,1.378991,72.885068
5.5757,0.003249,0.002158,-0.003767,0.0,0.0,0.0,0.000923,-0.507349,-0.004672,1.270389,-259.035565,1.378991,72.885068
5.5959,0.003263,0.002324,-0.004079,0.0,0.0,0.0,0.001291,-0.507793,-0.00385,1.270389,-259.035565,1.378991,72.885068
5.616,0.003316,0.00252,-0.005525,0.0,0.0,0.0,0.001291,-0.507793,-0.00385,1.270389,-259.035565,1.378991,72.885068
5.6359,0.003278,0.002411,-0.005293,0.0,0.0,0.0,0.000498,-0.507472,-0.005525,1.270389,-259.035565,1.378991,72.885068
5.6558,0.003363,0.002602,-0.005131,0.0,0.0,0.0,0.000531,-0.507517,-0.00543,1.270389,-259.035565,1.378991,72.885068
5.6757,0.003365,0.002801,-0.005199,0.0,0.0,0.0,0.000747,-0.507391,-0.005131,1.270389,-259.035565,1.378991,72.885068
5.6959,0.003065,0.002627,-0.004275,0.0,0.0,0.0,0.000716,-0.507211,-0.005192,1.270389,-259.035565,1.378991,72.885068
5.716,0.00332,0.002536,-0.004628,0.0,0.0,0.0,0.000716,-0.507211,-0.005192,1.270389,-259.035565,1.378991,72.885068
5.736,0.003138,0.002412,-0.003837,0.0,0.0,0.0,0.000959,-0.507459,-0.004628,1.270389,-259.035565,1.378991,72.885068
5.7559,0.003423,0.002314,-0.002037,0.0,0.0,0.0,0.001049,-0.50751,-0.004306,1.270389,-259.035565,1.378991,72.885068
5.7757,0.003338,0.002599,-0.003876,0.0,0.0,0.0,0.002384,-0.507685,-0.002037,1.270389,-259.035565,1.378991,72.885068
5.796,0.003095,0.002501,-0.004012,0.0,0.0,0.0,0.001455,-0.507424,-0.003707,1.270389,-259.035565,1.378991,72.885068
5.8156,0.003485,0.002697,-0.002606,0.0,0.0,0.0,0.001455,-0.507424,-0.003707,1.270389,-259.035565,1.378991,72.885068
5.8357,0.003508,0.002697,-0.005443,0.0,0.0,0.0,0.002156,-0.507302,-0.002606,1.270389,-259.035565,1.378991,72.885068
5.8557,0.003496,0.002309,-0.005425,0.0,0.0,0.0,0.001573,-0.507299,-0.003767,1.270389,-259.035565,1.378991,72.885068
5.8761,0.003014,0.002673,-0.002804,0.0,0.0,0.0,0.000729,-0.507683,-0.005425,1.270389,-259.035565,1.378991,72.885068
5.8961,0.003322,0.00237,-0.002538,0.0,0.0,0.0,0.001505,-0.507358,-0.003044,1.270389,-259.035565,1.378991,72.885068
5.9157,0.003444,0.002549,-0.004943,0.0,0.0,0.0,0.001505,-0.507358,-0.003044,1.270389,-259.035565,1.378991,72.885068
5.9358,0.003513,0.002495,-0.003379,0.0,0.0,0.0,0.000923,-0.507445,-0.004943,1.270389,-259.035565,1.378991,72.885068
5.9557,0.00334,0.002607,-0.003897,0.0,0.0,0.0,0.001277,-0.507468,-0.004303,1.270389,-259.035565,1.378991,72.885068
5.9758,0.003107,0.002435,-0.005665,0.0,0.0,0.0,0.001352,-0.507389,-0.003897,1.270389,-259.035565,1.378991,72.885068
5.9959,0.003488,0.002338,-0.003889,0.0,0.0,0.0,0.000318,-0.507542,-0.005508,1.270389,-259.035565,1.378991,72.885068
6.0159,0.003317,0.002068,-0.004231,0.0,0.0,0.0,0.000318,-0.507542,-0.005508,1.270389,-259.035565,1.378991,72.885068
6.0359,0.003396,0.002488,-0.002411,0.0,0.0,0.0,0.001159,-0.507927,-0.004231,1.270389,-259.035565,1.378991,72.885068
6.0556,0.003074,0.002328,-0.00402,0.0,0.0,0.0,0.001567,-0.507758,-0.003495,1.270389,-259.035565,1.378991,72.885068
6.0755,0.003145,0.00235,-0.004487,0.0,0.0,0.0,0.001024,-0.507668,-0.00402,1.270389,-259.035565,1.378991,72.885068
6.0962,0.003205,0.002722,-0.005044,0.0,0.0,0.0,0.000872,-0.507647,-0.004446,1.270389,-259.035565,1.378991,72.885068
6.1157,0.003656,0.002574,-0.00456,0.0,0.0,0.0,0.000872,-0.507647,-0.004446,1.270389,-259.035565,1.378991,72.885068
6.1357,0.002906,0.002612,-0.003139,0.0,0.0,0.0,0.001331,-0.507421,-0.00456,1.270389,-259.035565,1.378991,72.885068
6.1558,0.00337,0.002918,-0.003085,0.0,0.0,0.0,0.00132,-0.507406,-0.003961,1.270389,-259.035565,1.378991,72.885068
6.1758,0.003138,0.002591,-0.004252,0.0,0.0,0.0,0.001797,-0.507079,-0.003085,1.270389,-259.035565,1.378991,72.885068
6.1958,0.00307,0.002326,-0.00537,0.0,0.0,0.0,0.001042,-0.507376,-0.00415,1.270389,-259.035565,1.378991,72.885068
6.2156,0.003183,0.002516,-0.00475,0.0,0.0,0.0,0.001042,-0.507376,-0.00415,1.270389,-259.035565,1.378991,72.885068
6.2357,0.003445,0.002727,-0.005718,0.0,0.0,0.0,0.00076,-0.507478,-0.00475,1.270389,-259.035565,1.378991,72.885068
6.2561,0.003262,0.002509,-0.00456,0.0,0.0,0.0,0.000666,-0.507391,-0.005144,1.270389,-259.035565,1.378991,72.885068
6.2757,0.003286,0.002419,-0.005269,0.0,0.0,0.0,0.000936,-0.507486,-0.00456,1.270389,-259.035565,1.378991,72.885068
6.296,0.003001,0.002516,-0.004885,0.0,0.0,0.0,0.000629,-0.507566,-0.005205,1.270389,-259.035565,1.378991,72.885068
6.3158,0.003106,0.002583,-0.005146,0.0,0.0,0.0,0.000629,-0.507566,-0.005205,1.270389,-259.035565,1.378991,72.885068
6.3357,0.003246,0.002517,-0.005327,0.0,0.0,0.0,0.000482,-0.50741,-0.005146,1.270389,-259.035565,1.378991,72.885068
6.3558,0.003138,0.002212,-0.005349,0.0,0.0,0.0,0.000501,-0.507437,-0.00522,1.270389,-259.035565,1.378991,72.885068
6.3756,0.003263,0.002239,-0.003534,0.0,0.0,0.0,0.00041,-0.50778,-0.005349,1.270389,-259.035565,1.378991,72.885068
6.3957,0.003479,0.002295,-0.002968,0.0,0.0,0.0,0.001367,-0.50776,-0.003695,1.270389,-259.035565,1.378991,72.885068
6.4158,0.003333,0.0023,-0.005098,0.0,0.0,0.0,0.001367,-0.50776,-0.003695,1.270389,-259.035565,1.378991,72.885068
6.4359,0.003686,0.002548,-0.002883,0.0,0.0,0.0,0.000733,-0.507693,-0.005098,1.270389,-259.035565,1.378991,72.885068
6.4559,0.003346,0.002636,-0.005726,0.0,0.0,0.0,0.001341,-0.507593,-0.00419,1.270389,-259.035565,1.378991,72.885068
6.4756,0.003758,0.003016,-0.005604,0.0,0.0,0.0,0.000425,-0.507356,-0.005726,1.270389,-259.035565,1.378991,72.885068
6.4958,0.003504,0.002521,-0.005179,0.0,0.0,0.0,0.000858,-0.50701,-0.005615,1.270389,-259.035565,1.378991,72.885068
6.5159,0.003301,0.002554,-0.004714,0.0,0.0,0.0,0.000858,-0.50701,-0.005615,1.270389,-259.035565,1.378991,72.885068
6.5357,0.003694,0.002323,-0.004352,0.0,0.0,0.0,0.000897,-0.507441,-0.004714,1.270389,-259.035565,1.378991,72.885068
6.5558,0.00319,0.002556,-0.004696,0.0,0.0,0.0,0.001134,-0.507536,-0.004565,1.270389,-259.035565,1.378991,72.885068
6.5759,0.003264,0.002621,-0.002899,0.0,0.0,0.0,0.000796,-0.507438,-0.004696,1.270389,-259.035565,1.378991,72.885068
6.5959,0.003472,0.002455,-0.003478,0.0,0.0,0.0,0.0017,-0.507382,-0.003054,1.270389,-259.035565,1.378991,72.885068
6.616,0.003309,0.002507,-0.005078,0.0,0.0,0.0,0.0017,-0.507382,-0.003054,1.270389,-259.035565,1.378991,72.885068
6.6361,0.003351,0.002776,-0.004923,0.0,0.0,0.0,0.000719,-0.507486,-0.005078,1.270389,-259.035565,1.378991,72.885068
6.6559,0.002828,0.002534,-0.006176,0.0,0.0,0.0,0.000769,-0.507377,-0.005015,1.270389,-259.035565,1.378991,72.885068
6.6757,0.002916,0.002446,-0.003154,0.0,0.0,0.0,-0.000322,-0.507456,-0.006176,1.270389,-259.035565,1.378991,72.885068
6.6957,0.003149,0.002361,-0.003909,0.0,0.0,0.0,0.00116,-0.507543,-0.003427,1.270389,-259.035565,1.378991,72.885068
6.7157,0.003299,0.002514,-0.003137,0.0,0.0,0.0,0.00116,-0.507543,-0.003427,1.270389,-259.035565,1.378991,72.885068
6.7357,0.003398,0.002508,-0.004296,0.0,0.0,0.0,0.0017,-0.507484,-0.003137,1.270389,-259.035565,1.378991,72.885068
6.7557,0.00341,0.002579,-0.005534,0.0,0.0,0.0,0.001498,-0.507485,-0.003612,1.270389,-259.035565,1.378991,72.885068
6.7757,0.003248,0.002582,-0.005356,0.0,0.0,0.0,0.000587,-0.507413,-0.005534,1.270389,-259.035565,1.378991,72.885068
6.7957,0.003592,0.002521,-0.004613,0.0,0.0,0.0,0.000523,-0.507411,-0.005372,1.270389,-259.035565,1.378991,72.885068
6.8156,0.003222,0.002317,-0.00404,0.0,0.0,0.0,0.000523,-0.507411,-0.005372,1.270389,-259.035565,1.378991,72.885068
6.8359,0.003011,0.002435,-0.004108,0.0,0.0,0.0,0.001161,-0.507679,-0.00404,1.270389,-259.035565,1.378991,72.885068
6.8558,0.003461,0.002357,-0.003468,0.0,0.0,0.0,0.001061,-0.50763,-0.004068,1.270389,-259.035565,1.378991,72.885068
6.8759,0.003416,0.002889,-0.004934,0.0,0.0,0.0,0.001693,-0.50764,-0.003468,1.270389,-259.035565,1.378991,72.885068
6.8958,0.00333,0.002413,-0.003626,0.0,0.0,0.0,0.00097,-0.507153,-0.004803,1.270389,-259.035565,1.378991,72.885068
6.9157,0.003005,0.002644,-0.003178,0.0,0.0,0.0,0.00097,-0.507153,-0.004803,1.270389,-259.035565,1.378991,72.885068
6.9355,0.003364,0.002382,-0.004042,0.0,0.0,0.0,0.001384,-0.507353,-0.003178,1.270389,-259.035565,1.378991,72.885068
6.9558,0.003387,0.002482,-0.00263,0.0,0.0,0.0,0.001351,-0.50746,-0.00353,1.270389,-259.035565,1.378991,72.885068
6.9756,0.002907,0.002658,-0.004599,0.0,0.0,0.0,0.002046,-0.507516,-0.00263,1.270389,-259.035565,1.378991,72.885068
6.9959,0.003287,0.002289,-0.00335,0.0,0.0,0.0,0.000694,-0.507352,-0.004423,1.270389,-259.035565,1.378991,72.885068
7.0159,0.003224,0.002486,-0.005194,0.0,0.0,0.0,0.000694,-0.507352,-0.004423,1.270389,-259.035565,1.378991,72.885068
7.0355,0.002934,0.002906,-0.004172,0.0,0.0,0.0,0.000575,-0.507507,-0.005194,1.270389,-259.035565,1.378991,72.885068
7.0559,0.00341,0.002976,-0.003933,0.0,0.0,0.0,0.000669,-0.507337,-0.004777,1.270389,-259.035565,1.378991,72.885068
7.0758,0.003376,0.002233,-0.004713,0.0,0.0,0.0,0.001405,-0.50702,-0.003933,1.270389,-259.035565,1.378991,72.885068
7.0958,0.00335,0.002288,-0.00403,0.0,0.0,0.0,0.001011,-0.507695,-0.004643,1.270389,-259.035565,1.378991,72.885068
7.1156,0.003446,0.002478,-0.003642,0.0,0.0,0.0,0.001011,-0.507695,-0.004643,1.270389,-259.035565,1.378991,72.885068
7.1355,0.003197,0.002484,-0.003687,0.0,0.0,0.0,0.001589,-0.507518,-0.003642,1.270389,-259.035565,1.378991,72.885068
7.1557,0.003205,0.002609,-0.003957,0.0,0.0,0.0,0.001478,-0.507516,-0.00366,1.270389,-259.035565,1.378991,72.885068
7.1757,0.00335,0.00205,-0.005802,0.0,0.0,0.0,0.001187,-0.507387,-0.003957,1.270389,-259.035565,1.378991,72.885068
7.1955,0.003395,0.002623,-0.003906,0.0,0.0,0.0,0.000462,-0.507892,-0.005637,1.270389,-259.035565,1.378991,72.885068
7.2156,0.003328,0.002474,-0.004918,0.0,0.0,0.0,0.000462,-0.507892,-0.005637,1.270389,-259.035565,1.378991,72.885068
7.2358,0.003395,0.002564,-0.004952,0.0,0.0,0.0,0.00082,-0.50752,-0.004918,1.270389,-259.035565,1.378991,72.885068
7.2556,0.003214,0.002309,-0.003897,0.0,0.0,0.0,0.00084,-0.507483,-0.004932,1.270389,-259.035565,1.378991,72.885068
7.2757,0.003075,0.002313,-0.0033,0.0,0.0,0.0,0.001227,-0.507687,-0.003897,1.270389,-259.035565,1.378991,72.885068
7.2958,0.003498,0.002378,-0.003861,0.0,0.0,0.0,0.001378,-0.507684,-0.003351,1.270389,-259.035565,1.378991,72.885068
7.3159,0.003152,0.002404,-0.004384,0.0,0.0,0.0,0.001378,-0.507684,-0.003351,1.270389,-259.035565,1.378991,72.885068
7.3357,0.003383,0.002508,-0.003645,0.0,0.0,0.0,0.000916,-0.507591,-0.004384,1.270389,-259.035565,1.378991,72.885068
7.3558,0.003603,0.002677,-0.003692,0.0,0.0,0.0,0.001166,-0.507549,-0.004081,1.270389,-259.035565,1.378991,72.885068
7.3759,0.003413,0.002217,-0.003989,0.0,0.0,0.0,0.00172,-0.50732,-0.003692,1.270389,-259.035565,1.378991,72.885068
7.3959,0.003306,0.002948,-0.003735,0.0,0.0,0.0,0.001409,-0.507738,-0.003963,1.270389,-259.035565,1.378991,72.885068
7.4159,0.0033,0.002302,-0.003653,0.0,0.0,0.0,0.001409,-0.507738,-0.003963,1.270389,-259.035565,1.378991,72.885068
7.4357,0.003325,0.0029,-0.005091,0.0,0.0,0.0,0.001437,-0.507694,-0.003653,1.270389,-259.035565,1.378991,72.885068
7.4557,0.003281,0.002733,-0.005076,0.0,0.0,0.0,0.001149,-0.50745,-0.004237,1.270389,-259.035565,1.378991,72.885068
7.4759,0.003307,0.002214,-0.0043,0.0,0.0,0.0,0.000692,-0.507261,-0.005076,1.270389,-259.035565,1.378991,72.885068
7.4957,0.003166,0.002529,-0.004163,0.0,0.0,0.0,0.001076,-0.507735,-0.004369,1.270389,-259.035565,1.378991,72.885068
7.5159,0.003205,0.002609,-0.005483,0.0,0.0,0.0,0.001076,-0.507735,-0.004369,1.270389,-259.035565,1.378991,72.885068
7.5364,0.003579,0.002521,-0.004565,0.0,0.0,0.0,0.000408,-0.507383,-0.005483,1.270389,-259.035565,1.378991,72.885068
7.556,0.003172,0.002583,-0.003425,0.0,0.0,0.0,0.000749,-0.50742,-0.005112,1.270389,-259.035565,1.378991,72.885068
7.5764,0.003424,0.002164,-0.004682,0.0,0.0,0.0,0.001425,-0.507414,-0.003425,1.270389,-259.035565,1.378991,72.885068
7.5958,0.003288,0.002546,-0.002572,0.0,0.0,0.0,0.001072,-0.507792,-0.004566,1.270389,-259.035565,1.378991,72.885068
7.6156,0.003212,0.002294,-0.003048,0.0,0.0,0.0,0.001072,-0.507792,-0.004566,1.270389,-259.035565,1.378991,72.885068
7.6359,0.003371,0.002635,-0.00318,0.0,0.0,0.0,0.001658,-0.507704,-0.003048,1.270389,-259.035565,1.378991,72.885068
7.6562,0.003141,0.002118,-0.003841,0.0,0.0,0.0,0.001695,-0.507564,-0.003102,1.270389,-259.035565,1.378991,72.885068
7.6759,0.003224,0.003019,-0.004228,0.0,0.0,0.0,0.001182,-0.507878,-0.003841,1.270389,-259.035565,1.378991,72.885068
7.6956,0.003466,0.00263,-0.005576,0.0,0.0,0.0,0.001077,-0.507054,-0.004194,1.270389,-259.035565,1.378991,72.885068
7.7161,0.003195,0.002151,-0.002832,0.0,0.0,0.0,0.001077,-0.507054,-0.004194,1.270389,-259.035565,1.378991,72.885068
7.7361,0.003434,0.002402,-0.004902,0.0,0.0,0.0,0.00175,-0.507847,-0.002832,1.270389,-259.035565,1.378991,72.885068
7.7562,0.003375,0.002235,-0.004281,0.0,0.0,0.0,0.001414,-0.507742,-0.003686,1.270389,-259.035565,1.378991,72.885068
7.7759,0.003323,0.002922,-0.00451,0.0,0.0,0.0,0.001191,-0.507761,-0.004281,1.270389,-259.035565,1.378991,72.885068
7.7961,0.003381,0.002547,-0.004932,0.0,0.0,0.0,0.001037,-0.507131,-0.004491,1.270389,-259.035565,1.378991,72.885068
7.816,0.003179,0.002383,-0.004098,0.0,0.0,0.0,0.001037,-0.507131,-0.004491,1.270389,-259.035565,1.378991,72.885068
7.836,0.003391,0.00225,-0.003791,0.0,0.0,0.0,0.001089,-0.507612,-0.004098,1.270389,-259.035565,1.378991,72.885068
7.8561,0.003304,0.002164,-0.004398,0.0,0.0,0.0,0.00124,-0.507667,-0.003972,1.270389,-259.035565,1.378991,72.885068
7.8758,0.003743,0.002156,-0.002435,0.0,0.0,0.0,0.001061,-0.507831,-0.004398,1.270389,-259.035565,1.378991,72.885068
7.8959,0.003068,0.002553,-0.003639,0.0,0.0,0.0,0.002372,-0.507842,-0.002611,1.270389,-259.035565,1.378991,72.885068
7.916,0.003366,0.002724,-0.005118,0.0,0.0,0.0,0.002372,-0.507842,-0.002611,1.270389,-259.035565,1.378991,72.885068
7.9358,0.003361,0.002434,-0.00446,0.0,0.0,0.0,0.000757,-0.507269,-0.005118,1.270389,-259.035565,1.378991,72.885068
7.9562,0.003012,0.002544,-0.005277,0.0,0.0,0.0,0.000891,-0.507388,-0.004848,1.270389,-259.035565,1.378991,72.885068
7.9758,0.003286,0.002262,-0.003666,0.0,0.0,0.0,0.000321,-0.507449,-0.005277,1.270389,-259.035565,1.378991,72.885068
7.9961,0.003255,0.002562,-0.003621,0.0,0.0,0.0,0.001321,-0.50771,-0.003806,1.270389,-259.035565,1.378991,72.885068
8.0161,0.003118,0.002294,-0.003649,0.0,0.0,0.0,0.001321,-0.50771,-0.003806,1.270389,-259.035565,1.378991,72.885068
8.0359,0.003176,0.002749,-0.00613,0.0,0.0,0.0,0.001257,-0.507703,-0.003649,1.270389,-259.035565,1.378991,72.885068
8.056,0.003415,0.002482,-0.002636,0.0,0.0,0.0,0.000769,-0.507517,-0.004651,1.270389,-259.035565,1.378991,72.885068
8.0756,0.003237,0.002475,-0.004133,0.0,0.0,0.0,0.002071,-0.507517,-0.002636,1.270389,-259.035565,1.378991,72.885068
8.0957,0.003455,0.002616,-0.003903,0.0,0.0,0.0,0.001216,-0.50752,-0.003994,1.270389,-259.035565,1.378991,72.885068
8.116,0.003413,0.002734,-0.003659,0.0,0.0,0.0,0.001216,-0.50752,-0.003994,1.270389,-259.035565,1.378991,72.885068
8.1358,0.003418,0.002247,-0.004384,0.0,0.0,0.0,0.001547,-0.507263,-0.003659,1.270389,-259.035565,1.378991,72.885068
8.1563,0.003649,0.002213,-0.003969,0.0,0.0,0.0,0.001398,-0.507461,-0.003955,1.270389,-259.035565,1.378991,72.885068
8.1759,0.003451,0.002406,-0.003935,0.0,0.0,0.0,0.001624,-0.507783,-0.003969,1.270389,-259.035565,1.378991,72.885068
8.1964,0.003546,0.002881,-0.004969,0.0,0.0,0.0,0.00146,-0.507607,-0.003938,1.270389,-259.035565,1.378991,72.885068
8.2161,0.003205,0.002554,-0.005442,0.0,0.0,0.0,0.00146,-0.507607,-0.003938,1.270389,-259.035565,1.378991,72.885068
8.2363,0.003531,0.00261,-0.004373,0.0,0.0,0.0,0.00043,-0.507439,-0.005442,1.270389,-259.035565,1.378991,72.885068
8.2564,0.00305,0.002843,-0.003613,0.0,0.0,0.0,0.000781,-0.507417,-0.00501,1.270389,-259.035565,1.378991,72.885068
8.2757,0.00351,0.002436,-0.003811,0.0,0.0,0.0,0.001208,-0.507153,-0.003613,1.270389,-259.035565,1.378991,72.885068
8.2959,0.003053,0.002366,-0.003805,0.0,0.0,0.0,0.001534,-0.507524,-0.003793,1.270389,-259.035565,1.378991,72.885068
8.3159,0.0035,0.002499,-0.006156,0.0,0.0,0.0,0.001534,-0.507524,-0.003793,1.270389,-259.035565,1.378991,72.885068
8.336,0.003419,0.002677,-0.00266,0.0,0.0,0.0,0.000361,-0.507491,-0.006156,1.270389,-259.035565,1.378991,72.885068
8.3563,0.003474,0.002552,-0.002938,0.0,0.0,0.0,0.00104,-0.507423,-0.004762,1.270389,-259.035565,1.378991,72.885068
8.3757,0.003262,0.002793,-0.004234,0.0,0.0,0.0,0.001975,-0.507446,-0.002938,1.270389,-259.035565,1.378991,72.885068
8.3963,0.003449,0.002631,-0.002661,0.0,0.0,0.0,0.001176,-0.507223,-0.004126,1.270389,-259.035565,1.378991,72.885068
8.4162,0.003521,0.002671,-0.003049,0.0,0.0,0.0,0.001176,-0.507223,-0.004126,1.270389,-259.035565,1.378991,72.885068
8.4365,0.003321,0.002746,-0.004832,0.0,0.0,0.0,0.001966,-0.507326,-0.003049,1.270389,-259.035565,1.378991,72.885068
8.4565,0.003227,0.002313,-0.003452,0.0,0.0,0.0,0.001502,-0.507293,-0.003794,1.270389,-259.035565,1.378991,72.885068
8.4758,0.003365,0.00249,-0.003865,0.0,0.0,0.0,0.001466,-0.507684,-0.003452,1.270389,-259.035565,1.378991,72.885068
8.4962,0.003284,0.00269,-0.004183,0.0,0.0,0.0,0.001401,-0.507522,-0.003828,1.270389,-259.035565,1.378991,72.885068
8.5163,0.003207,0.002539,-0.003604,0.0,0.0,0.0,0.001401,-0.507522,-0.003828,1.270389,-259.035565,1.378991,72.885068
8.5361,0.003235,0.002539,-0.00498,0.0,0.0,0.0,0.001369,-0.507458,-0.003604,1.270389,-259.035565,1.378991,72.885068
8.5561,0.002981,0.002285,-0.005028,0.0,0.0,0.0,0.001095,-0.507457,-0.004163,1.270389,-259.035565,1.378991,72.885068
8.5761,0.003487,0.002664,-0.003902,0.0,0.0,0.0,0.000416,-0.507709,-0.005028,1.270389,-259.035565,1.378991,72.885068
8.5962,0.00349,0.002337,-0.004809,0.0,0.0,0.0,0.0014,-0.507366,-0.004003,1.270389,-259.035565,1.378991,72.885068
8.6162,0.003517,0.002437,-0.00471,0.0,0.0,0.0,0.0014,-0.507366,-0.004003,1.270389,-259.035565,1.378991,72.885068
8.636,0.003465,0.002183,-0.003019,0.0,0.0,0.0,0.001114,-0.507558,-0.00471,1.270389,-259.035565,1.378991,72.885068
8.6558,0.003447,0.002256,-0.004638,0.0,0.0,0.0,0.001444,-0.507662,-0.004023,1.270389,-259.035565,1.378991,72.885068
8.6759,0.003177,0.002476,-0.003323,0.0,0.0,0.0,0.001081,-0.507739,-0.004638,1.270389,-259.035565,1.378991,72.885068
8.6961,0.003416,0.002674,-0.003428,0.0,0.0,0.0,0.001445,-0.507541,-0.003444,1.270389,-259.035565,1.378991,72.885068
8.7159,0.003091,0.002162,-0.00523,0.0,0.0,0.0,0.001445,-0.507541,-0.003444,1.270389,-259.035565,1.378991,72.885068
8.7361,0.003345,0.002226,-0.004894,0.0,0.0,0.0,0.000424,-0.507831,-0.00523,1.270389,-259.035565,1.378991,72.885068
8.756,0.003511,0.002216,-0.003031,0.0,0.0,0.0,0.000599,-0.507805,-0.005092,1.270389,-259.035565,1.378991,72.885068
8.7759,0.003628,0.002692,-0.003664,0.0,0.0,0.0,0.001965,-0.507782,-0.003031,1.270389,-259.035565,1.378991,72.885068
8.796,0.003348,0.002429,-0.004884,0.0,0.0,0.0,0.001777,-0.507345,-0.003611,1.270389,-259.035565,1.378991,72.885068
8.8162,0.003337,0.002316,-0.003763,0.0,0.0,0.0,0.001777,-0.507345,-0.003611,1.270389,-259.035565,1.378991,72.885068
8.8364,0.003303,0.00251,-0.003876,0.0,0.0,0.0,0.001418,-0.50768,-0.003763,1.270389,-259.035565,1.378991,72.885068
8.8561,0.003278,0.002521,-0.003349,0.0,0.0,0.0,0.001381,-0.507601,-0.003809,1.270389,-259.035565,1.378991,72.885068
8.8764,0.00332,0.002772,-0.006151,0.0,0.0,0.0,0.00157,-0.507476,-0.003349,1.270389,-259.035565,1.378991,72.885068
8.8958,0.003371,0.00271,-0.003786,0.0,0.0,0.0,0.000337,-0.507247,-0.00584,1.270389,-259.035565,1.378991,72.885068
8.916,0.003841,0.002715,-0.003917,0.0,0.0,0.0,0.000337,-0.507247,-0.00584,1.270389,-259.035565,1.378991,72.885068
8.9366,0.003165,0.00242,-0.00293,0.0,0.0,0.0,0.001843,-0.507281,-0.003917,1.270389,-259.035565,1.378991,72.885068
8.9565,0.00314,0.002137,-0.002893,0.0,0.0,0.0,0.001772,-0.507403,-0.003512,1.270389,-259.035565,1.378991,72.885068
8.9762,0.003486,0.002638,-0.004648,0.0,0.0,0.0,0.001665,-0.507861,-0.002893,1.270389,-259.035565,1.378991,72.885068
8.9961,0.003061,0.002576,-0.002317,0.0,0.0,0.0,0.001172,-0.507407,-0.00447,1.270389,-259.035565,1.378991,72.885068
9.0162,0.00329,0.002478,-0.004119,0.0,0.0,0.0,0.001172,-0.507407,-0.00447,1.270389,-259.035565,1.378991,72.885068
9.036,0.003075,0.002678,-0.003717,0.0,0.0,0.0,0.001189,-0.507518,-0.004119,1.270389,-259.035565,1.378991,72.885068
9.0562,0.003251,0.00256,-0.002578,0.0,0.0,0.0,0.001185,-0.507435,-0.003952,1.270389,-259.035565,1.378991,72.885068
9.0759,0.003468,0.00248,-0.004189,0.0,0.0,0.0,0.001936,-0.507439,-0.002578,1.270389,-259.035565,1.378991,72.885068
9.096,0.003209,0.002748,-0.003884,0.0,0.0,0.0,0.001383,-0.507509,-0.004052,1.270389,-259.035565,1.378991,72.885068
9.1164,0.003178,0.002388,-0.005706,0.0,0.0,0.0,0.001383,-0.507509,-0.004052,1.270389,-259.035565,1.378991,72.885068
9.1358,0.003512,0.002616,-0.004424,0.0,0.0,0.0,0.000268,-0.507604,-0.005706,1.270389,-259.035565,1.378991,72.885068
9.1556,0.003195,0.002483,-0.004121,0.0,0.0,0.0,0.000669,-0.507513,-0.005186,1.270389,-259.035565,1.378991,72.885068
9.1758,0.003478,0.002697,-0.00443,0.0,0.0,0.0,0.001093,-0.507513,-0.004121,1.270389,-259.035565,1.378991,72.885068
9.1958,0.003617,0.002682,-0.003452,0.0,0.0,0.0,0.001207,-0.507317,-0.004403,1.270389,-259.035565,1.378991,72.885068
9.2158,0.003357,0.002612,-0.004956,0.0,0.0,0.0,0.001207,-0.507317,-0.004403,1.270389,-259.035565,1.378991,72.885068
9.2358,0.003228,0.002704,-0.004239,0.0,0.0,0.0,0.000829,-0.507382,-0.004956,1.270389,-259.035565,1.378991,72.885068
9.2557,0.003423,0.002404,-0.003568,0.0,0.0,0.0,0.000927,-0.507344,-0.004662,1.270389,-259.035565,1.378991,72.885068
9.276,0.003329,0.002354,-0.003051,0.0,0.0,0.0,0.001603,-0.507593,-0.003568,1.270389,-259.035565,1.378991,72.885068
9.2957,0.00321,0.002822,-0.005687,0.0,0.0,0.0,0.001757,-0.507639,-0.003098,1.270389,-259.035565,1.378991,72.885068
9.3159,0.00354,0.002539,-0.0031,0.0,0.0,0.0,0.001757,-0.507639,-0.003098,1.270389,-259.035565,1.378991,72.885068
9.3362,0.003072,0.002582,-0.005271,0.0,0.0,0.0,0.001959,-0.507459,-0.0031,1.270389,-259.035565,1.378991,72.885068
9.3561,0.003479,0.002766,-0.003481,0.0,0.0,0.0,0.001319,-0.50744,-0.003982,1.270389,-259.035565,1.378991,72.885068
9.376,0.003581,0.002199,-0.003986,0.0,0.0,0.0,0.001704,-0.507231,-0.003481,1.270389,-259.035565,1.378991,72.885068
9.3961,0.002936,0.002329,-0.002487,0.0,0.0,0.0,0.001562,-0.507746,-0.003941,1.270389,-259.035565,1.378991,72.885068
9.4159,0.003265,0.00223,-0.004819,0.0,0.0,0.0,0.001562,-0.507746,-0.003941,1.270389,-259.035565,1.378991,72.885068
9.436,0.003311,0.002673,-0.002818,0.0,0.0,0.0,0.000807,-0.507764,-0.004819,1.270389,-259.035565,1.378991,72.885068
9.4559,0.003331,0.002485,-0.003517,0.0,0.0,0.0,0.001241,-0.507586,-0.004006,1.270389,-259.035565,1.378991,72.885068
9.476,0.00329,0.002692,-0.00379,0.0,0.0,0.0,0.001538,-0.507512,-0.003517,1.270389,-259.035565,1.378991,72.885068
9.4961,0.003331,0.002288,-0.00393,0.0,0.0,0.0,0.001374,-0.507324,-0.003765,1.270389,-259.035565,1.378991,72.885068
9.5163,0.003222,0.002397,-0.002608,0.0,0.0,0.0,0.001374,-0.507324,-0.003765,1.270389,-259.035565,1.378991,72.885068
9.5366,0.003321,0.002226,-0.003786,0.0,0.0,0.0,0.001892,-0.507601,-0.002608,1.270389,-259.035565,1.378991,72.885068
9.5558,0.00325,0.002041,-0.004707,0.0,0.0,0.0,0.001689,-0.50767,-0.003084,1.270389,-259.035565,1.378991,72.885068
9.5755,0.00349,0.002417,-0.005065,0.0,0.0,0.0,0.000849,-0.507954,-0.004707,1.270389,-259.035565,1.378991,72.885068
9.5956,0.003206,0.002436,-0.005687,0.0,0.0,0.0,0.000901,-0.50761,-0.005034,1.270389,-259.035565,1.378991,72.885068
9.616,0.003022,0.00249,-0.004961,0.0,0.0,0.0,0.000901,-0.50761,-0.005034,1.270389,-259.035565,1.378991,72.885068
9.6362,0.003462,0.002642,-0.00585,0.0,0.0,0.0,0.000492,-0.507504,-0.004961,1.270389,-259.035565,1.378991,72.885068
9.6558,0.003176,0.002661,-0.002695,0.0,0.0,0.0,0.000486,-0.507441,-0.005326,1.270389,-259.035565,1.378991,72.885068
9.6761,0.003438,0.002648,-0.004206,0.0,0.0,0.0,0.001802,-0.507337,-0.002695,1.270389,-259.035565,1.378991,72.885068
9.6969,0.003347,0.002894,-0.004285,0.0,0.0,0.0,0.001341,-0.507346,-0.004064,1.270389,-259.035565,1.378991,72.885068
9.7158,0.003456,0.002274,-0.004289,0.0,0.0,0.0,0.001341,-0.507346,-0.004064,1.270389,-259.035565,1.378991,72.885068
9.736,0.002967,0.002414,-0.003215,0.0,0.0,0.0,0.001269,-0.507722,-0.004289,1.270389,-259.035565,1.378991,72.885068
9.7556,0.003287,0.002495,-0.004842,0.0,0.0,0.0,0.001293,-0.507665,-0.00385,1.270389,-259.035565,1.378991,72.885068
9.7757,0.003418,0.002452,-0.002817,0.0,0.0,0.0,0.000818,-0.507499,-0.004842,1.270389,-259.035565,1.378991,72.885068
9.7958,0.003268,0.00288,-0.003551,0.0,0.0,0.0,0.001877,-0.507542,-0.002999,1.270389,-259.035565,1.378991,72.885068
9.8159,0.003834,0.002608,-0.004843,0.0,0.0,0.0,0.001877,-0.507542,-0.002999,1.270389,-259.035565,1.378991,72.885068
9.8357,0.003412,0.002422,-0.004059,0.0,0.0,0.0,0.001364,-0.507386,-0.004843,1.270389,-259.035565,1.378991,72.885068
9.8557,0.003185,0.002517,-0.005312,0.0,0.0,0.0,0.001355,-0.507462,-0.004526,1.270389,-259.035565,1.378991,72.885068
9.8762,0.003521,0.002491,-0.003962,0.0,0.0,0.0,0.000476,-0.507476,-0.005312,1.270389,-259.035565,1.378991,72.885068
9.8958,0.003182,0.002433,-0.004292,0.0,0.0,0.0,0.001389,-0.507502,-0.004109,1.270389,-259.035565,1.378991,72.885068
9.9156,0.003275,0.002558,-0.004566,0.0,0.0,0.0,0.001389,-0.507502,-0.004109,1.270389,-259.035565,1.378991,72.885068
9.936,0.003387,0.002485,-0.003498,0.0,0.0,0.0,0.000947,-0.507436,-0.004566,1.270389,-259.035565,1.378991,72.885068
9.9557,0.003478,0.002382,-0.00313,0.0,0.0,0.0,0.00121,-0.507467,-0.004137,1.270389,-259.035565,1.378991,72.885068
9.9758,0.003462,0.002663,-0.004178,0.0,0.0,0.0,0.001882,-0.507615,-0.00313,1.270389,-259.035565,1.378991,72.885068
9.9959,0.003312,0.002208,-0.004336,0.0,0.0,0.0,0.001382,-0.507359,-0.004082,1.270389,-259.035565,1.378991,72.885068
10.016,0.003645,0.002691,-0.00452,0.0,0.0,0.0,0.001382,-0.507359,-0.004082,1.270389,-259.035565,1.378991,72.885068
10.0359,0.003467,0.002594,-0.004068,0.0,0.0,0.0,0.00134,-0.507304,-0.00452,1.270389,-259.035565,1.378991,72.885068
10.0559,0.003368,0.002469,-0.003853,0.0,0.0,0.0,0.001362,-0.507343,-0.004336,1.270389,-259.035565,1.378991,72.885068
10.0759,0.003231,0.002276,-0.003451,0.0,0.0,0.0,0.001403,-0.507528,-0.003853,1.270389,-259.035565,1.378991,72.885068
10.0959,0.003413,0.002319,-0.004861,0.0,0.0,0.0,0.001465,-0.507705,-0.003485,1.270389,-259.035565,1.378991,72.885068
10.1159,0.003817,0.002712,-0.003738,0.0,0.0,0.0,0.001465,-0.507705,-0.003485,1.270389,-259.035565,1.378991,72.885068
10.1359,0.003665,0.002552,-0.002921,0.0,0.0,0.0,0.00191,-0.507284,-0.003738,1.270389,-259.035565,1.378991,72.885068
10.1559,0.003286,0.002256,-0.004705,0.0,0.0,0.0,0.00202,-0.507352,-0.003398,1.270389,-259.035565,1.378991,72.885068
10.1759,0.003589,0.002553,-0.005411,0.0,0.0,0.0,0.000887,-0.507739,-0.004705,1.270389,-259.035565,1.378991,72.885068
10.196,0.00317,0.002313,-0.004261,0.0,0.0,0.0,0.000835,-0.507465,-0.005351,1.270389,-259.035565,1.378991,72.885068
10.2161,0.003354,0.002703,-0.004744,0.0,0.0,0.0,0.000835,-0.507465,-0.005351,1.270389,-259.035565,1.378991,72.885068
10.2361,0.0034,0.002551,-0.002589,0.0,0.0,0.0,0.000934,-0.507292,-0.004744,1.270389,-259.035565,1.378991,72.885068
10.256,0.003365,0.002587,-0.005245,0.0,0.0,0.0,0.001418,-0.507357,-0.003834,1.270389,-259.035565,1.378991,72.885068
10.276,0.003218,0.002795,-0.005135,0.0,0.0,0.0,0.00069,-0.507406,-0.005245,1.270389,-259.035565,1.378991,72.885068
10.2959,0.002981,0.002522,-0.003644,0.0,0.0,0.0,0.000606,-0.507215,-0.005144,1.270389,-259.035565,1.378991,72.885068
10.3157,0.003272,0.002459,-0.003794,0.0,0.0,0.0,0.000606,-0.507215,-0.005144,1.270389,-259.035565,1.378991,72.885068
10.3356,0.003464,0.002754,-0.00203,0.0,0.0,0.0,0.001337,-0.507537,-0.003794,1.270389,-259.035565,1.378991,72.885068
10.3557,0.003312,0.002329,-0.004953,0.0,0.0,0.0,0.001787,-0.507417,-0.003067,1.270389,-259.035565,1.378991,72.885068
10.3759,0.00338,0.002754,-0.002848,0.0,0.0,0.0,0.000786,-0.507665,-0.004953,1.270389,-259.035565,1.378991,72.885068
10.3958,0.003175,0.002414,-0.00547,0.0,0.0,0.0,0.001829,-0.50728,-0.00303,1.270389,-259.035565,1.378991,72.885068
