mach0312/omni-docking-bench/src/icros_test_setup/results/MPPI_sample/timeseries/trial_074.csv
t,x,y,yaw,vx,vy,wz,bl_x,bl_y,bl_yaw,front_steering_joint,front_wheel_joint,rear_steering_joint,rear_wheel_joint
0.0,0.048703,-3.2e-05,-0.033812,0.006942,-0.000498,-0.008442,0.030759,-0.509763,-0.030006,-0.683479,-260.49834,0.590992,66.626503
0.0003,0.049018,-8.9e-05,-0.034058,0.005955,-0.000427,-0.007241,0.030592,-0.509706,-0.031633,-0.683479,-260.492442,0.590992,66.632011
0.0007,0.04912,-0.000108,-0.033657,0.004902,-0.000352,-0.005961,0.030592,-0.509706,-0.031633,-0.683479,-260.487522,0.590992,66.636605
0.001,0.049776,-0.00023,-0.034288,0.003778,-0.000271,-0.004594,0.030766,-0.509733,-0.031684,-0.683479,-260.483453,0.590992,66.640405
0.0013,0.049462,2e-06,-0.034189,0.002584,-0.000185,-0.003143,0.030766,-0.509733,-0.031684,-0.683479,-260.480939,0.590992,66.642752
0.0015,0.050092,-0.000302,-0.032746,0.001326,-9.5e-05,-0.001612,0.031066,-0.509689,-0.032505,-0.683479,-260.479608,0.590992,66.643995
0.0018,0.050062,0.000228,-0.032769,0.0,0.0,0.0,0.031066,-0.509689,-0.032505,-0.683479,-260.479608,0.590992,66.643995
0.0021,0.050305,-4.2e-05,-0.032307,0.0,0.0,0.0,0.032353,-0.50953,-0.031452,-0.683479,-260.479608,0.590992,66.643995
0.0024,0.050412,-8.2e-05,-0.033121,0.0,0.0,0.0,0.032353,-0.50953,-0.031452,-0.683479,-260.479608,0.590992,66.643995
0.0167,0.050331,-9e-06,-0.032455,0.0,0.0,0.0,0.0338,-0.509752,-0.032363,-0.683479,-260.479608,0.590992,66.643995
0.0364,0.049811,-0.000388,-0.03283,0.0,0.0,0.0,0.033781,-0.509741,-0.032455,-0.683479,-260.479608,0.590992,66.643995
0.0566,0.050395,-0.000157,-0.033815,0.0,0.0,0.0,0.03349,-0.509893,-0.032609,-0.683479,-260.479608,0.590992,66.643995
0.0763,0.050115,0.000279,-0.033242,0.0,0.0,0.0,0.033153,-0.509865,-0.033815,-0.683479,-260.479608,0.590992,66.643995
0.0965,0.049769,-0.000497,-0.033214,0.0,0.0,0.0,0.033163,-0.509477,-0.033293,-0.683479,-260.479608,0.590992,66.643995
0.1168,0.049817,-1.6e-05,-0.031877,-0.000533,-0.000806,0.008523,0.033163,-0.509477,-0.033293,-0.683479,-260.479608,0.590992,66.643995
0.137,0.050038,-0.000113,-0.033564,-0.000566,-0.000883,0.009144,0.033562,-0.509757,-0.031877,-0.683479,-260.479608,0.590992,66.643995
0.1571,0.05008,-0.00026,-0.033915,-0.000593,-0.000939,0.0098,0.033303,-0.509785,-0.032562,-0.683479,-260.479608,0.590992,66.643995
0.1763,0.050079,-3.7e-05,-0.03231,-0.000614,-0.000985,0.010303,0.032787,-0.509967,-0.033915,-0.758544,-260.479608,0.666057,66.643995
0.1969,0.050144,-7.6e-05,-0.034416,-0.000631,-0.001023,0.01086,0.03353,-0.509788,-0.032454,-0.758544,-260.479608,0.666057,66.643995
0.2171,0.049995,-0.000157,-0.033586,-0.000645,-0.001053,0.011289,0.03353,-0.509788,-0.032454,-0.758544,-260.479608,0.666057,66.643995
0.2367,0.049979,-0.000342,-0.034329,-0.000657,-0.001078,0.01162,0.03287,-0.509869,-0.033586,-0.833487,-260.479608,0.740999,66.643995
0.2568,0.049992,-7e-05,-0.034409,-0.000668,-0.001095,0.01203,0.032709,-0.509939,-0.033887,-0.833487,-260.479608,0.740999,66.643995
0.2769,0.050224,-0.000287,-0.033986,-0.000678,-0.001108,0.012346,0.032447,-0.509768,-0.034409,-0.908495,-260.479608,0.816008,66.643995
0.2967,0.050148,-9e-06,-0.032715,-0.000686,-0.001118,0.012723,0.03287,-0.50998,-0.034009,-0.908495,-260.479608,0.816008,66.643995
0.3167,0.050528,1e-06,-0.03411,-0.000695,-0.001125,0.013019,0.03287,-0.50998,-0.034009,-0.908495,-260.479608,0.816008,66.643995
0.337,0.050413,-9.2e-05,-0.033997,-0.000703,-0.00113,0.01325,0.033135,-0.509702,-0.03411,-0.98453,-260.479608,0.892043,66.643995
0.357,0.050177,-0.000189,-0.035106,-0.00071,-0.001141,0.013533,0.033112,-0.509741,-0.034064,-0.98453,-260.479608,0.892043,66.643995
0.377,0.050386,-0.000244,-0.030692,-0.000717,-0.00115,0.013754,0.032277,-0.509875,-0.035106,-1.0585,-260.479608,0.966013,66.643995
0.3966,0.049746,-0.000124,-0.033198,-0.000725,-0.001147,0.014082,0.034514,-0.509992,-0.031089,-1.0585,-260.479608,0.966013,66.643995
0.4165,0.050181,-5.7e-05,-0.032188,-0.000732,-0.001145,0.014341,0.034514,-0.509992,-0.031089,-1.0585,-260.479608,0.966013,66.643995
0.4367,0.050084,-0.000249,-0.033727,-0.000739,-0.001143,0.014544,0.033768,-0.509793,-0.032187,-1.133501,-260.479609,1.041014,66.643993
0.4569,0.050056,-0.000244,-0.031637,-0.000745,-0.001146,0.014704,0.03341,-0.50986,-0.032813,-1.133501,-260.479609,1.041014,66.643993
0.4771,0.050216,-0.000278,-0.032779,-0.000752,-0.001148,0.01483,0.033924,-0.509989,-0.031635,-1.208488,-260.479624,1.116001,66.643974
0.4968,0.049669,-0.000147,-0.033253,-0.000758,-0.001145,0.014929,0.03354,-0.510003,-0.032676,-1.208488,-260.479624,1.116001,66.643974
0.5166,0.050576,-0.000197,-0.032847,-0.000763,-0.001144,0.015008,0.03354,-0.510003,-0.032676,-1.208488,-260.479624,1.116001,66.643974
0.5369,0.050037,3.5e-05,-0.033016,-0.000769,-0.001142,0.015071,0.033823,-0.509923,-0.032831,-1.283485,-260.479716,1.190998,66.643856
0.5573,0.050396,-0.000364,-0.034042,-0.000774,-0.001145,0.01512,0.033569,-0.509826,-0.032905,-1.283485,-260.479716,1.190998,66.643856
0.5769,0.050176,-0.000197,-0.032785,-0.000778,-0.001148,0.015159,0.033029,-0.510072,-0.033986,-1.358485,-260.480107,1.265998,66.643355
0.597,0.049915,-0.000499,-0.034795,-0.000783,-0.001147,0.01519,0.033417,-0.509937,-0.032896,-1.358485,-260.480107,1.265998,66.643355
0.6168,0.050015,-0.000379,-0.033584,-0.000787,-0.001147,0.015215,0.033417,-0.509937,-0.032896,-1.358485,-260.480107,1.265998,66.643355
0.6369,0.050152,-0.000281,-0.033357,-0.00079,-0.001146,0.015235,0.032865,-0.510106,-0.03337,-1.433485,-260.481221,1.340998,66.641928
0.6571,0.049682,-3e-05,-0.032382,-0.000794,-0.001143,0.015252,0.032976,-0.510063,-0.03334,-1.433485,-260.481221,1.340998,66.641928
0.6767,0.04963,-0.000482,-0.031443,-0.000797,-0.00114,0.015265,0.033144,-0.509785,-0.032061,-1.474211,-260.483399,1.415998,66.639143
0.697,0.049848,-0.000497,-0.031461,-0.0008,-0.001132,0.015417,0.033555,-0.510191,-0.031482,-1.474211,-260.483399,1.415998,66.639143
0.7169,0.04992,-0.000522,-0.032963,-0.000803,-0.001126,0.015537,0.033555,-0.510191,-0.031482,-1.474211,-260.483399,1.415998,66.639143
0.7364,0.049342,-0.00042,-0.032376,-0.000805,-0.001121,0.015631,0.033079,-0.510287,-0.032384,-1.47371,-260.486376,1.491002,66.635343
0.7573,0.0491,-0.000242,-0.03155,-0.000808,-0.001115,0.015803,0.032975,-0.510237,-0.032314,-1.47371,-260.486376,1.491002,66.635343
0.7766,0.048351,-0.000444,-0.030447,-0.00081,-0.00111,0.015939,0.032984,-0.510024,-0.031042,-1.475542,-260.489761,1.495469,66.631066
0.7969,0.048698,-6e-06,-0.032103,-0.000813,-0.001105,0.016144,0.032839,-0.510192,-0.030477,-1.475542,-260.489761,1.495469,66.631066
0.8168,0.048924,-1.1e-05,-0.031062,-0.000815,-0.001101,0.016308,0.032839,-0.510192,-0.030477,-1.475542,-260.489761,1.495469,66.631066
0.8367,0.048594,-0.000216,-0.029287,-0.000818,-0.001097,0.016439,0.033049,-0.50981,-0.030394,-1.477141,-260.493226,1.496234,66.626716
0.8571,0.048558,-0.000375,-0.030224,-0.00082,-0.001102,0.016636,0.033291,-0.509891,-0.029871,-1.477141,-260.493226,1.496234,66.626716
0.8768,0.047879,-0.0003,-0.030629,-0.000823,-0.001106,0.016794,0.033119,-0.510177,-0.029698,-1.479604,-260.496818,1.497501,66.622249
0.8966,0.047438,-0.000371,-0.030531,-0.000826,-0.001104,0.017009,0.032337,-0.510073,-0.030517,-1.479604,-260.496818,1.497501,66.622249
0.9168,0.047502,-0.000473,-0.029824,-0.000829,-0.001102,0.017183,0.032337,-0.510073,-0.030517,-1.479604,-260.496818,1.497501,66.622249
0.9369,0.047424,-0.000375,-0.029123,-0.000832,-0.001101,0.017323,0.032259,-0.510291,-0.029121,-1.481128,-260.500493,1.49851,66.617692
0.9569,0.047398,-0.000484,-0.028148,-0.000835,-0.001094,0.017514,0.032383,-0.510242,-0.029041,-1.481128,-260.500493,1.49851,66.617692
0.9766,0.046465,-0.000605,-0.026789,-0.000838,-0.001087,0.01767,0.033017,-0.510317,-0.027595,-1.483293,-260.504298,1.499728,66.613009
0.997,0.047142,-0.000412,-0.028764,-0.000841,-0.001075,0.017865,0.032822,-0.510414,-0.026834,-1.483293,-260.504298,1.499728,66.613009
1.0168,0.046873,-0.00073,-0.02863,-0.000844,-0.001065,0.018024,0.032822,-0.510414,-0.026834,-1.483293,-260.504298,1.499728,66.613009
1.0368,0.046289,-0.000163,-0.026179,-0.000847,-0.001056,0.018154,0.032238,-0.510565,-0.027891,-1.484685,-260.508194,1.500392,66.608245
1.0571,0.046361,-0.000762,-0.025916,-0.00085,-0.001051,0.018319,0.032518,-0.510336,-0.02711,-1.484685,-260.508194,1.500392,66.608245
1.0764,0.04587,-0.000654,-0.026641,-0.000853,-0.001046,0.018456,0.033118,-0.510624,-0.025336,-1.486541,-260.512229,1.501149,66.603366
1.0965,0.045662,-0.000786,-0.025302,-0.000857,-0.001037,0.018616,0.032354,-0.510488,-0.026502,-1.486541,-260.512229,1.501149,66.603366
1.1167,0.045852,-0.000449,-0.026231,-0.00086,-0.00103,0.018749,0.032354,-0.510488,-0.026502,-1.486541,-260.512229,1.501149,66.603366
1.1367,0.045148,-0.000632,-0.023057,-0.000863,-0.001023,0.018858,0.032439,-0.510316,-0.025459,-1.487523,-260.516325,1.501621,66.598437
1.157,0.045253,-0.000746,-0.024166,-0.000866,-0.001017,0.018984,0.032819,-0.510394,-0.024399,-1.487523,-260.516325,1.501621,66.598437
1.1771,0.044821,-0.000763,-0.02403,-0.00087,-0.001011,0.019088,0.032902,-0.510629,-0.023566,-1.488733,-260.520537,1.502074,66.593409
1.1971,0.044727,-0.000707,-0.025488,-0.000873,-0.001,0.019197,0.032595,-0.510619,-0.023957,-1.488733,-260.520537,1.502074,66.593409
1.2166,0.044887,-0.000848,-0.023772,-0.000876,-0.00099,0.019287,0.032595,-0.510619,-0.023957,-1.488733,-260.520537,1.502074,66.593409
1.2369,0.044259,-0.00063,-0.023835,-0.000879,-0.000982,0.019361,0.032727,-0.510745,-0.022974,-1.489304,-260.52481,1.50227,66.58833
1.2572,0.044221,-0.00044,-0.02434,-0.000881,-0.000974,0.019436,0.03247,-0.510644,-0.023231,-1.489304,-260.52481,1.50227,66.58833
1.2766,0.043845,-0.00071,-0.023376,-0.000884,-0.000966,0.019497,0.03178,-0.51032,-0.023723,-1.489944,-260.529184,1.502303,66.583168
1.2967,0.043725,-0.000839,-0.022386,-0.000886,-0.000962,0.019557,0.031912,-0.510552,-0.023376,-1.489944,-260.529184,1.502303,66.583168
1.3166,0.043842,-0.000742,-0.021306,-0.000889,-0.000959,0.019607,0.031912,-0.510552,-0.023376,-1.489944,-260.529184,1.502303,66.583168
1.3365,0.043095,-0.000882,-0.020259,-0.000891,-0.000956,0.019648,0.032939,-0.510665,-0.020494,-1.490182,-260.533552,1.502244,66.578033
1.3567,0.043332,-0.000599,-0.020179,-0.000893,-0.000947,0.019691,0.032863,-0.510715,-0.020305,-1.490182,-260.533552,1.502244,66.578033
1.3768,0.042612,-0.000802,-0.020389,-0.000895,-0.00094,0.019726,0.033012,-0.510525,-0.019553,-1.490279,-260.537984,1.502124,66.572838
1.3968,0.042643,-0.000644,-0.020817,-0.000897,-0.000934,0.019763,0.032284,-0.510682,-0.020282,-1.490279,-260.537984,1.502124,66.572838
1.4167,0.043025,-0.00027,-0.020277,-0.000898,-0.000928,0.019794,0.032284,-0.510682,-0.020282,-1.490279,-260.537984,1.502124,66.572838
1.4366,0.041905,-0.0008,-0.01706,-0.0009,-0.000924,0.01982,0.032646,-0.510204,-0.01945,-1.49041,-260.542441,1.502003,66.567631
1.4569,0.042216,-0.001172,-0.017432,-0.000901,-0.000926,0.019845,0.032867,-0.510419,-0.01839,-1.49041,-260.542441,1.502003,66.567631
1.4764,0.041388,-0.000883,-0.018271,-0.000903,-0.000928,0.019866,0.033297,-0.511124,-0.016798,-1.490499,-260.546951,1.501848,66.56238
1.4968,0.041728,-0.000831,-0.017166,-0.000905,-0.000919,0.01989,0.032165,-0.510825,-0.018127,-1.490499,-260.546951,1.501848,66.56238
1.5166,0.041825,-0.000872,-0.019136,-0.000906,-0.000912,0.01991,0.032165,-0.510825,-0.018127,-1.490499,-260.546951,1.501848,66.56238
1.5365,0.041117,-0.000852,-0.017218,-0.000907,-0.000905,0.019926,0.032028,-0.510817,-0.018309,-1.490374,-260.551425,1.501764,66.55717
1.557,0.041207,-0.000998,-0.017463,-0.000909,-0.0009,0.019944,0.032149,-0.510804,-0.01777,-1.490374,-260.551425,1.501764,66.55717
1.5769,0.040571,-0.000736,-0.016073,-0.00091,-0.000896,0.019958,0.032272,-0.510948,-0.016827,-1.490429,-260.555946,1.501517,66.551927
1.597,0.041009,-0.001179,-0.014665,-0.000912,-0.000897,0.019959,0.032363,-0.510697,-0.016108,-1.490429,-260.555946,1.501517,66.551927
1.6168,0.040521,-0.000575,-0.015053,-0.000914,-0.000898,0.01996,0.032363,-0.510697,-0.016108,-1.490429,-260.555946,1.501517,66.551927
1.6369,0.039625,-0.001021,-0.015869,-0.000916,-0.000899,0.019961,0.032805,-0.510554,-0.014218,-1.490394,-260.560477,1.501364,66.546681
1.657,0.039923,-0.001136,-0.016232,-0.000918,-0.000902,0.019937,0.032284,-0.510722,-0.014793,-1.490394,-260.560477,1.501364,66.546681
1.6765,0.039122,-0.001402,-0.014946,-0.00092,-0.000905,0.019918,0.031615,-0.511097,-0.015594,-1.489865,-260.56501,1.500947,66.541431
1.6968,0.039281,-0.001265,-0.014646,-0.000921,-0.000889,0.019912,0.031508,-0.511324,-0.014972,-1.489865,-260.56501,1.500947,66.541431
1.7169,0.039439,-0.001219,-0.01348,-0.000922,-0.000876,0.019907,0.031508,-0.511324,-0.014972,-1.489865,-260.56501,1.500947,66.541431
1.737,0.038717,-0.001557,-0.013464,-0.000924,-0.000865,0.019903,0.032525,-0.51121,-0.012646,-1.489312,-260.569558,1.500556,66.536156
1.757,0.0389,-0.000875,-0.014425,-0.000921,-0.000859,0.019813,0.032236,-0.511341,-0.012893,-1.489312,-260.569558,1.500556,66.536156
1.7767,0.038251,-0.001077,-0.012291,-0.00092,-0.000854,0.019742,0.031513,-0.510849,-0.013797,-1.489174,-260.574059,1.499978,66.530969
1.7969,0.038597,-0.001249,-0.01143,-0.000919,-0.000859,0.019652,0.031939,-0.511023,-0.012394,-1.489174,-260.574059,1.499978,66.530969
1.8168,0.038217,-0.001182,-0.013066,-0.000918,-0.000864,0.019583,0.031939,-0.511023,-0.012394,-1.489174,-260.574059,1.499978,66.530969
1.8368,0.037408,-0.001109,-0.011341,-0.000917,-0.000869,0.019529,0.031515,-0.511174,-0.01224,-1.488854,-260.578556,1.499659,66.525791
1.8569,0.037463,-0.0006,-0.011671,-0.000916,-0.000869,0.01944,0.031555,-0.511138,-0.011779,-1.488854,-260.578556,1.499659,66.525791
1.8771,0.037749,-0.000903,-0.008501,-0.000915,-0.00087,0.019371,0.031482,-0.510593,-0.011049,-1.488033,-260.583001,1.499231,66.520652
1.8966,0.03703,-0.001005,-0.010067,-0.000914,-0.000866,0.018887,0.033246,-0.510861,-0.00869,-1.488033,-260.583001,1.499231,66.520652
1.9168,0.036888,-0.001132,-0.009968,-0.000913,-0.000868,0.018544,0.033246,-0.510861,-0.00869,-1.488033,-260.583001,1.499231,66.520652
1.9365,0.036933,-0.001157,-0.006798,-0.000913,-0.000874,0.018299,0.031766,-0.511143,-0.009159,-1.487499,-260.587393,1.498874,66.515567
1.9568,0.036459,-0.001267,-0.009166,-0.000913,-0.000869,0.018012,0.03245,-0.511148,-0.008109,-1.487499,-260.587393,1.498874,66.515567
1.9764,0.036315,-0.001158,-0.009135,-0.000912,-0.000869,0.01781,0.031755,-0.511273,-0.008584,-1.482415,-260.591528,1.495182,66.510736
1.9968,0.035869,-0.001138,-0.008152,-0.000912,-0.000876,0.017828,0.031664,-0.51115,-0.009055,-1.482415,-260.591528,1.495182,66.510736
2.0165,0.035828,-0.001559,-0.008486,-0.000911,-0.000882,0.017842,0.031664,-0.51115,-0.009055,-1.482415,-260.591528,1.495182,66.510736
2.0369,0.03546,-0.001327,-0.009064,-0.00091,-0.000888,0.017853,0.031462,-0.511576,-0.007741,-1.479904,-260.595547,1.493298,66.506024
2.0569,0.035562,-0.001143,-0.007859,-0.00091,-0.000878,0.017712,0.031202,-0.51147,-0.008195,-1.479904,-260.595547,1.493298,66.506024
2.0771,0.034927,-0.001254,-0.00438,-0.000909,-0.000871,0.017611,0.031525,-0.511156,-0.007291,-1.48014,-260.59957,1.493733,66.501293
2.0968,0.035151,-0.00125,-0.00798,-0.000912,-0.000832,0.01651,0.032587,-0.511242,-0.004612,-1.48014,-260.59957,1.493733,66.501293
2.1167,0.035117,-0.001485,-0.006,-0.000915,-0.000814,0.015762,0.032587,-0.511242,-0.004612,-1.48014,-260.59957,1.493733,66.501293
2.1364,0.035101,-0.001377,-0.006523,-0.000916,-0.000808,0.015256,0.032019,-0.511512,-0.005263,-1.479064,-260.603567,1.492743,66.496597
2.1564,0.034638,-0.001396,-0.004128,-0.000916,-0.000816,0.015271,0.03191,-0.511454,-0.005714,-1.479064,-260.603567,1.492743,66.496597
2.1763,0.034459,-0.001537,-0.00606,-0.000915,-0.000823,0.015286,0.032504,-0.511417,-0.00365,-1.463527,-260.606962,1.480549,66.492564
2.1967,0.034707,-0.001676,-0.004672,-0.000914,-0.000828,0.015332,0.031456,-0.51152,-0.005851,-1.463527,-260.606962,1.480549,66.492564
2.2166,0.034414,-0.001185,-0.006187,-0.000913,-0.000832,0.015366,0.031456,-0.51152,-0.005851,-1.463527,-260.606962,1.480549,66.492564
2.2368,0.033357,-0.001584,-0.004532,-0.000913,-0.000836,0.01539,0.031221,-0.511209,-0.00555,-1.46374,-260.610395,1.480985,66.488474
2.2567,0.033657,-0.001362,-0.003884,-0.000912,-0.000835,0.015161,0.031142,-0.511371,-0.005042,-1.46374,-260.610395,1.480985,66.488474
2.2764,0.033269,-0.001899,-0.003061,-0.000911,-0.000837,0.015002,0.031648,-0.511385,-0.003399,-1.464627,-260.61382,1.48187,66.484388
2.2966,0.033004,-0.001513,-0.003499,-0.000918,-0.000797,0.014107,0.031701,-0.511853,-0.003066,-1.464627,-260.61382,1.48187,66.484388
2.3168,0.033228,-0.001329,-0.004599,-0.000921,-0.000773,0.013488,0.031701,-0.511853,-0.003066,-1.464627,-260.61382,1.48187,66.484388
2.3371,0.032967,-0.001479,-0.003584,-0.000922,-0.00076,0.013061,0.030844,-0.511358,-0.00397,-1.461858,-260.617165,1.479991,66.480377
2.3579,0.033027,-0.001721,-0.002242,-0.000918,-0.000776,0.013053,0.030958,-0.51141,-0.003743,-1.461858,-260.617165,1.479991,66.480377
2.3768,0.032336,-0.001372,-0.002911,-0.000915,-0.000789,0.013049,0.031854,-0.511744,-0.001825,-1.44369,-260.62005,1.465634,66.476892
2.3967,0.032504,-0.001441,-0.002256,-0.000918,-0.000786,0.012631,0.030942,-0.511405,-0.002791,-1.44369,-260.62005,1.465634,66.476892
2.4167,0.032425,-0.001531,-0.002716,-0.000918,-0.000788,0.012339,0.030942,-0.511405,-0.002791,-1.44369,-260.62005,1.465634,66.476892
2.437,0.032193,-0.001346,-0.000206,-0.000917,-0.000793,0.012136,0.031001,-0.511563,-0.00217,-1.444068,-260.622946,1.466723,66.47337
2.4566,0.031934,-0.001769,0.000842,-0.000931,-0.000772,0.011223,0.031441,-0.511478,-0.001303,-1.444068,-260.622946,1.466723,66.47337
2.4767,0.031876,-0.001397,0.000451,-0.000939,-0.000763,0.010576,0.032335,-0.511794,0.001228,-1.433071,-260.625613,1.45944,66.470075
2.4966,0.031609,-0.001752,-0.000887,-0.000959,-0.000735,0.009278,0.032125,-0.511433,0.000539,-1.433071,-260.625613,1.45944,66.470075
2.5167,0.031698,-0.001439,-0.001561,-0.000973,-0.000722,0.008331,0.032125,-0.511433,0.000539,-1.433071,-260.625613,1.45944,66.470075
2.5367,0.031373,-0.001926,-0.000503,-0.000983,-0.00072,0.007644,0.030864,-0.511469,-0.001126,-1.407342,-260.627884,1.441435,66.467209
2.5568,0.031445,-0.001662,6.4e-05,-0.000974,-0.000735,0.007787,0.030962,-0.511658,-0.000822,-1.407342,-260.627884,1.441435,66.467209
2.5766,0.031427,-0.001699,0.000187,-0.000967,-0.000747,0.00788,0.031451,-0.511682,0.000275,-1.332428,-260.629292,1.390346,66.465315
2.5966,0.031311,-0.002002,-0.000438,-0.000972,-0.000738,0.007425,0.031514,-0.511698,0.000206,-1.332428,-260.629292,1.390346,66.465315
2.6167,0.031161,-0.001908,-7.5e-05,-0.000974,-0.000734,0.007092,0.031514,-0.511698,0.000206,-1.332428,-260.629292,1.390346,66.465315
2.6367,0.030737,-0.001544,0.001654,-0.000974,-0.000733,0.00685,0.031082,-0.511939,0.000253,-1.337405,-260.630961,1.398647,66.463062
2.6565,0.030915,-0.001887,-0.000559,-0.000978,-0.000722,0.006393,0.031281,-0.511781,0.000864,-1.337405,-260.630961,1.398647,66.463062
2.6767,0.030736,-0.001663,0.000939,-0.000979,-0.000716,0.00606,0.0306,-0.511909,-0.000349,-1.295724,-260.632343,1.375236,66.461129
2.6965,0.030622,-0.001826,0.002338,-0.000979,-0.000716,0.00583,0.03115,-0.51169,0.000818,-1.295724,-260.632343,1.375236,66.461129
2.7167,0.030661,-0.001956,0.000894,-0.000977,-0.000718,0.005659,0.03115,-0.51169,0.000818,-1.295724,-260.632343,1.375236,66.461129
2.7366,0.030502,-0.001927,0.000359,-0.000975,-0.00072,0.005532,0.031078,-0.511985,0.00114,-1.253816,-260.633555,1.352608,66.459384
2.7566,0.03042,-0.001911,0.001195,-0.000971,-0.000714,0.005421,0.030914,-0.511965,0.000851,-1.253816,-260.633555,1.352608,66.459384
2.7766,0.030335,-0.001843,0.000859,-0.000967,-0.000709,0.005336,0.030999,-0.511934,0.001368,-1.219482,-260.634663,1.33737,66.457736
2.7966,0.030413,-0.00218,0.001774,-0.000963,-0.000708,0.005241,0.030792,-0.511852,0.000914,-1.219482,-260.634663,1.33737,66.457736
2.817,0.030306,-0.002116,0.001654,-0.00096,-0.000707,0.005168,0.030792,-0.511852,0.000914,-1.219482,-260.634663,1.33737,66.457736
2.837,0.030499,-0.001759,0.002639,-0.000957,-0.000706,0.005111,0.031109,-0.512145,0.001876,-1.208339,-260.635751,1.331765,66.456106
2.8571,0.030362,-0.001851,0.001703,-0.000959,-0.000687,0.004602,0.031407,-0.511989,0.002215,-1.208339,-260.635751,1.331765,66.456106
2.8768,0.029776,-0.001878,0.002038,-0.000961,-0.000675,0.004233,0.0312,-0.511873,0.001865,-1.193716,-260.636786,1.325926,66.454535
2.8964,0.030104,-0.00217,0.002334,-0.000962,-0.000673,0.004016,0.030849,-0.511878,0.002031,-1.193716,-260.636786,1.325926,66.454535
2.9167,0.030043,-0.001948,0.001818,-0.000963,-0.000673,0.003856,0.030849,-0.511878,0.002031,-1.193716,-260.636786,1.325926,66.454535
2.9365,0.0302,-0.002027,0.001952,-0.000963,-0.000675,0.003737,0.030936,-0.511972,0.001971,-1.118763,-260.637518,1.284086,66.453371
2.9569,0.030259,-0.001552,0.001213,-0.000962,-0.000674,0.003659,0.031036,-0.511996,0.001981,-1.118763,-260.637518,1.284086,66.453371
2.9764,0.029843,-0.002072,0.003541,-0.000961,-0.000674,0.003598,0.030851,-0.511571,0.001318,-1.043748,-260.638172,1.255838,66.452285
2.9966,0.029731,-0.00224,0.001726,-0.000963,-0.000659,0.003138,0.031576,-0.512025,0.003346,-1.043748,-260.638172,1.255838,66.452285
3.0172,0.029948,-0.002021,0.00258,-0.000965,-0.000651,0.002801,0.031576,-0.512025,0.003346,-1.043748,-260.638172,1.255838,66.452285
3.0366,0.029878,-0.001899,0.003844,-0.000966,-0.000647,0.002555,0.031224,-0.512047,0.002727,-1.007837,-260.638877,1.247825,66.4511
3.0565,0.029495,-0.002191,0.002388,-0.000966,-0.000648,0.002407,0.03147,-0.511989,0.003199,-1.007837,-260.638877,1.247825,66.4511
3.0765,0.029535,-0.002059,0.003537,-0.000967,-0.000651,0.002297,0.030705,-0.512196,0.002415,-0.932846,-260.639047,1.172833,66.450792
3.0966,0.029681,-0.002046,0.003765,-0.000967,-0.000649,0.002143,0.031284,-0.512068,0.003441,-0.932846,-260.639047,1.172833,66.450792
3.1166,0.029613,-0.002111,0.004075,-0.000966,-0.000648,0.002028,0.031284,-0.512068,0.003441,-0.932846,-260.639047,1.172833,66.450792
3.1369,0.029324,-0.001782,0.003259,-0.000966,-0.000648,0.001943,0.03168,-0.512114,0.004105,-0.857722,-260.639191,1.130926,66.450525
3.1569,0.029482,-0.001988,0.003417,-0.000965,-0.000649,0.001786,0.031398,-0.511979,0.003765,-0.857722,-260.639191,1.130926,66.450525
3.1767,0.029456,-0.001915,0.003686,-0.000965,-0.000651,0.001671,0.031221,-0.511987,0.003426,-0.782831,-260.63925,1.086428,66.450415
3.1971,0.029697,-0.001986,0.001152,-0.000965,-0.000656,0.001605,0.031326,-0.511918,0.003664,-0.782831,-260.63925,1.086428,66.450415
3.217,0.029861,-0.001951,0.00121,-0.000964,-0.000661,0.001555,0.031326,-0.511918,0.003664,-0.782831,-260.63925,1.086428,66.450415
3.2367,0.029538,-0.002006,0.001986,-0.000963,-0.000665,0.001515,0.030476,-0.511952,0.001215,-0.70771,-260.639273,1.047198,66.450373
3.2572,0.029707,-0.00184,0.001658,-0.000946,-0.000693,0.002229,0.030507,-0.511974,0.001532,-0.70771,-260.639273,1.047198,66.450373
3.2767,0.029151,-0.001992,0.002155,-0.000935,-0.000709,0.002716,0.030552,-0.51184,0.00166,-0.632715,-260.639288,1.026452,66.450344
3.2968,0.029559,-0.001834,0.002432,-0.000932,-0.000708,0.002815,0.030278,-0.511977,0.002111,-0.632715,-260.639288,1.026452,66.450344
3.3169,0.029703,-0.002393,0.001777,-0.00093,-0.000705,0.002879,0.030278,-0.511977,0.002111,-0.632715,-260.639288,1.026452,66.450344
3.3365,0.029741,-0.002387,-0.00013,-0.000928,-0.000702,0.002919,0.030591,-0.512405,0.001822,-0.707611,-260.639511,1.101348,66.449918
3.3564,0.029879,-0.00199,0.001967,-0.000913,-0.000702,0.003406,0.030212,-0.512399,0.001025,-0.707611,-260.639511,1.101348,66.449918
3.3765,0.02942,-0.001947,0.002232,-0.000902,-0.000697,0.003744,0.030865,-0.512002,0.002017,-0.782759,-260.639829,1.176496,66.449326
3.3965,0.029545,-0.002231,0.003523,-0.000906,-0.000687,0.003494,0.030586,-0.511951,0.002215,-0.782759,-260.639829,1.176496,66.449326
3.4169,0.029437,-0.002446,0.001695,-0.00091,-0.000681,0.003313,0.030586,-0.511951,0.002215,-0.782759,-260.639829,1.176496,66.449326
3.4366,0.029146,-0.002345,0.002239,-0.000913,-0.000678,0.00318,0.03029,-0.512453,0.001733,-0.85759,-260.640016,1.251327,66.449006
3.4567,0.029636,-0.002057,0.002251,-0.000911,-0.000666,0.003185,0.030288,-0.51241,0.001942,-0.85759,-260.640016,1.251327,66.449006
3.4763,0.029325,-0.0022,0.004128,-0.00091,-0.000655,0.003185,0.030758,-0.512075,0.00234,-0.932606,-260.640566,1.235607,66.448028
3.4963,0.0292,-0.002061,0.002906,-0.000916,-0.000629,0.002576,0.031372,-0.512186,0.00398,-0.932606,-260.640566,1.235607,66.448028
3.5164,0.029118,-0.002681,0.001838,-0.000922,-0.000615,0.002128,0.031372,-0.512186,0.00398,-0.932606,-260.640566,1.235607,66.448028
3.5366,0.02956,-0.002385,0.003096,-0.000927,-0.000607,0.0018,0.030018,-0.512708,0.001969,-0.956705,-260.641191,1.234233,66.446937
3.5569,0.02916,-0.002307,0.002718,-0.000924,-0.000609,0.002023,0.030474,-0.512577,0.002448,-0.956705,-260.641191,1.234233,66.446937
3.5764,0.029238,-0.00221,0.003777,-0.000922,-0.000607,0.002176,0.030546,-0.512305,0.002719,-0.881754,-260.641199,1.159283,66.446924
3.5965,0.029304,-0.002134,0.003237,-0.000926,-0.000601,0.001904,0.031109,-0.512216,0.003682,-0.881754,-260.641199,1.159283,66.446924
3.6164,0.028562,-0.002089,0.002207,-0.000928,-0.000599,0.001707,0.031109,-0.512216,0.003682,-0.881754,-260.641199,1.159283,66.446924
3.6367,0.02926,-0.002082,0.00223,-0.00093,-0.000599,0.001564,0.029671,-0.512098,0.002251,-0.806845,-260.641414,1.126243,66.44653
3.6571,0.029545,-0.002158,0.003563,-0.000925,-0.00062,0.001924,0.029975,-0.512092,0.002247,-0.806845,-260.641414,1.126243,66.44653
3.6772,0.029212,-0.002408,0.002627,-0.000922,-0.000632,0.002173,0.031361,-0.512156,0.003565,-0.731458,-260.641427,1.050855,66.446505
3.6968,0.029149,-0.002403,0.002302,-0.000922,-0.000627,0.002184,0.030625,-0.512384,0.002712,-0.731458,-260.641427,1.050855,66.446505
3.7166,0.029224,-0.002325,0.003024,-0.000923,-0.000623,0.002191,0.030625,-0.512384,0.002712,-0.731458,-260.641427,1.050855,66.446505
3.7369,0.029174,-0.002074,0.002251,-0.000923,-0.000619,0.002195,0.030735,-0.512344,0.003096,-0.656711,-260.641798,1.125602,66.44581
3.7573,0.028993,-0.002388,0.001939,-0.000923,-0.000619,0.002184,0.030561,-0.512234,0.002755,-0.656711,-260.641798,1.125602,66.44581
3.7768,0.029073,-0.001925,0.003006,-0.000924,-0.000619,0.002176,0.029953,-0.512406,0.002008,-0.663924,-260.642268,1.130681,66.444942
3.7968,0.029027,-0.002155,0.003239,-0.000926,-0.000625,0.002114,0.030556,-0.51196,0.002934,-0.663924,-260.642268,1.130681,66.444942
3.8167,0.028811,-0.002073,0.001605,-0.000927,-0.000631,0.00207,0.030556,-0.51196,0.002934,-0.663924,-260.642268,1.130681,66.444942
3.8366,0.029,-0.002222,0.00548,-0.000928,-0.000636,0.002039,0.029591,-0.512098,0.001696,-0.654935,-260.642731,1.127838,66.444084
3.8568,0.02869,-0.002363,0.002473,-0.000929,-0.000631,0.001922,0.030488,-0.512149,0.003254,-0.654935,-260.642731,1.127838,66.444084
3.8765,0.028912,-0.002376,0.00391,-0.00093,-0.000629,0.001838,0.029924,-0.51238,0.002532,-0.580808,-260.643136,1.112642,66.44332
3.8967,0.028476,-0.002095,0.002833,-0.000931,-0.000615,0.001632,0.030816,-0.512373,0.003788,-0.580808,-260.643136,1.112642,66.44332
3.9169,0.028655,-0.002143,0.00261,-0.000932,-0.000607,0.001484,0.030816,-0.512373,0.003788,-0.580808,-260.643136,1.112642,66.44332
3.9369,0.028702,-0.002185,0.002935,-0.000932,-0.000602,0.001379,0.029953,-0.512164,0.002677,-0.505929,-260.643498,1.08272,66.442637
3.9568,0.028567,-0.002471,0.002563,-0.00093,-0.000614,0.001603,0.03005,-0.512174,0.002791,-0.505929,-260.643498,1.08272,66.442637
3.9768,0.028462,-0.00264,0.004282,-0.000929,-0.000621,0.00176,0.029865,-0.512475,0.002578,-0.43084,-260.64362,1.007632,66.44242
3.9968,0.028727,-0.002253,0.002841,-0.00093,-0.000599,0.001487,0.03058,-0.512622,0.004142,-0.43084,-260.64362,1.007632,66.44242
4.0166,0.028722,-0.00249,0.004187,-0.000931,-0.000583,0.00129,0.03058,-0.512622,0.004142,-0.43084,-260.64362,1.007632,66.44242
4.0365,0.028548,-0.002447,0.003212,-0.000931,-0.000572,0.001148,0.030821,-0.512509,0.004256,-0.45418,-260.644004,1.069666,66.441701
4.0567,0.028962,-0.002084,0.003879,-0.000932,-0.000571,0.001123,0.030558,-0.512486,0.003838,-0.45418,-260.644004,1.069666,66.441701
4.0764,0.028658,-0.002235,0.004871,-0.000932,-0.000571,0.001105,0.030936,-0.512082,0.003885,-0.37946,-260.64406,0.994946,66.441607
4.0967,0.028669,-0.002122,0.003729,-0.000935,-0.000569,0.000859,0.031125,-0.512217,0.004788,-0.37946,-260.64406,0.994946,66.441607
4.1165,0.028346,-0.001943,0.003493,-0.000938,-0.00057,0.000681,0.031125,-0.512217,0.004788,-0.37946,-260.64406,0.994946,66.441607
4.1365,0.028727,-0.002261,0.00438,-0.00094,-0.000573,0.000552,0.030116,-0.511946,0.003509,-0.304286,-260.644169,0.928319,66.441426
4.1568,0.028238,-0.002247,0.002154,-0.000941,-0.000589,0.000689,0.03047,-0.512077,0.003877,-0.304286,-260.644169,0.928319,66.441426
4.1766,0.028387,-0.002289,0.002937,-0.000941,-0.000601,0.000784,0.029336,-0.512246,0.002154,-0.229082,-260.644171,0.853115,66.441424
4.1972,0.02857,-0.001726,0.004132,-0.000937,-0.000615,0.00116,0.02984,-0.512283,0.002872,-0.229082,-260.644171,0.853115,66.441424
4.2171,0.028485,-0.002394,0.003745,-0.000933,-0.000622,0.001421,0.02984,-0.512283,0.002872,-0.229082,-260.644171,0.853115,66.441424
4.2369,0.028562,-0.002457,0.003124,-0.000931,-0.000625,0.001602,0.03039,-0.512392,0.00375,-0.154223,-260.644217,0.853886,66.441354
4.2567,0.028681,-0.002455,0.004857,-0.00093,-0.000616,0.001536,0.030294,-0.512418,0.003495,-0.154223,-260.644217,0.853886,66.441354
4.2763,0.028401,-0.002202,0.004484,-0.00093,-0.000609,0.001489,0.031149,-0.512455,0.00487,-0.229002,-260.644327,0.928665,66.441149
4.297,0.028489,-0.002475,0.003193,-0.000932,-0.0006,0.001181,0.030729,-0.51222,0.00452,-0.229002,-260.644327,0.928665,66.441149
4.3167,0.0288,-0.002841,0.004301,-0.000933,-0.000595,0.000956,0.030729,-0.51222,0.00452,-0.229002,-260.644327,0.928665,66.441149
4.3369,0.028493,-0.002296,0.003055,-0.000935,-0.000594,0.000793,0.030963,-0.512856,0.004349,-0.303989,-260.644632,1.003652,66.440594
4.3568,0.028506,-0.002464,0.004203,-0.000934,-0.000589,0.000854,0.030587,-0.512629,0.003825,-0.303989,-260.644632,1.003652,66.440594
4.3764,0.028478,-0.002055,0.004397,-0.000933,-0.000585,0.000896,0.030648,-0.51246,0.004205,-0.228842,-260.644646,0.928505,66.440572
4.3968,0.028662,-0.002518,0.002869,-0.000934,-0.00059,0.000777,0.030715,-0.512082,0.004382,-0.228842,-260.644646,0.928505,66.440572
4.417,0.028062,-0.002457,0.003532,-0.000935,-0.000596,0.000691,0.030715,-0.512082,0.004382,-0.228842,-260.644646,0.928505,66.440572
4.437,0.028878,-0.002324,0.003932,-0.000936,-0.000602,0.000629,0.029852,-0.51246,0.003545,-0.153587,-260.644757,0.881604,66.440398
4.4568,0.028394,-0.002125,0.004238,-0.000935,-0.000605,0.000767,0.030267,-0.512404,0.003703,-0.153587,-260.644757,0.881604,66.440398
4.4771,0.028219,-0.002128,0.004217,-0.000934,-0.000605,0.000864,0.030553,-0.512121,0.004241,-0.078976,-260.64479,0.811785,66.440352
4.4968,0.028179,-0.002269,0.002556,-0.000934,-0.000607,0.000792,0.030386,-0.512123,0.004219,-0.078976,-260.64479,0.811785,66.440352
4.5167,0.028386,-0.002342,0.005496,-0.000934,-0.00061,0.00074,0.030386,-0.512123,0.004219,-0.078976,-260.64479,0.811785,66.440352
4.5368,0.028276,-0.002739,0.004794,-0.000934,-0.000613,0.000703,0.031165,-0.512349,0.00552,-0.003969,-260.645017,0.881644,66.439995
4.5571,0.028252,-0.002489,0.003758,-0.000935,-0.000593,0.000444,0.030981,-0.512507,0.005226,-0.003969,-260.645017,0.881644,66.439995
4.5765,0.028595,-0.002545,0.002609,-0.000936,-0.00058,0.000256,0.030153,-0.512495,0.003771,0.071079,-260.645214,0.839831,66.439705
4.5967,0.028391,-0.002816,0.005496,-0.000928,-0.000596,0.000834,0.029945,-0.51254,0.002709,0.071079,-260.645214,0.839831,66.439705
4.6169,0.028152,-0.002167,0.003681,-0.000922,-0.000604,0.001232,0.029945,-0.51254,0.002709,0.071079,-260.645214,0.839831,66.439705
4.6367,0.028273,-0.002834,0.004049,-0.000918,-0.000606,0.001507,0.030026,-0.512165,0.003683,0.146171,-260.645247,0.764739,66.439668
4.6567,0.028641,-0.002807,0.003518,-0.000919,-0.000596,0.001356,0.030153,-0.512435,0.003832,0.146171,-260.645247,0.764739,66.439668
4.6765,0.028547,-0.002097,0.003282,-0.00092,-0.000588,0.001247,0.030435,-0.512804,0.003519,0.07132,-260.64525,0.839591,66.439662
4.6966,0.028351,-0.002787,0.002999,-0.000921,-0.000598,0.00132,0.03024,-0.512159,0.003303,0.07132,-260.64525,0.839591,66.439662
4.7169,0.028542,-0.002527,0.004605,-0.000921,-0.000606,0.001372,0.03024,-0.512159,0.003303,0.07132,-260.64525,0.839591,66.439662
4.7365,0.028423,-0.002471,0.00334,-0.000922,-0.000611,0.001407,0.03088,-0.512528,0.004616,-0.003684,-260.645346,0.914595,66.439494
4.7568,0.028147,-0.002483,0.004235,-0.000922,-0.000597,0.001212,0.030573,-0.512505,0.004099,-0.003684,-260.645346,0.914595,66.439494
4.7766,0.028225,-0.002523,0.002773,-0.000923,-0.000587,0.001072,0.030298,-0.512485,0.004247,-0.078704,-260.645457,0.989615,66.439292
4.7968,0.027726,-0.002647,0.004136,-0.00092,-0.000592,0.001325,0.029698,-0.512518,0.002905,-0.078704,-260.645457,0.989615,66.439292
4.8165,0.027983,-0.002468,0.0034,-0.000918,-0.000592,0.001501,0.029698,-0.512518,0.002905,-0.078704,-260.645457,0.989615,66.439292
4.8367,0.02805,-0.002484,0.00538,-0.000916,-0.000591,0.001624,0.02968,-0.512488,0.003442,-0.072908,-260.645808,0.931861,66.438706
4.8567,0.028211,-0.002275,0.00373,-0.000918,-0.000575,0.001335,0.030129,-0.512487,0.004236,-0.072908,-260.645808,0.931861,66.438706
4.8767,0.028139,-0.002473,0.005777,-0.00092,-0.000565,0.001127,0.030109,-0.512274,0.003736,-0.147893,-260.645857,1.006846,66.438616
4.8971,0.027855,-0.002503,0.00387,-0.000923,-0.000544,0.000684,0.030997,-0.512447,0.005593,-0.147893,-260.645857,1.006846,66.438616
4.9168,0.028245,-0.002372,0.00512,-0.000927,-0.000532,0.000359,0.030997,-0.512447,0.005593,-0.147893,-260.645857,1.006846,66.438616
4.9367,0.027681,-0.002392,0.003267,-0.00093,-0.000525,0.000121,0.03082,-0.512388,0.005164,-0.132959,-260.6462,0.937642,66.438042
4.9568,0.028187,-0.002354,0.002946,-0.000932,-0.000536,0.000215,0.030229,-0.512391,0.004413,-0.132959,-260.6462,0.937642,66.438042
4.9768,0.028086,-0.002573,0.005458,-0.000934,-0.000545,0.000281,0.029689,-0.512352,0.002946,-0.057951,-260.6462,0.862634,66.438042
4.9969,0.028483,-0.002212,0.003864,-0.000935,-0.000539,0.000137,0.030763,-0.512547,0.005231,-0.057951,-260.6462,0.862634,66.438042
5.0168,0.028062,-0.002529,0.003225,-0.000937,-0.000536,3.3e-05,0.030763,-0.512547,0.005231,-0.057951,-260.6462,0.862634,66.438042
5.0368,0.027745,-0.00233,0.004456,-0.000938,-0.000534,-4.3e-05,0.029706,-0.512527,0.003225,0.017043,-260.646208,0.78764,66.438032
5.0569,0.02831,-0.002424,0.003087,-0.000937,-0.000551,0.000284,0.029837,-0.512442,0.003741,0.017043,-260.646208,0.78764,66.438032
5.0764,0.028199,-0.002398,0.004217,-0.000936,-0.000561,0.000513,0.029884,-0.512422,0.003087,0.09235,-260.646209,0.712333,66.438031
5.0967,0.027981,-0.002519,0.004366,-0.000935,-0.000566,0.000569,0.030307,-0.512396,0.004114,0.09235,-260.646209,0.712333,66.438031
5.1169,0.027965,-0.002719,0.003594,-0.000934,-0.000569,0.000609,0.030307,-0.512396,0.004114,0.09235,-260.646209,0.712333,66.438031
5.1369,0.027832,-0.002417,0.002861,-0.000933,-0.000571,0.000637,0.029773,-0.512729,0.00361,0.167047,-260.646451,0.751701,66.437711
5.1569,0.028423,-0.002617,0.004448,-0.00093,-0.000575,0.000891,0.029573,-0.512602,0.003305,0.167047,-260.646451,0.751701,66.437711
5.1767,0.027601,-0.002926,0.00419,-0.000927,-0.000575,0.001069,0.030663,-0.51263,0.004468,0.193228,-260.646815,0.799551,66.437198
5.1969,0.028019,-0.002733,0.004094,-0.000924,-0.000555,0.000941,0.02981,-0.512899,0.004213,0.193228,-260.646815,0.799551,66.437198
5.2169,0.027463,-0.002539,0.004849,-0.000923,-0.000539,0.000849,0.02981,-0.512899,0.004213,0.193228,-260.646815,0.799551,66.437198
5.2369,0.027759,-0.002526,0.006455,-0.000922,-0.000527,0.000783,0.029927,-0.512539,0.004858,0.117917,-260.646898,0.874862,66.437061
5.257,0.028093,-0.002598,0.00503,-0.000924,-0.000512,0.000445,0.030383,-0.51253,0.005508,0.117917,-260.646898,0.874862,66.437061
5.2765,0.027896,-0.002669,0.003754,-0.000927,-0.000504,0.000199,0.030632,-0.512607,0.005053,0.052358,-260.647231,0.828558,66.436569
5.2967,0.028199,-0.002225,0.005415,-0.000927,-0.000515,0.000415,0.029883,-0.512661,0.003872,0.052358,-260.647231,0.828558,66.436569
5.3167,0.028052,-0.002408,0.00561,-0.000927,-0.000521,0.000567,0.029883,-0.512661,0.003872,0.052358,-260.647231,0.828558,66.436569
5.3365,0.027809,-0.002307,0.004962,-0.000926,-0.000525,0.000673,0.03091,-0.512401,0.005611,0.127348,-260.647256,0.753569,66.436541
5.3566,0.02792,-0.002415,0.003576,-0.000928,-0.000521,0.000396,0.030678,-0.51236,0.005347,0.127348,-260.647256,0.753569,66.436541
5.3768,0.027825,-0.002889,0.005169,-0.000931,-0.00052,0.000195,0.029715,-0.512428,0.003597,0.12263,-260.647621,0.790952,66.436026
5.3966,0.027699,-0.002337,0.006473,-0.000932,-0.000512,0.000119,0.030393,-0.512842,0.005029,0.12263,-260.647621,0.790952,66.436026
5.4167,0.028247,-0.002292,0.005122,-0.000932,-0.000506,6.4e-05,0.030393,-0.512842,0.005029,0.12263,-260.647621,0.790952,66.436026
5.4368,0.027979,-0.002375,0.003388,-0.000933,-0.000501,2.5e-05,0.030854,-0.512289,0.005125,0.197599,-260.647683,0.715983,66.435958
5.4569,0.027556,-0.00265,0.003505,-0.000934,-0.000519,0.000143,0.030386,-0.512323,0.004419,0.197599,-260.647683,0.715983,66.435958
5.4767,0.027839,-0.002486,0.00524,-0.000935,-0.000533,0.000226,0.02934,-0.512649,0.003506,0.272599,-260.647739,0.640983,66.435901
5.4968,0.027869,-0.002428,0.005339,-0.000936,-0.000531,0.000128,0.030405,-0.512494,0.005083,0.272599,-260.647739,0.640983,66.435901
5.5166,0.028292,-0.002836,0.004782,-0.000937,-0.000531,5.7e-05,0.030405,-0.512494,0.005083,0.272599,-260.647739,0.640983,66.435901
5.5367,0.027754,-0.002658,0.002844,-0.000938,-0.000532,6e-06,0.030701,-0.512847,0.00479,0.347604,-260.648051,0.622286,66.435546
5.5569,0.027612,-0.002623,0.004479,-0.000936,-0.000536,0.000243,0.03009,-0.512771,0.004002,0.347604,-260.648051,0.622286,66.435546
5.5768,0.027861,-0.002464,0.003042,-0.000935,-0.000537,0.000409,0.02988,-0.512626,0.004481,0.422637,-260.648285,0.547253,66.435312
5.5968,0.027846,-0.002546,0.002455,-0.00093,-0.000552,0.000778,0.029453,-0.512476,0.003168,0.422637,-260.648285,0.547253,66.435312
5.6175,0.027498,-0.002611,0.004133,-0.000927,-0.000562,0.001034,0.029453,-0.512476,0.003168,0.422637,-260.648285,0.547253,66.435312
5.6368,0.028021,-0.002448,0.005828,-0.000924,-0.000567,0.001212,0.029585,-0.512619,0.00414,0.347556,-260.648497,0.622334,66.435047
5.6569,0.027838,-0.002636,0.005308,-0.000925,-0.00055,0.000893,0.030176,-0.512544,0.004853,0.347556,-260.648497,0.622334,66.435047
5.6773,0.027759,-0.002691,0.004006,-0.000926,-0.00054,0.000662,0.030546,-0.512629,0.005308,0.27206,-260.648497,0.69783,66.435046
5.6969,0.027381,-0.002769,0.002859,-0.000925,-0.000537,0.000673,0.02987,-0.512681,0.004125,0.27206,-260.648497,0.69783,66.435046
5.7168,0.027469,-0.003023,0.006169,-0.000925,-0.000534,0.000681,0.02987,-0.512681,0.004125,0.27206,-260.648497,0.69783,66.435046
5.7368,0.027835,-0.00284,0.003911,-0.000925,-0.000531,0.000685,0.030589,-0.513029,0.006186,0.197658,-260.648747,0.772232,66.434694
5.7567,0.027587,-0.002955,0.004148,-0.000925,-0.000509,0.000428,0.030272,-0.512951,0.005247,0.197658,-260.648747,0.772232,66.434694
5.7765,0.027371,-0.002617,0.003492,-0.000926,-0.000493,0.00024,0.029676,-0.512966,0.004168,0.122399,-260.649082,0.798885,66.434216
5.7967,0.027687,-0.002787,0.004805,-0.000925,-0.000507,0.000541,0.029193,-0.512643,0.003547,0.122399,-260.649082,0.798885,66.434216
5.817,0.027729,-0.002964,0.005057,-0.000923,-0.000516,0.00075,0.029193,-0.512643,0.003547,0.122399,-260.649082,0.798885,66.434216
5.8373,0.027289,-0.002977,0.002732,-0.000922,-0.000521,0.000897,0.0303,-0.512962,0.005061,0.197433,-260.64917,0.72385,66.434117
5.8572,0.027935,-0.003,0.004181,-0.000921,-0.000509,0.000841,0.029647,-0.512968,0.004122,0.197433,-260.64917,0.72385,66.434117
5.8767,0.027636,-0.002753,0.004336,-0.00092,-0.000499,0.000801,0.030058,-0.513002,0.004188,0.122749,-260.649291,0.798535,66.433932
5.8969,0.028004,-0.002818,0.004612,-0.00092,-0.000496,0.00072,0.029866,-0.512772,0.004322,0.122749,-260.649291,0.798535,66.433932
5.917,0.027597,-0.002718,0.004772,-0.00092,-0.000494,0.000663,0.029866,-0.512772,0.004322,0.122749,-260.649291,0.798535,66.433932
5.9365,0.027719,-0.002838,0.005299,-0.00092,-0.000493,0.000621,0.029999,-0.51273,0.004799,0.047742,-260.64959,0.821437,66.433493
5.957,0.027766,-0.002892,0.004242,-0.000922,-0.000486,0.000431,0.030167,-0.512773,0.005004,0.047742,-260.64959,0.821437,66.433493
5.9766,0.027413,-0.002914,0.005101,-0.000924,-0.000481,0.000294,0.029905,-0.512901,0.004259,0.122739,-260.649908,0.758843,66.433058
5.9968,0.027328,-0.002555,0.003946,-0.000925,-0.000475,0.00019,0.030003,-0.512907,0.005026,0.122739,-260.649908,0.758843,66.433058
6.0166,0.027772,-0.002574,0.004713,-0.000926,-0.00047,0.000116,0.030003,-0.512907,0.005026,0.122739,-260.649908,0.758843,66.433058
6.0365,0.027262,-0.00264,0.003918,-0.000927,-0.000467,6.3e-05,0.03016,-0.512576,0.00472,0.197751,-260.650065,0.68383,66.432874
6.0567,0.027591,-0.003009,0.004136,-0.000929,-0.00048,0.000176,0.029791,-0.512601,0.004394,0.197751,-260.650065,0.68383,66.432874
6.0769,0.027358,-0.003084,0.002933,-0.000929,-0.000489,0.000257,0.029693,-0.513008,0.004138,0.272743,-260.650161,0.608839,66.432775
6.0966,0.027295,-0.003054,0.004775,-0.000923,-0.000495,0.000716,0.028931,-0.513075,0.003045,0.272743,-260.650161,0.608839,66.432775
6.1165,0.027452,-0.002938,0.005738,-0.000917,-0.000495,0.001033,0.028931,-0.513075,0.003045,0.272743,-260.650161,0.608839,66.432775
6.1367,0.02733,-0.002809,0.002266,-0.000913,-0.000492,0.001254,0.030343,-0.512949,0.005748,0.343615,-260.650525,0.607543,66.432357
6.157,0.027981,-0.00269,0.004321,-0.000914,-0.00048,0.001046,0.029581,-0.512894,0.004329,0.343615,-260.650525,0.607543,66.432357
6.1768,0.027356,-0.002899,0.003554,-0.000914,-0.000473,0.000896,0.030184,-0.512686,0.004321,0.26856,-260.650526,0.682597,66.432357
6.1965,0.027389,-0.002555,0.003599,-0.000914,-0.000475,0.000975,0.029273,-0.512874,0.003633,0.26856,-260.650526,0.682597,66.432357
6.2165,0.027585,-0.002745,0.003257,-0.000913,-0.000476,0.00103,0.029273,-0.512874,0.003633,0.26856,-260.650526,0.682597,66.432357
6.2369,0.027296,-0.003073,0.00354,-0.000913,-0.000476,0.001068,0.029243,-0.512745,0.003259,0.193609,-260.650559,0.757549,66.432307
6.2564,0.027643,-0.002759,0.005519,-0.000912,-0.000479,0.001172,0.029185,-0.512877,0.003373,0.193609,-260.650559,0.757549,66.432307
6.2764,0.027554,-0.00292,0.005396,-0.000911,-0.00048,0.001245,0.030456,-0.512753,0.00552,0.118606,-260.650584,0.832551,66.432268
6.2966,0.0273,-0.002621,0.003534,-0.000914,-0.000457,0.000804,0.030319,-0.512898,0.005408,0.118606,-260.650584,0.832551,66.432268
6.3167,0.027495,-0.002754,0.00394,-0.000916,-0.000444,0.000482,0.030319,-0.512898,0.005408,0.118606,-260.650584,0.832551,66.432268
6.337,0.027099,-0.003145,0.004715,-0.000919,-0.000436,0.000247,0.029503,-0.512752,0.003942,0.043602,-260.650602,0.907556,66.432239
6.3564,0.02773,-0.003091,0.003719,-0.00092,-0.000443,0.000344,0.029503,-0.51291,0.004259,0.043602,-260.650602,0.907556,66.432239
6.3764,0.027442,-0.003081,0.005487,-0.000921,-0.000448,0.000412,0.029625,-0.513089,0.00372,0.118659,-260.650622,0.832498,66.432216
6.3966,0.027442,-0.002884,0.002702,-0.000922,-0.000436,0.000208,0.030192,-0.513074,0.005348,0.118659,-260.650622,0.832498,66.432216
6.4167,0.027332,-0.002592,0.004425,-0.000924,-0.000428,6e-05,0.030192,-0.513074,0.005348,0.118659,-260.650622,0.832498,66.432216
6.4366,0.027317,-0.002629,0.004356,-0.000925,-0.000424,-4.8e-05,0.02957,-0.512598,0.004435,0.194015,-260.650814,0.757142,66.43198
6.4565,0.027333,-0.00271,0.003812,-0.000927,-0.000443,9.6e-05,0.029555,-0.51261,0.004404,0.194015,-260.650814,0.757142,66.43198
6.4763,0.027281,-0.002872,0.005593,-0.000928,-0.000458,0.000198,0.029276,-0.512707,0.003813,0.26875,-260.650832,0.682407,66.431963
6.4964,0.027458,-0.002861,0.004104,-0.000929,-0.000451,2.8e-05,0.030068,-0.512852,0.005458,0.26875,-260.650832,0.682407,66.431963
6.5165,0.027724,-0.002855,0.004619,-0.000931,-0.000448,-9.4e-05,0.030068,-0.512852,0.005458,0.26875,-260.650832,0.682407,66.431963
6.5368,0.027293,-0.002918,0.004723,-0.000932,-0.000447,-0.000183,0.030053,-0.512863,0.004626,0.344061,-260.651108,0.607097,66.431657
6.557,0.027605,-0.002734,0.004537,-0.000932,-0.000455,-6.6e-05,0.029905,-0.512885,0.004667,0.344061,-260.651108,0.607097,66.431657
6.5767,0.027457,-0.002668,0.003548,-0.000932,-0.00046,1.7e-05,0.029914,-0.512731,0.004538,0.418748,-260.651186,0.532409,66.431586
6.5966,0.02674,-0.002702,0.004378,-0.00093,-0.000479,0.000358,0.029323,-0.512671,0.003634,0.418748,-260.651186,0.532409,66.431586
6.6166,0.02721,-0.002812,0.004384,-0.000928,-0.000492,0.000596,0.029323,-0.512671,0.003634,0.418748,-260.651186,0.532409,66.431586
6.6364,0.027354,-0.002644,0.002861,-0.000926,-0.000501,0.000763,0.029411,-0.512825,0.004385,0.449298,-260.651566,0.46729,66.431202
6.6566,0.027268,-0.002976,0.003071,-0.000924,-0.000502,0.000844,0.029161,-0.512752,0.003759,0.449298,-260.651566,0.46729,66.431202
6.6768,0.027044,-0.002952,0.003818,-0.000922,-0.000502,0.0009,0.028834,-0.512974,0.003072,0.374341,-260.65157,0.542247,66.431197
6.6969,0.026882,-0.003022,0.005299,-0.00092,-0.000495,0.000942,0.028978,-0.51295,0.003756,0.374341,-260.65157,0.542247,66.431197
6.7169,0.027075,-0.002802,0.005105,-0.000918,-0.000488,0.000971,0.028978,-0.51295,0.003756,0.374341,-260.65157,0.542247,66.431197
6.737,0.027581,-0.002751,0.003748,-0.000916,-0.000482,0.000991,0.029678,-0.512795,0.005106,0.299231,-260.651574,0.617357,66.431191
6.757,0.027202,-0.003159,0.003198,-0.000917,-0.000476,0.000805,0.029599,-0.512775,0.004532,0.299231,-260.651574,0.617357,66.431191
6.7766,0.02752,-0.002871,0.004079,-0.000918,-0.000473,0.000672,0.028833,-0.513157,0.003199,0.224014,-260.65158,0.692575,66.431182
6.7967,0.027132,-0.002618,0.00502,-0.000918,-0.000473,0.000712,0.029532,-0.512893,0.004001,0.224014,-260.65158,0.692575,66.431182
6.8167,0.027641,-0.00306,0.002679,-0.000917,-0.000473,0.00074,0.029532,-0.512893,0.004001,0.224014,-260.65158,0.692575,66.431182
6.8368,0.027118,-0.002268,0.003484,-0.000917,-0.000473,0.00076,0.028984,-0.513072,0.002695,0.149467,-260.651808,0.766062,66.430866
6.8568,0.027154,-0.002677,0.004335,-0.000914,-0.000486,0.00107,0.028945,-0.512746,0.003017,0.149467,-260.651808,0.766062,66.430866
6.8768,0.027375,-0.002995,0.003203,-0.000912,-0.000494,0.001285,0.029344,-0.512684,0.004351,0.074476,-260.652072,0.796021,66.430489
6.8968,0.027234,-0.002817,0.003867,-0.00091,-0.00049,0.001345,0.029038,-0.512964,0.003309,0.074476,-260.652072,0.796021,66.430489
6.9172,0.027037,-0.00335,0.003669,-0.000909,-0.000485,0.001387,0.029038,-0.512964,0.003309,0.074476,-260.652072,0.796021,66.430489
6.9373,0.027332,-0.003052,0.004742,-0.000909,-0.00048,0.001416,0.028906,-0.513348,0.003671,-0.000492,-260.652095,0.87099,66.43045
6.9573,0.027058,-0.002662,0.004718,-0.000908,-0.000459,0.001217,0.029248,-0.513226,0.004105,-0.000492,-260.652095,0.87099,66.43045
6.9763,0.027376,-0.002843,0.003521,-0.000907,-0.000444,0.001075,0.029462,-0.512658,0.00472,-0.075609,-260.652119,0.946106,66.430412
6.9965,0.027428,-0.002916,0.003079,-0.000908,-0.00045,0.001102,0.029197,-0.512824,0.003626,-0.075609,-260.652119,0.946106,66.430412
7.0165,0.027175,-0.002885,0.004433,-0.000909,-0.000455,0.001121,0.029197,-0.512824,0.003626,-0.075609,-260.652119,0.946106,66.430412
7.0365,0.027446,-0.002771,0.005679,-0.000909,-0.000459,0.001134,0.029411,-0.512893,0.00446,-0.150599,-260.652357,0.881417,66.430047
7.0565,0.027178,-0.003024,0.003378,-0.000912,-0.000447,0.000814,0.029787,-0.512841,0.004959,-0.150599,-260.652357,0.881417,66.430047
7.0766,0.027291,-0.002808,0.006202,-0.000915,-0.000442,0.000581,0.028876,-0.513034,0.003408,-0.225523,-260.652673,0.902166,66.429553
7.0968,0.027024,-0.003177,0.002215,-0.000918,-0.000427,0.000214,0.030315,-0.512819,0.005959,-0.225523,-260.652673,0.902166,66.429553
7.1168,0.027123,-0.002952,0.005364,-0.000922,-0.000419,-5.5e-05,0.030315,-0.512819,0.005959,-0.225523,-260.652673,0.902166,66.429553
7.1364,0.027085,-0.002972,0.004773,-0.000925,-0.000416,-0.000252,0.029854,-0.512947,0.005367,-0.150453,-260.652713,0.827095,66.4295
7.1566,0.027429,-0.002849,0.005589,-0.000927,-0.000422,-0.000223,0.029717,-0.512955,0.005125,-0.150453,-260.652713,0.827095,66.4295
7.1765,0.027393,-0.003131,0.004773,-0.000929,-0.000427,-0.000203,0.03028,-0.512841,0.005589,-0.075515,-260.652713,0.752157,66.4295
7.197,0.027053,-0.003283,0.003957,-0.000929,-0.000429,-0.000123,0.029868,-0.5131,0.004846,-0.075515,-260.652713,0.752157,66.4295
7.2168,0.027425,-0.002993,0.003289,-0.000929,-0.000431,-6.6e-05,0.029868,-0.5131,0.004846,-0.075515,-260.652713,0.752157,66.4295
7.2368,0.027316,-0.003192,0.004346,-0.000929,-0.000431,-2.6e-05,0.029103,-0.512991,0.003289,-0.000467,-260.652713,0.67711,66.4295
7.2566,0.026917,-0.003008,0.005271,-0.000926,-0.000442,0.000302,0.029281,-0.513072,0.003727,-0.000467,-260.652713,0.67711,66.4295
7.2764,0.026888,-0.002718,0.003904,-0.000924,-0.000448,0.00053,0.029604,-0.513001,0.005271,0.074823,-260.652718,0.601819,66.429495
7.2966,0.026916,-0.002901,0.00484,-0.000923,-0.000456,0.00061,0.028934,-0.512736,0.004007,0.074823,-260.652718,0.601819,66.429495
7.3165,0.027276,-0.003025,0.004556,-0.000922,-0.000462,0.000667,0.028934,-0.512736,0.004007,0.074823,-260.652718,0.601819,66.429495
7.3366,0.027042,-0.002425,0.004656,-0.000921,-0.000466,0.000706,0.029568,-0.513035,0.004573,0.133987,-260.653024,0.676909,66.4291
7.3566,0.026708,-0.003184,0.004443,-0.000922,-0.000464,0.000582,0.0295,-0.512777,0.00461,0.133987,-260.653024,0.676909,66.4291
7.3764,0.026859,-0.002983,0.00594,-0.000922,-0.000464,0.000493,0.028952,-0.51319,0.004459,0.058946,-260.653297,0.75195,66.428719
7.3964,0.026917,-0.003243,0.00424,-0.000923,-0.000442,0.000176,0.029803,-0.512994,0.005808,0.058946,-260.653297,0.75195,66.428719
7.417,0.026927,-0.003172,0.004964,-0.000924,-0.000428,-5.5e-05,0.029803,-0.512994,0.005808,0.058946,-260.653297,0.75195,66.428719
7.4366,0.027012,-0.002838,0.003746,-0.000925,-0.000419,-0.000224,0.029429,-0.51318,0.004981,0.133476,-260.653583,0.692622,66.428353
7.457,0.026907,-0.002915,0.003453,-0.000926,-0.000427,-4.6e-05,0.029216,-0.513039,0.004473,0.133476,-260.653583,0.692622,66.428353
7.4767,0.026992,-0.003035,0.005068,-0.000926,-0.000431,8.1e-05,0.028668,-0.512912,0.003453,0.208687,-260.653585,0.617412,66.428351
7.497,0.026623,-0.003078,0.00542,-0.000926,-0.00043,6.2e-05,0.029492,-0.513018,0.004918,0.208687,-260.653585,0.617412,66.428351
7.5165,0.026888,-0.002734,0.005498,-0.000926,-0.00043,4.9e-05,0.029492,-0.513018,0.004918,0.208687,-260.653585,0.617412,66.428351
7.5365,0.026511,-0.003423,0.002651,-0.000926,-0.000429,3.9e-05,0.029675,-0.512734,0.005502,0.283487,-260.653758,0.542612,66.428172
7.5566,0.027354,-0.002957,0.004587,-0.000925,-0.000433,0.000176,0.02893,-0.513016,0.004334,0.283487,-260.653758,0.542612,66.428172
7.5763,0.026542,-0.002836,0.006677,-0.000924,-0.000435,0.000273,0.029674,-0.51296,0.004589,0.358471,-260.654031,0.467628,66.427892
7.597,0.026617,-0.002963,0.004322,-0.000926,-0.000416,-0.000104,0.029922,-0.512837,0.00649,0.358471,-260.654031,0.467628,66.427892
7.6168,0.026883,-0.002877,0.004681,-0.000928,-0.000405,-0.000383,0.029922,-0.512837,0.00649,0.358471,-260.654031,0.467628,66.427892
7.6369,0.026753,-0.003237,0.006065,-0.00093,-0.000399,-0.000589,0.029241,-0.512884,0.004688,0.283458,-260.654321,0.542641,66.427561
7.6571,0.026715,-0.002912,0.003951,-0.000931,-0.000407,-0.000494,0.029485,-0.513026,0.005253,0.283458,-260.654321,0.542641,66.427561
7.677,0.027076,-0.002834,0.004074,-0.000931,-0.000412,-0.000427,0.02873,-0.512908,0.003951,0.358452,-260.654321,0.467646,66.427561
7.6968,0.026753,-0.00293,0.004485,-0.00093,-0.000434,-7.7e-05,0.029113,-0.512837,0.004062,0.358452,-260.654321,0.467646,66.427561
7.717,0.026672,-0.003232,0.003821,-0.000929,-0.000447,0.000167,0.029113,-0.512837,0.004062,0.358452,-260.654321,0.467646,66.427561
7.7367,0.026876,-0.003045,0.004373,-0.000928,-0.000456,0.000339,0.028617,-0.513229,0.00382,0.433452,-260.654353,0.392647,66.427535
7.7566,0.026508,-0.003073,0.004065,-0.000925,-0.000451,0.000467,0.028814,-0.513153,0.004043,0.433452,-260.654353,0.392647,66.427535
7.7767,0.026566,-0.003092,0.004014,-0.000922,-0.000446,0.000556,0.028572,-0.513073,0.004066,0.358445,-260.654457,0.467654,66.427411
7.7967,0.026836,-0.003393,0.006239,-0.00092,-0.000442,0.000626,0.02861,-0.513087,0.004018,0.358445,-260.654457,0.467654,66.427411
7.8165,0.02708,-0.003267,0.00671,-0.000918,-0.000437,0.000676,0.02861,-0.513087,0.004018,0.358445,-260.654457,0.467654,66.427411
7.8366,0.026812,-0.003151,0.005753,-0.000916,-0.000433,0.00071,0.030497,-0.513259,0.006712,0.282716,-260.654513,0.543382,66.427337
7.8572,0.026974,-0.003054,0.004406,-0.000916,-0.000402,0.000249,0.03019,-0.513212,0.006321,0.282716,-260.654513,0.543382,66.427337
7.8763,0.026969,-0.00319,0.004484,-0.000918,-0.00038,-9.3e-05,0.029217,-0.513051,0.004408,0.208457,-260.654561,0.617642,66.427272
7.8969,0.027134,-0.002998,0.003578,-0.000918,-0.000388,4.6e-05,0.029252,-0.513174,0.004477,0.208457,-260.654561,0.617642,66.427272
7.9168,0.026973,-0.003156,0.003586,-0.000919,-0.000393,0.000145,0.029252,-0.513174,0.004477,0.208457,-260.654561,0.617642,66.427272
7.9364,0.026646,-0.002997,0.00405,-0.000918,-0.000396,0.000214,0.028797,-0.513155,0.003587,0.283551,-260.654608,0.542548,66.427227
7.9571,0.026854,-0.002958,0.005094,-0.000917,-0.000406,0.000454,0.028762,-0.513089,0.003776,0.283551,-260.654608,0.542548,66.427227
7.9766,0.026678,-0.003041,0.003689,-0.000916,-0.000413,0.000621,0.029423,-0.512964,0.005101,0.280827,-260.654987,0.520796,66.426807
7.9972,0.026573,-0.00348,0.005101,-0.000914,-0.000417,0.000727,0.028636,-0.513031,0.003817,0.280827,-260.654987,0.520796,66.426807
8.017,0.026771,-0.002946,0.004639,-0.000913,-0.00042,0.000802,0.028636,-0.513031,0.003817,0.280827,-260.654987,0.520796,66.426807
8.0369,0.026716,-0.002694,0.004885,-0.000912,-0.000421,0.000854,0.029128,-0.512944,0.004642,0.205824,-260.655064,0.595799,66.426705
8.0573,0.026869,-0.003049,0.005707,-0.000913,-0.00042,0.000657,0.02916,-0.51284,0.004742,0.205824,-260.655064,0.595799,66.426705
8.0769,0.026789,-0.003149,0.006033,-0.000915,-0.000421,0.000515,0.029776,-0.513042,0.005709,0.130731,-260.6551,0.670892,66.426653
8.0966,0.026762,-0.002707,0.004098,-0.000916,-0.000398,0.000157,0.029858,-0.513131,0.006004,0.130731,-260.6551,0.670892,66.426653
8.1167,0.026449,-0.002951,0.005365,-0.000918,-0.000384,-0.000105,0.029858,-0.513131,0.006004,0.130731,-260.6551,0.670892,66.426653
8.1367,0.027083,-0.003106,0.004524,-0.00092,-0.000375,-0.000298,0.029148,-0.512961,0.005387,0.115094,-260.655467,0.677151,66.426186
8.1568,0.026636,-0.003321,0.003448,-0.000922,-0.000385,-0.000237,0.029241,-0.513019,0.005041,0.115094,-260.655467,0.677151,66.426186
8.1772,0.026735,-0.003064,0.005927,-0.000924,-0.000393,-0.000194,0.028394,-0.513318,0.003448,0.190082,-260.655468,0.602163,66.426185
8.1972,0.026645,-0.003076,0.004948,-0.000925,-0.000389,-0.000312,0.029654,-0.513075,0.005737,0.190082,-260.655468,0.602163,66.426185
8.2167,0.026543,-0.003272,0.003212,-0.000926,-0.000388,-0.000398,0.029654,-0.513075,0.005737,0.190082,-260.655468,0.602163,66.426185
8.2365,0.026679,-0.003047,0.003988,-0.000928,-0.000388,-0.00046,0.02818,-0.51327,0.003212,0.265575,-260.655484,0.52667,66.42617
8.2565,0.026853,-0.003348,0.003389,-0.000923,-0.000406,6.4e-05,0.028396,-0.513178,0.003527,0.265575,-260.655484,0.52667,66.42617
8.2772,0.026684,-0.00319,0.003786,-0.000919,-0.000415,0.000428,0.028581,-0.513345,0.003389,0.340078,-260.655488,0.452167,66.426167
8.297,0.027025,-0.003395,0.003837,-0.000917,-0.000417,0.000613,0.028612,-0.513201,0.003751,0.340078,-260.655488,0.452167,66.426167
8.317,0.026578,-0.003425,0.004094,-0.000915,-0.000417,0.000743,0.028612,-0.513201,0.003751,0.340078,-260.655488,0.452167,66.426167
8.3368,0.026696,-0.003474,0.002991,-0.000912,-0.000415,0.000834,0.028652,-0.513427,0.004098,0.264988,-260.655622,0.527256,66.426003
8.3568,0.026624,-0.003266,0.004364,-0.000909,-0.000406,0.000927,0.028476,-0.513446,0.003649,0.264988,-260.655622,0.527256,66.426003
8.377,0.026684,-0.003128,0.006628,-0.000906,-0.000397,0.000993,0.028848,-0.513262,0.004364,0.190081,-260.655634,0.602163,66.425985
8.3965,0.026815,-0.003059,0.004121,-0.000909,-0.000368,0.000446,0.029955,-0.51313,0.006424,0.190081,-260.655634,0.602163,66.425985
8.4166,0.026103,-0.002969,0.003163,-0.000912,-0.00035,3.7e-05,0.029955,-0.51313,0.006424,0.190081,-260.655634,0.602163,66.425985
8.4364,0.027055,-0.002813,0.00182,-0.000915,-0.000339,-0.000266,0.027715,-0.512967,0.003163,0.115076,-260.655643,0.677168,66.425973
8.4569,0.027129,-0.003437,0.005554,-0.000905,-0.000379,0.000515,0.027824,-0.512904,0.002616,0.115076,-260.655643,0.677168,66.425973
8.4769,0.026747,-0.003108,0.005553,-0.000899,-0.000406,0.001051,0.029962,-0.513429,0.005554,0.190075,-260.655644,0.602169,66.425972
8.4967,0.02679,-0.003178,0.005881,-0.000902,-0.000386,0.00064,0.029613,-0.51313,0.005553,0.190075,-260.655644,0.602169,66.425972
8.5166,0.026409,-0.003095,0.003648,-0.000906,-0.000374,0.000338,0.029613,-0.51313,0.005553,0.190075,-260.655644,0.602169,66.425972
8.5365,0.026455,-0.003065,0.005014,-0.000909,-0.000367,0.000117,0.028269,-0.513092,0.003648,0.115073,-260.655648,0.677172,66.425965
8.5565,0.026651,-0.003284,0.005638,-0.000911,-0.000378,0.000269,0.028573,-0.513079,0.004207,0.115073,-260.655648,0.677172,66.425965
8.5767,0.026606,-0.002816,0.005713,-0.000912,-0.000386,0.000376,0.02952,-0.513278,0.00564,0.190076,-260.655736,0.602169,66.425873
8.5966,0.026839,-0.002888,0.004381,-0.000915,-0.000382,0.000111,0.029519,-0.51285,0.005707,0.190076,-260.655736,0.602169,66.425873
8.6166,0.026728,-0.003358,0.004505,-0.000918,-0.000383,-8.2e-05,0.029519,-0.51285,0.005707,0.190076,-260.655736,0.602169,66.425873
8.6368,0.026348,-0.003316,0.00298,-0.000921,-0.000386,-0.000223,0.028988,-0.513369,0.004521,0.169462,-260.656103,0.593581,66.425437
8.6568,0.026741,-0.003355,0.003442,-0.000919,-0.000393,0.000117,0.028526,-0.513348,0.003893,0.169462,-260.656103,0.593581,66.425437
8.6768,0.026808,-0.003021,0.004913,-0.000917,-0.000395,0.000354,0.028496,-0.513352,0.003442,0.244461,-260.656113,0.518583,66.425427
8.6965,0.026638,-0.003033,0.004692,-0.000917,-0.000396,0.000292,0.029239,-0.513046,0.00478,0.244461,-260.656113,0.518583,66.425427
8.7165,0.026524,-0.003169,0.006167,-0.000918,-0.000398,0.000246,0.029239,-0.513046,0.00478,0.244461,-260.656113,0.518583,66.425427
8.7365,0.02657,-0.003347,0.003378,-0.000919,-0.0004,0.000214,0.029636,-0.513174,0.006181,0.192212,-260.656444,0.588063,66.425037
8.7568,0.02664,-0.003199,0.006074,-0.000919,-0.000392,0.00013,0.029086,-0.513245,0.005043,0.192212,-260.656444,0.588063,66.425037
8.7767,0.026462,-0.003093,0.004443,-0.000919,-0.000387,6.9e-05,0.029714,-0.5132,0.00608,0.267215,-260.656756,0.52358,66.424691
8.7969,0.02641,-0.00321,0.004358,-0.000919,-0.000392,0.000133,0.028815,-0.513098,0.00459,0.267215,-260.656756,0.52358,66.424691
8.8165,0.026872,-0.00296,0.004016,-0.000919,-0.000395,0.000178,0.028815,-0.513098,0.00459,0.267215,-260.656756,0.52358,66.424691
8.8365,0.026249,-0.003071,0.005142,-0.000919,-0.000397,0.00021,0.02889,-0.512969,0.004019,0.342215,-260.65706,0.44858,66.424377
8.8566,0.026244,-0.003003,0.004281,-0.000919,-0.000402,0.00026,0.028879,-0.513009,0.004478,0.342215,-260.65706,0.44858,66.424377
8.8768,0.026065,-0.003464,0.007158,-0.000919,-0.000406,0.000296,0.028402,-0.513009,0.004287,0.28414,-260.657395,0.518943,66.424006
8.8969,0.026427,-0.003001,0.003784,-0.000919,-0.000369,-0.000146,0.029596,-0.513411,0.006899,0.28414,-260.657395,0.518943,66.424006
8.9166,0.026371,-0.003138,0.004126,-0.00092,-0.000342,-0.000476,0.029596,-0.513411,0.006899,0.28414,-260.657395,0.518943,66.424006
8.9368,0.02626,-0.003288,0.005585,-0.000921,-0.000323,-0.000723,0.028439,-0.51315,0.004137,0.240476,-260.657748,0.56826,66.423599
8.9568,0.026175,-0.003151,0.003749,-0.000922,-0.000341,-0.000464,0.028708,-0.513205,0.004729,0.240476,-260.657748,0.56826,66.423599
8.9768,0.026121,-0.003019,0.003945,-0.000923,-0.000353,-0.000281,0.028087,-0.513148,0.003749,0.315476,-260.657748,0.493259,66.423599
8.9967,0.026131,-0.003268,0.004836,-0.000921,-0.000373,6.4e-05,0.028129,-0.513027,0.003928,0.315476,-260.657748,0.493259,66.423599
9.0166,0.025999,-0.00346,0.004121,-0.00092,-0.000386,0.000305,0.028129,-0.513027,0.003928,0.315476,-260.657748,0.493259,66.423599
9.0367,0.026509,-0.003429,0.003681,-0.000918,-0.000395,0.000474,0.028096,-0.513458,0.00412,0.390516,-260.6578,0.418219,66.423554
9.0573,0.026056,-0.003058,0.005412,-0.000915,-0.000387,0.00059,0.028214,-0.513445,0.003942,0.390516,-260.6578,0.418219,66.423554
9.0766,0.026044,-0.003457,0.003326,-0.000911,-0.00038,0.000672,0.028812,-0.513052,0.005413,0.315555,-260.657848,0.493181,66.423494
9.0969,0.026203,-0.003372,0.006025,-0.000907,-0.000377,0.000854,0.027834,-0.513419,0.003508,0.315555,-260.657848,0.493181,66.423494
9.1166,0.026292,-0.003376,0.004893,-0.000904,-0.000373,0.000982,0.027834,-0.513419,0.003508,0.315555,-260.657848,0.493181,66.423494
9.1368,0.026385,-0.003272,0.003932,-0.000902,-0.000368,0.001072,0.028785,-0.513371,0.004894,0.240431,-260.657871,0.568305,66.423464
9.1566,0.026684,-0.003224,0.004842,-0.000902,-0.000358,0.000872,0.028623,-0.513329,0.004499,0.240431,-260.657871,0.568305,66.423464
9.1768,0.025901,-0.003286,0.005154,-0.000902,-0.000352,0.000729,0.029154,-0.513218,0.004842,0.165416,-260.657872,0.643319,66.423463
9.1965,0.026674,-0.003317,0.005017,-0.000904,-0.000342,0.000484,0.028591,-0.513273,0.005124,0.165416,-260.657872,0.643319,66.423463
9.2167,0.02668,-0.003588,0.004221,-0.000906,-0.000336,0.000307,0.028591,-0.513273,0.005124,0.165416,-260.657872,0.643319,66.423463
9.2367,0.026213,-0.003317,0.004676,-0.000908,-0.000334,0.000179,0.028821,-0.513589,0.004228,0.090547,-260.657974,0.718189,66.423327
9.2566,0.02655,-0.002869,0.005619,-0.000908,-0.000335,0.000257,0.02873,-0.513477,0.00441,0.090547,-260.657974,0.718189,66.423327
9.2767,0.026565,-0.003391,0.005413,-0.000908,-0.000335,0.000312,0.029409,-0.512864,0.005621,0.16555,-260.658057,0.643185,66.423237
9.2966,0.02686,-0.003441,0.005558,-0.00091,-0.000328,0.000117,0.029333,-0.513337,0.005432,0.16555,-260.658057,0.643185,66.423237
9.3165,0.026502,-0.003393,0.004999,-0.000912,-0.000326,-2.4e-05,0.029333,-0.513337,0.005432,0.16555,-260.658057,0.643185,66.423237
9.3368,0.025975,-0.003198,0.003823,-0.000914,-0.000325,-0.000127,0.029021,-0.513399,0.005011,0.157772,-260.658351,0.568189,66.422902
9.3566,0.026425,-0.003048,0.004579,-0.000914,-0.000334,1.1e-05,0.028567,-0.513316,0.004523,0.157772,-260.658351,0.568189,66.422902
9.3772,0.026507,-0.003396,0.005711,-0.000914,-0.00034,0.000108,0.028758,-0.513043,0.004579,0.232932,-260.658381,0.493028,66.422873
9.3972,0.026304,-0.003231,0.005711,-0.000915,-0.000332,-6.7e-05,0.029359,-0.513356,0.005609,0.232932,-260.658381,0.493028,66.422873
9.4172,0.025982,-0.003583,0.005673,-0.000916,-0.000328,-0.000194,0.029359,-0.513356,0.005609,0.232932,-260.658381,0.493028,66.422873
9.4368,0.026438,-0.003243,0.005393,-0.000918,-0.000326,-0.000286,0.028842,-0.513587,0.005677,0.290889,-260.658711,0.418193,66.422528
9.457,0.026448,-0.003365,0.003011,-0.000919,-0.000323,-0.000343,0.028979,-0.513446,0.005562,0.290889,-260.658711,0.418193,66.422528
9.4769,0.026334,-0.003231,0.005567,-0.000919,-0.000321,-0.000384,0.027979,-0.513365,0.003011,0.365896,-260.658784,0.343186,66.422463
9.4967,0.026093,-0.003409,0.005126,-0.000921,-0.000329,-0.000366,0.029065,-0.513236,0.005336,0.365896,-260.658784,0.343186,66.422463
9.5166,0.026317,-0.002995,0.005042,-0.000922,-0.000336,-0.000353,0.029065,-0.513236,0.005336,0.365896,-260.658784,0.343186,66.422463
9.5369,0.026222,-0.003212,0.003886,-0.000923,-0.000341,-0.000344,0.02888,-0.512992,0.00504,0.440896,-260.658878,0.268186,66.422382
9.5572,0.026102,-0.003105,0.005682,-0.000924,-0.000357,-0.000156,0.028603,-0.51308,0.00457,0.440896,-260.658878,0.268186,66.422382
9.5769,0.026588,-0.003275,0.005576,-0.000923,-0.000368,-2.3e-05,0.028981,-0.513105,0.005676,0.515897,-260.659163,0.193185,66.422135
9.597,0.02615,-0.003562,0.003938,-0.000923,-0.000362,-0.000158,0.02939,-0.513253,0.005584,0.515897,-260.659163,0.193185,66.422135
9.6169,0.026214,-0.003285,0.005294,-0.000924,-0.000358,-0.000255,0.02939,-0.513253,0.005584,0.515897,-260.659163,0.193185,66.422135
9.6367,0.026271,-0.003236,0.003584,-0.000924,-0.000356,-0.000326,0.028895,-0.513285,0.005292,0.440905,-260.659357,0.268177,66.421943
9.6568,0.026368,-0.003457,0.004318,-0.000924,-0.000364,-0.00015,0.02857,-0.513265,0.004599,0.440905,-260.659357,0.268177,66.421943
9.6772,0.026075,-0.003369,0.003556,-0.000923,-0.000368,-2.5e-05,0.028548,-0.51346,0.004311,0.515913,-260.65967,0.193169,66.421671
9.697,0.02601,-0.00334,0.005467,-0.000918,-0.000374,0.000334,0.027946,-0.513374,0.003624,0.515913,-260.65967,0.193169,66.421671
9.7165,0.025815,-0.003321,0.004369,-0.000914,-0.000377,0.000585,0.027946,-0.513374,0.003624,0.515913,-260.65967,0.193169,66.421671
9.7371,0.02625,-0.00304,0.005065,-0.000911,-0.000376,0.00076,0.028025,-0.513323,0.004367,0.440924,-260.659865,0.268158,66.421478
9.7569,0.025951,-0.003227,0.005065,-0.00091,-0.000369,0.000612,0.028352,-0.513206,0.004651,0.440924,-260.659865,0.268158,66.421478
9.7767,0.025979,-0.003253,0.003961,-0.00091,-0.000365,0.000506,0.028534,-0.513221,0.005065,0.365917,-260.659865,0.343165,66.421478
9.7971,0.026123,-0.003248,0.003797,-0.000909,-0.000366,0.00058,0.028047,-0.513246,0.004059,0.365917,-260.659865,0.343165,66.421478
9.8176,0.026057,-0.003476,0.00506,-0.000908,-0.000366,0.000632,0.028047,-0.513246,0.004059,0.365917,-260.659865,0.343165,66.421478
9.8365,0.025708,-0.003203,0.004415,-0.000907,-0.000366,0.000669,0.028635,-0.51347,0.00506,0.290488,-260.659885,0.418594,66.421453
9.8569,0.026418,-0.003249,0.005166,-0.000907,-0.000355,0.000512,0.02836,-0.51336,0.004798,0.290488,-260.659885,0.418594,66.421453
9.8769,0.026042,-0.003097,0.005449,-0.000907,-0.000348,0.0004,0.029051,-0.513242,0.005166,0.215914,-260.6599,0.493168,66.421434
9.8971,0.026247,-0.003161,0.004574,-0.00091,-0.000344,0.000183,0.028843,-0.513104,0.005422,0.215914,-260.6599,0.493168,66.421434
9.9165,0.026341,-0.003303,0.002593,-0.000912,-0.000343,2.5e-05,0.028843,-0.513104,0.005422,0.215914,-260.6599,0.493168,66.421434
9.9368,0.026174,-0.0032,0.006487,-0.000915,-0.000345,-8.9e-05,0.027635,-0.513312,0.002605,0.140913,-260.660174,0.568169,66.421108
9.9571,0.026055,-0.00357,0.004321,-0.000915,-0.000355,0.000125,0.028383,-0.513264,0.004186,0.140913,-260.660174,0.568169,66.421108
9.9766,0.026474,-0.003663,0.002513,-0.000914,-0.000361,0.000277,0.028256,-0.513567,0.004322,0.215917,-260.660215,0.493165,66.421069
9.9969,0.025763,-0.003682,0.004354,-0.000903,-0.000367,0.000869,0.027795,-0.513654,0.002657,0.215917,-260.660215,0.493165,66.421069
10.0168,0.026532,-0.003611,0.004936,-0.000895,-0.000367,0.001276,0.027795,-0.513654,0.002657,0.215917,-260.660215,0.493165,66.421069
10.0371,0.026005,-0.003329,0.004566,-0.000889,-0.000363,0.001558,0.029012,-0.51362,0.004947,0.206835,-260.660583,0.525092,66.420653
10.0568,0.025905,-0.003456,0.00492,-0.000891,-0.000339,0.001164,0.028723,-0.513497,0.004789,0.206835,-260.660583,0.525092,66.420653
10.0764,0.025924,-0.003402,0.006297,-0.000893,-0.000324,0.000877,0.028414,-0.51345,0.00492,0.131706,-260.660583,0.600221,66.420653
10.0965,0.026144,-0.00338,0.004427,-0.000897,-0.0003,0.000401,0.029071,-0.513397,0.006173,0.131706,-260.660583,0.600221,66.420653
10.1166,0.026216,-0.003134,0.006367,-0.0009,-0.000284,4.8e-05,0.029071,-0.513397,0.006173,0.131706,-260.660583,0.600221,66.420653
10.1368,0.026178,-0.003393,0.004512,-0.000904,-0.000276,-0.000212,0.02946,-0.513125,0.006369,0.057103,-260.66061,0.674824,66.420616
10.1567,0.026028,-0.003266,0.00522,-0.000908,-0.000285,-0.000298,0.029062,-0.513232,0.005616,0.057103,-260.66061,0.674824,66.420616
10.1764,0.02617,-0.003363,0.005819,-0.000912,-0.000294,-0.000361,0.028689,-0.513259,0.00522,0.132056,-260.66061,0.599871,66.420616
10.1965,0.025946,-0.003069,0.003455,-0.000915,-0.000297,-0.000437,0.029097,-0.513346,0.005765,0.132056,-260.66061,0.599871,66.420616
10.2167,0.025913,-0.003357,0.006083,-0.000917,-0.000301,-0.000493,0.029097,-0.513346,0.005765,0.132056,-260.66061,0.599871,66.420616
10.2365,0.026298,-0.003277,0.002827,-0.000919,-0.000305,-0.000533,0.029015,-0.513347,0.006083,0.207056,-260.660611,0.524871,66.420616
10.2565,0.025971,-0.003238,0.0064,-0.00092,-0.000319,-0.000335,0.028495,-0.513318,0.004755,0.207056,-260.660611,0.524871,66.420616
10.2763,0.026186,-0.003124,0.003542,-0.00092,-0.000328,-0.000194,0.029235,-0.513227,0.0064,0.282049,-260.660611,0.449878,66.420615
10.2966,0.026204,-0.003527,0.004687,-0.000918,-0.000349,0.000169,0.028096,-0.51313,0.003781,0.282049,-260.660611,0.449878,66.420615
10.3169,0.02587,-0.003431,0.003048,-0.000916,-0.000363,0.000422,0.028096,-0.51313,0.003781,0.282049,-260.660611,0.449878,66.420615
10.3369,0.02602,-0.003805,0.006502,-0.000914,-0.000373,0.000598,0.027414,-0.513433,0.003048,0.357231,-260.660724,0.374696,66.420512
10.3572,0.02594,-0.003303,0.004405,-0.000911,-0.000358,0.000542,0.028202,-0.513582,0.004467,0.357231,-260.660724,0.374696,66.420512
10.3767,0.026041,-0.003505,0.004068,-0.000908,-0.000345,0.000502,0.028185,-0.513298,0.004405,0.282281,-260.660735,0.449647,66.420497
10.3965,0.026403,-0.00359,0.006255,-0.000906,-0.000342,0.000568,0.028121,-0.513485,0.004095,0.282281,-260.660735,0.449647,66.420497
10.4167,0.02628,-0.003404,0.005146,-0.000905,-0.000338,0.000614,0.028121,-0.513485,0.004095,0.282281,-260.660735,0.449647,66.420497
10.4366,0.025852,-0.003516,0.003191,-0.000903,-0.000334,0.000647,0.028895,-0.513401,0.005149,0.207041,-260.660824,0.524887,66.420388
10.4569,0.025507,-0.00331,0.005476,-0.000902,-0.000331,0.000612,0.028292,-0.513449,0.004317,0.207041,-260.660824,0.524887,66.420388
10.4769,0.02588,-0.003419,0.005593,-0.000901,-0.000328,0.000588,0.028294,-0.513304,0.005478,0.131897,-260.660897,0.60003,66.420294
10.4971,0.026213,-0.003492,0.004403,-0.000903,-0.000312,0.000288,0.028697,-0.513403,0.005584,0.131897,-260.660897,0.60003,66.420294
10.5171,0.026098,-0.003348,0.004311,-0.000905,-0.000303,7e-05,0.028697,-0.513403,0.005584,0.131897,-260.660897,0.60003,66.420294
10.5367,0.025796,-0.003456,0.006632,-0.000907,-0.000298,-8.9e-05,0.028274,-0.513353,0.004325,0.057117,-260.661118,0.650982,66.420017
10.5566,0.02578,-0.003407,0.004253,-0.000909,-0.0003,-0.000141,0.028645,-0.513392,0.005281,0.057117,-260.661118,0.650982,66.420017
10.5764,0.025804,-0.003631,0.005051,-0.000911,-0.000303,-0.000179,0.027949,-0.513403,0.004253,0.131947,-260.661124,0.576152,66.42001
10.5967,0.026366,-0.00342,0.004225,-0.000911,-0.000301,-0.000137,0.028342,-0.513605,0.004982,0.131947,-260.661124,0.576152,66.42001
10.6165,0.026354,-0.003278,0.006379,-0.000911,-0.000299,-0.000108,0.028342,-0.513605,0.004982,0.131947,-260.661124,0.576152,66.42001
10.6365,0.026129,-0.003609,0.005243,-0.000911,-0.000297,-8.7e-05,0.029606,-0.513268,0.006379,0.206905,-260.661135,0.501195,66.42
10.6564,0.025781,-0.003751,0.004353,-0.000912,-0.000292,-0.000268,0.029277,-0.513404,0.005914,0.206905,-260.661135,0.501195,66.42
10.6764,0.025548,-0.003153,0.006506,-0.000914,-0.00029,-0.0004,0.027993,-0.513749,0.004354,0.281807,-260.661237,0.426293,66.419901
10.6967,0.026239,-0.003334,0.005676,-0.000916,-0.000289,-0.00057,0.028787,-0.513197,0.006313,0.281807,-260.661237,0.426293,66.419901
10.7165,0.025879,-0.003169,0.005312,-0.000918,-0.000291,-0.000695,0.028787,-0.513197,0.006313,0.281807,-260.661237,0.426293,66.419901
10.7364,0.026049,-0.00375,0.002838,-0.00092,-0.000294,-0.000786,0.028586,-0.513163,0.005312,0.356805,-260.661253,0.351295,66.419888
10.7572,0.025955,-0.003121,0.004846,-0.000919,-0.000313,-0.000394,0.028141,-0.513402,0.004301,0.356805,-260.661253,0.351295,66.419888
10.7763,0.026227,-0.003292,0.005145,-0.000918,-0.000325,-0.000119,0.028426,-0.513115,0.004846,0.431818,-260.661253,0.276282,66.419888
10.7965,0.025714,-0.003479,0.003514,-0.000918,-0.00033,-0.000127,0.028813,-0.51327,0.005118,0.431818,-260.661253,0.276282,66.419888
10.8164,0.025768,-0.003179,0.006092,-0.000919,-0.000334,-0.000132,0.028813,-0.51327,0.005118,0.431818,-260.661253,0.276282,66.419888
10.8366,0.025908,-0.003345,0.005356,-0.000919,-0.000338,-0.000136,0.028837,-0.513183,0.006087,0.409082,-260.66165,0.268005,66.41951
10.8567,0.025415,-0.003614,0.003836,-0.000919,-0.000332,-0.00028,0.028752,-0.513248,0.005788,0.409082,-260.66165,0.268005,66.41951
10.8766,0.025885,-0.003546,0.003495,-0.00092,-0.000329,-0.000384,0.027342,-0.513621,0.003832,0.429344,-260.662053,0.270036,66.41913
10.8968,0.02624,-0.003417,0.005412,-0.000914,-0.00034,0.000119,0.027641,-0.513549,0.003521,0.429344,-260.662053,0.270036,66.41913
10.9169,0.025564,-0.003317,0.004784,-0.000909,-0.000344,0.000468,0.027641,-0.513549,0.003521,0.429344,-260.662053,0.270036,66.41913
10.9365,0.025736,-0.003562,0.005499,-0.000905,-0.000344,0.000711,0.027984,-0.513319,0.004778,0.50471,-260.66227,0.19467,66.418944
10.9569,0.025701,-0.003504,0.003395,-0.000905,-0.00033,0.000484,0.028209,-0.513416,0.005071,0.50471,-260.66227,0.19467,66.418944
10.9764,0.025216,-0.003577,0.004814,-0.000906,-0.000321,0.00032,0.027433,-0.513501,0.003395,0.430062,-260.66227,0.269318,66.418944
10.9964,0.026065,-0.003158,0.006781,-0.000905,-0.000313,0.00029,0.02765,-0.513564,0.004685,0.430062,-260.66227,0.269318,66.418944
11.0164,0.025794,-0.00345,0.005003,-0.000904,-0.000306,0.000269,0.02765,-0.513564,0.004685,0.430062,-260.66227,0.269318,66.418944
11.0364,0.025786,-0.003163,0.005264,-0.000904,-0.0003,0.000254,0.028342,-0.513445,0.005003,0.355076,-260.662303,0.344303,66.418906
11.0564,0.026099,-0.003579,0.003949,-0.000905,-0.000301,0.000143,0.028394,-0.513327,0.00511,0.355076,-260.662303,0.344303,66.418906
11.0763,0.02611,-0.003426,0.004198,-0.000907,-0.000303,6.4e-05,0.028101,-0.513579,0.003951,0.280076,-260.662459,0.419304,66.418734
11.0964,0.025903,-0.003213,0.004769,-0.000907,-0.000312,0.000236,0.028236,-0.513436,0.004175,0.280076,-260.662459,0.419304,66.418734
11.1165,0.025644,-0.00334,0.006536,-0.000907,-0.000317,0.000358,0.028236,-0.513436,0.004175,0.280076,-260.662459,0.419304,66.418734
11.1367,0.025755,-0.003451,0.00401,-0.000906,-0.00032,0.000444,0.028941,-0.513341,0.006538,0.283603,-260.662817,0.360841,66.418367
11.1565,0.025769,-0.003758,0.005145,-0.000907,-0.000308,0.000199,0.02847,-0.513386,0.005504,0.283603,-260.662817,0.360841,66.418367
11.1765,0.025563,-0.00345,0.003449,-0.000908,-0.000301,2e-05,0.028387,-0.513754,0.005146,0.208602,-260.662889,0.435842,66.418281
11.1965,0.025755,-0.003413,0.002973,-0.000905,-0.000313,0.000373,0.027416,-0.513474,0.003598,0.208602,-260.662889,0.435842,66.418281
11.2169,0.025582,-0.003564,0.005174,-0.000903,-0.000319,0.000619,0.027416,-0.513474,0.003598,0.208602,-260.662889,0.435842,66.418281
11.2368,0.025647,-0.003643,0.003875,-0.0009,-0.000321,0.000791,0.028194,-0.513566,0.005176,0.283643,-260.663163,0.360801,66.418004
11.2568,0.025549,-0.003465,0.005679,-0.0009,-0.000308,0.000636,0.02796,-0.513597,0.004651,0.283643,-260.663163,0.360801,66.418004
11.2765,0.02579,-0.003619,0.00382,-0.000899,-0.000299,0.000524,0.028445,-0.513457,0.005679,0.208689,-260.663164,0.435755,66.418003
11.2965,0.025817,-0.003525,0.004679,-0.000898,-0.000298,0.000613,0.027802,-0.513601,0.003988,0.208689,-260.663164,0.435755,66.418003
11.3166,0.025396,-0.003443,0.006498,-0.000897,-0.000297,0.000675,0.027802,-0.513601,0.003988,0.208689,-260.663164,0.435755,66.418003
11.3369,0.025336,-0.003251,0.004369,-0.000896,-0.000295,0.000719,0.028699,-0.513436,0.006501,0.133696,-260.66326,0.510748,66.417886
11.3568,0.026031,-0.00358,0.00414,-0.000898,-0.000281,0.000374,0.028237,-0.513359,0.005636,0.133696,-260.66326,0.510748,66.417886
11.3766,0.025266,-0.003543,0.00553,-0.000901,-0.000274,0.000123,0.028138,-0.513577,0.004142,0.058679,-260.663315,0.585765,66.417816
11.3966,0.025559,-0.003374,0.00352,-0.000903,-0.000269,-1.4e-05,0.028091,-0.513539,0.005405,0.058679,-260.663315,0.585765,66.417816
11.4167,0.025652,-0.003397,0.003525,-0.000905,-0.000266,-0.000112,0.028091,-0.513539,0.005405,0.058679,-260.663315,0.585765,66.417816
11.4372,0.025637,-0.00328,0.006209,-0.000906,-0.000265,-0.000184,0.027438,-0.513397,0.003528,0.133681,-260.663431,0.510763,66.417695
11.4571,0.025523,-0.003477,0.003612,-0.000908,-0.000279,-5.2e-05,0.027987,-0.513347,0.004609,0.133681,-260.663431,0.510763,66.417695
11.4768,0.025464,-0.003405,0.004849,-0.000909,-0.000289,4.2e-05,0.027364,-0.513474,0.003612,0.20868,-260.66345,0.435764,66.417677
11.497,0.025648,-0.003154,0.004768,-0.000909,-0.000294,7.6e-05,0.027888,-0.513406,0.004743,0.20868,-260.66345,0.435764,66.417677
11.517,0.025828,-0.003659,0.004339,-0.000909,-0.000297,0.000101,0.027888,-0.513406,0.004743,0.20868,-260.66345,0.435764,66.417677
11.537,0.025484,-0.003545,0.005683,-0.000909,-0.0003,0.000118,0.028012,-0.513665,0.004341,0.282199,-260.663743,0.360621,66.417379
11.5569,0.02555,-0.003304,0.004907,-0.000908,-0.000295,9.7e-05,0.028158,-0.513614,0.004885,0.282199,-260.663743,0.360621,66.417379
11.5768,0.025422,-0.00346,0.005203,-0.000908,-0.000291,8.2e-05,0.028025,-0.513307,0.004911,0.245547,-260.664106,0.388127,66.416998
11.5968,0.025815,-0.00345,0.005037,-0.000909,-0.000289,4e-06,0.02807,-0.513442,0.005179,0.245547,-260.664106,0.388127,66.416998
11.6168,0.025383,-0.003623,0.005069,-0.00091,-0.000289,-5.2e-05,0.02807,-0.513442,0.005179,0.245547,-260.664106,0.388127,66.416998
11.6369,0.025601,-0.003581,0.005074,-0.00091,-0.000289,-9.2e-05,0.027931,-0.513629,0.005072,0.2592,-260.664475,0.359516,66.416617
11.6567,0.025572,-0.003492,0.005485,-0.00091,-0.000286,-9.7e-05,0.028031,-0.513608,0.005073,0.2592,-260.664475,0.359516,66.416617
11.6764,0.025519,-0.003364,0.004367,-0.00091,-0.000283,-0.0001,0.028349,-0.513491,0.005484,0.334031,-260.664746,0.284685,66.416356
11.6966,0.025249,-0.003452,0.004859,-0.00091,-0.000293,4.3e-05,0.027799,-0.513371,0.004468,0.334031,-260.664746,0.284685,66.416356
11.7166,0.025597,-0.003793,0.005536,-0.00091,-0.000301,0.000145,0.027799,-0.513371,0.004468,0.334031,-260.664746,0.284685,66.416356
11.7365,0.025584,-0.003395,0.004088,-0.000909,-0.000305,0.000217,0.028384,-0.513797,0.005532,0.361911,-260.665118,0.23939,66.415998
11.757,0.025485,-0.003901,0.003825,-0.000908,-0.000297,0.000155,0.028088,-0.513633,0.004943,0.361911,-260.665118,0.23939,66.415998
11.7767,0.025189,-0.00385,0.005172,-0.000907,-0.000291,0.00011,0.027427,-0.5139,0.003825,0.286915,-260.66523,0.314385,66.415876
11.7968,0.025236,-0.003908,0.0056,-0.000906,-0.000276,5.4e-05,0.02779,-0.513848,0.005051,0.286915,-260.66523,0.314385,66.415876
11.8168,0.025517,-0.003407,0.00486,-0.000904,-0.000265,1.4e-05,0.02779,-0.513848,0.005051,0.286915,-260.66523,0.314385,66.415876
11.8369,0.025461,-0.003315,0.003263,-0.000903,-0.000256,-1.5e-05,0.027961,-0.513412,0.004864,0.24141,-260.665571,0.375458,66.41552
11.8567,0.025035,-0.003563,0.003592,-0.000904,-0.000271,0.000171,0.027614,-0.513373,0.004209,0.24141,-260.665571,0.375458,66.41552
11.877,0.02554,-0.003606,0.004126,-0.000904,-0.000282,0.000302,0.026844,-0.513567,0.003592,0.285382,-260.665872,0.30047,66.41522
11.897,0.025231,-0.003813,0.004088,-0.000902,-0.000284,0.000431,0.027571,-0.513599,0.004078,0.285382,-260.665872,0.30047,66.41522
11.917,0.025468,-0.003711,0.00454,-0.000901,-0.000284,0.000522,0.027571,-0.513599,0.004078,0.285382,-260.665872,0.30047,66.41522
11.937,0.025406,-0.003421,0.006457,-0.000899,-0.000283,0.000586,0.027769,-0.51371,0.004542,0.210374,-260.666005,0.375478,66.415072
11.9569,0.025461,-0.003529,0.004539,-0.0009,-0.00027,0.000338,0.028147,-0.513588,0.005324,0.210374,-260.666005,0.375478,66.415072
11.9771,0.025095,-0.003346,0.003695,-0.000901,-0.000262,0.000159,0.027773,-0.513524,0.00454,0.13537,-260.666039,0.450481,66.41503
11.997,0.025454,-0.003851,0.004012,-0.0009,-0.000278,0.000416,0.027052,-0.513359,0.003773,0.13537,-260.666039,0.450481,66.41503
12.0168,0.025187,-0.003485,0.004784,-0.0009,-0.000288,0.000596,0.027052,-0.513359,0.003773,0.13537,-260.666039,0.450481,66.41503
12.0371,0.025313,-0.003698,0.005129,-0.000899,-0.000296,0.000723,0.027593,-0.513489,0.00479,0.181278,-260.666366,0.379537,66.414684
12.0571,0.025277,-0.003325,0.00441,-0.000899,-0.000283,0.000522,0.027726,-0.513573,0.004929,0.181278,-260.666366,0.379537,66.414684
12.077,0.025308,-0.003445,0.004836,-0.000899,-0.000276,0.000378,0.027525,-0.51332,0.004411,0.106287,-260.666378,0.454529,66.414669
12.0969,0.025065,-0.003373,0.00492,-0.0009,-0.000277,0.000304,0.02775,-0.513428,0.004795,0.106287,-260.666378,0.454529,66.414669
12.1166,0.02514,-0.003895,0.005911,-0.000902,-0.000278,0.000251,0.02775,-0.513428,0.004795,0.106287,-260.666378,0.454529,66.414669
12.1367,0.025346,-0.003325,0.004728,-0.000903,-0.00028,0.000213,0.028121,-0.513897,0.005926,0.049977,-260.666703,0.512653,66.414296
12.1567,0.025158,-0.003423,0.005291,-0.000903,-0.000268,4.8e-05,0.027965,-0.513657,0.005427,0.049977,-260.666703,0.512653,66.414296
12.1766,0.025076,-0.00376,0.003975,-0.000904,-0.00026,-7.3e-05,0.027836,-0.513423,0.005297,0.125271,-260.666966,0.437359,66.414011
12.1967,0.025618,-0.003805,0.006111,-0.000903,-0.000263,0.000165,0.027166,-0.513727,0.00409,0.125271,-260.666966,0.437359,66.414011
12.2166,0.025364,-0.003281,0.005173,-0.000901,-0.000264,0.000332,0.027166,-0.513727,0.00409,0.125271,-260.666966,0.437359,66.414011
12.2366,0.025138,-0.003731,0.005011,-0.000899,-0.000262,0.000449,0.027991,-0.513277,0.005174,0.200077,-260.667069,0.362553,66.413911
12.2565,0.025055,-0.003759,0.006735,-0.0009,-0.00026,0.000285,0.027869,-0.51346,0.005108,0.200077,-260.667069,0.362553,66.413911
12.2767,0.025209,-0.003525,0.005523,-0.000902,-0.00026,0.000166,0.028481,-0.51375,0.006738,0.125166,-260.667174,0.437463,66.413789
12.2968,0.025362,-0.003382,0.003892,-0.000903,-0.000252,-2.9e-05,0.028067,-0.513539,0.005633,0.125166,-260.667174,0.437463,66.413789
12.3167,0.02555,-0.003577,0.005961,-0.000905,-0.000248,-0.000171,0.028067,-0.513539,0.005633,0.125166,-260.667174,0.437463,66.413789
12.3367,0.024795,-0.003795,0.003954,-0.000907,-0.000247,-0.000273,0.028555,-0.513578,0.005967,0.173918,-260.667509,0.380841,66.413433
12.3567,0.025252,-0.003579,0.005345,-0.000907,-0.000249,-0.000242,0.027837,-0.513666,0.005144,0.173918,-260.667509,0.380841,66.413433
12.3763,0.024845,-0.003525,0.004036,-0.000907,-0.00025,-0.00022,0.027975,-0.513572,0.005345,0.248915,-260.667544,0.305844,66.413401
12.3964,0.025319,-0.003769,0.00616,-0.000907,-0.000261,4.3e-05,0.026999,-0.513526,0.004154,0.248915,-260.667544,0.305844,66.413401
12.4164,0.025597,-0.003619,0.003515,-0.000905,-0.000268,0.000228,0.026999,-0.513526,0.004154,0.248915,-260.667544,0.305844,66.413401
12.4363,0.02492,-0.003688,0.004438,-0.000904,-0.000272,0.000358,0.027374,-0.513621,0.003514,0.323908,-260.667706,0.230851,66.413251
12.4566,0.024899,-0.004001,0.003847,-0.000901,-0.000274,0.000523,0.027294,-0.513647,0.003891,0.323908,-260.667706,0.230851,66.413251
12.4766,0.024982,-0.003834,0.001749,-0.000899,-0.000274,0.000638,0.026858,-0.513998,0.003848,0.248905,-260.667743,0.305854,66.413209
12.4965,0.0251,-0.003437,0.003983,-0.00088,-0.000284,0.001392,0.025973,-0.51385,0.00196,0.248905,-260.667743,0.305854,66.413209
12.5166,0.025134,-0.003021,0.00585,-0.000867,-0.000285,0.00191,0.025973,-0.51385,0.00196,0.248905,-260.667743,0.305854,66.413209
12.5365,0.025292,-0.003625,0.004746,-0.000858,-0.00028,0.002268,0.028117,-0.513012,0.00585,0.173884,-260.667749,0.380874,66.413202
12.5567,0.025308,-0.003538,0.004582,-0.000867,-0.000255,0.001574,0.027952,-0.51326,0.005399,0.173884,-260.667749,0.380874,66.413202
12.5765,0.025185,-0.003739,0.004462,-0.000875,-0.000243,0.001058,0.027645,-0.513533,0.004582,0.098899,-260.667749,0.45586,66.413202
12.5969,0.024975,-0.003646,0.00571,-0.000878,-0.000236,0.00088,0.027477,-0.513716,0.004473,0.098899,-260.667749,0.45586,66.413202
12.6168,0.025383,-0.003888,0.004758,-0.00088,-0.000232,0.00075,0.027477,-0.513716,0.004473,0.098899,-260.667749,0.45586,66.413202
12.637,0.025189,-0.003711,0.005032,-0.000882,-0.00023,0.000655,0.02781,-0.513882,0.004758,0.023765,-260.667749,0.530993,66.413201
12.6569,0.025032,-0.003284,0.004152,-0.000884,-0.000223,0.000492,0.027788,-0.513809,0.004871,0.023765,-260.667749,0.530993,66.413201
12.6767,0.025543,-0.003839,0.003206,-0.000886,-0.000219,0.000374,0.027137,-0.513284,0.004159,-0.051271,-260.6679,0.60603,66.413019
12.6968,0.025242,-0.003475,0.004823,-0.000884,-0.000231,0.000721,0.027174,-0.51379,0.003286,-0.051271,-260.6679,0.60603,66.413019
12.7169,0.024864,-0.003444,0.005247,-0.000882,-0.000238,0.000961,0.027174,-0.51379,0.003286,-0.051271,-260.6679,0.60603,66.413019
12.7365,0.024943,-0.003603,0.005829,-0.00088,-0.000242,0.001128,0.027514,-0.513444,0.00526,-0.011071,-260.668155,0.531025,66.412733
12.757,0.024904,-0.003593,0.006064,-0.000884,-0.000226,0.000701,0.027685,-0.51351,0.005508,-0.011071,-260.668155,0.531025,66.412733
12.7766,0.025175,-0.003499,0.003609,-0.000888,-0.000218,0.000389,0.027997,-0.513584,0.006064,-0.086621,-260.668159,0.606575,66.412729
12.797,0.024928,-0.003744,0.003948,-0.000889,-0.000233,0.000562,0.027106,-0.513504,0.003836,-0.086621,-260.668159,0.606575,66.412729
12.8166,0.024965,-0.003653,0.003851,-0.00089,-0.000244,0.000683,0.027106,-0.513504,0.003836,-0.086621,-260.668159,0.606575,66.412729
12.8367,0.024623,-0.00346,0.004806,-0.00089,-0.000251,0.000767,0.026903,-0.513656,0.003863,-0.022184,-260.66841,0.5323,66.412447
12.8568,0.025262,-0.00358,0.005454,-0.00089,-0.00025,0.000718,0.026969,-0.513575,0.004246,-0.022184,-260.66841,0.5323,66.412447
12.8767,0.025118,-0.003977,0.005022,-0.00089,-0.000249,0.000682,0.028034,-0.513575,0.00546,-0.097175,-260.66853,0.607291,66.412296
12.8969,0.025207,-0.003845,0.004259,-0.00089,-0.000231,0.000465,0.027712,-0.513934,0.005063,-0.097175,-260.66853,0.607291,66.412296
12.9165,0.025087,-0.00376,0.004759,-0.00089,-0.000218,0.000308,0.027712,-0.513934,0.005063,-0.097175,-260.66853,0.607291,66.412296
12.9366,0.025136,-0.003779,0.005498,-0.000891,-0.00021,0.000194,0.027481,-0.513764,0.004783,-0.172188,-260.668843,0.64204,66.411912
12.9566,0.025258,-0.003643,0.004708,-0.000893,-0.000208,0.000109,0.027666,-0.513768,0.005079,-0.172188,-260.668843,0.64204,66.411912
12.9763,0.024746,-0.003241,0.004118,-0.000894,-0.000208,4.7e-05,0.027657,-0.513638,0.004709,-0.097192,-260.66887,0.567044,66.411883
12.9965,0.024979,-0.003806,0.004889,-0.000897,-0.00023,0.000225,0.026919,-0.513273,0.004171,-0.097192,-260.66887,0.567044,66.411883
13.0169,0.024993,-0.003511,0.00342,-0.000898,-0.000247,0.00035,0.026919,-0.513273,0.004171,-0.097192,-260.66887,0.567044,66.411883
13.0368,0.024944,-0.003535,0.003644,-0.000899,-0.00026,0.000439,0.026736,-0.513508,0.003421,-0.022191,-260.668889,0.492043,66.411864
13.0568,0.024342,-0.00366,0.006331,-0.000897,-0.00027,0.000691,0.026763,-0.513518,0.003512,-0.022191,-260.668889,0.492043,66.411864
13.0766,0.024725,-0.003787,0.005002,-0.000894,-0.000275,0.000866,0.027543,-0.513658,0.006345,-0.008884,-260.66924,0.531386,66.411458
13.0968,0.024835,-0.003734,0.005662,-0.000894,-0.000253,0.000587,0.027297,-0.513771,0.005117,-0.008884,-260.66924,0.531386,66.411458
13.1166,0.025027,-0.003815,0.004215,-0.000894,-0.000238,0.000384,0.027297,-0.513771,0.005117,-0.008884,-260.66924,0.531386,66.411458
13.1369,0.024989,-0.004071,0.005259,-0.000895,-0.000228,0.000237,0.02717,-0.513813,0.004219,-0.08407,-260.6693,0.606572,66.411379
13.1568,0.024841,-0.003573,0.004458,-0.000894,-0.000222,0.000241,0.027374,-0.513916,0.004645,-0.08407,-260.6693,0.606572,66.411379
13.1768,0.025098,-0.003744,0.005963,-0.000893,-0.000217,0.000243,0.027106,-0.51357,0.004461,-0.009238,-260.669406,0.531739,66.411265
13.1969,0.024734,-0.003477,0.005608,-0.000895,-0.000206,-1e-05,0.028049,-0.513721,0.005834,-0.009238,-260.669406,0.531739,66.411265
13.2168,0.024722,-0.003686,0.003952,-0.000897,-0.0002,-0.000196,0.028049,-0.513721,0.005834,-0.009238,-260.669406,0.531739,66.411265
13.2366,0.024811,-0.003607,0.004921,-0.000899,-0.000197,-0.000331,0.026715,-0.513688,0.00396,0.065893,-260.669635,0.456608,66.411019
13.2566,0.024709,-0.003335,0.002803,-0.000899,-0.000212,-8.8e-05,0.026959,-0.513654,0.004352,0.065893,-260.669635,0.456608,66.411019
13.2769,0.025018,-0.003731,0.003595,-0.000899,-0.000221,8.3e-05,0.026138,-0.513333,0.002803,0.140751,-260.669636,0.38175,66.411017
13.2968,0.024665,-0.003488,0.006673,-0.000896,-0.000234,0.00044,0.026788,-0.513692,0.003525,0.140751,-260.669636,0.38175,66.411017
13.3165,0.024801,-0.003628,0.005096,-0.000893,-0.000242,0.000689,0.026788,-0.513692,0.003525,0.140751,-260.669636,0.38175,66.411017
13.3367,0.024626,-0.003488,0.005595,-0.00089,-0.000246,0.000863,0.027368,-0.51363,0.005099,0.187342,-260.669948,0.306727,66.410697
13.3569,0.02505,-0.003781,0.00579,-0.000891,-0.000232,0.000546,0.02741,-0.51357,0.005301,0.187342,-260.669948,0.306727,66.410697
13.3763,0.024665,-0.003807,0.005602,-0.000893,-0.000225,0.000316,0.028003,-0.513773,0.00579,0.112356,-260.669949,0.381713,66.410697
13.3966,0.02452,-0.003812,0.005464,-0.000894,-0.000211,8.5e-05,0.027561,-0.513797,0.005617,0.112356,-260.669949,0.381713,66.410697
13.4166,0.024592,-0.00347,0.004225,-0.000895,-0.000202,-8.3e-05,0.027561,-0.513797,0.005617,0.112356,-260.669949,0.381713,66.410697
13.4372,0.024745,-0.003654,0.005339,-0.000897,-0.000196,-0.000205,0.026715,-0.513474,0.004236,0.037086,-260.670258,0.437698,66.410355
13.457,0.025243,-0.003772,0.004539,-0.000898,-0.000209,-8.6e-05,0.02702,-0.513546,0.00469,0.037086,-260.670258,0.437698,66.410355
13.4765,0.024911,-0.003737,0.005116,-0.000899,-0.000219,-1e-06,0.027557,-0.513767,0.00454,0.112039,-260.670268,0.362745,66.410346
13.497,0.024812,-0.00388,0.00373,-0.0009,-0.000219,-2.8e-05,0.027524,-0.513734,0.005061,0.112039,-260.670268,0.362745,66.410346
13.5167,0.024517,-0.003555,0.004138,-0.0009,-0.000219,-4.7e-05,0.027524,-0.513734,0.005061,0.112039,-260.670268,0.362745,66.410346
13.5365,0.025105,-0.003932,0.005252,-0.000901,-0.00022,-6.1e-05,0.026604,-0.513556,0.00414,0.186811,-260.670491,0.287973,66.410123
13.5566,0.024825,-0.003683,0.005202,-0.0009,-0.000224,4.1e-05,0.027079,-0.513706,0.00459,0.186811,-260.670491,0.287973,66.410123
13.5764,0.024851,-0.003807,0.00402,-0.0009,-0.000226,0.000114,0.027455,-0.513682,0.005201,0.261815,-260.670781,0.212969,66.409838
13.5968,0.024803,-0.00398,0.005617,-0.000898,-0.000229,0.000287,0.026947,-0.513793,0.004119,0.261815,-260.670781,0.212969,66.409838
13.6168,0.024764,-0.003892,0.005466,-0.000896,-0.000229,0.00041,0.026947,-0.513793,0.004119,0.261815,-260.670781,0.212969,66.409838
13.6364,0.02475,-0.004146,0.00531,-0.000894,-0.000228,0.000496,0.027523,-0.513892,0.005468,0.18655,-260.67105,0.288234,66.409559
13.6572,0.024529,-0.00387,0.004415,-0.000893,-0.000207,0.000258,0.027494,-0.513993,0.005404,0.18655,-260.67105,0.288234,66.409559
13.6766,0.024619,-0.003969,0.004423,-0.000892,-0.000193,8.5e-05,0.026778,-0.513866,0.004416,0.111818,-260.671091,0.362966,66.409512
13.6969,0.024705,-0.003541,0.006836,-0.000891,-0.000192,0.000188,0.026866,-0.513955,0.004422,0.111818,-260.671091,0.362966,66.409512
13.717,0.024315,-0.00351,0.004007,-0.00089,-0.00019,0.000261,0.026866,-0.513955,0.004422,0.111818,-260.671091,0.362966,66.409512
13.7369,0.024836,-0.004268,0.004936,-0.000889,-0.000188,0.000312,0.026327,-0.513513,0.004011,0.156437,-260.671394,0.287968,66.409202
13.7567,0.024459,-0.003815,0.003983,-0.000888,-0.000189,0.000357,0.026743,-0.51382,0.004389,0.156437,-260.671394,0.287968,66.409202
13.7764,0.024579,-0.004029,0.00426,-0.000888,-0.00019,0.000389,0.026474,-0.513814,0.003986,0.081353,-260.671584,0.363052,66.408995
13.7967,0.024029,-0.003654,0.005376,-0.000886,-0.000186,0.000451,0.026726,-0.514005,0.004235,0.081353,-260.671584,0.363052,66.408995
13.8171,0.024702,-0.003947,0.004865,-0.000884,-0.000181,0.000495,0.026726,-0.514005,0.004235,0.081353,-260.671584,0.363052,66.408995
13.8372,0.02456,-0.003623,0.004948,-0.000883,-0.000177,0.000526,0.027159,-0.513947,0.004875,0.006435,-260.671821,0.43797,66.408733
13.8568,0.024506,-0.003524,0.003793,-0.000884,-0.000175,0.000385,0.027126,-0.513815,0.004905,0.006435,-260.671821,0.43797,66.408733
13.8766,0.024669,-0.003561,0.005125,-0.000885,-0.000174,0.000284,0.026424,-0.513524,0.003801,-0.068564,-260.672027,0.512969,66.408499
13.8966,0.024858,-0.00411,0.006887,-0.000888,-0.000182,0.000188,0.027205,-0.513552,0.005006,-0.068564,-260.672027,0.512969,66.408499
13.9168,0.024587,-0.003811,0.005093,-0.000891,-0.00019,0.000118,0.027205,-0.513552,0.005006,-0.068564,-260.672027,0.512969,66.408499
13.937,0.024218,-0.003631,0.006417,-0.000893,-0.000198,6.8e-05,0.02716,-0.51381,0.005102,0.000606,-260.672268,0.437968,66.40824
13.9572,0.02472,-0.003573,0.004261,-0.000895,-0.000191,-0.000101,0.027291,-0.513734,0.005638,0.000606,-260.672268,0.437968,66.40824
13.9767,0.024501,-0.003705,0.005189,-0.000896,-0.000187,-0.000224,0.026883,-0.513571,0.004264,0.075605,-260.672405,0.362969,66.408101
13.997,0.024296,-0.003721,0.004649,-0.000898,-0.000194,-0.000198,0.027123,-0.513687,0.005105,0.075605,-260.672405,0.362969,66.408101
14.0167,0.024574,-0.003984,0.005556,-0.000899,-0.000199,-0.00018,0.027123,-0.513687,0.005105,0.075605,-260.672405,0.362969,66.408101
14.0366,0.024415,-0.003819,0.004105,-0.0009,-0.000203,-0.000167,0.027405,-0.513977,0.005556,0.150595,-260.67243,0.287978,66.408077
14.0568,0.024353,-0.003899,0.005604,-0.000899,-0.0002,-0.000126,0.027041,-0.513911,0.004968,0.150595,-260.67243,0.287978,66.408077
14.0769,0.024641,-0.0044,0.005456,-0.000898,-0.000197,-9.6e-05,0.0272,-0.513894,0.005604,0.225593,-260.672569,0.212981,66.407944
14.0965,0.024417,-0.003782,0.004401,-0.000895,-0.000176,-0.000184,0.027402,-0.514346,0.00547,0.225593,-260.672569,0.212981,66.407944
14.1169,0.024381,-0.004087,0.005453,-0.000893,-0.00016,-0.000248,0.027402,-0.514346,0.00547,0.225593,-260.672569,0.212981,66.407944
14.137,0.024657,-0.003917,0.004427,-0.000892,-0.000147,-0.000295,0.027128,-0.514087,0.005449,0.277279,-260.672909,0.152997,66.407614
14.1568,0.024272,-0.003712,0.004125,-0.000892,-0.00015,-0.000229,0.027034,-0.514014,0.005019,0.277279,-260.672909,0.152997,66.407614
14.1768,0.02446,-0.003401,0.004154,-0.000892,-0.000152,-0.000182,0.026361,-0.513711,0.004122,0.350965,-260.673102,0.077621,66.407432
14.1971,0.024151,-0.00402,0.004871,-0.000894,-0.000179,6.9e-05,0.026559,-0.513424,0.004151,0.350965,-260.673102,0.077621,66.407432
14.2165,0.02444,-0.003713,0.005858,-0.000895,-0.000199,0.000246,0.026559,-0.513424,0.004151,0.350965,-260.673102,0.077621,66.407432
14.2369,0.024362,-0.003875,0.005915,-0.000895,-0.000214,0.000371,0.027393,-0.51371,0.005851,0.286414,-260.673444,0.045832,66.407104
14.2572,0.024446,-0.003944,0.00557,-0.000895,-0.000196,7.4e-05,0.027383,-0.513774,0.005876,0.286414,-260.673444,0.045832,66.407104
14.2768,0.024366,-0.003918,0.004161,-0.000896,-0.000184,-0.000142,0.027287,-0.513936,0.00557,0.211544,-260.673449,0.120703,66.407098
14.2966,0.024459,-0.00404,0.005452,-0.000894,-0.000189,6.8e-05,0.026548,-0.513915,0.004267,0.211544,-260.673449,0.120703,66.407098
14.3165,0.024454,-0.003871,0.005387,-0.000892,-0.00019,0.000216,0.026548,-0.513915,0.004267,0.211544,-260.673449,0.120703,66.407098
14.3366,0.024057,-0.003992,0.006356,-0.00089,-0.000189,0.00032,0.027168,-0.51387,0.005382,0.287024,-260.673782,0.108561,66.406778
14.3564,0.024419,-0.003394,0.004004,-0.00089,-0.000172,5.6e-05,0.027218,-0.513917,0.005779,0.287024,-260.673782,0.108561,66.406778
14.3766,0.024427,-0.004055,0.00469,-0.000891,-0.000161,-0.000136,0.026459,-0.513391,0.004004,0.212501,-260.673802,0.183084,66.406756
14.3966,0.02463,-0.003779,0.003304,-0.00089,-0.000163,-2.1e-05,0.026786,-0.513991,0.004629,0.212501,-260.673802,0.183084,66.406756
14.4167,0.024193,-0.003748,0.005155,-0.00089,-0.000164,6.1e-05,0.026786,-0.513991,0.004629,0.212501,-260.673802,0.183084,66.406756
14.4366,0.024155,-0.003862,0.004037,-0.000889,-0.000164,0.000119,0.026792,-0.513747,0.005151,0.267169,-260.674105,0.10809,66.406462
14.4566,0.024423,-0.003653,0.005152,-0.000889,-0.000168,0.000142,0.026554,-0.513792,0.0047,0.267169,-260.674105,0.10809,66.406462
14.4767,0.02384,-0.003884,0.006628,-0.000889,-0.000171,0.000158,0.027037,-0.513649,0.005152,0.192171,-260.674265,0.183088,66.406298
14.4972,0.02394,-0.003563,0.004063,-0.00089,-0.000151,-0.000189,0.027203,-0.513853,0.006495,0.192171,-260.674265,0.183088,66.406298
14.5172,0.023941,-0.00378,0.00508,-0.000892,-0.000137,-0.000445,0.027203,-0.513853,0.006495,0.192171,-260.674265,0.183088,66.406298
14.5372,0.024384,-0.003828,0.003239,-0.000893,-0.00013,-0.000634,0.026506,-0.513778,0.005083,0.117155,-260.674509,0.258105,66.406044
14.5573,0.024094,-0.00346,0.004438,-0.000894,-0.00015,-0.000296,0.026312,-0.513798,0.004332,0.117155,-260.674509,0.258105,66.406044
14.5768,0.0242,-0.003809,0.003996,-0.000893,-0.000163,-5.8e-05,0.026357,-0.513455,0.004438,0.192152,-260.674509,0.183107,66.406044
14.597,0.024044,-0.003898,0.004501,-0.000892,-0.000175,0.00019,0.026249,-0.513773,0.004035,0.192152,-260.674509,0.183107,66.406044
14.6169,0.024364,-0.003751,0.006325,-0.000891,-0.000183,0.000364,0.026249,-0.513773,0.004035,0.192152,-260.674509,0.183107,66.406044
14.637,0.024025,-0.00396,0.006444,-0.000889,-0.000187,0.000487,0.027554,-0.513748,0.006323,0.21884,-260.674863,0.141622,66.405694
14.6565,0.024169,-0.003811,0.00619,-0.00089,-0.000163,7.5e-05,0.027448,-0.513833,0.006374,0.21884,-260.674863,0.141622,66.405694
14.6766,0.024348,-0.004023,0.004897,-0.000891,-0.000148,-0.00023,0.027325,-0.513801,0.00619,0.143327,-260.67487,0.217135,66.405687
14.6968,0.024087,-0.003779,0.004978,-0.000891,-0.00015,-0.000175,0.02688,-0.514002,0.00499,0.143327,-260.67487,0.217135,66.405687
14.717,0.024145,-0.004094,0.004081,-0.000891,-0.000151,-0.000136,0.02688,-0.514002,0.00499,0.143327,-260.67487,0.217135,66.405687
14.7367,0.024253,-0.003799,0.00553,-0.00089,-0.000152,-0.000108,0.026215,-0.514092,0.004081,0.218353,-260.674986,0.14211,66.405576
14.7571,0.02379,-0.003904,0.004044,-0.00089,-0.000155,-1.2e-05,0.026564,-0.51397,0.004673,0.218353,-260.674986,0.14211,66.405576
14.777,0.024056,-0.003988,0.005502,-0.000889,-0.000156,5.6e-05,0.025825,-0.513904,0.00404,0.239946,-260.675338,0.096188,66.405233
14.7971,0.024254,-0.00399,0.004625,-0.000889,-0.000149,-5.4e-05,0.026766,-0.513974,0.005368,0.239946,-260.675338,0.096188,66.405233
14.817,0.023684,-0.003942,0.004215,-0.000889,-0.000145,-0.000134,0.026766,-0.513974,0.005368,0.239946,-260.675338,0.096188,66.405233
14.8365,0.023879,-0.004034,0.005019,-0.00089,-0.000142,-0.000192,0.025808,-0.513942,0.004215,0.164945,-260.675583,0.17119,66.404985
14.8571,0.023994,-0.003606,0.006405,-0.000889,-0.000145,-3.9e-05,0.026063,-0.513977,0.004544,0.164945,-260.675583,0.17119,66.404985
14.8766,0.023937,-0.004112,0.004966,-0.000887,-0.000146,6.9e-05,0.027244,-0.513599,0.006403,0.239931,-260.675796,0.096203,66.40478
14.897,0.024115,-0.003885,0.004172,-0.000887,-0.00014,1.4e-05,0.026539,-0.51406,0.005096,0.239931,-260.675796,0.096203,66.40478
14.917,0.024196,-0.003435,0.004829,-0.000886,-0.000136,-2.5e-05,0.026539,-0.51406,0.005096,0.239931,-260.675796,0.096203,66.40478
14.9367,0.023937,-0.004157,0.005083,-0.000886,-0.000132,-5.3e-05,0.026635,-0.513433,0.004829,0.164914,-260.676028,0.17122,66.404545
14.957,0.024007,-0.003834,0.005511,-0.000888,-0.000142,-3.9e-05,0.026586,-0.51375,0.004941,0.164914,-260.676028,0.17122,66.404545
14.9764,0.024063,-0.003732,0.004192,-0.000889,-0.00015,-2.8e-05,0.026791,-0.51383,0.00551,0.184036,-260.676363,0.112383,66.404213
14.9965,0.023788,-0.004096,0.005096,-0.000889,-0.000162,0.000137,0.02625,-0.513736,0.004303,0.184036,-260.676363,0.112383,66.404213
15.0167,0.023646,-0.004076,0.004964,-0.000889,-0.00017,0.000254,0.02625,-0.513736,0.004303,0.184036,-260.676363,0.112383,66.404213
