mach0312/omni-docking-bench/src/icros_test_setup/results/MPPI_sample/timeseries/trial_084.csv
t,x,y,yaw,vx,vy,wz,bl_x,bl_y,bl_yaw,front_steering_joint,front_wheel_joint,rear_steering_joint,rear_wheel_joint
0.0,-0.001135,0.019727,0.030812,0.0,0.0,0.0,0.016372,-0.490197,0.034724,0.974913,-260.781221,0.177388,66.206332
0.0005,-0.001208,0.01975,0.031504,0.0,0.0,0.0,0.015846,-0.48997,0.033425,0.974913,-260.781221,0.177388,66.206332
0.0008,-0.001045,0.019585,0.033512,9.7e-05,2.5e-05,0.0,0.015846,-0.48997,0.033425,0.974913,-260.781221,0.177388,66.206332
0.0011,-0.001207,0.019831,0.03224,9.7e-05,2.5e-05,0.0,0.014633,-0.489829,0.03149,0.974913,-260.781221,0.177388,66.206332
0.0014,-0.00124,0.020047,0.031626,9.7e-05,2.5e-05,0.0,0.014633,-0.489829,0.03149,0.974913,-260.781221,0.177388,66.206332
0.0017,-0.001156,0.019823,0.032153,9.7e-05,2.5e-05,0.0,0.01493,-0.489882,0.03209,0.899941,-260.781221,0.25236,66.206332
0.002,-0.000993,0.019813,0.031592,9.7e-05,2.5e-05,0.0,0.01493,-0.489882,0.03209,0.824901,-260.781221,0.253795,66.206332
0.0023,-0.001099,0.019639,0.034207,9.7e-05,2.5e-05,0.0,0.01493,-0.489882,0.03209,0.824901,-260.781221,0.253795,66.206332
0.0025,-0.001038,0.019427,0.031729,9.7e-05,2.5e-05,0.0,0.016765,-0.489636,0.034416,0.824901,-260.781221,0.253795,66.206332
0.0028,-0.001088,0.019554,0.031071,9.7e-05,2.5e-05,0.0,0.015863,-0.489799,0.032931,0.824901,-260.781221,0.253795,66.206332
0.0088,-0.001558,0.019907,0.03454,0.0,0.0,0.0,0.014756,-0.4902,0.031071,0.824901,-260.781221,0.253795,66.206332
0.0286,-0.001418,0.019447,0.031929,0.0,0.0,0.0,0.015291,-0.49003,0.032501,0.824901,-260.781221,0.253795,66.206332
0.0487,-0.001048,0.020102,0.034001,0.0,0.0,0.0,0.014863,-0.490293,0.031929,0.749942,-260.781221,0.253795,66.206332
0.0686,-0.000826,0.019697,0.03315,0.0,0.0,0.0,0.01616,-0.489666,0.033814,0.749942,-260.781221,0.253795,66.206332
0.0888,-0.001202,0.019357,0.032697,0.0,0.0,0.0,0.01616,-0.489666,0.033814,0.749942,-260.781221,0.253795,66.206332
0.1086,-0.000924,0.019843,0.033198,0.0,0.0,0.0,0.01547,-0.49037,0.032697,0.749942,-260.781221,0.253795,66.206332
0.1285,-0.001231,0.019608,0.032679,-0.003089,-0.003173,-0.013089,0.01569,-0.490168,0.032903,0.749942,-260.781221,0.253795,66.206332
0.1484,-0.001427,0.019821,0.032698,-0.003286,-0.003395,-0.013896,0.015432,-0.49012,0.032679,0.749942,-260.781221,0.253795,66.206332
0.1686,-0.001243,0.019943,0.033577,-0.003436,-0.003597,-0.01455,0.015262,-0.489924,0.032697,0.749942,-260.781221,0.253795,66.206332
0.1888,-0.001409,0.020164,0.032636,-0.003558,-0.003768,-0.015078,0.015262,-0.489924,0.032697,0.749942,-260.781221,0.253795,66.206332
0.2087,-0.000931,0.01959,0.031765,-0.003558,-0.003768,-0.015078,0.015233,-0.489564,0.032636,0.82494,-260.781221,0.178797,66.206332
0.2286,-0.001217,0.019489,0.033085,-0.003734,-0.004043,-0.015845,0.015247,-0.489806,0.032277,0.82494,-260.781221,0.178797,66.206332
0.2488,-0.001347,0.019974,0.032177,-0.003799,-0.00415,-0.016119,0.015654,-0.490231,0.033085,0.899958,-260.781221,0.103779,66.206332
0.2689,-0.001301,0.019866,0.031279,-0.003849,-0.004245,-0.016337,0.015115,-0.489805,0.03226,0.899958,-260.781221,0.103779,66.206332
0.2887,-0.001463,0.01994,0.031722,-0.003889,-0.004325,-0.016511,0.015115,-0.489805,0.03226,0.899958,-260.781221,0.103779,66.206332
0.3085,-0.001192,0.019868,0.031476,-0.003889,-0.004325,-0.016511,0.014713,-0.489803,0.031722,0.974853,-260.781221,0.028885,66.206332
0.3283,-0.001114,0.019801,0.031828,-0.003933,-0.004462,-0.016761,0.014772,-0.489834,0.031622,0.974853,-260.781221,0.028885,66.206332
0.3489,-0.000871,0.02026,0.032783,-0.003949,-0.004516,-0.016851,0.015116,-0.489941,0.031828,1.049841,-260.781221,-0.046103,66.206332
0.3685,-0.001212,0.019548,0.032087,-0.00398,-0.004543,-0.01692,0.015782,-0.489507,0.0327,1.049841,-260.781221,-0.046103,66.206332
0.3883,-0.00133,0.01991,0.033247,-0.004005,-0.004567,-0.016976,0.015782,-0.489507,0.0327,1.049841,-260.781221,-0.046103,66.206332
0.4088,-0.001149,0.019781,0.032712,-0.004005,-0.004567,-0.016976,0.015623,-0.489808,0.033247,1.124923,-260.781221,-0.121186,66.206332
0.4286,-0.001146,0.019877,0.032862,-0.004045,-0.004601,-0.017059,0.015584,-0.489867,0.03302,1.124923,-260.781221,-0.121186,66.206332
0.4483,-0.001184,0.019678,0.031245,-0.00406,-0.004614,-0.017089,0.01561,-0.489847,0.032861,1.200301,-260.781222,-0.196564,66.206332
0.4683,-0.000906,0.020021,0.03334,-0.004056,-0.00464,-0.017116,0.014821,-0.490054,0.031382,1.200301,-260.781222,-0.196564,66.206332
0.4883,-0.001163,0.019842,0.033304,-0.004053,-0.004662,-0.017139,0.014821,-0.490054,0.031382,1.200301,-260.781222,-0.196564,66.206332
0.5085,-0.00147,0.019904,0.031769,-0.004053,-0.004662,-0.017139,0.015819,-0.489875,0.033304,1.274949,-260.781222,-0.271212,66.206331
0.5284,-0.001183,0.019543,0.032488,-0.004065,-0.004678,-0.01717,0.015369,-0.48986,0.03267,1.274949,-260.781222,-0.271212,66.206331
0.5484,-0.001279,0.019856,0.032537,-0.004069,-0.004684,-0.017182,0.015383,-0.490188,0.032488,1.309075,-260.781225,-0.346208,66.206331
0.5685,-0.001133,0.019769,0.034111,-0.004072,-0.00469,-0.017192,0.015318,-0.489901,0.032533,1.309075,-260.781225,-0.346208,66.206331
0.5887,-0.001293,0.019545,0.03396,-0.004075,-0.004695,-0.0172,0.015318,-0.489901,0.032533,1.309075,-260.781225,-0.346208,66.206331
0.6084,-0.001246,0.019832,0.033972,-0.004075,-0.004695,-0.0172,0.016023,-0.490162,0.033959,1.308837,-260.781235,-0.421207,66.206326
0.6288,-0.001297,0.019384,0.031641,-0.004114,-0.004668,-0.017209,0.016045,-0.490043,0.033964,1.308837,-260.781235,-0.421207,66.206326
0.6489,-0.001275,0.020025,0.032199,-0.004129,-0.004658,-0.017213,0.014836,-0.490362,0.031637,1.308889,-260.781284,-0.496182,66.206304
0.669,-0.001547,0.019942,0.031522,-0.004115,-0.004676,-0.01722,0.015117,-0.489767,0.03215,1.308889,-260.781284,-0.496182,66.206304
0.689,-0.001305,0.019643,0.033208,-0.004103,-0.004691,-0.017226,0.015117,-0.489767,0.03215,1.308889,-260.781284,-0.496182,66.206304
0.7088,-0.001447,0.01961,0.031781,-0.004103,-0.004691,-0.017226,0.015622,-0.490083,0.033188,1.305046,-260.781471,-0.571197,66.206219
0.7288,-0.000856,0.019675,0.032306,-0.004102,-0.004697,-0.017232,0.015271,-0.490104,0.032616,1.305046,-260.781471,-0.571197,66.206219
0.7482,-0.000903,0.01948,0.032158,-0.004101,-0.004699,-0.017234,0.015604,-0.490075,0.032262,1.307332,-260.782015,-0.646239,66.205973
0.7686,-0.000907,0.019578,0.032307,-0.004108,-0.004694,-0.017235,0.015503,-0.490241,0.032165,1.307332,-260.782015,-0.646239,66.205973
0.7884,-0.001106,0.019886,0.032314,-0.004114,-0.004689,-0.017236,0.015503,-0.490241,0.032165,1.307332,-260.782015,-0.646239,66.205973
0.809,-0.001343,0.019179,0.032303,-0.004114,-0.004689,-0.017236,0.015332,-0.489894,0.032173,1.307654,-260.783318,-0.721222,66.205383
0.8289,-0.001047,0.019762,0.032994,-0.00411,-0.004695,-0.01724,0.015244,-0.49017,0.03221,1.307654,-260.783318,-0.721222,66.205383
0.8488,-0.001171,0.019447,0.033692,-0.004108,-0.004698,-0.017241,0.01572,-0.490027,0.032778,1.306742,-260.78589,-0.796171,66.204218
0.8689,-0.000911,0.019445,0.030926,-0.004126,-0.004681,-0.017351,0.015981,-0.490247,0.033602,1.306742,-260.78589,-0.796171,66.204218
0.889,-0.001264,0.019073,0.031821,-0.004141,-0.004668,-0.017436,0.015981,-0.490247,0.033602,1.306742,-260.78589,-0.796171,66.204218
0.9084,-0.001027,0.019548,0.031538,-0.004141,-0.004668,-0.017436,0.014846,-0.490807,0.031353,1.307299,-260.790049,-0.871213,66.202337
0.9283,-0.000962,0.019606,0.029911,-0.004128,-0.004684,-0.017716,0.014918,-0.490574,0.031375,1.307299,-260.790049,-0.871213,66.202337
0.9482,-0.000793,0.01937,0.030957,-0.004123,-0.004691,-0.017815,0.014178,-0.490299,0.029431,1.306785,-260.795553,-0.946244,66.199813
0.9683,-0.001116,0.019248,0.029642,-0.004116,-0.004699,-0.017994,0.014917,-0.490384,0.030802,1.306785,-260.795553,-0.946244,66.199813
0.9884,-0.000965,0.019203,0.0306,-0.004111,-0.004707,-0.018138,0.014917,-0.490384,0.030802,1.306785,-260.795553,-0.946244,66.199813
1.0088,-0.000223,0.019359,0.030131,-0.004111,-0.004707,-0.018138,0.014476,-0.490756,0.02987,1.311957,-260.801848,-0.983171,66.196907
1.029,-0.000368,0.019253,0.03133,-0.004101,-0.004722,-0.018526,0.014725,-0.490639,0.029892,1.311957,-260.801848,-0.983171,66.196907
1.0484,7e-06,0.018725,0.028674,-0.004098,-0.004729,-0.018666,0.015482,-0.49065,0.030754,1.315986,-260.808348,-0.997722,66.193886
1.0688,-0.000164,0.019093,0.028297,-0.004102,-0.004729,-0.018865,0.0147,-0.491036,0.028833,1.315986,-260.808348,-0.997722,66.193886
1.0887,-0.000225,0.0189,0.028356,-0.004105,-0.00473,-0.019026,0.0147,-0.491036,0.028833,1.315986,-260.808348,-0.997722,66.193886
1.1088,-4.2e-05,0.018666,0.027963,-0.004105,-0.00473,-0.019026,0.014069,-0.491096,0.02758,1.321992,-260.814949,-1.019986,66.19078
1.1288,-0.000107,0.018675,0.027584,-0.004086,-0.004756,-0.019406,0.01411,-0.491135,0.027646,1.321992,-260.814949,-1.019986,66.19078
1.1487,0.000329,0.018379,0.026878,-0.004079,-0.004767,-0.019546,0.013833,-0.491285,0.026977,1.324824,-260.82168,-1.033527,66.187577
1.1687,0.000495,0.018213,0.027337,-0.004076,-0.004774,-0.019726,0.014011,-0.491432,0.026857,1.324824,-260.82168,-1.033527,66.187577
1.1883,0.000597,0.018249,0.026831,-0.004073,-0.00478,-0.019874,0.014011,-0.491432,0.026857,1.324824,-260.82168,-1.033527,66.187577
1.2082,0.000845,0.018112,0.025852,-0.004073,-0.00478,-0.019874,0.014115,-0.491769,0.02602,1.331314,-260.828508,-1.053664,66.184302
1.2284,0.001126,0.018123,0.025295,-0.004084,-0.004779,-0.0202,0.014061,-0.491771,0.025857,1.331314,-260.828508,-1.053664,66.184302
1.2484,0.000865,0.017882,0.025697,-0.004088,-0.004779,-0.020322,0.013899,-0.491869,0.024665,1.334525,-260.835444,-1.065204,66.180949
1.2683,0.000945,0.017906,0.024986,-0.004093,-0.004779,-0.020472,0.013955,-0.49195,0.025556,1.334525,-260.835444,-1.065204,66.180949
1.2883,0.001301,0.017937,0.024491,-0.004097,-0.004779,-0.020597,0.013955,-0.49195,0.025556,1.334525,-260.835444,-1.065204,66.180949
1.3084,0.00137,0.017229,0.022935,-0.004097,-0.004779,-0.020597,0.013624,-0.492114,0.023643,1.33732,-260.842498,-1.079078,66.177492
1.3283,0.001003,0.017826,0.024163,-0.004087,-0.004797,-0.020854,0.013375,-0.492353,0.023254,1.33732,-260.842498,-1.079078,66.177492
1.3485,0.001695,0.017438,0.021834,-0.004083,-0.004804,-0.020951,0.013198,-0.49218,0.023508,1.339031,-260.849616,-1.087192,66.173976
1.3684,0.001879,0.017495,0.021091,-0.004066,-0.004823,-0.021059,0.012857,-0.492425,0.021953,1.339031,-260.849616,-1.087192,66.173976
1.3888,0.002101,0.017356,0.021093,-0.004052,-0.004839,-0.021149,0.012857,-0.492425,0.021953,1.339031,-260.849616,-1.087192,66.173976
1.4085,0.001959,0.017435,0.01985,-0.004052,-0.004839,-0.021149,0.012691,-0.492734,0.020218,1.342821,-260.856827,-1.098463,66.170394
1.4286,0.001946,0.016884,0.021244,-0.004012,-0.004879,-0.021317,0.012424,-0.492648,0.019967,1.342821,-260.856827,-1.098463,66.170394
1.4483,0.002234,0.016727,0.020886,-0.003997,-0.004894,-0.021381,0.012653,-0.493158,0.02057,1.346436,-260.864114,-1.105876,66.166778
1.4687,0.002382,0.016649,0.020088,-0.004008,-0.004885,-0.021441,0.012859,-0.493169,0.020826,1.346436,-260.864114,-1.105876,66.166778
1.4887,0.002079,0.016985,0.019559,-0.004019,-0.004878,-0.021491,0.012859,-0.493169,0.020826,1.346436,-260.864114,-1.105876,66.166778
1.5084,0.002662,0.016705,0.019586,-0.004019,-0.004878,-0.021491,0.01189,-0.493126,0.018664,1.351746,-260.871447,-1.115588,66.163154
1.5284,0.002872,0.016348,0.020792,-0.003994,-0.004902,-0.021582,0.012178,-0.493178,0.018934,1.351746,-260.871447,-1.115588,66.163154
1.5486,0.003087,0.016519,0.018566,-0.003985,-0.004911,-0.021617,0.013351,-0.493699,0.020108,1.351186,-260.878842,-1.117434,66.159476
1.569,0.003134,0.016333,0.018103,-0.003996,-0.004902,-0.021649,0.012615,-0.493425,0.01866,1.351186,-260.878842,-1.117434,66.159476
1.5889,0.003207,0.016526,0.019731,-0.004005,-0.004895,-0.021676,0.012615,-0.493425,0.01866,1.351186,-260.878842,-1.117434,66.159476
1.6083,0.003093,0.016094,0.016838,-0.004005,-0.004895,-0.021676,0.013107,-0.493582,0.01883,1.354231,-260.886248,-1.122787,66.155802
1.6285,0.003631,0.016332,0.018414,-0.004024,-0.004882,-0.021724,0.012499,-0.49371,0.017903,1.354231,-260.886248,-1.122787,66.155802
1.6483,0.003816,0.016089,0.016552,-0.004031,-0.004877,-0.021743,0.012897,-0.493739,0.017726,1.35342,-260.893675,-1.123261,66.1521
1.6683,0.003682,0.016155,0.016372,-0.004035,-0.004879,-0.021759,0.012307,-0.49384,0.01662,1.35342,-260.893675,-1.123261,66.1521
1.6884,0.003624,0.015845,0.018559,-0.004039,-0.00488,-0.021773,0.012307,-0.49384,0.01662,1.35342,-260.893675,-1.123261,66.1521
1.7083,0.004166,0.01551,0.014544,-0.004039,-0.00488,-0.021773,0.012923,-0.494274,0.017649,1.352313,-260.901106,-1.123471,66.148377
1.7285,0.004126,0.015713,0.016361,-0.00407,-0.004861,-0.021794,0.012358,-0.494364,0.016279,1.352313,-260.901106,-1.123471,66.148377
1.7484,0.004464,0.015533,0.014999,-0.004083,-0.004854,-0.021802,0.012344,-0.494377,0.015667,1.352152,-260.908569,-1.123413,66.144635
1.7686,0.00422,0.015306,0.01421,-0.004088,-0.00486,-0.021794,0.012127,-0.494414,0.015022,1.352152,-260.908569,-1.123413,66.144635
1.7886,0.004169,0.015549,0.014432,-0.004093,-0.004865,-0.021788,0.012127,-0.494414,0.015022,1.352152,-260.908569,-1.123413,66.144635
1.809,0.004554,0.015349,0.013386,-0.004093,-0.004865,-0.021788,0.011361,-0.494603,0.013521,1.349775,-260.916012,-1.121257,66.14088
1.8287,0.004477,0.015312,0.012238,-0.004062,-0.004924,-0.021654,0.011349,-0.494628,0.01336,1.349775,-260.916012,-1.121257,66.14088
1.8484,0.00496,0.01506,0.01204,-0.004051,-0.004945,-0.021611,0.01059,-0.494806,0.011545,1.349281,-260.923464,-1.119373,66.137127
1.8685,0.004585,0.014988,0.013095,-0.004036,-0.004973,-0.021458,0.01105,-0.494902,0.011964,1.349281,-260.923464,-1.119373,66.137127
1.8883,0.005034,0.014986,0.012742,-0.004024,-0.004996,-0.021345,0.01105,-0.494902,0.011964,1.349281,-260.923464,-1.119373,66.137127
1.9089,0.005594,0.014667,0.010343,-0.004024,-0.004996,-0.021345,0.011367,-0.495181,0.011842,1.351158,-260.930897,-1.114563,66.133451
1.9284,0.005659,0.014313,0.010995,-0.004026,-0.005014,-0.021008,0.011141,-0.495257,0.011117,1.351158,-260.930897,-1.114563,66.133451
1.9482,0.005845,0.014192,0.009705,-0.004029,-0.005019,-0.020905,0.01114,-0.495816,0.010319,1.351238,-260.938281,-1.106799,66.129857
1.9687,0.005614,0.014688,0.008354,-0.004028,-0.005029,-0.020584,0.010818,-0.495794,0.009724,1.351238,-260.938281,-1.106799,66.129857
1.9889,0.005887,0.014599,0.009888,-0.00403,-0.005033,-0.020356,0.010818,-0.495794,0.009724,1.351238,-260.938281,-1.106799,66.129857
2.0089,0.006302,0.014482,0.008287,-0.00403,-0.005033,-0.020356,0.010764,-0.495586,0.009017,1.348057,-260.945548,-1.091323,66.126378
2.0289,0.006304,0.014486,0.00991,-0.004005,-0.005068,-0.019651,0.010648,-0.495576,0.008617,1.348057,-260.945548,-1.091323,66.126378
2.0484,0.006584,0.01406,0.006438,-0.003999,-0.005077,-0.019448,0.011232,-0.495649,0.009267,1.344057,-260.95266,-1.07213,66.123035
2.0697,0.006661,0.013746,0.008317,-0.003961,-0.005112,-0.018727,0.009983,-0.495912,0.006658,1.344057,-260.95266,-1.07213,66.123035
2.0893,0.006342,0.014059,0.007843,-0.003936,-0.005135,-0.018234,0.009983,-0.495912,0.006658,1.344057,-260.95266,-1.07213,66.123035
2.1083,0.006601,0.014031,0.006132,-0.003936,-0.005135,-0.018234,0.010178,-0.496137,0.007035,1.339191,-260.959506,-1.039319,66.119934
2.1283,0.00658,0.0135,0.007606,-0.003914,-0.005154,-0.017637,0.009982,-0.49609,0.006588,1.339191,-260.959506,-1.039319,66.119934
2.1485,0.00718,0.013809,0.008512,-0.003909,-0.005157,-0.017477,0.010339,-0.496644,0.007048,1.333454,-260.965947,-0.990314,66.117173
2.1682,0.007063,0.013723,0.003736,-0.00397,-0.005092,-0.017829,0.011409,-0.496223,0.008352,1.333454,-260.965947,-0.990314,66.117173
2.1882,0.006991,0.013558,0.006239,-0.00402,-0.005042,-0.018089,0.011409,-0.496223,0.008352,1.333454,-260.965947,-0.990314,66.117173
2.2082,0.006908,0.013149,0.006214,-0.00402,-0.005042,-0.018089,0.010014,-0.496644,0.005523,1.32873,-260.972334,-0.954437,66.114524
2.2283,0.00723,0.013804,0.004864,-0.003999,-0.005066,-0.017083,0.010021,-0.496749,0.005723,1.32873,-260.972334,-0.954437,66.114524
2.2489,0.007498,0.012918,0.005287,-0.003996,-0.00507,-0.016804,0.009585,-0.49635,0.004295,1.325932,-260.978893,-0.980913,66.111666
2.2691,0.007419,0.013379,0.005005,-0.004001,-0.005063,-0.016403,0.010133,-0.497017,0.005167,1.325932,-260.978893,-0.980913,66.111666
2.2886,0.007165,0.013114,0.003893,-0.004009,-0.005056,-0.016131,0.010133,-0.497017,0.005167,1.325932,-260.978893,-0.980913,66.111666
2.3091,0.007721,0.012538,0.003352,-0.004009,-0.005056,-0.016131,0.008995,-0.49708,0.003238,1.31584,-260.984794,-0.914948,66.109225
2.3289,0.007567,0.012739,0.002401,-0.003924,-0.005113,-0.01435,0.009155,-0.497258,0.003209,1.31584,-260.984794,-0.914948,66.109225
2.3484,0.007882,0.012492,0.003404,-0.003901,-0.005125,-0.013859,0.008667,-0.497417,0.0019,1.308101,-260.990804,-0.874575,66.106791
2.3684,0.007866,0.012513,0.003876,-0.003909,-0.005112,-0.013546,0.009526,-0.497506,0.003242,1.308101,-260.990804,-0.874575,66.106791
2.3885,0.008287,0.012737,0.003529,-0.003919,-0.005099,-0.013336,0.009526,-0.497506,0.003242,1.308101,-260.990804,-0.874575,66.106791
2.4083,0.008124,0.012281,0.002224,-0.003919,-0.005099,-0.013336,0.009988,-0.497392,0.003152,1.291268,-260.99441,-0.799566,66.105482
2.4284,0.007929,0.012822,0.00202,-0.003944,-0.00507,-0.012659,0.009677,-0.497541,0.002727,1.291268,-260.99441,-0.799566,66.105482
2.4484,0.00804,0.01213,0.002236,-0.003956,-0.005057,-0.01247,0.00887,-0.497293,0.001704,1.283105,-260.998459,-0.724528,66.104027
2.4685,0.008039,0.012129,0.002535,-0.003948,-0.005061,-0.012046,0.009148,-0.497823,0.002172,1.283105,-260.998459,-0.724528,66.104027
2.4884,0.008573,0.012135,0.000939,-0.003944,-0.005061,-0.01175,0.009148,-0.497823,0.002172,1.283105,-260.998459,-0.724528,66.104027
2.5083,0.008498,0.011885,0.001921,-0.003944,-0.005061,-0.01175,0.008941,-0.498007,0.000571,1.268244,-261.002139,-0.649573,66.102721
2.5285,0.008109,0.0119,0.001217,-0.003937,-0.005061,-0.010361,0.009148,-0.498068,0.001082,1.268244,-261.002139,-0.649573,66.102721
2.5486,0.008648,0.011783,0.001629,-0.003939,-0.005056,-0.009952,0.008648,-0.498204,0.00096,1.258967,-261.005589,-0.574547,66.10152
2.5684,0.008533,0.011787,0.000651,-0.003966,-0.005028,-0.009939,0.009399,-0.498221,0.001555,1.258967,-261.005589,-0.574547,66.10152
2.5887,0.008377,0.011521,0.002173,-0.003989,-0.005006,-0.009928,0.009399,-0.498221,0.001555,1.258967,-261.005589,-0.574547,66.10152
2.6087,0.008317,0.011454,0.00181,-0.003989,-0.005006,-0.009928,0.009456,-0.498513,0.00209,1.230722,-261.006464,-0.499578,66.101218
2.6286,0.008473,0.011657,0.000635,-0.004049,-0.004952,-0.010345,0.009364,-0.49853,0.001965,1.230722,-261.006464,-0.499578,66.101218
2.6483,0.008085,0.012015,0.002318,-0.00407,-0.004934,-0.010464,0.008748,-0.498402,0.000505,1.224957,-261.008312,-0.424576,66.10057
2.6688,0.008159,0.011639,0.001477,-0.004067,-0.00494,-0.010674,0.009218,-0.498024,0.002147,1.224957,-261.008312,-0.424576,66.10057
2.6888,0.008308,0.011577,0.000603,-0.004064,-0.004945,-0.010821,0.009218,-0.498024,0.002147,1.224957,-261.008312,-0.424576,66.10057
2.7085,0.00853,0.011703,-0.000199,-0.004064,-0.004945,-0.010821,0.008462,-0.498609,0.000208,1.225786,-261.012653,-0.349574,66.099011
2.7287,0.008349,0.011684,-0.000858,-0.003976,-0.005021,-0.008991,0.008431,-0.498502,-6e-06,1.225786,-261.012653,-0.349574,66.099011
2.7484,0.008367,0.011258,0.001055,-0.003948,-0.005041,-0.008429,0.007786,-0.498469,-0.001194,1.232593,-261.017438,-0.388545,66.097295
2.7684,0.00895,0.010946,0.000935,-0.003964,-0.00502,-0.0085,0.008807,-0.498727,0.000854,1.232593,-261.017438,-0.388545,66.097295
2.7886,0.008487,0.011688,0.000978,-0.003977,-0.005004,-0.008546,0.008807,-0.498727,0.000854,1.232593,-261.017438,-0.388545,66.097295
2.8086,0.008496,0.011266,-0.001727,-0.003977,-0.005004,-0.008546,0.008967,-0.498333,0.000933,1.201157,-261.017944,-0.313433,66.097112
2.829,0.008292,0.011319,0.000388,-0.003926,-0.005039,-0.007694,0.008416,-0.498498,-0.000154,1.201157,-261.017944,-0.313433,66.097112
2.8486,0.008857,0.011029,-0.000483,-0.003909,-0.005048,-0.007433,0.008448,-0.49873,0.000291,1.199781,-261.019421,-0.238542,66.096576
2.8689,0.008606,0.011206,-0.000285,-0.003918,-0.005035,-0.007123,0.008593,-0.498951,-0.000418,1.199781,-261.019421,-0.238542,66.096576
2.8885,0.008235,0.011099,8.5e-05,-0.003926,-0.005022,-0.006897,0.008593,-0.498951,-0.000418,1.199781,-261.019421,-0.238542,66.096576
2.9085,0.008602,0.011343,0.000605,-0.003926,-0.005022,-0.006897,0.00826,-0.498921,4.7e-05,1.183613,-261.019871,-0.163539,66.096405
2.9283,0.00875,0.011347,0.000778,-0.003945,-0.005,-0.007264,0.008526,-0.498815,0.000272,1.183613,-261.019871,-0.163539,66.096405
2.9484,0.008593,0.01136,-0.000779,-0.00395,-0.004994,-0.007367,0.009133,-0.498669,0.000751,1.168791,-261.020312,-0.08854,66.096229
2.9687,0.008266,0.010916,-0.000576,-0.003924,-0.005014,-0.006979,0.008284,-0.498644,-0.000635,1.168791,-261.020312,-0.08854,66.096229
2.989,0.008412,0.011241,-0.001245,-0.003905,-0.005029,-0.006697,0.008284,-0.498644,-0.000635,1.168791,-261.020312,-0.08854,66.096229
3.0088,0.008584,0.010989,-0.000175,-0.003905,-0.005029,-0.006697,0.007697,-0.498853,-0.001402,1.176489,-261.022292,-0.01363,66.095462
3.0284,0.00882,0.010837,-0.001058,-0.003867,-0.005055,-0.006129,0.008017,-0.498929,-0.000913,1.176489,-261.022292,-0.01363,66.095462
3.0488,0.008532,0.010505,-0.001614,-0.003854,-0.005062,-0.005955,0.008234,-0.499217,-0.001142,1.166212,-261.023736,0.06148,66.094877
3.0687,0.00853,0.010818,-0.00103,-0.003844,-0.005068,-0.005558,0.00776,-0.499469,-0.00157,1.166212,-261.023736,0.06148,66.094877
3.0887,0.008672,0.010995,-0.001412,-0.003837,-0.005071,-0.005269,0.00776,-0.499469,-0.00157,1.166212,-261.023736,0.06148,66.094877
3.1086,0.008472,0.010908,-0.001795,-0.003837,-0.005071,-0.005269,0.007911,-0.499052,-0.001482,1.153743,-261.024683,0.136374,66.094468
3.1285,0.008673,0.010769,-0.000881,-0.003804,-0.005094,-0.004883,0.007761,-0.499074,-0.001618,1.153743,-261.024683,0.136374,66.094468
3.1485,0.008632,0.01116,-0.000536,-0.003793,-0.0051,-0.004766,0.008198,-0.49926,-0.000919,1.137265,-261.025419,0.211523,66.094125
3.1683,0.008246,0.010778,-0.002938,-0.003821,-0.005075,-0.005165,0.008343,-0.498878,-0.000571,1.137265,-261.025419,0.211523,66.094125
3.1887,0.008557,0.010963,-0.001769,-0.003841,-0.005057,-0.005442,0.008343,-0.498878,-0.000571,1.137265,-261.025419,0.211523,66.094125
3.2086,0.008502,0.010727,-0.000172,-0.003841,-0.005057,-0.005442,0.007621,-0.499076,-0.001816,1.128591,-261.026145,0.286521,66.093766
3.2283,0.008336,0.011044,-0.00284,-0.003837,-0.005057,-0.005305,0.00794,-0.49916,-0.001152,1.128591,-261.026145,0.286521,66.093766
3.2485,0.008154,0.010427,-0.000658,-0.003836,-0.005056,-0.005261,0.006796,-0.499069,-0.002972,1.141004,-261.028863,0.361478,66.092524
3.2686,0.008432,0.010628,-0.001617,-0.003841,-0.005049,-0.005368,0.007724,-0.499534,-0.000868,1.141004,-261.028863,0.361478,66.092524
3.2884,0.008453,0.010304,-0.001423,-0.003844,-0.005044,-0.00544,0.007724,-0.499534,-0.000868,1.141004,-261.028863,0.361478,66.092524
3.3086,0.00781,0.010264,-0.001349,-0.003844,-0.005044,-0.00544,0.007584,-0.499882,-0.001619,1.136489,-261.032094,0.436451,66.091016
3.3286,0.008119,0.010628,-0.000353,-0.003822,-0.00506,-0.005013,0.00738,-0.499844,-0.001532,1.136489,-261.032094,0.436451,66.091016
3.3486,0.008612,0.010258,-0.00135,-0.003815,-0.005063,-0.004886,0.007816,-0.499532,-0.000526,1.140079,-261.035766,0.42105,66.089336
3.3685,0.008731,0.010469,-0.002793,-0.003838,-0.005043,-0.004895,0.007908,-0.499731,-0.001286,1.140079,-261.035766,0.42105,66.089336
3.3885,0.008314,0.010349,-0.001034,-0.003856,-0.005026,-0.0049,0.007908,-0.499731,-0.001286,1.140079,-261.035766,0.42105,66.089336
3.4084,0.008234,0.009777,-0.000587,-0.003856,-0.005026,-0.0049,0.007642,-0.499842,-0.001219,1.128084,-261.038987,0.496142,66.087764
3.4284,0.008143,0.010036,-0.003433,-0.003893,-0.004991,-0.005137,0.007745,-0.50002,-0.000982,1.128084,-261.038987,0.496142,66.087764
3.4482,0.008436,0.009537,-0.002229,-0.003906,-0.004979,-0.005206,0.00627,-0.50012,-0.003589,1.122612,-261.042538,0.485327,66.086025
3.4684,0.008012,0.009211,-0.001133,-0.003889,-0.004995,-0.004724,0.0072,-0.500439,-0.00236,1.122612,-261.042538,0.485327,66.086025
3.4893,0.008172,0.009549,-0.001356,-0.003878,-0.005004,-0.004377,0.0072,-0.500439,-0.00236,1.122612,-261.042538,0.485327,66.086025
3.5086,0.008135,0.009554,-0.002387,-0.003878,-0.005004,-0.004377,0.007323,-0.50065,-0.001565,1.124329,-261.045993,0.431719,66.084382
3.5286,0.008392,0.009801,-0.001761,-0.003877,-0.005,-0.004207,0.007142,-0.50059,-0.00192,1.124329,-261.045993,0.431719,66.084382
3.5483,0.007966,0.009269,-0.003813,-0.003877,-0.004998,-0.004157,0.007391,-0.500327,-0.001878,1.103014,-261.048811,0.506718,66.0829
3.5683,0.008152,0.009265,-0.001587,-0.003805,-0.005056,-0.003623,0.006139,-0.500698,-0.003646,1.103014,-261.048811,0.506718,66.0829
3.5884,0.008437,0.009329,-0.002571,-0.003748,-0.0051,-0.003231,0.006139,-0.500698,-0.003646,1.103014,-261.048811,0.506718,66.0829
3.6083,0.008177,0.009221,-0.003259,-0.003748,-0.0051,-0.003231,0.006972,-0.500866,-0.002736,1.095725,-261.052022,0.565244,66.08116
3.6283,0.007879,0.009035,-0.001977,-0.003762,-0.00508,-0.00304,0.006766,-0.500852,-0.002971,1.095725,-261.052022,0.565244,66.08116
3.6485,0.007954,0.008788,-0.002882,-0.003768,-0.005072,-0.002983,0.006777,-0.501084,-0.002059,1.083511,-261.054459,0.640358,66.079675
3.6688,0.007687,0.009258,-0.002358,-0.003772,-0.005062,-0.002989,0.006505,-0.501205,-0.002815,1.083511,-261.054459,0.640358,66.079675
3.6885,0.007781,0.008741,-0.003234,-0.003776,-0.005053,-0.002994,0.006505,-0.501205,-0.002815,1.083511,-261.054459,0.640358,66.079675
3.7088,0.007778,0.008638,-0.00256,-0.003776,-0.005053,-0.002994,0.005987,-0.501451,-0.003348,1.070575,-261.057343,0.711773,66.077848
3.7284,0.00745,0.00888,-0.003108,-0.003754,-0.005059,-0.00288,0.006166,-0.501437,-0.003043,1.070575,-261.057343,0.711773,66.077848
3.7487,0.00804,0.007903,-0.004819,-0.003747,-0.00506,-0.002846,0.005744,-0.501278,-0.003204,1.068968,-261.060487,0.706855,66.075859
3.7684,0.007654,0.007926,-0.003247,-0.003714,-0.005076,-0.002428,0.00559,-0.502025,-0.004677,1.068968,-261.060487,0.706855,66.075859
3.7887,0.007571,0.008669,-0.003499,-0.00369,-0.005086,-0.002119,0.00559,-0.502025,-0.004677,1.068968,-261.060487,0.706855,66.075859
3.8085,0.007835,0.007739,-0.002579,-0.00369,-0.005086,-0.002119,0.00563,-0.501537,-0.003617,1.067063,-261.063573,0.72529,66.073869
3.8285,0.007176,0.008073,-0.003735,-0.003715,-0.005051,-0.002364,0.005976,-0.501857,-0.003206,1.067063,-261.063573,0.72529,66.073869
3.8486,0.00761,0.00778,-0.003483,-0.003723,-0.00504,-0.002435,0.005163,-0.50207,-0.003797,1.046421,-261.066256,0.799036,66.071942
3.8687,0.007147,0.007693,-0.003056,-0.003728,-0.005028,-0.002394,0.00577,-0.502211,-0.003513,1.046421,-261.066256,0.799036,66.071942
3.8883,0.007216,0.007412,-0.00361,-0.003733,-0.005018,-0.002363,0.00577,-0.502211,-0.003513,1.046421,-261.066256,0.799036,66.071942
3.9085,0.007465,0.007779,-0.003562,-0.003733,-0.005018,-0.002363,0.005222,-0.50279,-0.003709,1.052406,-261.069191,0.762005,66.069932
3.9288,0.006973,0.007568,-0.004346,-0.003711,-0.00501,-0.002254,0.005379,-0.50258,-0.00366,1.052406,-261.069191,0.762005,66.069932
3.9483,0.007199,0.007663,-0.002998,-0.003704,-0.005006,-0.00222,0.004637,-0.502586,-0.004421,1.046958,-261.072178,0.763841,66.067863
3.9689,0.007238,0.007078,-0.003717,-0.003708,-0.004998,-0.002353,0.005573,-0.502365,-0.003128,1.046958,-261.072178,0.763841,66.067863
3.9887,0.007297,0.007614,-0.003221,-0.003711,-0.004992,-0.002446,0.005573,-0.502365,-0.003128,1.046958,-261.072178,0.763841,66.067863
4.0083,0.007271,0.00712,-0.002019,-0.003711,-0.004992,-0.002446,0.005498,-0.502592,-0.003314,1.043619,-261.075113,0.77814,66.06579
4.0284,0.007329,0.00687,-0.005558,-0.003783,-0.004916,-0.002727,0.005783,-0.502733,-0.002797,1.043619,-261.075113,0.77814,66.06579
4.0488,0.006924,0.006948,-0.003834,-0.003808,-0.004892,-0.002806,0.004377,-0.503279,-0.005635,1.051082,-261.078075,0.755807,66.063768
4.0682,0.007089,0.006917,-0.005103,-0.003759,-0.004918,-0.002529,0.004909,-0.503077,-0.004001,1.051082,-261.078075,0.755807,66.063768
4.0886,0.007133,0.006644,-0.004099,-0.00372,-0.004936,-0.002327,0.004909,-0.503077,-0.004001,1.051082,-261.078075,0.755807,66.063768
4.1083,0.006847,0.006735,-0.003772,-0.00372,-0.004936,-0.002327,0.004891,-0.503544,-0.00421,1.04782,-261.080948,0.695457,66.061899
4.1286,0.006938,0.006755,-0.003336,-0.003698,-0.004914,-0.002044,0.004887,-0.503451,-0.004045,1.04782,-261.080948,0.695457,66.061899
4.1488,0.007143,0.006042,-0.004165,-0.003691,-0.004904,-0.001956,0.005124,-0.503389,-0.003406,1.041353,-261.083723,0.757059,66.059971
4.1684,0.006771,0.006852,-0.003396,-0.003724,-0.004848,-0.001869,0.005022,-0.503911,-0.004101,1.041353,-261.083723,0.757059,66.059971
4.1885,0.006884,0.006222,-0.003124,-0.003752,-0.004803,-0.001806,0.005022,-0.503911,-0.004101,1.041353,-261.083723,0.757059,66.059971
4.2084,0.006558,0.005718,-0.005566,-0.003752,-0.004803,-0.001806,0.005139,-0.503976,-0.003204,1.026532,-261.086522,0.787783,66.057917
4.2284,0.006551,0.006059,-0.0037,-0.003717,-0.004768,-0.001693,0.004539,-0.504122,-0.004181,1.026532,-261.086522,0.787783,66.057917
4.2486,0.006542,0.00557,-0.004275,-0.003705,-0.004754,-0.001657,0.004545,-0.504089,-0.003757,1.004887,-261.089292,0.778555,66.05583
4.2688,0.006499,0.00602,-0.003467,-0.003691,-0.004728,-0.001615,0.004372,-0.504403,-0.004231,1.004887,-261.089292,0.778555,66.05583
4.2886,0.006615,0.005868,-0.004427,-0.003679,-0.004708,-0.001583,0.004372,-0.504403,-0.004231,1.004887,-261.089292,0.778555,66.05583
4.3087,0.006124,0.006051,-0.00389,-0.003679,-0.004708,-0.001583,0.004202,-0.504325,-0.004496,0.999684,-261.092027,0.790303,66.05373
4.3286,0.006728,0.005943,-0.004367,-0.003594,-0.004739,-0.001544,0.004159,-0.504193,-0.004257,0.999684,-261.092027,0.790303,66.05373
4.3485,0.006071,0.005177,-0.004494,-0.003564,-0.004749,-0.00153,0.004383,-0.504201,-0.004418,0.995556,-261.094737,0.793647,66.051627
4.3684,0.006169,0.005374,-0.004079,-0.003522,-0.004726,-0.001455,0.003825,-0.504773,-0.00449,0.995556,-261.094737,0.793647,66.051627
4.3885,0.006115,0.005267,-0.004261,-0.00349,-0.004707,-0.001399,0.003825,-0.504773,-0.00449,0.995556,-261.094737,0.793647,66.051627
4.4089,0.00575,0.00496,-0.005173,-0.00349,-0.004707,-0.001399,0.003795,-0.504923,-0.004324,1.01074,-261.097376,0.81934,66.049573
4.4284,0.00614,0.004921,-0.004662,-0.003371,-0.004678,-0.001248,0.003501,-0.50499,-0.004675,1.01074,-261.097376,0.81934,66.049573
4.4482,0.006067,0.004941,-0.005105,-0.003331,-0.004666,-0.001199,0.003651,-0.505222,-0.004706,1.010372,-261.099992,0.834784,66.047502
4.4684,0.006053,0.005104,-0.004421,-0.003298,-0.004651,-0.001074,0.003474,-0.505075,-0.005072,1.010372,-261.099992,0.834784,66.047502
4.4888,0.006048,0.004987,-0.005771,-0.003273,-0.004638,-0.000981,0.003474,-0.505075,-0.005072,1.010372,-261.099992,0.834784,66.047502
4.509,0.005839,0.00459,-0.004359,-0.003273,-0.004638,-0.000981,0.002966,-0.505196,-0.00582,1.017947,-261.102486,0.868183,66.045476
4.5283,0.005559,0.00459,-0.003795,-0.003178,-0.0046,-0.000799,0.003215,-0.505303,-0.005231,1.017947,-261.102486,0.868183,66.045476
4.5482,0.005463,0.004773,-0.004308,-0.003146,-0.004586,-0.000741,0.00352,-0.505552,-0.003826,1.012145,-261.104937,0.889695,66.043413
4.5684,0.005869,0.004533,-0.004566,-0.003139,-0.004567,-0.000924,0.003283,-0.505258,-0.004268,1.012145,-261.104937,0.889695,66.043413
4.5883,0.005573,0.004468,-0.005242,-0.003132,-0.004554,-0.001052,0.003283,-0.505258,-0.004268,1.012145,-261.104937,0.889695,66.043413
4.6084,0.005429,0.004325,-0.00328,-0.003132,-0.004554,-0.001052,0.002769,-0.505713,-0.005272,1.012586,-261.107274,0.92018,66.041368
4.6283,0.005757,0.004216,-0.005803,-0.003116,-0.004442,-0.001097,0.003154,-0.505718,-0.004469,1.012586,-261.107274,0.92018,66.041368
4.6484,0.005842,0.0042,-0.003748,-0.003112,-0.004405,-0.001107,0.002698,-0.505918,-0.005836,1.028349,-261.109668,0.89562,66.039391
4.6686,0.00502,0.004347,-0.004678,-0.003229,-0.004305,-0.001241,0.003813,-0.505815,-0.00394,1.028349,-261.109668,0.89562,66.039391
4.6886,0.005127,0.004033,-0.004039,-0.003322,-0.004231,-0.001335,0.003813,-0.505815,-0.00394,1.028349,-261.109668,0.89562,66.039391
4.7087,0.005243,0.004123,-0.003093,-0.003322,-0.004231,-0.001335,0.002936,-0.506147,-0.004085,1.021304,-261.112038,0.875367,66.03746
4.7286,0.004901,0.003973,-0.004446,-0.003291,-0.004139,-0.001564,0.003212,-0.506059,-0.003695,1.021304,-261.112038,0.875367,66.03746
4.7485,0.004743,0.003739,-0.005408,-0.003281,-0.00411,-0.001627,0.002539,-0.506143,-0.004484,0.98862,-261.114209,0.80025,66.035747
4.769,0.004862,0.00404,-0.00287,-0.002995,-0.004131,-0.001326,0.002024,-0.50625,-0.005336,0.98862,-261.114209,0.80025,66.035747
4.7883,0.005232,0.003834,-0.004444,-0.002781,-0.004148,-0.001096,0.002024,-0.50625,-0.005336,0.98862,-261.114209,0.80025,66.035747
4.8085,0.00467,0.003323,-0.006375,-0.002781,-0.004148,-0.001096,0.002832,-0.506327,-0.00451,0.999392,-261.116562,0.759602,66.033993
4.8287,0.00512,0.003882,-0.004406,-0.002611,-0.004076,-0.000783,0.002238,-0.506485,-0.005281,0.999392,-261.116562,0.759602,66.033993
4.8489,0.00478,0.00314,-0.005064,-0.002558,-0.004052,-0.000681,0.002807,-0.506205,-0.004435,1.047271,-261.118149,0.834386,66.032721
4.8687,0.005051,0.003202,-0.004685,-0.002534,-0.003965,-0.000655,0.002247,-0.506802,-0.005011,1.047271,-261.118149,0.834386,66.032721
4.8888,0.005111,0.003384,-0.005109,-0.002518,-0.0039,-0.000633,0.002247,-0.506802,-0.005011,1.047271,-261.118149,0.834386,66.032721
4.9088,0.004855,0.003432,-0.006127,-0.002518,-0.0039,-0.000633,0.002418,-0.50674,-0.005135,1.050691,-261.119761,0.909376,66.03133
4.9282,0.004852,0.003293,-0.003137,-0.00244,-0.003877,-0.000417,0.002128,-0.506681,-0.005541,1.050691,-261.119761,0.909376,66.03133
4.9483,0.004487,0.003062,-0.002674,-0.002416,-0.003868,-0.000347,0.003174,-0.506825,-0.003157,1.039809,-261.121696,0.949049,66.029647
4.9683,0.004893,0.003263,-0.005431,-0.002653,-0.003716,-0.00109,0.003124,-0.506932,-0.002718,1.039809,-261.121696,0.949049,66.029647
4.9886,0.004483,0.002371,-0.005731,-0.002834,-0.003606,-0.001595,0.003124,-0.506932,-0.002718,1.039809,-261.121696,0.949049,66.029647
5.0084,0.004453,0.002559,-0.005989,-0.002834,-0.003606,-0.001595,0.001461,-0.507778,-0.005745,1.036184,-261.12355,0.986875,66.027934
5.0284,0.004835,0.002734,-0.004933,-0.002285,-0.003346,-0.000904,0.001424,-0.507656,-0.005846,1.036184,-261.12355,0.986875,66.027934
5.0488,0.004567,0.002413,-0.005418,-0.002119,-0.003267,-0.000668,0.002286,-0.507308,-0.004949,1.016691,-261.124406,0.911915,66.027319
5.0687,0.004924,0.00275,-0.005749,-0.002136,-0.003221,-0.000552,0.001852,-0.507554,-0.005371,1.016691,-261.124406,0.911915,66.027319
5.0886,0.00488,0.002893,-0.005781,-0.002152,-0.003186,-0.000464,0.001852,-0.507554,-0.005371,1.016691,-261.124406,0.911915,66.027319
5.1083,0.004785,0.002462,-0.004981,-0.002152,-0.003186,-0.000464,0.001845,-0.507232,-0.005808,1.047741,-261.126065,0.932994,66.025927
5.1282,0.004397,0.002452,-0.006412,-0.002243,-0.003211,-0.000299,0.001998,-0.507369,-0.005473,1.047741,-261.126065,0.932994,66.025927
5.1482,0.004634,0.002336,-0.005337,-0.002275,-0.003219,-0.000246,0.001059,-0.507637,-0.006427,1.015531,-261.127671,0.932819,66.024505
5.1683,0.004814,0.002569,-0.00591,-0.002262,-0.003157,-0.000222,0.001836,-0.50766,-0.00543,1.015531,-261.127671,0.932819,66.024505
5.1883,0.004466,0.002917,-0.00452,-0.002254,-0.003111,-0.000202,0.001836,-0.50766,-0.00543,1.015531,-261.127671,0.932819,66.024505
5.2086,0.004092,0.002133,-0.006275,-0.002254,-0.003111,-0.000202,0.002067,-0.507209,-0.00453,0.976898,-261.129259,0.932891,66.023014
5.2282,0.004111,0.002074,-0.006266,-0.002107,-0.003151,-0.000259,0.001573,-0.50749,-0.005248,0.976898,-261.129259,0.932891,66.023014
5.2487,0.004414,0.001845,-0.00583,-0.00206,-0.003164,-0.000272,0.000843,-0.508014,-0.006273,0.962144,-261.130829,0.924486,66.021523
5.2688,0.004191,0.001901,-0.004918,-0.001969,-0.002997,-0.000172,0.001387,-0.50814,-0.005867,0.962144,-261.130829,0.924486,66.021523
5.2886,0.003968,0.002057,-0.003612,-0.001904,-0.002874,-9.3e-05,0.001387,-0.50814,-0.005867,0.962144,-261.130829,0.924486,66.021523
5.3085,0.004236,0.002096,-0.005992,-0.001904,-0.002874,-9.3e-05,0.002046,-0.508062,-0.003622,1.016786,-261.132276,0.968707,66.020179
5.3285,0.003727,0.002181,-0.005696,-0.002005,-0.002755,-0.000438,0.001681,-0.508007,-0.004597,1.016786,-261.132276,0.968707,66.020179
5.3486,0.003898,0.001795,-0.004758,-0.002038,-0.002718,-0.000537,0.000762,-0.507901,-0.005699,0.994679,-261.133662,0.976493,66.01883
5.3692,0.004274,0.001555,-0.007576,-0.001977,-0.002652,-0.000565,0.001407,-0.508178,-0.00484,0.994679,-261.133662,0.976493,66.01883
5.3891,0.003825,0.001921,-0.004881,-0.001933,-0.002604,-0.000581,0.001407,-0.508178,-0.00484,0.994679,-261.133662,0.976493,66.01883
5.4087,0.003788,0.001677,-0.004789,-0.001933,-0.002604,-0.000581,0.001267,-0.508167,-0.004897,0.981055,-261.134858,0.901467,66.017805
5.4289,0.004112,0.001899,-0.00543,-0.001813,-0.00252,-0.000599,0.001292,-0.50824,-0.004854,0.981055,-261.134858,0.901467,66.017805
5.4492,0.003963,0.001742,-0.006032,-0.001776,-0.002493,-0.0006,0.001283,-0.508173,-0.005448,0.992154,-261.136232,0.861005,66.016652
5.469,0.004012,0.001353,-0.007261,-0.00161,-0.002488,-0.000394,0.000918,-0.508247,-0.005983,0.992154,-261.136232,0.861005,66.016652
5.4891,0.003523,0.00111,-0.006392,-0.001488,-0.002485,-0.000238,0.000918,-0.508247,-0.005983,0.992154,-261.136232,0.861005,66.016652
5.5083,0.003734,0.001752,-0.006671,-0.001488,-0.002485,-0.000238,0.000189,-0.508982,-0.006417,1.015113,-261.137561,0.87509,66.015559
5.529,0.003775,0.001431,-0.005749,-0.000852,-0.002228,3.2e-05,0.000238,-0.508691,-0.006523,1.015113,-261.137561,0.87509,66.015559
5.5492,0.003827,0.001468,-0.005259,-0.000652,-0.002152,0.00013,0.000806,-0.508618,-0.005756,1.055928,-261.138462,0.949973,66.014732
5.5691,0.003592,0.00139,-0.007293,-0.000847,-0.002131,3.4e-05,0.00111,-0.508538,-0.005308,1.055928,-261.138462,0.949973,66.014732
5.589,0.003522,0.001265,-0.007078,-0.000995,-0.002114,-3.5e-05,0.00111,-0.508538,-0.005308,1.055928,-261.138462,0.949973,66.014732
5.6089,0.003565,0.001144,-0.004534,-0.000995,-0.002114,-3.5e-05,-9.1e-05,-0.508729,-0.007078,1.130966,-261.138529,1.025012,66.01466
5.6286,0.003443,0.001351,-0.007074,-0.000753,-0.001982,5.4e-05,0.000457,-0.508779,-0.006038,1.130966,-261.138529,1.025012,66.01466
5.6488,0.003644,0.000831,-0.007056,-0.000678,-0.001942,8.8e-05,-0.000193,-0.508693,-0.007076,1.134974,-261.139326,1.099961,66.013876
5.6689,0.003586,0.001411,-0.004799,-0.000431,-0.001779,0.000242,2.2e-05,-0.509118,-0.007058,1.134974,-261.139326,1.099961,66.013876
5.6892,0.003836,0.000835,-0.005196,-0.000248,-0.001659,0.000366,2.2e-05,-0.509118,-0.007058,1.134974,-261.139326,1.099961,66.013876
5.7088,0.003441,0.001274,-0.006197,-0.000248,-0.001659,0.000366,0.001166,-0.509208,-0.005195,1.209981,-261.139831,1.174968,66.013346
5.7286,0.003488,0.001114,-0.004776,-0.000598,-0.001572,0.000185,0.0008,-0.509012,-0.005606,1.209981,-261.139831,1.174968,66.013346
5.7484,0.003506,0.000939,-0.00628,-0.000712,-0.001544,0.00013,0.001049,-0.508889,-0.004775,1.285028,-261.139936,1.250015,66.013208
5.7689,0.00363,0.001086,-0.006087,-0.000625,-0.001526,0.000165,0.000368,-0.509037,-0.00615,1.285028,-261.139936,1.250015,66.013208
5.7887,0.003535,0.00115,-0.005518,-0.000562,-0.001512,0.000194,0.000368,-0.509037,-0.00615,1.285028,-261.139936,1.250015,66.013208
5.8089,0.003635,0.000875,-0.005702,-0.000562,-0.001512,0.000194,0.000706,-0.508879,-0.005516,1.209981,-261.1403,1.174968,66.012812
5.8286,0.00373,0.001232,-0.005173,-0.000736,-0.001527,8.9e-05,0.000713,-0.508981,-0.005592,1.209981,-261.1403,1.174968,66.012812
5.8483,0.003688,0.001048,-0.004527,-0.000793,-0.001531,5.7e-05,0.001075,-0.508806,-0.005167,1.187652,-261.140858,1.238927,66.012172
5.8684,0.003332,0.00114,-0.005932,-0.001084,-0.001523,-0.000162,0.001351,-0.508936,-0.004584,1.187652,-261.140858,1.238927,66.012172
5.8884,0.003509,0.000877,-0.004148,-0.001305,-0.001517,-0.000318,0.001351,-0.508936,-0.004584,1.187652,-261.140858,1.238927,66.012172
5.9086,0.003448,0.001193,-0.005817,-0.001305,-0.001517,-0.000318,0.001375,-0.509159,-0.004146,1.112754,-261.14128,1.164029,66.011735
5.9285,0.003562,0.001271,-0.005582,-0.001392,-0.001487,-0.000445,0.001008,-0.509016,-0.004829,1.112754,-261.14128,1.164029,66.011735
5.9486,0.003545,0.000984,-0.004951,-0.001421,-0.001478,-0.000483,0.000714,-0.508724,-0.005582,1.037758,-261.141328,1.089032,66.011693
5.9685,0.003532,0.001019,-0.005627,-0.001438,-0.00149,-0.000469,0.000994,-0.508985,-0.005006,1.037758,-261.141328,1.089032,66.011693
5.9886,0.003267,0.0008,-0.006195,-0.001452,-0.001499,-0.00046,0.000994,-0.508985,-0.005006,1.037758,-261.141328,1.089032,66.011693
6.0084,0.003734,0.000871,-0.005195,-0.001452,-0.001499,-0.00046,0.000105,-0.509194,-0.006195,0.962656,-261.141379,1.013931,66.011652
6.0286,0.003622,0.00139,-0.006293,0.0,0.0,0.0,0.000509,-0.509165,-0.005782,0.962656,-261.141379,1.013931,66.011652
6.0484,0.00393,0.001088,-0.00541,0.0,0.0,0.0,0.000405,-0.50861,-0.006294,0.887602,-261.141544,0.938877,66.011516
6.0685,0.003648,0.001068,-0.00514,0.0,0.0,0.0,0.001105,-0.50888,-0.005486,0.887602,-261.141544,0.938877,66.011516
6.0886,0.003722,0.001037,-0.004048,0.0,0.0,0.0,0.001105,-0.50888,-0.005486,0.887602,-261.141544,0.938877,66.011516
6.1084,0.003297,0.000992,-0.006565,0.0,0.0,0.0,0.001657,-0.508959,-0.004048,0.887602,-261.141544,0.938877,66.011516
6.1288,0.00346,0.001069,-0.006414,0.0,0.0,0.0,0.00096,-0.508974,-0.005075,0.887602,-261.141544,0.938877,66.011516
6.1482,0.00343,0.000523,-0.00652,0.0,0.0,0.0,0.000188,-0.50892,-0.006414,0.887602,-261.141544,0.938877,66.011516
6.1688,0.003669,0.000427,-0.006423,0.0,0.0,0.0,0.000111,-0.509424,-0.006512,0.887602,-261.141544,0.938877,66.011516
6.1889,0.003691,0.000949,-0.004909,0.0,0.0,0.0,0.000111,-0.509424,-0.006512,0.887602,-261.141544,0.938877,66.011516
6.2088,0.003657,0.001072,-0.006166,0.0,0.0,0.0,0.001187,-0.509045,-0.004909,0.887602,-261.141544,0.938877,66.011516
6.2285,0.003736,0.000798,-0.007012,0.0,0.0,0.0,0.000908,-0.508992,-0.005429,0.887602,-261.141544,0.938877,66.011516
6.2488,0.00341,0.000841,-0.00677,0.0,0.0,0.0,0.00016,-0.50919,-0.007012,0.887602,-261.141544,0.938877,66.011516
6.2688,0.003171,0.000834,-0.004277,0.0,0.0,0.0,-2.5e-05,-0.509151,-0.006791,0.887602,-261.141544,0.938877,66.011516
6.2888,0.003794,0.000874,-0.004186,0.0,0.0,0.0,-2.5e-05,-0.509151,-0.006791,0.887602,-261.141544,0.938877,66.011516
6.3086,0.003691,0.00101,-0.005649,0.0,0.0,0.0,0.001659,-0.509121,-0.004186,0.887602,-261.141544,0.938877,66.011516
6.3283,0.003462,0.000772,-0.005705,0.0,0.0,0.0,0.00131,-0.509064,-0.004787,0.887602,-261.141544,0.938877,66.011516
6.3482,0.003075,0.001303,-0.006507,0.0,0.0,0.0,0.000553,-0.50922,-0.005705,0.887602,-261.141544,0.938877,66.011516
6.3688,0.003525,0.000929,-0.006137,0.0,0.0,0.0,-0.000175,-0.508732,-0.006438,0.887602,-261.141544,0.938877,66.011516
6.3884,0.003518,0.000901,-0.005705,0.0,0.0,0.0,-0.000175,-0.508732,-0.006438,0.887602,-261.141544,0.938877,66.011516
6.4084,0.003465,0.001007,-0.006038,0.0,0.0,0.0,0.000608,-0.509091,-0.005705,0.887602,-261.141544,0.938877,66.011516
6.4285,0.003175,0.001018,-0.004012,0.0,0.0,0.0,0.000516,-0.509047,-0.005843,0.887602,-261.141544,0.938877,66.011516
6.4487,0.003789,0.00092,-0.004419,0.0,0.0,0.0,0.001129,-0.508978,-0.004012,0.887602,-261.141544,0.938877,66.011516
6.4687,0.003742,0.001321,-0.004999,0.0,0.0,0.0,0.001499,-0.509066,-0.004382,0.887602,-261.141544,0.938877,66.011516
6.4884,0.003466,0.000916,-0.00519,0.0,0.0,0.0,0.001499,-0.509066,-0.004382,0.887602,-261.141544,0.938877,66.011516
6.5085,0.003591,0.000926,-0.005731,0.0,0.0,0.0,0.000819,-0.509077,-0.00519,0.887602,-261.141544,0.938877,66.011516
6.5286,0.003463,0.000624,-0.005039,0.0,0.0,0.0,0.000757,-0.509072,-0.005412,0.887602,-261.141544,0.938877,66.011516
6.5489,0.003147,0.001158,-0.005364,0.0,0.0,0.0,0.000893,-0.50937,-0.005039,0.887602,-261.141544,0.938877,66.011516
6.5686,0.003791,0.000801,-0.006514,0.0,0.0,0.0,0.000456,-0.508883,-0.005334,0.887602,-261.141544,0.938877,66.011516
6.5886,0.003732,0.000831,-0.006124,0.0,0.0,0.0,0.000456,-0.508883,-0.005334,0.887602,-261.141544,0.938877,66.011516
6.6085,0.003659,0.00117,-0.005563,0.0,0.0,0.0,0.000608,-0.509159,-0.006124,0.887602,-261.141544,0.938877,66.011516
6.6287,0.00352,0.00068,-0.005603,0.0,0.0,0.0,0.000696,-0.50902,-0.005893,0.887602,-261.141544,0.938877,66.011516
6.6482,0.003662,0.001017,-0.00575,0.0,0.0,0.0,0.000663,-0.509312,-0.005603,0.887602,-261.141544,0.938877,66.011516
6.6685,0.003334,0.00068,-0.00638,0.0,0.0,0.0,0.000724,-0.509002,-0.005738,0.887602,-261.141544,0.938877,66.011516
6.6885,0.003634,0.000918,-0.005816,0.0,0.0,0.0,0.000724,-0.509002,-0.005738,0.887602,-261.141544,0.938877,66.011516
6.7083,0.003496,0.000924,-0.004711,0.0,0.0,0.0,0.000668,-0.509074,-0.005816,0.887602,-261.141544,0.938877,66.011516
6.7284,0.003552,0.000949,-0.005595,0.0,0.0,0.0,0.000843,-0.509072,-0.005361,0.887602,-261.141544,0.938877,66.011516
6.7484,0.003606,0.001029,-0.006055,0.0,0.0,0.0,0.000698,-0.509043,-0.005595,0.887602,-261.141544,0.938877,66.011516
6.7685,0.00373,0.001081,-0.004612,0.0,0.0,0.0,0.000534,-0.508969,-0.006013,0.887602,-261.141544,0.938877,66.011516
6.7882,0.003619,0.000839,-0.005825,0.0,0.0,0.0,0.000534,-0.508969,-0.006013,0.887602,-261.141544,0.938877,66.011516
6.8085,0.003434,0.001153,-0.00516,0.0,0.0,0.0,0.000648,-0.509152,-0.005825,0.887602,-261.141544,0.938877,66.011516
6.8282,0.003446,0.001031,-0.005748,0.0,0.0,0.0,0.000711,-0.509025,-0.005555,0.887602,-261.141544,0.938877,66.011516
6.8485,0.003406,0.001121,-0.006757,0.0,0.0,0.0,0.000515,-0.508961,-0.005748,0.887602,-261.141544,0.938877,66.011516
6.8687,0.003506,0.001015,-0.005283,0.0,0.0,0.0,8e-06,-0.508875,-0.00667,0.887602,-261.141544,0.938877,66.011516
6.8884,0.003616,0.001015,-0.005104,0.0,0.0,0.0,8e-06,-0.508875,-0.00667,0.887602,-261.141544,0.938877,66.011516
6.9084,0.003444,0.001008,-0.005244,0.0,0.0,0.0,0.001013,-0.508979,-0.005104,0.887602,-261.141544,0.938877,66.011516
6.9283,0.003468,0.001156,-0.005858,0.0,0.0,0.0,0.000913,-0.508981,-0.005161,0.887602,-261.141544,0.938877,66.011516
6.9484,0.003874,0.000943,-0.006692,0.0,0.0,0.0,0.00048,-0.508836,-0.005858,0.887602,-261.141544,0.938877,66.011516
6.9684,0.003547,0.000948,-0.005496,0.0,0.0,0.0,0.000463,-0.509026,-0.006618,0.887602,-261.141544,0.938877,66.011516
6.9886,0.003299,0.000821,-0.005954,0.0,0.0,0.0,0.000463,-0.509026,-0.006618,0.887602,-261.141544,0.938877,66.011516
7.0084,0.0034,0.000785,-0.005542,0.0,0.0,0.0,0.000263,-0.50917,-0.005954,0.887602,-261.141544,0.938877,66.011516
7.0285,0.003527,0.001054,-0.0062,0.0,0.0,0.0,0.00039,-0.509185,-0.005786,0.887602,-261.141544,0.938877,66.011516
7.0483,0.003369,0.001063,-0.004718,0.0,0.0,0.0,0.000365,-0.508937,-0.0062,0.887602,-261.141544,0.938877,66.011516
7.0692,0.0035,0.000746,-0.0067,0.0,0.0,0.0,0.000911,-0.508932,-0.004848,0.887602,-261.141544,0.938877,66.011516
7.0886,0.00398,0.00104,-0.005612,0.0,0.0,0.0,0.000911,-0.508932,-0.004848,0.887602,-261.141544,0.938877,66.011516
7.1084,0.003505,0.001161,-0.005648,0.0,0.0,0.0,0.001118,-0.508952,-0.005612,0.887602,-261.141544,0.938877,66.011516
7.1286,0.00349,0.000786,-0.007799,0.0,0.0,0.0,0.000918,-0.508903,-0.005627,0.887602,-261.141544,0.938877,66.011516
7.1483,0.003833,0.00082,-0.004925,0.0,0.0,0.0,-0.000487,-0.509198,-0.007799,0.887602,-261.141544,0.938877,66.011516
7.1688,0.003942,0.001012,-0.006916,0.0,0.0,0.0,0.001168,-0.509176,-0.005169,0.887602,-261.141544,0.938877,66.011516
7.1885,0.00396,0.000951,-0.00632,0.0,0.0,0.0,0.001168,-0.509176,-0.005169,0.887602,-261.141544,0.938877,66.011516
7.2088,0.003732,0.001003,-0.006274,0.0,0.0,0.0,0.000736,-0.509039,-0.00632,0.887602,-261.141544,0.938877,66.011516
7.2287,0.003895,0.001005,-0.004571,0.0,0.0,0.0,0.000653,-0.509018,-0.006301,0.887602,-261.141544,0.938877,66.011516
7.2484,0.003432,0.000845,-0.005184,0.0,0.0,0.0,0.001564,-0.508989,-0.004571,0.887602,-261.141544,0.938877,66.011516
7.2687,0.003541,0.000798,-0.005282,0.0,0.0,0.0,0.000855,-0.509134,-0.005131,0.887602,-261.141544,0.938877,66.011516
7.2885,0.003472,0.001079,-0.006098,0.0,0.0,0.0,0.000855,-0.509134,-0.005131,0.887602,-261.141544,0.938877,66.011516
7.3087,0.003718,0.001014,-0.004729,0.0,0.0,0.0,0.000363,-0.508912,-0.006098,0.887602,-261.141544,0.938877,66.011516
7.3286,0.003602,0.001062,-0.006389,0.0,0.0,0.0,0.000749,-0.50894,-0.005537,0.887602,-261.141544,0.938877,66.011516
7.3489,0.00347,0.001039,-0.005757,0.0,0.0,0.0,0.000344,-0.508927,-0.006389,0.887602,-261.141544,0.938877,66.011516
7.3687,0.003713,0.000941,-0.005411,0.0,0.0,0.0,0.000518,-0.508951,-0.005811,0.887602,-261.141544,0.938877,66.011516
7.3888,0.003373,0.001067,-0.007695,0.0,0.0,0.0,0.000518,-0.508951,-0.005811,0.887602,-261.141544,0.938877,66.011516
7.4086,0.003347,0.001028,-0.006031,0.0,0.0,0.0,-0.000552,-0.508918,-0.007695,0.887602,-261.141544,0.938877,66.011516
7.4286,0.00359,0.001075,-0.006143,0.0,0.0,0.0,-0.000209,-0.508936,-0.007001,0.887602,-261.141544,0.938877,66.011516
7.4487,0.003608,0.000794,-0.006405,0.0,0.0,0.0,0.000457,-0.508916,-0.006143,0.887602,-261.141544,0.938877,66.011516
7.4688,0.003369,0.001229,-0.003497,0.0,0.0,0.0,0.000352,-0.509171,-0.006382,0.887602,-261.141544,0.938877,66.011516
7.4888,0.003608,0.001151,-0.004889,0.0,0.0,0.0,0.000352,-0.509171,-0.006382,0.887602,-261.141544,0.938877,66.011516
7.5087,0.003702,0.000713,-0.005684,0.0,0.0,0.0,0.001115,-0.508843,-0.004889,0.887602,-261.141544,0.938877,66.011516
7.5285,0.003458,0.000756,-0.006303,0.0,0.0,0.0,0.000988,-0.50902,-0.005212,0.887602,-261.141544,0.938877,66.011516
7.5486,0.003418,0.000916,-0.00668,0.0,0.0,0.0,0.000244,-0.509234,-0.006303,0.887602,-261.141544,0.938877,66.011516
7.5687,0.003265,0.00114,-0.006885,0.0,0.0,0.0,3.2e-05,-0.509087,-0.006646,0.887602,-261.141544,0.938877,66.011516
7.589,0.003443,0.000599,-0.005085,0.0,0.0,0.0,3.2e-05,-0.509087,-0.006646,0.887602,-261.141544,0.938877,66.011516
7.6087,0.003553,0.001202,-0.00614,0.0,0.0,0.0,0.000849,-0.509395,-0.005085,0.887602,-261.141544,0.938877,66.011516
7.6287,0.00361,0.001035,-0.006789,0.0,0.0,0.0,0.000675,-0.509148,-0.005514,0.887602,-261.141544,0.938877,66.011516
7.6487,0.003659,0.001037,-0.004372,0.0,0.0,0.0,0.000148,-0.508954,-0.006789,0.887602,-261.141544,0.938877,66.011516
7.6685,0.003457,0.001079,-0.00512,0.0,0.0,0.0,0.001317,-0.508958,-0.004583,0.887602,-261.141544,0.938877,66.011516
7.6887,0.003908,0.001106,-0.006523,0.0,0.0,0.0,0.001317,-0.508958,-0.004583,0.887602,-261.141544,0.938877,66.011516
7.7084,0.003913,0.000871,-0.006305,0.0,0.0,0.0,0.000581,-0.508883,-0.006523,0.887602,-261.141544,0.938877,66.011516
7.7283,0.003608,0.000929,-0.005476,0.0,0.0,0.0,0.000629,-0.508981,-0.006433,0.887602,-261.141544,0.938877,66.011516
7.7483,0.003753,0.000913,-0.005431,0.0,0.0,0.0,0.000815,-0.509063,-0.005476,0.887602,-261.141544,0.938877,66.011516
7.7689,0.003207,0.001273,-0.005055,0.0,0.0,0.0,0.000969,-0.509078,-0.005435,0.887602,-261.141544,0.938877,66.011516
7.7885,0.003611,0.000943,-0.005698,0.0,0.0,0.0,0.000969,-0.509078,-0.005435,0.887602,-261.141544,0.938877,66.011516
7.8083,0.00364,0.000688,-0.004383,0.0,0.0,0.0,0.000705,-0.509049,-0.005698,0.887602,-261.141544,0.938877,66.011516
7.8288,0.003837,0.001001,-0.004821,0.0,0.0,0.0,0.000994,-0.509156,-0.005155,0.887602,-261.141544,0.938877,66.011516
7.8483,0.003486,0.000889,-0.007115,0.0,0.0,0.0,0.001379,-0.508994,-0.004821,0.887602,-261.141544,0.938877,66.011516
7.8685,0.003897,0.000588,-0.006008,0.0,0.0,0.0,-2.3e-05,-0.509089,-0.006935,0.887602,-261.141544,0.938877,66.011516
7.8891,0.003434,0.001257,-0.00538,0.0,0.0,0.0,-2.3e-05,-0.509089,-0.006935,0.887602,-261.141544,0.938877,66.011516
7.9083,0.003753,0.001019,-0.004662,0.0,0.0,0.0,0.00069,-0.508735,-0.00538,0.887602,-261.141544,0.938877,66.011516
7.9282,0.003734,0.001097,-0.003627,0.0,0.0,0.0,0.000965,-0.508832,-0.005092,0.887602,-261.141544,0.938877,66.011516
7.9485,0.003321,0.000971,-0.005367,0.0,0.0,0.0,0.001884,-0.5089,-0.003627,0.887602,-261.141544,0.938877,66.011516
7.9687,0.003464,0.000875,-0.004391,0.0,0.0,0.0,0.0007,-0.50901,-0.005211,0.887602,-261.141544,0.938877,66.011516
7.9887,0.003879,0.000773,-0.00546,0.0,0.0,0.0,0.0007,-0.50901,-0.005211,0.887602,-261.141544,0.938877,66.011516
8.0088,0.003658,0.001114,-0.005655,0.0,0.0,0.0,0.001094,-0.509219,-0.00546,0.887602,-261.141544,0.938877,66.011516
8.0287,0.003377,0.000868,-0.00648,0.0,0.0,0.0,0.000964,-0.50908,-0.00554,0.887602,-261.141544,0.938877,66.011516
8.0485,0.003678,0.001011,-0.006637,0.0,0.0,0.0,7.3e-05,-0.509121,-0.00648,0.887602,-261.141544,0.938877,66.011516
8.0684,0.003786,0.001254,-0.005892,0.0,0.0,0.0,0.000274,-0.508991,-0.006622,0.887602,-261.141544,0.938877,66.011516
8.0884,0.003342,0.00113,-0.006282,0.0,0.0,0.0,0.000274,-0.508991,-0.006622,0.887602,-261.141544,0.938877,66.011516
8.1084,0.003416,0.000925,-0.005983,0.0,0.0,0.0,0.000139,-0.50886,-0.006282,0.887602,-261.141544,0.938877,66.011516
8.1289,0.00377,0.001098,-0.00373,0.0,0.0,0.0,0.00023,-0.508944,-0.006161,0.887602,-261.141544,0.938877,66.011516
8.1485,0.003247,0.001177,-0.005551,0.0,0.0,0.0,0.001867,-0.508898,-0.00373,0.887602,-261.141544,0.938877,66.011516
8.1686,0.003339,0.001111,-0.004243,0.0,0.0,0.0,0.000546,-0.508823,-0.005388,0.887602,-261.141544,0.938877,66.011516
8.1888,0.003432,0.000729,-0.005096,0.0,0.0,0.0,0.000546,-0.508823,-0.005388,0.887602,-261.141544,0.938877,66.011516
8.2089,0.00349,0.000885,-0.005888,0.0,0.0,0.0,0.000834,-0.509264,-0.005096,0.887602,-261.141544,0.938877,66.011516
8.2283,0.003396,0.000895,-0.00706,0.0,0.0,0.0,0.000692,-0.5092,-0.005418,0.887602,-261.141544,0.938877,66.011516
8.2483,0.003338,0.001249,-0.006488,0.0,0.0,0.0,-0.000205,-0.509092,-0.00706,0.887602,-261.141544,0.938877,66.011516
8.2684,0.003411,0.000845,-0.004679,0.0,0.0,0.0,8e-06,-0.508772,-0.00654,0.887602,-261.141544,0.938877,66.011516
8.2886,0.003208,0.00087,-0.005215,0.0,0.0,0.0,8e-06,-0.508772,-0.00654,0.887602,-261.141544,0.938877,66.011516
8.3089,0.00375,0.000879,-0.005372,0.0,0.0,0.0,0.000549,-0.509123,-0.005215,0.887602,-261.141544,0.938877,66.011516
8.3286,0.003448,0.001062,-0.005333,0.0,0.0,0.0,0.000735,-0.509119,-0.005278,0.887602,-261.141544,0.938877,66.011516
8.3491,0.00344,0.000917,-0.004993,0.0,0.0,0.0,0.000729,-0.508931,-0.005333,0.887602,-261.141544,0.938877,66.011516
8.3688,0.00331,0.0011,-0.005749,0.0,0.0,0.0,0.000876,-0.509061,-0.005028,0.887602,-261.141544,0.938877,66.011516
8.3889,0.003791,0.00081,-0.004782,0.0,0.0,0.0,0.000876,-0.509061,-0.005028,0.887602,-261.141544,0.938877,66.011516
8.4089,0.003686,0.001214,-0.003798,0.0,0.0,0.0,0.001352,-0.509184,-0.004782,0.887602,-261.141544,0.938877,66.011516
8.4288,0.003498,0.001015,-0.005668,0.0,0.0,0.0,0.001512,-0.509023,-0.004386,0.887602,-261.141544,0.938877,66.011516
8.4484,0.003421,0.00109,-0.004911,0.0,0.0,0.0,0.000607,-0.508977,-0.005668,0.887602,-261.141544,0.938877,66.011516
8.4684,0.003032,0.000742,-0.004701,0.0,0.0,0.0,0.000888,-0.508911,-0.00498,0.887602,-261.141544,0.938877,66.011516
8.4885,0.00361,0.001004,-0.006119,0.0,0.0,0.0,0.000888,-0.508911,-0.00498,0.887602,-261.141544,0.938877,66.011516
8.5084,0.003711,0.000634,-0.003877,0.0,0.0,0.0,0.00049,-0.508986,-0.006119,0.887602,-261.141544,0.938877,66.011516
8.5285,0.003501,0.001039,-0.005354,0.0,0.0,0.0,0.001002,-0.509141,-0.005195,0.887602,-261.141544,0.938877,66.011516
8.5485,0.003553,0.001337,-0.00561,0.0,0.0,0.0,0.000771,-0.508953,-0.005354,0.887602,-261.141544,0.938877,66.011516
8.5685,0.003781,0.001229,-0.004608,0.0,0.0,0.0,0.000699,-0.508681,-0.005587,0.887602,-261.141544,0.938877,66.011516
8.5886,0.003568,0.001135,-0.007129,0.0,0.0,0.0,0.000699,-0.508681,-0.005587,0.887602,-261.141544,0.938877,66.011516
8.609,0.003721,0.001048,-0.00614,0.0,0.0,0.0,-6.8e-05,-0.508852,-0.007129,0.887602,-261.141544,0.938877,66.011516
8.6289,0.003305,0.001042,-0.004462,0.0,0.0,0.0,0.000192,-0.508888,-0.006738,0.887602,-261.141544,0.938877,66.011516
8.6485,0.003708,0.001082,-0.004095,0.0,0.0,0.0,0.00103,-0.508953,-0.004462,0.887602,-261.141544,0.938877,66.011516
8.6688,0.003792,0.000543,-0.005116,0.0,0.0,0.0,0.001566,-0.508917,-0.004128,0.887602,-261.141544,0.938877,66.011516
8.6886,0.00367,0.000993,-0.005563,0.0,0.0,0.0,0.001566,-0.508917,-0.004128,0.887602,-261.141544,0.938877,66.011516
8.7088,0.003572,0.001421,-0.006671,0.0,0.0,0.0,0.000833,-0.508999,-0.005563,0.887602,-261.141544,0.938877,66.011516
8.7287,0.003578,0.001503,-0.005525,0.0,0.0,0.0,0.000561,-0.508822,-0.006018,0.887602,-261.141544,0.938877,66.011516
8.7486,0.003387,0.00113,-0.005453,0.0,0.0,0.0,0.00076,-0.508489,-0.005525,0.887602,-261.141544,0.938877,66.011516
8.7683,0.003461,0.000925,-0.006343,0.0,0.0,0.0,0.000619,-0.50883,-0.005459,0.887602,-261.141544,0.938877,66.011516
8.7886,0.003338,0.000563,-0.005444,0.0,0.0,0.0,0.000619,-0.50883,-0.005459,0.887602,-261.141544,0.938877,66.011516
8.8087,0.003345,0.000742,-0.00604,0.0,0.0,0.0,0.000561,-0.50943,-0.005444,0.887602,-261.141544,0.938877,66.011516
8.8284,0.003429,0.001057,-0.004922,0.0,0.0,0.0,0.000439,-0.509355,-0.00569,0.887602,-261.141544,0.938877,66.011516
8.8484,0.003352,0.00069,-0.004666,0.0,0.0,0.0,0.000919,-0.508937,-0.004922,0.887602,-261.141544,0.938877,66.011516
8.869,0.003968,0.00114,-0.004384,0.0,0.0,0.0,0.000968,-0.509273,-0.004688,0.887602,-261.141544,0.938877,66.011516
8.8886,0.003782,0.001112,-0.005595,0.0,0.0,0.0,0.000968,-0.509273,-0.004688,0.887602,-261.141544,0.938877,66.011516
8.9084,0.003809,0.000963,-0.004824,0.0,0.0,0.0,0.000928,-0.50888,-0.005595,0.887602,-261.141544,0.938877,66.011516
8.9286,0.003649,0.00102,-0.005795,0.0,0.0,0.0,0.001104,-0.508944,-0.005272,0.887602,-261.141544,0.938877,66.011516
8.9484,0.003484,0.001158,-0.006532,0.0,0.0,0.0,0.000694,-0.508972,-0.005795,0.887602,-261.141544,0.938877,66.011516
8.9685,0.003746,0.001145,-0.00562,0.0,0.0,0.0,0.0002,-0.508843,-0.006467,0.887602,-261.141544,0.938877,66.011516
8.9886,0.003511,0.000712,-0.005333,0.0,0.0,0.0,0.0002,-0.508843,-0.006467,0.887602,-261.141544,0.938877,66.011516
9.0086,0.003452,0.000878,-0.0069,0.0,0.0,0.0,0.000791,-0.509281,-0.005333,0.887602,-261.141544,0.938877,66.011516
9.0289,0.003886,0.000949,-0.004358,0.0,0.0,0.0,0.000441,-0.509211,-0.005972,0.887602,-261.141544,0.938877,66.011516
9.0486,0.003532,0.001042,-0.00605,0.0,0.0,0.0,0.001663,-0.509046,-0.004358,0.887602,-261.141544,0.938877,66.011516
9.0689,0.003759,0.000993,-0.006884,0.0,0.0,0.0,0.00055,-0.508957,-0.005906,0.887602,-261.141544,0.938877,66.011516
9.0887,0.003502,0.001031,-0.005734,0.0,0.0,0.0,0.00055,-0.508957,-0.005906,0.887602,-261.141544,0.938877,66.011516
9.1088,0.00323,0.000821,-0.005435,0.0,0.0,0.0,0.000578,-0.508961,-0.005734,0.887602,-261.141544,0.938877,66.011516
9.1288,0.003602,0.000764,-0.004842,0.0,0.0,0.0,0.000529,-0.509047,-0.005612,0.887602,-261.141544,0.938877,66.011516
9.1489,0.003594,0.00112,-0.004507,0.0,0.0,0.0,0.001133,-0.50923,-0.004842,0.887602,-261.141544,0.938877,66.011516
9.1687,0.003608,0.001185,-0.004872,0.0,0.0,0.0,0.001282,-0.508905,-0.004535,0.887602,-261.141544,0.938877,66.011516
9.1886,0.00378,0.000933,-0.005021,0.0,0.0,0.0,0.001282,-0.508905,-0.004535,0.887602,-261.141544,0.938877,66.011516
9.2082,0.003689,0.001304,-0.00731,0.0,0.0,0.0,0.001219,-0.509061,-0.005021,0.887602,-261.141544,0.938877,66.011516
9.2287,0.003502,0.000996,-0.004644,0.0,0.0,0.0,0.000699,-0.508905,-0.005967,0.887602,-261.141544,0.938877,66.011516
9.2487,0.003647,0.000926,-0.00418,0.0,0.0,0.0,0.001134,-0.508999,-0.004644,0.887602,-261.141544,0.938877,66.011516
9.2684,0.003594,0.001155,-0.005507,0.0,0.0,0.0,0.001482,-0.509064,-0.00422,0.887602,-261.141544,0.938877,66.011516
9.2885,0.003333,0.001072,-0.006475,0.0,0.0,0.0,0.001482,-0.509064,-0.00422,0.887602,-261.141544,0.938877,66.011516
9.3085,0.003662,0.000685,-0.004556,0.0,0.0,0.0,3.1e-05,-0.508917,-0.006475,0.887602,-261.141544,0.938877,66.011516
9.3288,0.003824,0.00087,-0.005589,0.0,0.0,0.0,0.000567,-0.509078,-0.005688,0.887602,-261.141544,0.938877,66.011516
9.3485,0.003155,0.001014,-0.00625,0.0,0.0,0.0,0.000974,-0.509122,-0.005589,0.887602,-261.141544,0.938877,66.011516
9.3687,0.003478,0.000897,-0.006336,0.0,0.0,0.0,5.3e-05,-0.508989,-0.006194,0.887602,-261.141544,0.938877,66.011516
9.3886,0.003739,0.001071,-0.004162,0.0,0.0,0.0,5.3e-05,-0.508989,-0.006194,0.887602,-261.141544,0.938877,66.011516
9.4089,0.003493,0.001144,-0.005579,0.0,0.0,0.0,0.001616,-0.508924,-0.004162,0.887602,-261.141544,0.938877,66.011516
9.4288,0.003656,0.000884,-0.005786,0.0,0.0,0.0,0.001223,-0.508893,-0.004737,0.887602,-261.141544,0.938877,66.011516
9.4488,0.003374,0.001303,-0.006175,0.0,0.0,0.0,0.000706,-0.509107,-0.005786,0.887602,-261.141544,0.938877,66.011516
9.4687,0.003559,0.000672,-0.005134,0.0,0.0,0.0,0.000268,-0.508725,-0.00614,0.887602,-261.141544,0.938877,66.011516
9.4886,0.003461,0.00103,-0.005408,0.0,0.0,0.0,0.000268,-0.508725,-0.00614,0.887602,-261.141544,0.938877,66.011516
9.5085,0.00356,0.001247,-0.004727,0.0,0.0,0.0,0.000703,-0.508962,-0.005408,0.887602,-261.141544,0.938877,66.011516
9.5287,0.003209,0.000879,-0.005793,0.0,0.0,0.0,0.000885,-0.508875,-0.00513,0.887602,-261.141544,0.938877,66.011516
9.5489,0.003958,0.000759,-0.005248,0.0,0.0,0.0,0.000255,-0.509113,-0.005793,0.887602,-261.141544,0.938877,66.011516
9.5686,0.003732,0.000991,-0.005244,0.0,0.0,0.0,0.001194,-0.509224,-0.005295,0.887602,-261.141544,0.938877,66.011516
9.5883,0.003736,0.00081,-0.005779,0.0,0.0,0.0,0.001194,-0.509224,-0.005295,0.887602,-261.141544,0.938877,66.011516
9.6085,0.003983,0.000929,-0.006707,0.0,0.0,0.0,0.000788,-0.509182,-0.005779,0.887602,-261.141544,0.938877,66.011516
9.6285,0.003744,0.001139,-0.006206,0.0,0.0,0.0,0.000695,-0.509131,-0.006163,0.887602,-261.141544,0.938877,66.011516
9.6488,0.00394,0.001009,-0.006458,0.0,0.0,0.0,0.000578,-0.508851,-0.006206,0.887602,-261.141544,0.938877,66.011516
9.6688,0.003598,0.00097,-0.006554,0.0,0.0,0.0,0.00064,-0.508969,-0.006435,0.887602,-261.141544,0.938877,66.011516
9.6889,0.003799,0.000867,-0.006192,0.0,0.0,0.0,0.00064,-0.508969,-0.006435,0.887602,-261.141544,0.938877,66.011516
9.7086,0.003835,0.000793,-0.005715,0.0,0.0,0.0,0.000641,-0.509123,-0.006192,0.887602,-261.141544,0.938877,66.011516
9.7283,0.003233,0.001251,-0.004621,0.0,0.0,0.0,0.000755,-0.509154,-0.005998,0.887602,-261.141544,0.938877,66.011516
9.7482,0.003128,0.001287,-0.00612,0.0,0.0,0.0,0.000876,-0.508743,-0.004621,0.887602,-261.141544,0.938877,66.011516
9.7682,0.003457,0.001075,-0.00648,0.0,0.0,0.0,8.7e-05,-0.508707,-0.005982,0.887602,-261.141544,0.938877,66.011516
9.7882,0.003609,0.000923,-0.004223,0.0,0.0,0.0,8.7e-05,-0.508707,-0.005982,0.887602,-261.141544,0.938877,66.011516
9.8082,0.0039,0.000716,-0.004599,0.0,0.0,0.0,0.001455,-0.509072,-0.004223,0.887602,-261.141544,0.938877,66.011516
9.8284,0.003905,0.001216,-0.004371,0.0,0.0,0.0,0.001496,-0.509157,-0.004377,0.887602,-261.141544,0.938877,66.011516
9.8484,0.003442,0.001211,-0.006842,0.0,0.0,0.0,0.001676,-0.508779,-0.004371,0.887602,-261.141544,0.938877,66.011516
9.8684,0.00359,0.000714,-0.006476,0.0,0.0,0.0,0.000107,-0.508777,-0.00662,0.887602,-261.141544,0.938877,66.011516
9.8883,0.003469,0.001036,-0.005344,0.0,0.0,0.0,0.000107,-0.508777,-0.00662,0.887602,-261.141544,0.938877,66.011516
9.9086,0.003579,0.001144,-0.005005,0.0,0.0,0.0,0.000744,-0.508956,-0.005344,0.887602,-261.141544,0.938877,66.011516
9.9289,0.003821,0.00069,-0.007147,0.0,0.0,0.0,0.000859,-0.508913,-0.005206,0.887602,-261.141544,0.938877,66.011516
9.9486,0.003198,0.000869,-0.005238,0.0,0.0,0.0,0.000176,-0.509297,-0.007147,0.887602,-261.141544,0.938877,66.011516
9.9685,0.003424,0.001389,-0.005395,0.0,0.0,0.0,0.000496,-0.509139,-0.005402,0.887602,-261.141544,0.938877,66.011516
9.9885,0.003581,0.000957,-0.004556,0.0,0.0,0.0,0.000496,-0.509139,-0.005402,0.887602,-261.141544,0.938877,66.011516
10.0087,0.003676,0.001078,-0.005774,0.0,0.0,0.0,0.001257,-0.509038,-0.004556,0.887602,-261.141544,0.938877,66.011516
10.0285,0.003348,0.000809,-0.00582,0.0,0.0,0.0,0.00104,-0.508986,-0.005058,0.887602,-261.141544,0.938877,66.011516
10.0488,0.003924,0.001298,-0.005048,0.0,0.0,0.0,0.000379,-0.509183,-0.00582,0.887602,-261.141544,0.938877,66.011516
10.0688,0.003782,0.001223,-0.004108,0.0,0.0,0.0,0.001263,-0.508739,-0.005117,0.887602,-261.141544,0.938877,66.011516
10.0884,0.003559,0.001014,-0.00592,0.0,0.0,0.0,0.001263,-0.508739,-0.005117,0.887602,-261.141544,0.938877,66.011516
10.1083,0.003566,0.000891,-0.004816,0.0,0.0,0.0,0.00054,-0.508977,-0.00592,0.887602,-261.141544,0.938877,66.011516
10.1286,0.003701,0.001064,-0.006019,0.0,0.0,0.0,0.000773,-0.509029,-0.005469,0.887602,-261.141544,0.938877,66.011516
10.1489,0.003483,0.001266,-0.005504,0.0,0.0,0.0,0.000632,-0.508927,-0.006019,0.887602,-261.141544,0.938877,66.011516
10.1687,0.003689,0.001175,-0.00414,0.0,0.0,0.0,0.000672,-0.508744,-0.005551,0.887602,-261.141544,0.938877,66.011516
10.1885,0.003536,0.000982,-0.005718,0.0,0.0,0.0,0.000672,-0.508744,-0.005551,0.887602,-261.141544,0.938877,66.011516
10.2087,0.003556,0.000943,-0.006111,0.0,0.0,0.0,0.00062,-0.50901,-0.005718,0.887602,-261.141544,0.938877,66.011516
10.2287,0.003527,0.001034,-0.00499,0.0,0.0,0.0,0.000543,-0.509026,-0.005885,0.887602,-261.141544,0.938877,66.011516
10.2486,0.003861,0.000818,-0.005029,0.0,0.0,0.0,0.000982,-0.50896,-0.00499,0.887602,-261.141544,0.938877,66.011516
10.2684,0.003673,0.000881,-0.007368,0.0,0.0,0.0,0.00127,-0.509157,-0.005026,0.887602,-261.141544,0.938877,66.011516
10.2884,0.003417,0.00118,-0.005895,0.0,0.0,0.0,0.00127,-0.509157,-0.005026,0.887602,-261.141544,0.938877,66.011516
10.3084,0.003421,0.001062,-0.004442,0.0,0.0,0.0,0.000411,-0.508811,-0.005895,0.887602,-261.141544,0.938877,66.011516
10.3285,0.00348,0.001419,-0.007044,0.0,0.0,0.0,0.000716,-0.508861,-0.005299,0.887602,-261.141544,0.938877,66.011516
10.3485,0.003681,0.001186,-0.004088,0.0,0.0,0.0,-0.000113,-0.508569,-0.007044,0.887602,-261.141544,0.938877,66.011516
10.3684,0.003477,0.001353,-0.006405,0.0,0.0,0.0,0.001441,-0.508788,-0.004356,0.887602,-261.141544,0.938877,66.011516
10.3883,0.003431,0.000894,-0.007066,0.0,0.0,0.0,0.001441,-0.508788,-0.004356,0.887602,-261.141544,0.938877,66.011516
10.4083,0.003464,0.000741,-0.004053,0.0,0.0,0.0,-0.000173,-0.509093,-0.007066,0.887602,-261.141544,0.938877,66.011516
10.4285,0.003497,0.000709,-0.005059,0.0,0.0,0.0,0.000468,-0.509159,-0.005835,0.887602,-261.141544,0.938877,66.011516
10.4483,0.003441,0.001306,-0.006656,0.0,0.0,0.0,0.000916,-0.509285,-0.005059,0.887602,-261.141544,0.938877,66.011516
10.4684,0.003522,0.000961,-0.006394,0.0,0.0,0.0,0.000123,-0.508735,-0.006516,0.887602,-261.141544,0.938877,66.011516
10.4884,0.003645,0.001113,-0.004791,0.0,0.0,0.0,0.000123,-0.508735,-0.006516,0.887602,-261.141544,0.938877,66.011516
10.5085,0.003678,0.001073,-0.003897,0.0,0.0,0.0,0.001201,-0.508881,-0.004791,0.887602,-261.141544,0.938877,66.011516
10.5284,0.003524,0.000639,-0.004803,0.0,0.0,0.0,0.001399,-0.508898,-0.004429,0.887602,-261.141544,0.938877,66.011516
10.5484,0.003573,0.001163,-0.00651,0.0,0.0,0.0,0.001075,-0.509355,-0.004803,0.887602,-261.141544,0.938877,66.011516
10.5685,0.003815,0.001013,-0.004607,0.0,0.0,0.0,0.000327,-0.508874,-0.006356,0.887602,-261.141544,0.938877,66.011516
10.5884,0.003659,0.001295,-0.006127,0.0,0.0,0.0,0.000327,-0.508874,-0.006356,0.887602,-261.141544,0.938877,66.011516
10.6085,0.003627,0.001044,-0.006608,0.0,0.0,0.0,0.000534,-0.508696,-0.006127,0.887602,-261.141544,0.938877,66.011516
10.6286,0.003441,0.00089,-0.004809,0.0,0.0,0.0,0.000422,-0.508796,-0.006321,0.887602,-261.141544,0.938877,66.011516
10.6484,0.003769,0.001109,-0.00418,0.0,0.0,0.0,0.000988,-0.509104,-0.004809,0.887602,-261.141544,0.938877,66.011516
10.6685,0.003366,0.000905,-0.005889,0.0,0.0,0.0,0.001579,-0.508906,-0.004237,0.887602,-261.141544,0.938877,66.011516
10.6885,0.004048,0.00101,-0.006274,0.0,0.0,0.0,0.001579,-0.508906,-0.004237,0.887602,-261.141544,0.938877,66.011516
10.7085,0.003487,0.000854,-0.007625,0.0,0.0,0.0,0.000848,-0.50898,-0.006274,0.887602,-261.141544,0.938877,66.011516
10.7287,0.003282,0.000844,-0.006557,0.0,0.0,0.0,0.000339,-0.509042,-0.006825,0.887602,-261.141544,0.938877,66.011516
10.7486,0.003564,0.001176,-0.005268,0.0,0.0,0.0,-6.2e-05,-0.509145,-0.006557,0.887602,-261.141544,0.938877,66.011516
10.7688,0.003832,0.001197,-0.005576,0.0,0.0,0.0,0.000795,-0.508845,-0.00538,0.887602,-261.141544,0.938877,66.011516
10.7884,0.003613,0.000844,-0.006187,0.0,0.0,0.0,0.000795,-0.508845,-0.00538,0.887602,-261.141544,0.938877,66.011516
10.8085,0.003581,0.000829,-0.005081,0.0,0.0,0.0,0.000457,-0.509146,-0.006187,0.887602,-261.141544,0.938877,66.011516
10.8285,0.003702,0.00083,-0.004753,0.0,0.0,0.0,0.000676,-0.509154,-0.005733,0.887602,-261.141544,0.938877,66.011516
10.8483,0.003859,0.000844,-0.005387,0.0,0.0,0.0,0.001277,-0.509165,-0.004753,0.887602,-261.141544,0.938877,66.011516
10.8684,0.003277,0.000869,-0.005732,0.0,0.0,0.0,0.001127,-0.50915,-0.005331,0.887602,-261.141544,0.938877,66.011516
10.8884,0.003225,0.001066,-0.004206,0.0,0.0,0.0,0.001127,-0.50915,-0.005331,0.887602,-261.141544,0.938877,66.011516
10.9085,0.00375,0.000947,-0.005161,0.0,0.0,0.0,0.00108,-0.508929,-0.004206,0.887602,-261.141544,0.938877,66.011516
10.9283,0.003762,0.000767,-0.005584,0.0,0.0,0.0,0.001096,-0.508977,-0.004598,0.887602,-261.141544,0.938877,66.011516
10.9486,0.003545,0.000656,-0.004256,0.0,0.0,0.0,0.000914,-0.509225,-0.005584,0.887602,-261.141544,0.938877,66.011516
10.9683,0.003232,0.001157,-0.005792,0.0,0.0,0.0,0.001335,-0.50933,-0.004372,0.887602,-261.141544,0.938877,66.011516
10.9885,0.00357,0.000762,-0.003956,0.0,0.0,0.0,0.001335,-0.50933,-0.004372,0.887602,-261.141544,0.938877,66.011516
11.0084,0.003276,0.000902,-0.005624,0.0,0.0,0.0,0.001553,-0.509234,-0.003956,0.887602,-261.141544,0.938877,66.011516
11.0287,0.003485,0.001067,-0.005569,0.0,0.0,0.0,0.001086,-0.509175,-0.004636,0.887602,-261.141544,0.938877,66.011516
