mach0312/omni-docking-bench/src/icros_test_setup/results/MPPI_sample/timeseries/trial_073.csv
t,x,y,yaw,vx,vy,wz,bl_x,bl_y,bl_yaw,front_steering_joint,front_wheel_joint,rear_steering_joint,rear_wheel_joint
0.0,0.027996,0.001011,-0.107614,-0.001842,-0.001351,0.05,-0.026162,-0.505586,-0.112147,-1.462956,-261.261462,1.470804,65.857358
0.0005,0.027656,0.001028,-0.106426,0.00244,-0.000774,0.05,-0.026162,-0.505586,-0.112147,-1.51859,-261.272194,1.522391,65.845784
0.0009,0.026474,0.001127,-0.104067,0.003624,-0.000754,0.05,-0.026481,-0.50571,-0.111907,-1.553731,-261.283596,1.55484,65.833589
0.0012,0.026925,0.001285,-0.103817,0.003192,-0.000959,0.05,-0.026481,-0.50571,-0.111907,-1.599203,-261.294651,1.597233,65.821711
0.0015,0.02668,0.001444,-0.105417,0.003453,-0.001086,0.05,-0.026914,-0.505817,-0.111495,-1.652577,-261.305608,1.648553,65.810188
0.0017,0.025843,0.001329,-0.100525,0.004269,-0.000905,0.05,-0.025664,-0.505725,-0.108791,-1.678282,-261.317264,1.671781,65.797784
0.002,0.025552,0.000965,-0.100559,0.004523,-0.000513,0.05,-0.025664,-0.505725,-0.108791,-1.720304,-261.328717,1.71543,65.785949
0.0023,0.024672,0.001796,-0.099309,0.00548,-0.001259,0.05,-0.025664,-0.505725,-0.108791,-1.720304,-261.328717,1.71543,65.785949
0.0025,0.024765,0.00122,-0.100721,0.005331,-0.000687,0.05,-0.026843,-0.50558,-0.107082,-1.720304,-261.328717,1.71543,65.785949
0.0028,0.024731,0.001587,-0.098895,0.0054,-0.001059,0.05,-0.026843,-0.50558,-0.107082,-1.720304,-261.328717,1.71543,65.785949
0.0066,0.023548,0.001444,-0.097911,0.0,0.0,0.0,-0.025448,-0.505959,-0.096925,-1.720304,-261.328717,1.71543,65.785949
0.0269,0.023444,0.001638,-0.095815,0.0,0.0,0.0,-0.025779,-0.506026,-0.0971,-1.720304,-261.328717,1.71543,65.785949
0.0465,0.023788,0.001395,-0.09807,0.0,0.0,0.0,-0.025332,-0.506039,-0.095602,-1.645313,-261.330172,1.739904,65.78411
0.0664,0.0237,0.001504,-0.096301,0.0,0.0,0.0,-0.026076,-0.506145,-0.097846,-1.645313,-261.330172,1.739904,65.78411
0.0864,0.023349,0.001209,-0.097131,0.0,0.0,0.0,-0.026076,-0.506145,-0.097846,-1.645313,-261.330172,1.739904,65.78411
0.1063,0.023502,0.001749,-0.097,0.0,0.0,0.0,-0.02611,-0.506387,-0.097131,-1.645313,-261.330172,1.739904,65.78411
0.1264,0.023267,0.001603,-0.09717,0.003572,0.002234,0.017792,-0.02602,-0.506169,-0.097078,-1.645313,-261.330172,1.739904,65.78411
0.1464,0.023548,0.001547,-0.096543,0.003841,0.002441,0.017446,-0.026212,-0.505991,-0.09717,-1.645313,-261.330172,1.739904,65.78411
0.1665,0.02373,0.001669,-0.096385,0.004075,0.002618,0.016585,-0.025665,-0.506071,-0.096598,-1.645313,-261.330172,1.739904,65.78411
0.1865,0.023385,0.001765,-0.097736,0.00428,0.002773,0.015909,-0.025665,-0.506071,-0.096598,-1.645313,-261.330172,1.739904,65.78411
0.2064,0.023419,0.001352,-0.098185,0.00428,0.002773,0.015909,-0.026381,-0.505801,-0.097736,-1.570276,-261.330172,1.664867,65.78411
0.2266,0.023217,0.001489,-0.096418,0.00462,0.003032,0.014282,-0.026463,-0.505965,-0.097925,-1.570276,-261.330172,1.664867,65.78411
0.2462,0.023579,0.001589,-0.096672,0.00476,0.003137,0.0137,-0.02588,-0.506143,-0.096418,-1.494867,-261.330172,1.589458,65.78411
0.2665,0.023497,0.001631,-0.096982,0.004884,0.003226,0.01296,-0.025667,-0.50604,-0.09665,-1.494867,-261.330172,1.589458,65.78411
0.2863,0.02329,0.001647,-0.095735,0.004994,0.003304,0.012354,-0.025667,-0.50604,-0.09665,-1.494867,-261.330172,1.589458,65.78411
0.3064,0.023805,0.001384,-0.097482,0.004994,0.003304,0.012354,-0.02546,-0.506018,-0.095735,-1.420242,-261.330172,1.514833,65.78411
0.3266,0.023207,0.001256,-0.096733,0.005179,0.003433,0.011103,-0.025612,-0.50609,-0.09645,-1.420242,-261.330172,1.514833,65.78411
0.3465,0.023325,0.001188,-0.096564,0.005256,0.003485,0.010631,-0.02605,-0.506359,-0.096733,-1.345369,-261.330172,1.43996,65.78411
0.3666,0.023824,0.00158,-0.098288,0.005324,0.003545,0.010119,-0.025864,-0.506429,-0.09658,-1.345369,-261.330172,1.43996,65.78411
0.3862,0.023406,0.001514,-0.096566,0.005384,0.003596,0.00969,-0.025864,-0.506429,-0.09658,-1.345369,-261.330172,1.43996,65.78411
0.4062,0.023644,0.00142,-0.095241,0.005384,0.003596,0.00969,-0.025767,-0.50611,-0.096566,-1.270382,-261.330172,1.364973,65.78411
0.4264,0.023592,0.001666,-0.096916,0.005487,0.003654,0.008861,-0.025391,-0.506176,-0.096019,-1.270382,-261.330172,1.364973,65.78411
0.4464,0.023554,0.001422,-0.097316,0.00553,0.003677,0.008544,-0.025758,-0.505941,-0.096916,-1.19522,-261.330172,1.289811,65.78411
0.4665,0.023412,0.001663,-0.096334,0.005568,0.003701,0.008195,-0.025977,-0.506145,-0.09728,-1.19522,-261.330172,1.289811,65.78411
0.4864,0.02368,0.001553,-0.096631,0.005601,0.003721,0.007901,-0.025977,-0.506145,-0.09728,-1.19522,-261.330172,1.289811,65.78411
0.5062,0.023602,0.001779,-0.096494,0.005601,0.003721,0.007901,-0.025525,-0.506068,-0.096631,-1.120363,-261.330172,1.214954,65.78411
0.5263,0.023353,0.001217,-0.097915,0.005657,0.003735,0.007215,-0.025529,-0.505977,-0.096575,-1.120363,-261.330172,1.214954,65.78411
0.5461,0.023081,0.001177,-0.097003,0.00568,0.003741,0.00696,-0.026504,-0.50634,-0.097915,-1.045243,-261.330172,1.139834,65.78411
0.5666,0.02333,0.001777,-0.097897,0.0057,0.003768,0.006748,-0.026329,-0.506418,-0.097081,-1.045243,-261.330172,1.139834,65.78411
0.5863,0.023831,0.001598,-0.096159,0.005718,0.00379,0.006572,-0.026329,-0.506418,-0.097081,-1.045243,-261.330172,1.139834,65.78411
0.6062,0.023489,0.001263,-0.097202,0.005718,0.00379,0.006572,-0.025135,-0.506046,-0.096159,-0.970212,-261.330172,1.064803,65.78411
0.6265,0.023383,0.001293,-0.095955,0.00575,0.003797,0.006307,-0.025491,-0.506162,-0.096586,-0.970212,-261.330172,1.064803,65.78411
0.6461,0.023619,0.001336,-0.097386,0.005763,0.0038,0.006208,-0.025479,-0.506361,-0.095955,-0.895237,-261.330172,0.989828,65.78411
0.6664,0.023465,0.001529,-0.094846,0.005775,0.003809,0.006125,-0.025927,-0.506257,-0.097265,-0.895237,-261.330172,0.989828,65.78411
0.6862,0.023563,0.00102,-0.097513,0.005785,0.003817,0.006055,-0.025927,-0.506257,-0.097265,-0.895237,-261.330172,0.989828,65.78411
0.7064,0.023252,0.001549,-0.096953,0.005785,0.003817,0.006055,-0.02609,-0.506558,-0.097513,-0.820183,-261.330172,0.914774,65.78411
0.7264,0.023575,0.001267,-0.096275,0.005802,0.003838,0.005949,-0.026101,-0.506352,-0.097283,-0.820183,-261.330172,0.914774,65.78411
0.7462,0.02377,0.001367,-0.097224,0.005809,0.003847,0.005909,-0.025449,-0.506371,-0.096275,-0.745243,-261.330172,0.839834,65.78411
0.7664,0.023422,0.001509,-0.09729,0.005815,0.003847,0.005876,-0.02571,-0.506238,-0.097139,-0.745243,-261.330172,0.839834,65.78411
0.7863,0.023298,0.001712,-0.096946,0.005821,0.003847,0.005848,-0.02571,-0.506238,-0.097139,-0.745243,-261.330172,0.839834,65.78411
0.8063,0.02318,0.001361,-0.098499,0.005821,0.003847,0.005848,-0.026067,-0.505894,-0.096946,-0.670365,-261.330172,0.764956,65.78411
0.8264,0.023656,0.001545,-0.095863,0.005831,0.00384,0.005805,-0.026438,-0.506005,-0.097581,-0.670365,-261.330172,0.764956,65.78411
0.8461,0.023725,0.001421,-0.09752,0.005835,0.003837,0.005788,-0.025159,-0.506113,-0.095863,-0.595364,-261.330172,0.689955,65.78411
0.8666,0.02324,0.001633,-0.096749,0.005838,0.003836,0.005774,-0.025863,-0.506152,-0.097373,-0.595364,-261.330172,0.689955,65.78411
0.8866,0.023472,0.001453,-0.097026,0.005841,0.003836,0.005761,-0.025863,-0.506152,-0.097373,-0.595364,-261.330172,0.689955,65.78411
0.9065,0.023548,0.001245,-0.096226,0.005841,0.003836,0.005761,-0.025934,-0.506148,-0.097026,-0.520364,-261.330172,0.614955,65.78411
0.9261,0.023782,0.001367,-0.096836,0.005845,0.00384,0.005742,-0.02574,-0.506248,-0.096704,-0.520364,-261.330172,0.614955,65.78411
0.9461,0.023257,0.001664,-0.098364,0.005847,0.003841,0.005735,-0.025528,-0.506243,-0.096836,-0.445313,-261.330172,0.539904,65.78411
0.9664,0.023235,0.001447,-0.095228,0.005849,0.003837,0.005728,-0.026712,-0.505904,-0.098228,-0.445313,-261.330172,0.539904,65.78411
0.9863,0.023517,0.001793,-0.094642,0.005851,0.003833,0.005723,-0.026712,-0.505904,-0.098228,-0.445313,-261.330172,0.539904,65.78411
1.0063,0.023465,0.001487,-0.095647,0.005851,0.003833,0.005723,-0.024678,-0.505925,-0.094642,-0.370368,-261.330172,0.464959,65.78411
1.026,0.023653,0.001216,-0.096932,0.005853,0.003809,0.005716,-0.024909,-0.50603,-0.095055,-0.370368,-261.330172,0.464959,65.78411
1.0467,0.023299,0.001274,-0.097156,0.005853,0.0038,0.005713,-0.025705,-0.50639,-0.096932,-0.295322,-261.330172,0.389913,65.78411
1.0664,0.023462,0.001277,-0.097127,0.005853,0.003813,0.005708,-0.02613,-0.506327,-0.097136,-0.295322,-261.330172,0.389913,65.78411
1.0862,0.02379,0.001237,-0.09636,0.005854,0.003825,0.005705,-0.02613,-0.506327,-0.097136,-0.295322,-261.330172,0.389913,65.78411
1.1064,0.024087,0.00195,-0.096785,0.005854,0.003825,0.005705,-0.025278,-0.506397,-0.09636,-0.220309,-261.330171,0.314901,65.78411
1.1267,0.023531,0.001352,-0.096537,0.005855,0.003815,0.005702,-0.025245,-0.506098,-0.096534,-0.220309,-261.330171,0.314901,65.78411
1.1464,0.023305,0.00149,-0.098329,0.005855,0.003811,0.0057,-0.025626,-0.506274,-0.096537,-0.145308,-261.330171,0.2399,65.784111
1.1663,0.023605,0.001648,-0.096377,0.005856,0.003817,0.005698,-0.026659,-0.506067,-0.098167,-0.145308,-261.330171,0.2399,65.784111
1.1861,0.023802,0.001226,-0.097188,0.005856,0.003822,0.005697,-0.026659,-0.506067,-0.098167,-0.145308,-261.330171,0.2399,65.784111
1.2065,0.023165,0.001384,-0.096412,0.005856,0.003822,0.005697,-0.025685,-0.506368,-0.097188,-0.070363,-261.330171,0.164954,65.784111
1.2261,0.023148,0.001363,-0.097287,0.005856,0.003836,0.005694,-0.025785,-0.506318,-0.09687,-0.070363,-261.330171,0.164954,65.784111
1.2462,0.023197,0.001758,-0.097694,0.005857,0.003841,0.005693,-0.02639,-0.506225,-0.097287,0.004626,-261.330171,0.089965,65.784111
1.2665,0.023582,0.001439,-0.098881,0.005858,0.003833,0.005693,-0.026533,-0.505847,-0.097658,0.004626,-261.330171,0.089965,65.784111
1.2864,0.023109,0.001351,-0.096404,0.005858,0.003826,0.005693,-0.026533,-0.505847,-0.097658,0.004626,-261.330171,0.089965,65.784111
1.3065,0.023696,0.001364,-0.096658,0.005858,0.003826,0.005693,-0.025981,-0.50628,-0.096404,0.079627,-261.33017,0.062052,65.784111
1.3266,0.023371,0.001282,-0.096971,0.005858,0.003834,0.005692,-0.025792,-0.50627,-0.096508,0.079627,-261.33017,0.062052,65.784111
1.3462,0.023477,0.001416,-0.096457,0.005858,0.003837,0.005691,-0.026007,-0.506323,-0.096971,0.154727,-261.33017,0.059473,65.784111
1.3665,0.023582,0.001359,-0.097889,0.005859,0.003838,0.005691,-0.025673,-0.506223,-0.096503,0.154727,-261.33017,0.059473,65.784111
1.3865,0.023172,0.001504,-0.095723,0.005859,0.003838,0.005691,-0.025673,-0.506223,-0.096503,0.154727,-261.33017,0.059473,65.784111
1.4063,0.023238,0.00135,-0.096904,0.005859,0.003838,0.005691,-0.025572,-0.506161,-0.095723,0.229681,-261.330169,0.061639,65.784112
1.4262,0.023555,0.00156,-0.096869,0.005859,0.003837,0.005691,-0.02579,-0.5062,-0.096205,0.229681,-261.330169,0.061639,65.784112
1.4463,0.0234,0.001722,-0.097614,0.005859,0.003837,0.00569,-0.025771,-0.506049,-0.096869,0.304628,-261.330167,0.061705,65.784113
1.4664,0.023404,0.00174,-0.096128,0.00586,0.003828,0.005691,-0.02626,-0.505866,-0.097553,0.304628,-261.330167,0.061705,65.784113
1.4864,0.023661,0.001536,-0.097872,0.00586,0.003821,0.005691,-0.02626,-0.505866,-0.097553,0.304628,-261.330167,0.061705,65.784113
1.5066,0.023475,0.0013,-0.097077,0.00586,0.003821,0.005691,-0.026174,-0.506023,-0.097872,0.3799,-261.330157,0.061572,65.784119
1.527,0.023365,0.001656,-0.097175,0.00586,0.003826,0.00569,-0.026085,-0.506136,-0.097547,0.3799,-261.330157,0.061572,65.784119
1.5463,0.023307,0.001139,-0.095892,0.00586,0.003829,0.00569,-0.026114,-0.505938,-0.097174,0.454637,-261.330112,0.058798,65.784147
1.5662,0.023596,0.001647,-0.096301,0.005859,0.003839,0.005689,-0.025576,-0.506466,-0.096007,0.454637,-261.330112,0.058798,65.784147
1.5862,0.023461,0.001458,-0.097279,0.005859,0.003847,0.005689,-0.025576,-0.506466,-0.096007,0.454637,-261.330112,0.058798,65.784147
1.606,0.023561,0.00161,-0.097383,0.005859,0.003847,0.005689,-0.026061,-0.506127,-0.097273,0.529636,-261.32996,0.060255,65.784243
1.6263,0.023494,0.001635,-0.098196,0.00586,0.003839,0.005689,-0.026045,-0.506064,-0.097317,0.529636,-261.32996,0.060255,65.784243
1.6463,0.0236,0.001121,-0.096263,0.00586,0.003836,0.00569,-0.026481,-0.5059,-0.098182,0.604624,-261.329543,0.06349,65.784504
1.6663,0.023193,0.001437,-0.097267,0.00586,0.003844,0.005689,-0.025513,-0.506462,-0.096435,0.604624,-261.329543,0.06349,65.784504
1.6867,0.023398,0.001667,-0.097185,0.005859,0.003852,0.005689,-0.025513,-0.506462,-0.096435,0.604624,-261.329543,0.06349,65.784504
1.7062,0.02365,0.001531,-0.096826,0.005859,0.003852,0.005689,-0.026015,-0.5059,-0.097137,0.679634,-261.32859,0.061476,65.785101
1.726,0.023881,0.001524,-0.095076,0.005861,0.003833,0.00569,-0.02586,-0.50597,-0.097005,0.679634,-261.32859,0.061476,65.785101
1.7463,0.023892,0.001396,-0.097761,0.005861,0.003826,0.00569,-0.024435,-0.506131,-0.095002,0.754626,-261.326829,0.064292,65.786203
1.7662,0.023994,0.001986,-0.096604,0.00586,0.003827,0.00569,-0.025752,-0.506163,-0.09751,0.754626,-261.326829,0.064292,65.786203
1.7868,0.023238,0.001627,-0.096302,0.00586,0.003828,0.00569,-0.025752,-0.506163,-0.09751,0.754626,-261.326829,0.064292,65.786203
1.8066,0.023778,0.002201,-0.097118,0.00586,0.003828,0.00569,-0.025604,-0.505918,-0.096137,0.829627,-261.324093,0.059672,65.787919
1.8262,0.024093,0.001852,-0.096064,0.005861,0.003793,0.005692,-0.02561,-0.505696,-0.096515,0.829627,-261.324093,0.059672,65.787919
1.846,0.023728,0.00211,-0.096001,0.00586,0.003779,0.005692,-0.02464,-0.5057,-0.095895,0.894565,-261.320587,0.06013,65.790117
1.8661,0.024007,0.002178,-0.09693,0.00586,0.003758,0.005723,-0.025104,-0.505551,-0.095984,0.894565,-261.320587,0.06013,65.790117
1.8864,0.023979,0.001762,-0.095939,0.00586,0.00374,0.005749,-0.025104,-0.505551,-0.095984,0.894565,-261.320587,0.06013,65.790117
1.9066,0.02435,0.002628,-0.096123,0.00586,0.00374,0.005749,-0.024617,-0.505759,-0.095702,0.89137,-261.316862,0.051578,65.792461
1.9262,0.024044,0.00259,-0.095641,0.005857,0.003692,0.00581,-0.024578,-0.505444,-0.095844,0.89137,-261.316862,0.051578,65.792461
1.9463,0.024413,0.00213,-0.096168,0.005856,0.003674,0.005832,-0.024462,-0.504979,-0.095458,0.891169,-261.313148,0.039032,65.794798
1.9665,0.024268,0.002379,-0.095432,0.005854,0.003659,0.005861,-0.024537,-0.505456,-0.09609,0.891169,-261.313148,0.039032,65.794798
1.9862,0.024448,0.002053,-0.095847,0.005852,0.003646,0.005885,-0.024537,-0.505456,-0.09609,0.891169,-261.313148,0.039032,65.794798
2.0063,0.024618,0.002125,-0.096445,0.005852,0.003646,0.005885,-0.024102,-0.505477,-0.095604,0.890471,-261.30942,0.019201,65.797143
2.0266,0.02432,0.002287,-0.095986,0.005849,0.003621,0.005941,-0.024238,-0.505474,-0.095933,0.890471,-261.30942,0.019201,65.797143
2.046,0.02469,0.002501,-0.094674,0.005847,0.003611,0.005962,-0.024362,-0.505268,-0.0958,0.891,-261.30573,0.008781,65.799462
2.0665,0.024791,0.002282,-0.095365,0.005845,0.003585,0.00599,-0.023588,-0.505215,-0.094767,0.891,-261.30573,0.008781,65.799462
2.0862,0.024729,0.002456,-0.095023,0.005843,0.003562,0.006013,-0.023588,-0.505215,-0.094767,0.891,-261.30573,0.008781,65.799462
2.1067,0.02482,0.002888,-0.095699,0.005843,0.003562,0.006013,-0.023402,-0.505116,-0.094773,0.892264,-261.302001,-0.005166,65.801803
2.1261,0.024865,0.002764,-0.093847,0.005837,0.003508,0.006066,-0.023584,-0.504962,-0.095128,0.892264,-261.302001,-0.005166,65.801803
2.1464,0.024818,0.00305,-0.094485,0.005835,0.003488,0.006086,-0.022732,-0.504897,-0.093657,0.891468,-261.298306,-0.01883,65.804125
2.1667,0.024998,0.002884,-0.094631,0.005831,0.003454,0.006112,-0.023238,-0.50469,-0.094402,0.891468,-261.298306,-0.01883,65.804125
2.1868,0.024997,0.002741,-0.093511,0.005828,0.003426,0.006133,-0.023238,-0.50469,-0.094402,0.891468,-261.298306,-0.01883,65.804125
2.2068,0.024911,0.0029,-0.092877,0.005828,0.003426,0.006133,-0.022369,-0.504909,-0.093258,0.890089,-261.294623,-0.039246,65.806445
2.2267,0.025467,0.002862,-0.096284,0.005819,0.003377,0.006179,-0.022347,-0.504892,-0.093075,0.890089,-261.294623,-0.039246,65.806445
2.2463,0.024882,0.003694,-0.093398,0.005816,0.003359,0.006196,-0.023368,-0.504686,-0.096089,0.888451,-261.29092,-0.054782,65.808783
2.2664,0.025319,0.00322,-0.093941,0.005811,0.003315,0.006218,-0.022725,-0.504125,-0.093592,0.888451,-261.29092,-0.054782,65.808783
2.2862,0.024972,0.003273,-0.093184,0.005806,0.003278,0.006235,-0.022725,-0.504125,-0.093592,0.888451,-261.29092,-0.054782,65.808783
2.3067,0.024702,0.003456,-0.094155,0.005806,0.003278,0.006235,-0.02223,-0.504398,-0.092927,0.887477,-261.287272,-0.073036,65.811093
2.3265,0.025647,0.003404,-0.092985,0.005797,0.003235,0.006268,-0.022615,-0.504338,-0.093398,0.887477,-261.287272,-0.073036,65.811093
2.3461,0.025967,0.003445,-0.093688,0.005793,0.003219,0.00628,-0.021515,-0.504306,-0.092787,0.884454,-261.283631,-0.091015,65.81341
2.3661,0.02534,0.00333,-0.093525,0.005788,0.003193,0.006292,-0.021712,-0.504313,-0.093593,0.884454,-261.283631,-0.091015,65.81341
2.3864,0.025814,0.00349,-0.093169,0.005783,0.003172,0.006301,-0.021712,-0.504313,-0.093593,0.884454,-261.283631,-0.091015,65.81341
2.4064,0.025501,0.00367,-0.093348,0.005783,0.003172,0.006301,-0.021381,-0.504186,-0.092907,0.88325,-261.279975,-0.106011,65.815743
2.4264,0.025486,0.004117,-0.092409,0.005773,0.003122,0.006318,-0.021627,-0.504141,-0.093061,0.88325,-261.279975,-0.106011,65.815743
2.4466,0.025776,0.003826,-0.092525,0.005769,0.003103,0.006325,-0.021384,-0.503624,-0.09221,0.88171,-261.276361,-0.11652,65.818056
2.4664,0.025825,0.003934,-0.092843,0.005763,0.003075,0.006331,-0.021339,-0.503955,-0.092486,0.88171,-261.276361,-0.11652,65.818056
2.4864,0.025872,0.003411,-0.092773,0.005758,0.003051,0.006336,-0.021339,-0.503955,-0.092486,0.88171,-261.276361,-0.11652,65.818056
2.5062,0.02593,0.003751,-0.092708,0.005758,0.003051,0.006336,-0.021123,-0.504289,-0.092509,0.879111,-261.272737,-0.130933,65.820388
2.5264,0.025976,0.003783,-0.093362,0.00575,0.003029,0.006345,-0.021161,-0.50418,-0.092562,0.879111,-261.272737,-0.130933,65.820388
2.546,0.026149,0.004095,-0.091718,0.005747,0.00302,0.006348,-0.021381,-0.503917,-0.093163,0.87684,-261.269161,-0.141276,65.822698
2.5665,0.026136,0.004864,-0.092234,0.005741,0.002986,0.006353,-0.020625,-0.503771,-0.091838,0.87684,-261.269161,-0.141276,65.822698
2.5865,0.025849,0.004196,-0.092006,0.005735,0.002958,0.006357,-0.020625,-0.503771,-0.091838,0.87684,-261.269161,-0.141276,65.822698
2.6065,0.02613,0.004205,-0.091725,0.005735,0.002958,0.006357,-0.020757,-0.503544,-0.09174,0.876099,-261.265572,-0.148073,65.825021
2.6263,0.026272,0.004343,-0.093158,0.005723,0.0029,0.006364,-0.020658,-0.503575,-0.091704,0.876099,-261.265572,-0.148073,65.825021
2.6468,0.026616,0.00414,-0.09054,0.005718,0.002878,0.006366,-0.020979,-0.503369,-0.092956,0.873063,-261.261989,-0.159751,65.827353
2.6665,0.026446,0.004126,-0.093457,0.005711,0.002849,0.006369,-0.019598,-0.503738,-0.090711,0.873063,-261.261989,-0.159751,65.827353
2.6873,0.026042,0.00442,-0.091251,0.005704,0.002825,0.006371,-0.019598,-0.503738,-0.090711,0.873063,-261.261989,-0.159751,65.827353
2.7065,0.02635,0.004435,-0.089726,0.005704,0.002825,0.006371,-0.020184,-0.503361,-0.090987,0.869149,-261.25848,-0.17491,65.829653
2.7265,0.026254,0.004477,-0.090722,0.00569,0.002767,0.006376,-0.01982,-0.503411,-0.090449,0.869149,-261.25848,-0.17491,65.829653
2.7463,0.026678,0.004205,-0.089548,0.005684,0.002744,0.006378,-0.019762,-0.503353,-0.090519,0.866698,-261.254962,-0.18485,65.83197
2.7662,0.026729,0.004711,-0.090679,0.005678,0.002725,0.00638,-0.018996,-0.503712,-0.089626,0.866698,-261.254962,-0.18485,65.83197
2.7862,0.026342,0.004309,-0.090211,0.005672,0.002709,0.006382,-0.018996,-0.503712,-0.089626,0.866698,-261.254962,-0.18485,65.83197
2.8068,0.026584,0.004774,-0.091193,0.005672,0.002709,0.006382,-0.019356,-0.503524,-0.089945,0.862804,-261.251479,-0.199806,65.83428
2.8272,0.02667,0.004895,-0.090525,0.005661,0.002671,0.006385,-0.01953,-0.503345,-0.090416,0.862804,-261.251479,-0.199806,65.83428
2.8461,0.026947,0.004893,-0.089274,0.005656,0.002657,0.006386,-0.019245,-0.502947,-0.09032,0.861374,-261.247999,-0.206556,65.836597
2.8665,0.026705,0.00478,-0.08998,0.005646,0.002614,0.006388,-0.018579,-0.50306,-0.08936,0.861374,-261.247999,-0.206556,65.836597
2.8868,0.027223,0.004923,-0.090418,0.005637,0.002578,0.00639,-0.018579,-0.50306,-0.08936,0.861374,-261.247999,-0.206556,65.836597
2.9071,0.026886,0.005027,-0.089704,0.005637,0.002578,0.00639,-0.018582,-0.502904,-0.090151,0.859015,-261.244533,-0.216341,65.838915
2.9268,0.027018,0.005226,-0.090198,0.005619,0.002513,0.006394,-0.018644,-0.502901,-0.089936,0.859015,-261.244533,-0.216341,65.838915
2.9464,0.027427,0.004996,-0.090123,0.005611,0.002488,0.006395,-0.018736,-0.502636,-0.089996,0.854941,-261.241117,-0.230884,65.841217
2.9665,0.026944,0.005462,-0.091942,0.005604,0.002464,0.006396,-0.018487,-0.502904,-0.090101,0.854941,-261.241117,-0.230884,65.841217
2.9862,0.026915,0.00511,-0.090387,0.005597,0.002445,0.006397,-0.018487,-0.502904,-0.090101,0.854941,-261.241117,-0.230884,65.841217
3.0061,0.027115,0.005398,-0.088587,0.005597,0.002445,0.006397,-0.018878,-0.502726,-0.090121,0.850477,-261.237731,-0.247533,65.843521
3.0266,0.027456,0.005357,-0.089226,0.005581,0.002394,0.006399,-0.018494,-0.502666,-0.089464,0.850477,-261.237731,-0.247533,65.843521
3.046,0.027275,0.005151,-0.089396,0.005574,0.002374,0.0064,-0.017803,-0.502552,-0.089021,0.848493,-261.234348,-0.25556,65.845833
3.0661,0.027271,0.005616,-0.089641,0.005568,0.002358,0.006401,-0.018206,-0.502786,-0.089351,0.848493,-261.234348,-0.25556,65.845833
3.0863,0.02728,0.005135,-0.089423,0.005563,0.002344,0.006401,-0.018206,-0.502786,-0.089351,0.848493,-261.234348,-0.25556,65.845833
3.1061,0.027446,0.005831,-0.088393,0.005563,0.002344,0.006401,-0.018025,-0.50275,-0.089157,0.84509,-261.230983,-0.268595,65.84815
3.1262,0.027887,0.005503,-0.087953,0.005544,0.002283,0.006403,-0.017807,-0.502499,-0.088803,0.84509,-261.230983,-0.268595,65.84815
3.1465,0.027921,0.005501,-0.087849,0.005536,0.00226,0.006404,-0.01673,-0.502468,-0.087752,0.843817,-261.227636,-0.274302,65.85046
3.1661,0.027647,0.005658,-0.088746,0.005522,0.002219,0.006406,-0.016808,-0.502525,-0.087832,0.843817,-261.227636,-0.274302,65.85046
3.1862,0.02779,0.005663,-0.088717,0.00551,0.002185,0.006407,-0.016808,-0.502525,-0.087832,0.843817,-261.227636,-0.274302,65.85046
3.2061,0.027596,0.005827,-0.087814,0.00551,0.002185,0.006407,-0.01716,-0.502258,-0.088452,0.839633,-261.224342,-0.289942,65.852755
3.2264,0.027672,0.005781,-0.086818,0.005488,0.002121,0.006409,-0.01712,-0.502229,-0.088157,0.839633,-261.224342,-0.289942,65.852755
3.2463,0.028177,0.005925,-0.088908,0.005479,0.002096,0.00641,-0.01637,-0.502245,-0.086616,0.835956,-261.221069,-0.303948,65.855055
3.2662,0.027746,0.00565,-0.087012,0.005468,0.002067,0.00641,-0.017034,-0.502074,-0.088699,0.835956,-261.221069,-0.303948,65.855055
3.2862,0.02783,0.005732,-0.088131,0.005459,0.002043,0.006411,-0.017034,-0.502074,-0.088699,0.835956,-261.221069,-0.303948,65.855055
3.3061,0.028077,0.006078,-0.087337,0.005459,0.002043,0.006411,-0.016824,-0.502222,-0.087865,0.831697,-261.217831,-0.320465,65.857354
3.3268,0.02818,0.005901,-0.088042,0.005437,0.001991,0.006412,-0.016626,-0.502114,-0.087616,0.831697,-261.217831,-0.320465,65.857354
3.3461,0.028351,0.005925,-0.086492,0.005429,0.001971,0.006413,-0.016483,-0.502073,-0.087836,0.829189,-261.214604,-0.330406,65.859658
3.3661,0.027977,0.00592,-0.087126,0.005414,0.001934,0.006414,-0.015766,-0.502158,-0.086602,0.829189,-261.214604,-0.330406,65.859658
3.3861,0.027844,0.005806,-0.087251,0.005401,0.001903,0.006415,-0.015766,-0.502158,-0.086602,0.829189,-261.214604,-0.330406,65.859658
3.4064,0.028082,0.005824,-0.086694,0.005401,0.001903,0.006415,-0.016365,-0.502192,-0.086983,0.825905,-261.211405,-0.344221,65.861962
3.4265,0.028107,0.006292,-0.088375,0.005389,0.001883,0.006415,-0.016218,-0.502213,-0.086832,0.825905,-261.211405,-0.344221,65.861962
3.446,0.028375,0.006272,-0.086215,0.005383,0.001875,0.006415,-0.016731,-0.501673,-0.088173,0.822812,-261.208248,-0.357025,65.864254
3.4664,0.02835,0.006439,-0.086144,0.005368,0.001834,0.006416,-0.015639,-0.501817,-0.086381,0.822812,-261.208248,-0.357025,65.864254
3.4864,0.028237,0.006318,-0.088465,0.005354,0.001801,0.006417,-0.015639,-0.501817,-0.086381,0.822812,-261.208248,-0.357025,65.864254
3.5065,0.028033,0.006075,-0.086204,0.005354,0.001801,0.006417,-0.01659,-0.50163,-0.088196,0.822034,-261.205082,-0.362802,65.866559
3.5265,0.028422,0.005691,-0.085573,0.005343,0.001779,0.006417,-0.01627,-0.501788,-0.087345,0.822034,-261.205082,-0.362802,65.866559
3.5462,0.028487,0.006379,-0.086172,0.005338,0.00177,0.006417,-0.014993,-0.502401,-0.08537,0.818423,-261.201953,-0.376733,65.868858
3.5661,0.028701,0.006296,-0.08551,0.005324,0.001738,0.006418,-0.015364,-0.501781,-0.086097,0.818423,-261.201953,-0.376733,65.868858
3.5864,0.028538,0.005922,-0.085544,0.005313,0.001712,0.006419,-0.015364,-0.501781,-0.086097,0.818423,-261.201953,-0.376733,65.868858
3.6064,0.028615,0.006396,-0.083826,0.005313,0.001712,0.006419,-0.014809,-0.502158,-0.085277,0.817285,-261.198839,-0.382831,65.871155
3.6266,0.028682,0.006443,-0.085207,0.005281,0.001644,0.00642,-0.014486,-0.50201,-0.08465,0.817285,-261.198839,-0.382831,65.871155
3.6464,0.02875,0.006585,-0.083666,0.005268,0.001619,0.006421,-0.014548,-0.501667,-0.085003,0.814559,-261.195753,-0.393996,65.873448
3.6662,0.028756,0.006831,-0.085931,0.005242,0.001562,0.006422,-0.013922,-0.501632,-0.083776,0.814559,-261.195753,-0.393996,65.873448
3.6863,0.028767,0.006352,-0.086098,0.00522,0.001515,0.006422,-0.013922,-0.501632,-0.083776,0.814559,-261.195753,-0.393996,65.873448
3.7065,0.029026,0.007059,-0.085948,0.00522,0.001515,0.006422,-0.014864,-0.501711,-0.08583,0.810583,-261.192708,-0.41212,65.875739
3.7261,0.028704,0.006374,-0.084877,0.005199,0.001476,0.006422,-0.014793,-0.501438,-0.085848,0.810583,-261.192708,-0.41212,65.875739
3.7465,0.028855,0.006684,-0.084003,0.005191,0.001462,0.006422,-0.014363,-0.501756,-0.084674,0.805753,-261.189718,-0.432198,65.878019
3.7666,0.02894,0.006595,-0.085179,0.005174,0.001429,0.006422,-0.013969,-0.50154,-0.084058,0.805753,-261.189718,-0.432198,65.878019
3.7866,0.0295,0.006579,-0.082328,0.005159,0.001401,0.006422,-0.013969,-0.50154,-0.084058,0.805753,-261.189718,-0.432198,65.878019
3.8065,0.028865,0.006792,-0.084348,0.005159,0.001401,0.006422,-0.012219,-0.501651,-0.082059,0.803658,-261.186732,-0.442624,65.880313
3.8273,0.029291,0.006647,-0.083385,0.005105,0.001299,0.006423,-0.012958,-0.501542,-0.082958,0.803658,-261.186732,-0.442624,65.880313
3.8466,0.029057,0.006623,-0.08438,0.005083,0.00126,0.006424,-0.013016,-0.501549,-0.083177,0.801077,-261.183768,-0.454596,65.882608
3.8663,0.029128,0.006753,-0.0832,0.005078,0.001257,0.006424,-0.013825,-0.50156,-0.084247,0.801077,-261.183768,-0.454596,65.882608
3.8864,0.029214,0.00685,-0.083839,0.005074,0.001255,0.006424,-0.013825,-0.50156,-0.084247,0.801077,-261.183768,-0.454596,65.882608
3.9067,0.028963,0.006695,-0.08448,0.005074,0.001255,0.006424,-0.013281,-0.501324,-0.083574,0.795131,-261.180907,-0.482631,65.88487
3.9264,0.029344,0.00687,-0.082355,0.005054,0.001222,0.006424,-0.013578,-0.501386,-0.083913,0.795131,-261.180907,-0.482631,65.88487
3.9465,0.029629,0.0071,-0.083451,0.005046,0.00121,0.006424,-0.012446,-0.501375,-0.082151,0.795573,-261.178008,-0.484109,65.887163
3.9666,0.029393,0.006624,-0.082675,0.005022,0.001164,0.006424,-0.012834,-0.501146,-0.083324,0.795573,-261.178008,-0.484109,65.887163
3.9862,0.029131,0.006807,-0.083743,0.005,0.001125,0.006424,-0.012834,-0.501146,-0.083324,0.795573,-261.178008,-0.484109,65.887163
4.0062,0.029561,0.006973,-0.08288,0.005,0.001125,0.006424,-0.013314,-0.501373,-0.083474,0.793961,-261.175132,-0.493399,65.889451
4.0265,0.029518,0.006665,-0.081668,0.004979,0.001094,0.006425,-0.013023,-0.50133,-0.083202,0.793961,-261.175132,-0.493399,65.889451
4.0467,0.029575,0.00685,-0.08211,0.00497,0.001082,0.006425,-0.011925,-0.501612,-0.081463,0.790254,-261.172303,-0.510183,65.891732
4.0664,0.029633,0.00703,-0.084178,0.00495,0.001049,0.006425,-0.012216,-0.501447,-0.082041,0.790254,-261.172303,-0.510183,65.891732
4.0863,0.02988,0.00692,-0.083075,0.004933,0.001022,0.006426,-0.012216,-0.501447,-0.082041,0.790254,-261.172303,-0.510183,65.891732
4.1061,0.029355,0.006833,-0.081825,0.004933,0.001022,0.006426,-0.012229,-0.501293,-0.082807,0.788985,-261.169486,-0.519433,65.894019
4.1264,0.029596,0.006838,-0.082509,0.004902,0.000975,0.006427,-0.012246,-0.501359,-0.082374,0.788985,-261.169486,-0.519433,65.894019
4.1464,0.029532,0.006914,-0.082886,0.00489,0.000957,0.006427,-0.012277,-0.501407,-0.082305,0.786782,-261.166692,-0.53188,65.896308
4.1662,0.030088,0.007013,-0.081057,0.004887,0.000956,0.006427,-0.012647,-0.501341,-0.082825,0.786782,-261.166692,-0.53188,65.896308
4.1863,0.029684,0.006979,-0.081819,0.004884,0.000955,0.006427,-0.012647,-0.501341,-0.082825,0.786782,-261.166692,-0.53188,65.896308
4.2064,0.030179,0.007126,-0.081523,0.004884,0.000955,0.006427,-0.01179,-0.501292,-0.081551,0.784642,-261.163943,-0.545465,65.898584
4.2269,0.029734,0.00733,-0.081268,0.004834,0.000875,0.006427,-0.011589,-0.501244,-0.081509,0.784642,-261.163943,-0.545465,65.898584
4.2462,0.029841,0.007226,-0.079984,0.004815,0.000844,0.006428,-0.011509,-0.500969,-0.081063,0.78506,-261.161181,-0.546422,65.90087
4.2661,0.029897,0.007398,-0.08133,0.004779,0.000789,0.006427,-0.010954,-0.501127,-0.080072,0.78506,-261.161181,-0.546422,65.90087
4.2864,0.029731,0.007102,-0.079608,0.004748,0.000743,0.006428,-0.010954,-0.501127,-0.080072,0.78506,-261.161181,-0.546422,65.90087
4.3062,0.029836,0.007303,-0.079402,0.004748,0.000743,0.006428,-0.010624,-0.501263,-0.079341,0.780763,-261.158493,-0.56931,65.903138
4.3263,0.030128,0.00721,-0.081173,0.004683,0.000651,0.006427,-0.010598,-0.501191,-0.079335,0.780763,-261.158493,-0.56931,65.903138
4.3464,0.030301,0.007439,-0.08021,0.004657,0.000616,0.006428,-0.011073,-0.501099,-0.08097,0.776962,-261.155849,-0.590617,65.905407
4.3662,0.03038,0.00721,-0.082038,0.004628,0.000577,0.006427,-0.010601,-0.500936,-0.080268,0.776962,-261.155849,-0.590617,65.905407
4.3861,0.029834,0.007016,-0.079485,0.004604,0.000544,0.006427,-0.010601,-0.500936,-0.080268,0.776962,-261.155849,-0.590617,65.905407
4.4071,0.02996,0.007148,-0.079828,0.004604,0.000544,0.006427,-0.010467,-0.501363,-0.07922,0.772907,-261.153279,-0.617838,65.907664
4.4262,0.030492,0.006884,-0.081378,0.004581,0.000524,0.006428,-0.01054,-0.501309,-0.079428,0.772907,-261.153279,-0.617838,65.907664
4.4469,0.030149,0.007569,-0.080355,0.004572,0.000516,0.006429,-0.010818,-0.501423,-0.081175,0.770626,-261.15072,-0.633432,65.909943
4.4663,0.030309,0.007392,-0.079845,0.004559,0.000499,0.006429,-0.010783,-0.50084,-0.080416,0.770626,-261.15072,-0.633432,65.909943
4.4864,0.030345,0.007486,-0.08029,0.004548,0.000484,0.006429,-0.010783,-0.50084,-0.080416,0.770626,-261.15072,-0.633432,65.909943
4.5061,0.030239,0.007452,-0.081264,0.004548,0.000484,0.006429,-0.010367,-0.500865,-0.080022,0.771005,-261.148171,-0.64084,65.912222
4.5268,0.030357,0.007195,-0.080015,0.004526,0.000456,0.006429,-0.010671,-0.500864,-0.080503,0.771005,-261.148171,-0.64084,65.912222
4.5464,0.030071,0.006923,-0.08031,0.004517,0.000445,0.006429,-0.010261,-0.50117,-0.07981,0.770041,-261.145643,-0.64785,65.914499
4.5664,0.030536,0.007223,-0.078879,0.004526,0.000465,0.00643,-0.010783,-0.501409,-0.080254,0.770041,-261.145643,-0.64785,65.914499
4.5863,0.029591,0.007197,-0.079645,0.004533,0.000482,0.00643,-0.010783,-0.501409,-0.080254,0.770041,-261.145643,-0.64785,65.914499
4.6063,0.030582,0.007346,-0.077871,0.004533,0.000482,0.00643,-0.010795,-0.501182,-0.079376,0.769086,-261.143127,-0.656633,65.916782
4.6267,0.030403,0.007126,-0.079438,0.004495,0.000431,0.00643,-0.010069,-0.501152,-0.078723,0.769086,-261.143127,-0.656633,65.916782
4.6464,0.030581,0.00727,-0.079105,0.00448,0.000412,0.00643,-0.009923,-0.501262,-0.079234,0.771552,-261.140601,-0.649869,65.919056
4.6664,0.030632,0.007321,-0.077832,0.004457,0.000382,0.00643,-0.009731,-0.501146,-0.079106,0.771552,-261.140601,-0.649869,65.919056
4.6865,0.030388,0.007462,-0.078918,0.004437,0.000357,0.00643,-0.009731,-0.501146,-0.079106,0.771552,-261.140601,-0.649869,65.919056
4.7065,0.030543,0.007354,-0.076733,0.004437,0.000357,0.00643,-0.009632,-0.500948,-0.07865,0.769378,-261.138114,-0.665305,65.921326
4.7268,0.030791,0.007306,-0.078485,0.004362,0.000265,0.006428,-0.009165,-0.501029,-0.077829,0.769378,-261.138114,-0.665305,65.921326
4.7465,0.030482,0.007525,-0.07803,0.004333,0.00023,0.006428,-0.009055,-0.501123,-0.078281,0.767866,-261.135653,-0.677521,65.923599
4.7664,0.030381,0.007257,-0.078573,0.004308,0.0002,0.006428,-0.009248,-0.50094,-0.078042,0.767866,-261.135653,-0.677521,65.923599
4.7863,0.030247,0.007305,-0.078199,0.004286,0.000176,0.006428,-0.009248,-0.50094,-0.078042,0.767866,-261.135653,-0.677521,65.923599
4.8061,0.030701,0.007234,-0.078787,0.004286,0.000176,0.006428,-0.009415,-0.501141,-0.077934,0.764529,-261.133284,-0.706288,65.925846
4.8263,0.03077,0.007452,-0.076348,0.004274,0.000169,0.00643,-0.009404,-0.501159,-0.078257,0.764529,-261.133284,-0.706288,65.925846
4.8461,0.030733,0.007144,-0.076952,0.004269,0.000166,0.006431,-0.007994,-0.501067,-0.076144,0.763442,-261.130917,-0.718729,65.928118
4.8662,0.030717,0.007344,-0.07656,0.004233,0.000127,0.00643,-0.008426,-0.501323,-0.076873,0.763442,-261.130917,-0.718729,65.928118
4.8862,0.0305,0.007355,-0.075423,0.004202,9.4e-05,0.006429,-0.008426,-0.501323,-0.076873,0.763442,-261.130917,-0.718729,65.928118
4.9066,0.030725,0.007323,-0.077498,0.004202,9.4e-05,0.006429,-0.007751,-0.501202,-0.075155,0.764401,-261.128556,-0.722291,65.930389
4.9267,0.030604,0.007401,-0.076647,0.004122,1e-05,0.006428,-0.008141,-0.50118,-0.076077,0.764401,-261.128556,-0.722291,65.930389
4.946,0.03063,0.007569,-0.077758,0.004091,-2.2e-05,0.006428,-0.008314,-0.501109,-0.076443,0.763422,-261.126241,-0.73944,65.932654
4.9661,0.03056,0.007575,-0.076628,0.004087,-2.5e-05,0.00643,-0.008919,-0.50091,-0.077629,0.763422,-261.126241,-0.73944,65.932654
4.9863,0.030866,0.007442,-0.07637,0.004085,-2.7e-05,0.006431,-0.008919,-0.50091,-0.077629,0.763422,-261.126241,-0.73944,65.932654
5.0062,0.030931,0.007217,-0.07553,0.004085,-2.7e-05,0.006431,-0.007876,-0.501085,-0.076104,0.76205,-261.124008,-0.767717,65.934899
5.0261,0.030721,0.007325,-0.07584,0.004002,-0.000108,0.006429,-0.007725,-0.501186,-0.075839,0.76205,-261.124008,-0.767717,65.934899
5.0463,0.030678,0.007892,-0.077287,0.00397,-0.000139,0.006429,-0.007791,-0.50122,-0.075635,0.762444,-261.121744,-0.769233,65.937177
5.0664,0.031063,0.007293,-0.077899,0.003964,-0.000146,0.00643,-0.008615,-0.50064,-0.077136,0.762444,-261.121744,-0.769233,65.937177
5.0865,0.030671,0.007171,-0.075641,0.003959,-0.000152,0.006431,-0.008615,-0.50064,-0.077136,0.762444,-261.121744,-0.769233,65.937177
5.1062,0.030956,0.007317,-0.076987,0.003959,-0.000152,0.006431,-0.007706,-0.501389,-0.075376,0.761885,-261.119578,-0.797317,65.939421
5.1266,0.031023,0.007387,-0.076306,0.003934,-0.00017,0.006433,-0.00792,-0.501301,-0.076012,0.761885,-261.119578,-0.797317,65.939421
5.1465,0.031062,0.007491,-0.076203,0.003925,-0.000176,0.006433,-0.007729,-0.501144,-0.076101,0.7617,-261.117389,-0.800357,65.941695
5.1663,0.030978,0.007498,-0.075226,0.003901,-0.0002,0.006433,-0.007755,-0.50104,-0.076184,0.7617,-261.117389,-0.800357,65.941695
5.1867,0.030798,0.007242,-0.075897,0.00388,-0.000219,0.006433,-0.007755,-0.50104,-0.076184,0.7617,-261.117389,-0.800357,65.941695
5.2065,0.031081,0.006976,-0.074525,0.00388,-0.000219,0.006433,-0.00771,-0.501309,-0.075628,0.763037,-261.115219,-0.807927,65.943964
5.2265,0.030978,0.007143,-0.073664,0.003835,-0.000255,0.006433,-0.007352,-0.501435,-0.075141,0.763037,-261.115219,-0.807927,65.943964
5.2462,0.03099,0.007599,-0.074776,0.003818,-0.000269,0.006433,-0.006435,-0.50149,-0.07346,0.762879,-261.113076,-0.818755,65.946232
5.2664,0.031093,0.007647,-0.075034,0.003774,-0.00031,0.006431,-0.007047,-0.501021,-0.074654,0.762879,-261.113076,-0.818755,65.946232
5.2867,0.030882,0.007766,-0.074515,0.003736,-0.000345,0.00643,-0.007047,-0.501021,-0.074654,0.762879,-261.113076,-0.818755,65.946232
5.3064,0.031098,0.007563,-0.073874,0.003736,-0.000345,0.00643,-0.006928,-0.500842,-0.074247,0.764364,-261.110971,-0.832823,65.948491
5.3265,0.031044,0.00748,-0.07444,0.003642,-0.000428,0.006428,-0.006753,-0.500928,-0.074064,0.764364,-261.110971,-0.832823,65.948491
5.3462,0.031156,0.007447,-0.075449,0.003606,-0.00046,0.006428,-0.006769,-0.501127,-0.074237,0.764406,-261.108913,-0.852246,65.950747
5.3663,0.030968,0.007352,-0.075012,0.003606,-0.000457,0.006431,-0.007232,-0.501106,-0.075326,0.764406,-261.108913,-0.852246,65.950747
5.3866,0.031027,0.007851,-0.075178,0.003607,-0.000455,0.006434,-0.007232,-0.501106,-0.075326,0.764406,-261.108913,-0.852246,65.950747
5.4064,0.031317,0.007215,-0.073992,0.003607,-0.000455,0.006434,-0.007131,-0.500739,-0.074913,0.765629,-261.106938,-0.88269,65.95299
5.4267,0.030859,0.007376,-0.073797,0.00356,-0.000495,0.006434,-0.006804,-0.501012,-0.0745,0.765629,-261.106938,-0.88269,65.95299
5.4466,0.03076,0.007112,-0.073885,0.003541,-0.00051,0.006434,-0.00663,-0.501259,-0.073592,0.766697,-261.104939,-0.882403,65.955255
5.4664,0.030982,0.007503,-0.072138,0.003543,-0.000503,0.006436,-0.006858,-0.501476,-0.073848,0.766697,-261.104939,-0.882403,65.955255
5.4863,0.030999,0.007179,-0.074082,0.003545,-0.000497,0.006438,-0.006858,-0.501476,-0.073848,0.766697,-261.104939,-0.882403,65.955255
5.5061,0.030753,0.007686,-0.074591,0.003545,-0.000497,0.006438,-0.006602,-0.501454,-0.073813,0.767918,-261.102959,-0.897475,65.95754
5.5266,0.031197,0.007189,-0.072999,0.003533,-0.000506,0.00644,-0.006866,-0.501217,-0.074118,0.767918,-261.102959,-0.897475,65.95754
5.5463,0.03093,0.007205,-0.072886,0.003528,-0.000509,0.00644,-0.00589,-0.501476,-0.072797,0.769661,-261.101,-0.895823,65.959791
5.5663,0.030952,0.007156,-0.07368,0.003491,-0.000536,0.006438,-0.006176,-0.501445,-0.072868,0.769661,-261.101,-0.895823,65.959791
5.5868,0.030801,0.007348,-0.071831,0.00346,-0.000559,0.006437,-0.006176,-0.501445,-0.072868,0.769661,-261.101,-0.895823,65.959791
5.6063,0.031117,0.006779,-0.072408,0.00346,-0.000559,0.006437,-0.005656,-0.501369,-0.071562,0.770513,-261.099037,-0.899596,65.962056
5.6266,0.031486,0.007144,-0.071881,0.003362,-0.000627,0.006433,-0.005689,-0.501583,-0.071877,0.770513,-261.099037,-0.899596,65.962056
5.6464,0.03096,0.007369,-0.07269,0.003324,-0.000653,0.006433,-0.005034,-0.501565,-0.071677,0.772585,-261.09711,-0.914224,65.964316
5.6663,0.031254,0.007442,-0.07187,0.003303,-0.00067,0.006434,-0.005979,-0.501311,-0.072588,0.772585,-261.09711,-0.914224,65.964316
5.6865,0.031117,0.007302,-0.073706,0.003285,-0.000684,0.006436,-0.005979,-0.501311,-0.072588,0.772585,-261.09711,-0.914224,65.964316
5.7063,0.030892,0.007014,-0.071601,0.003285,-0.000684,0.006436,-0.006304,-0.501351,-0.07344,0.778122,-261.095269,-0.943141,65.966549
5.7268,0.030788,0.007317,-0.069592,0.00327,-0.000692,0.006439,-0.005997,-0.501489,-0.072657,0.778122,-261.095269,-0.943141,65.966549
5.7461,0.031037,0.006993,-0.072337,0.003263,-0.000695,0.00644,-0.004573,-0.501477,-0.069388,0.779579,-261.093421,-0.952156,65.968816
5.7662,0.031089,0.007261,-0.071576,0.003245,-0.000706,0.006441,-0.005711,-0.501658,-0.072076,0.779579,-261.093421,-0.952156,65.968816
5.7865,0.030999,0.007275,-0.069759,0.00323,-0.000714,0.006441,-0.005711,-0.501658,-0.072076,0.779579,-261.093421,-0.952156,65.968816
5.8066,0.03124,0.007089,-0.06993,0.00323,-0.000714,0.006441,-0.004416,-0.501523,-0.06949,0.781521,-261.091568,-0.956691,65.971098
5.8267,0.031132,0.007222,-0.070805,0.003015,-0.000841,0.006424,-0.004391,-0.501588,-0.069649,0.781521,-261.091568,-0.956691,65.971098
5.8463,0.031481,0.007103,-0.071271,0.002934,-0.00089,0.00642,-0.004849,-0.50153,-0.070602,0.783787,-261.089761,-0.963527,65.973341
5.8666,0.031123,0.006982,-0.071986,0.002904,-0.00091,0.006423,-0.004832,-0.501597,-0.071203,0.783787,-261.089761,-0.963527,65.973341
5.8864,0.031083,0.006957,-0.070334,0.002878,-0.000927,0.006426,-0.004832,-0.501597,-0.071203,0.783787,-261.089761,-0.963527,65.973341
5.9063,0.031051,0.007062,-0.070243,0.002878,-0.000927,0.006426,-0.004645,-0.501825,-0.070082,0.801733,-261.088174,-1.023134,65.975461
5.9262,0.030916,0.007044,-0.070412,0.002823,-0.000958,0.006428,-0.004672,-0.50177,-0.070119,0.801733,-261.088174,-1.023134,65.975461
5.9464,0.030823,0.007024,-0.06971,0.002802,-0.000969,0.00643,-0.004876,-0.501728,-0.070208,0.805761,-261.086517,-1.03546,65.97771
5.9664,0.031265,0.006957,-0.070282,0.002786,-0.000978,0.006431,-0.004711,-0.501738,-0.069743,0.805761,-261.086517,-1.03546,65.97771
5.9863,0.031086,0.006878,-0.072058,0.002772,-0.000986,0.006433,-0.004711,-0.501738,-0.069743,0.805761,-261.086517,-1.03546,65.97771
6.0067,0.030956,0.007275,-0.069337,0.002772,-0.000986,0.006433,-0.005518,-0.501847,-0.07179,0.812479,-261.084897,-1.051041,65.979953
6.026,0.031735,0.006699,-0.069154,0.002798,-0.00097,0.006439,-0.005043,-0.501712,-0.070767,0.812479,-261.084897,-1.051041,65.979953
6.0461,0.031002,0.007222,-0.068708,0.002807,-0.000964,0.006442,-0.003419,-0.50212,-0.068949,0.815252,-261.083273,-1.057197,65.982221
6.0664,0.031043,0.006793,-0.067823,0.002722,-0.001009,0.006433,-0.003962,-0.501617,-0.068717,0.815252,-261.083273,-1.057197,65.982221
6.0865,0.031104,0.006583,-0.070572,0.002651,-0.001047,0.006427,-0.003962,-0.501617,-0.068717,0.815252,-261.083273,-1.057197,65.982221
6.1062,0.0309,0.007059,-0.071206,0.002651,-0.001047,0.006427,-0.004744,-0.502195,-0.070304,0.813591,-261.081648,-1.050389,65.984465
6.1264,0.030983,0.006588,-0.068662,0.002722,-0.000999,0.00644,-0.004993,-0.501977,-0.070642,0.813591,-261.081648,-1.050389,65.984465
6.1462,0.030653,0.006689,-0.070298,0.002749,-0.000981,0.006444,-0.003927,-0.502248,-0.068461,0.826623,-261.08011,-1.08101,65.98668
6.1663,0.030965,0.0068,-0.069778,0.002779,-0.00096,0.006448,-0.005056,-0.502071,-0.070125,0.826623,-261.08011,-1.08101,65.98668
6.1864,0.03118,0.007066,-0.070785,0.002805,-0.000942,0.006451,-0.005056,-0.502071,-0.070125,0.826623,-261.08011,-1.08101,65.98668
6.2062,0.030827,0.006295,-0.069411,0.002805,-0.000942,0.006451,-0.004778,-0.501705,-0.070517,0.821476,-261.078503,-1.060986,65.988922
6.2262,0.030777,0.00644,-0.068052,0.002786,-0.000952,0.006448,-0.004669,-0.50203,-0.070029,0.821476,-261.078503,-1.060986,65.988922
6.2464,0.031003,0.006708,-0.067624,0.002779,-0.000956,0.006448,-0.003817,-0.502416,-0.067848,0.818628,-261.076865,-1.049344,65.991168
6.2662,0.031243,0.00652,-0.070108,0.002667,-0.001007,0.006437,-0.003485,-0.502153,-0.067633,0.818628,-261.076865,-1.049344,65.991168
6.2864,0.03108,0.006504,-0.067445,0.002575,-0.001049,0.006429,-0.003485,-0.502153,-0.067633,0.818628,-261.076865,-1.049344,65.991168
6.3064,0.031295,0.006333,-0.068326,0.002575,-0.001049,0.006429,-0.003178,-0.502384,-0.067176,0.820649,-261.075228,-1.05437,65.993429
6.3261,0.030875,0.006718,-0.06754,0.002416,-0.001113,0.006423,-0.003311,-0.502429,-0.06763,0.820649,-261.075228,-1.05437,65.993429
6.3464,0.030613,0.006776,-0.066473,0.002357,-0.001137,0.006422,-0.003468,-0.502157,-0.067344,0.840946,-261.07374,-1.093331,65.995588
6.366,0.030726,0.006442,-0.067611,0.002294,-0.001168,0.006419,-0.003278,-0.502105,-0.066541,0.840946,-261.07374,-1.093331,65.995588
6.3862,0.030659,0.006304,-0.067655,0.002242,-0.001194,0.006418,-0.003278,-0.502105,-0.066541,0.840946,-261.07374,-1.093331,65.995588
6.4065,0.030928,0.006411,-0.067029,0.002242,-0.001194,0.006418,-0.003727,-0.502582,-0.067396,0.868534,-261.072338,-1.134825,65.997733
6.4261,0.030713,0.006455,-0.068033,0.002231,-0.001193,0.006426,-0.003515,-0.502532,-0.067217,0.868534,-261.072338,-1.134825,65.997733
6.446,0.030701,0.006209,-0.066508,0.002226,-0.001192,0.00643,-0.00389,-0.502407,-0.067831,0.882458,-261.070942,-1.157547,65.999941
6.4666,0.030665,0.005874,-0.068069,0.002199,-0.001198,0.006431,-0.003251,-0.502643,-0.066615,0.882458,-261.070942,-1.157547,65.999941
6.4865,0.030415,0.006306,-0.067869,0.002177,-0.001202,0.006432,-0.003251,-0.502643,-0.066615,0.882458,-261.070942,-1.157547,65.999941
6.5068,0.030698,0.005897,-0.06676,0.002177,-0.001202,0.006432,-0.004082,-0.502576,-0.067601,0.887584,-261.069532,-1.160621,66.002173
6.5264,0.03036,0.006043,-0.065288,0.002246,-0.00116,0.006444,-0.003765,-0.502741,-0.067229,0.887584,-261.069532,-1.160621,66.002173
6.5465,0.030486,0.006487,-0.065952,0.002272,-0.001144,0.006447,-0.002847,-0.502914,-0.065084,0.896981,-261.068141,-1.169584,66.004396
6.5668,0.030454,0.006425,-0.067046,0.002214,-0.001169,0.006442,-0.003096,-0.502453,-0.065862,0.896981,-261.068141,-1.169584,66.004396
6.5867,0.030572,0.006179,-0.06496,0.002166,-0.001191,0.006438,-0.003096,-0.502453,-0.065862,0.896981,-261.068141,-1.169584,66.004396
6.6065,0.030774,0.005983,-0.066136,0.002166,-0.001191,0.006438,-0.002443,-0.502799,-0.064691,0.887976,-261.066709,-1.150315,66.006609
6.6268,0.030676,0.006228,-0.066668,0.002013,-0.001233,0.006433,-0.00263,-0.502847,-0.065244,0.887976,-261.066709,-1.150315,66.006609
6.6467,0.030578,0.006246,-0.06594,0.001956,-0.00125,0.006433,-0.003233,-0.502682,-0.066462,0.902173,-261.065327,-1.170824,66.008809
6.6663,0.030682,0.006414,-0.066366,0.001953,-0.001254,0.006436,-0.003043,-0.502651,-0.065978,0.902173,-261.065327,-1.170824,66.008809
6.6864,0.030447,0.006194,-0.066106,0.00195,-0.001257,0.006439,-0.003043,-0.502651,-0.065978,0.902173,-261.065327,-1.170824,66.008809
6.7064,0.03047,0.005797,-0.064896,0.00195,-0.001257,0.006439,-0.003167,-0.502747,-0.065849,0.94007,-261.064061,-1.209609,66.010922
6.7265,0.030452,0.005932,-0.06473,0.001935,-0.001255,0.006444,-0.00293,-0.502909,-0.065433,0.94007,-261.064061,-1.209609,66.010922
6.746,0.030475,0.006078,-0.066507,0.00193,-0.001254,0.006446,-0.002478,-0.503044,-0.064524,0.940852,-261.062737,-1.211337,66.013139
6.7662,0.030346,0.006461,-0.06489,0.001968,-0.001239,0.00645,-0.00333,-0.502819,-0.066318,0.940852,-261.062737,-1.211337,66.013139
6.7862,0.030463,0.005842,-0.065836,0.001999,-0.001226,0.006453,-0.00333,-0.502819,-0.066318,0.940852,-261.062737,-1.211337,66.013139
6.8064,0.030083,0.005751,-0.064931,0.001999,-0.001226,0.006453,-0.003012,-0.503111,-0.065566,0.947172,-261.061411,-1.214907,66.015361
6.8265,0.030098,0.00609,-0.064747,0.001997,-0.001212,0.006456,-0.003002,-0.503144,-0.065273,0.947172,-261.061411,-1.214907,66.015361
6.8461,0.030129,0.006186,-0.064347,0.001996,-0.001206,0.006457,-0.002839,-0.502884,-0.064544,0.93617,-261.060074,-1.201718,66.017558
6.8662,0.030046,0.005804,-0.065215,0.001946,-0.001227,0.006453,-0.002678,-0.502772,-0.064354,0.93617,-261.060074,-1.201718,66.017558
6.8863,0.030606,0.006029,-0.064355,0.001905,-0.001245,0.00645,-0.002678,-0.502772,-0.064354,0.93617,-261.060074,-1.201718,66.017558
6.9066,0.030275,0.005718,-0.064531,0.001905,-0.001245,0.00645,-0.002113,-0.502971,-0.064085,0.940891,-261.058719,-1.201057,66.019767
6.9267,0.030161,0.005675,-0.06221,0.001772,-0.001277,0.006449,-0.002307,-0.503079,-0.064235,0.940891,-261.058719,-1.201057,66.019767
6.946,0.030252,0.005894,-0.063596,0.001722,-0.00129,0.006451,-0.001488,-0.503382,-0.062006,0.955529,-261.057411,-1.218707,66.021957
6.9662,0.029998,0.005851,-0.063217,0.001654,-0.001307,0.006451,-0.002097,-0.503104,-0.063443,0.955529,-261.057411,-1.218707,66.021957
6.9861,0.03021,0.005912,-0.062247,0.001598,-0.001321,0.006453,-0.002097,-0.503104,-0.063443,0.955529,-261.057411,-1.218707,66.021957
7.0062,0.029831,0.005723,-0.063929,0.001598,-0.001321,0.006453,-0.00145,-0.503156,-0.061988,0.994385,-261.056199,-1.252644,66.024068
7.0263,0.030101,0.005498,-0.062735,0.001485,-0.001345,0.006458,-0.00197,-0.503195,-0.062746,0.994385,-261.056199,-1.252644,66.024068
7.0464,0.029883,0.005439,-0.062475,0.001443,-0.001354,0.006462,-0.001826,-0.503544,-0.062533,1.023191,-261.054998,-1.275963,66.02622
7.0665,0.029758,0.005454,-0.063645,0.001412,-0.001349,0.006469,-0.001944,-0.503566,-0.06247,1.023191,-261.054998,-1.275963,66.02622
7.0866,0.029868,0.005603,-0.062836,0.001386,-0.001345,0.006476,-0.001944,-0.503566,-0.06247,1.023191,-261.054998,-1.275963,66.02622
7.1066,0.029662,0.005674,-0.061979,0.001386,-0.001345,0.006476,-0.002103,-0.503448,-0.062576,1.062859,-261.053856,-1.304966,66.028334
7.1269,0.029463,0.005425,-0.064316,0.001363,-0.001345,0.006484,-0.002025,-0.503414,-0.062303,1.062859,-261.053856,-1.304966,66.028334
7.1463,0.029542,0.00528,-0.062634,0.001354,-0.001345,0.006487,-0.003275,-0.503565,-0.064112,1.08267,-261.052683,-1.315035,66.030508
7.1667,0.02956,0.005595,-0.062668,0.001415,-0.001316,0.006496,-0.002457,-0.503708,-0.062755,1.08267,-261.052683,-1.315035,66.030508
7.1868,0.029751,0.006002,-0.063575,0.001464,-0.001292,0.006503,-0.002457,-0.503708,-0.062755,1.08267,-261.052683,-1.315035,66.030508
7.2061,0.029652,0.005188,-0.062321,0.001464,-0.001292,0.006503,-0.002598,-0.503028,-0.063305,1.093245,-261.051507,-1.320927,66.032694
7.2263,0.02944,0.005181,-0.063458,0.001503,-0.001287,0.006503,-0.002392,-0.50336,-0.06287,1.093245,-261.051507,-1.320927,66.032694
7.2463,0.029584,0.005456,-0.060771,0.001518,-0.001285,0.006503,-0.002859,-0.503836,-0.063254,1.070895,-261.050305,-1.299589,66.034846
7.2662,0.029531,0.005598,-0.062322,0.001408,-0.001299,0.006499,-0.001521,-0.503626,-0.060985,1.070895,-261.050305,-1.299589,66.034846
7.2864,0.029445,0.005545,-0.062247,0.001319,-0.001312,0.006498,-0.001521,-0.503626,-0.060985,1.070895,-261.050305,-1.299589,66.034846
7.3062,0.029467,0.005805,-0.061587,0.001319,-0.001312,0.006498,-0.00222,-0.503524,-0.061976,1.056485,-261.049076,-1.28966,66.037024
7.3264,0.029466,0.005238,-0.061038,0.001336,-0.001318,0.006504,-0.002092,-0.50341,-0.061786,1.056485,-261.049076,-1.28966,66.037024
7.3463,0.029154,0.005314,-0.060214,0.001342,-0.00132,0.006505,-0.001607,-0.503854,-0.060844,1.109936,-261.047967,-1.326005,66.03906
7.3664,0.029303,0.005501,-0.061539,0.00127,-0.001323,0.006506,-0.001541,-0.503772,-0.06026,1.109936,-261.047967,-1.326005,66.03906
7.3866,0.029374,0.00538,-0.06119,0.001211,-0.001326,0.006508,-0.001541,-0.503772,-0.06026,1.109936,-261.047967,-1.326005,66.03906
7.4061,0.029215,0.005148,-0.061466,0.001211,-0.001326,0.006508,-0.00176,-0.503724,-0.060918,1.10261,-261.046779,-1.322544,66.041242
7.4266,0.029137,0.005108,-0.060455,0.001228,-0.001311,0.006519,-0.001898,-0.503798,-0.06111,1.10261,-261.046779,-1.322544,66.041242
7.4468,0.029006,0.005051,-0.061866,0.001234,-0.001305,0.006523,-0.001641,-0.504004,-0.060254,1.141817,-261.045652,-1.346148,66.043345
7.4665,0.029161,0.004998,-0.061627,0.001322,-0.001269,0.006531,-0.002441,-0.503979,-0.061704,1.141817,-261.045652,-1.346148,66.043345
7.4863,0.029153,0.005242,-0.060279,0.001393,-0.00124,0.006536,-0.002441,-0.503979,-0.061704,1.141817,-261.045652,-1.346148,66.043345
7.5065,0.028894,0.005061,-0.060713,0.001393,-0.00124,0.006536,-0.001523,-0.503889,-0.060006,1.139297,-261.044473,-1.341638,66.045517
7.5264,0.028786,0.005111,-0.05957,0.001305,-0.001247,0.006534,-0.001733,-0.503941,-0.060264,1.139297,-261.044473,-1.341638,66.045517
7.5463,0.028996,0.005422,-0.060111,0.001273,-0.00125,0.006535,-0.001536,-0.504024,-0.05937,1.102095,-261.043285,-1.3105,66.047602
7.5667,0.028899,0.005016,-0.060403,0.001228,-0.001267,0.006532,-0.00163,-0.503692,-0.060035,1.102095,-261.043285,-1.3105,66.047602
7.5865,0.029281,0.005035,-0.061106,0.001192,-0.00128,0.006531,-0.00163,-0.503692,-0.060035,1.102095,-261.043285,-1.3105,66.047602
7.6065,0.028971,0.00518,-0.059452,0.001192,-0.00128,0.006531,-0.001815,-0.504067,-0.060839,1.135948,-261.042107,-1.332531,66.049704
7.6266,0.028613,0.005383,-0.058971,0.001142,-0.001276,0.006539,-0.001613,-0.504013,-0.060244,1.135948,-261.042107,-1.332531,66.049704
7.6467,0.028635,0.004824,-0.059076,0.001123,-0.001275,0.006542,-0.00141,-0.503773,-0.058765,1.156214,-261.040936,-1.348307,66.051842
7.6665,0.028531,0.004922,-0.059063,0.001086,-0.001267,0.006547,-0.001469,-0.504242,-0.059038,1.156214,-261.040936,-1.348307,66.051842
7.6865,0.028811,0.004931,-0.060672,0.001056,-0.00126,0.006551,-0.001469,-0.504242,-0.059038,1.156214,-261.040936,-1.348307,66.051842
7.7065,0.028776,0.005267,-0.059039,0.001056,-0.00126,0.006551,-0.002069,-0.504186,-0.060401,1.179203,-261.039771,-1.360816,66.053975
7.7266,0.028886,0.004543,-0.058303,0.001094,-0.001252,0.006559,-0.001757,-0.504053,-0.059814,1.179203,-261.039771,-1.360816,66.053975
7.7463,0.028625,0.005057,-0.058973,0.001107,-0.001249,0.006561,-0.000801,-0.504632,-0.058097,1.203092,-261.03861,-1.37271,66.056097
7.7664,0.028243,0.004938,-0.060463,0.001056,-0.001254,0.006561,-0.001376,-0.50411,-0.058884,1.203092,-261.03861,-1.37271,66.056097
7.7862,0.029079,0.005152,-0.058384,0.001015,-0.001258,0.006561,-0.001376,-0.50411,-0.058884,1.203092,-261.03861,-1.37271,66.056097
7.8063,0.028534,0.004916,-0.058517,0.001015,-0.001258,0.006561,-0.000637,-0.504034,-0.058111,1.189025,-261.037426,-1.363134,66.058235
7.8261,0.028435,0.004784,-0.058432,0.000808,-0.001279,0.006556,-0.000897,-0.504112,-0.058243,1.189025,-261.037426,-1.363134,66.058235
7.8462,0.028137,0.004734,-0.058222,0.000734,-0.001288,0.006557,-0.001318,-0.504386,-0.058226,1.217065,-261.036274,-1.380326,66.060344
7.8664,0.02849,0.005001,-0.057434,0.000782,-0.001269,0.00657,-0.001518,-0.504403,-0.058212,1.217065,-261.036274,-1.380326,66.060344
7.8863,0.028279,0.004975,-0.057854,0.00082,-0.001253,0.006579,-0.001518,-0.504403,-0.058212,1.217065,-261.036274,-1.380326,66.060344
7.9063,0.028096,0.005159,-0.057796,0.00082,-0.001253,0.006579,-0.001186,-0.504218,-0.057623,1.292129,-261.035328,-1.432996,66.06214
7.9263,0.028491,0.004784,-0.058193,0.00079,-0.001267,0.00658,-0.001255,-0.50413,-0.057667,1.292129,-261.035328,-1.432996,66.06214
7.946,0.028514,0.004871,-0.056647,0.000779,-0.001272,0.006581,-0.001147,-0.504394,-0.057985,1.282502,-261.034181,-1.416464,66.064262
7.9665,0.02819,0.004774,-0.056752,0.000623,-0.001273,0.00657,-0.000431,-0.504321,-0.056757,1.282502,-261.034181,-1.416464,66.064262
7.9869,0.027978,0.004942,-0.058073,0.000499,-0.001276,0.006565,-0.000431,-0.504321,-0.056757,1.282502,-261.034181,-1.416464,66.064262
8.0064,0.027776,0.004538,-0.056429,0.000499,-0.001276,0.006565,-0.001593,-0.504254,-0.057798,1.294452,-261.033041,-1.42462,66.066397
8.0262,0.027793,0.004344,-0.057501,0.000612,-0.001253,0.006588,-0.001343,-0.504421,-0.05721,1.294452,-261.033041,-1.42462,66.066397
8.0467,0.027654,0.004882,-0.057304,0.000652,-0.001245,0.006595,-0.001505,-0.504847,-0.057329,1.369559,-261.032124,-1.476746,66.068149
8.0663,0.027921,0.004465,-0.057116,0.000726,-0.001235,0.006599,-0.00155,-0.504333,-0.057298,1.369559,-261.032124,-1.476746,66.068149
8.0863,0.027925,0.004373,-0.057006,0.000786,-0.001227,0.006601,-0.00155,-0.504333,-0.057298,1.369559,-261.032124,-1.476746,66.068149
8.1066,0.027532,0.004672,-0.056935,0.000786,-0.001227,0.006601,-0.001109,-0.504851,-0.056738,1.34068,-261.031011,-1.447766,66.070218
8.1266,0.027881,0.004579,-0.054913,0.000787,-0.001188,0.006604,-0.001262,-0.504713,-0.056788,1.34068,-261.031011,-1.447766,66.070218
8.1462,0.027438,0.00421,-0.057286,0.000788,-0.001173,0.006606,-8.8e-05,-0.504691,-0.054711,1.297677,-261.029891,-1.422488,66.072261
8.1664,0.027415,0.00473,-0.055478,0.000854,-0.001136,0.006611,-0.001609,-0.504931,-0.057042,1.297677,-261.029891,-1.422488,66.072261
8.1862,0.027529,0.004397,-0.057055,0.000907,-0.001105,0.006615,-0.001609,-0.504931,-0.057042,1.297677,-261.029891,-1.422488,66.072261
8.2063,0.02732,0.004285,-0.056583,0.000907,-0.001105,0.006615,-0.001524,-0.504824,-0.056779,1.30189,-261.028703,-1.420548,66.07437
8.2264,0.027389,0.00459,-0.05574,0.000954,-0.001074,0.006617,-0.00152,-0.504861,-0.056666,1.30189,-261.028703,-1.420548,66.07437
8.2461,0.026707,0.004496,-0.054321,0.000971,-0.001062,0.006618,-0.000998,-0.504654,-0.055535,1.27096,-261.027504,-1.396232,66.076409
8.2663,0.027176,0.004384,-0.054463,0.000884,-0.001072,0.00661,-0.000983,-0.504745,-0.054416,1.27096,-261.027504,-1.396232,66.076409
8.2864,0.027195,0.00467,-0.056047,0.000814,-0.001081,0.006607,-0.000983,-0.504745,-0.054416,1.27096,-261.027504,-1.396232,66.076409
8.3064,0.027015,0.004133,-0.056377,0.000814,-0.001081,0.006607,-0.001336,-0.504575,-0.055773,1.255759,-261.02626,-1.382793,66.078471
8.3266,0.027341,0.00454,-0.053343,0.000885,-0.001071,0.006614,-0.001488,-0.504776,-0.055986,1.255759,-261.02626,-1.382793,66.078471
8.3462,0.027128,0.004524,-0.056082,0.00091,-0.001067,0.006616,0.000172,-0.504768,-0.053143,1.301776,-261.025093,-1.412921,66.080445
8.3663,0.027044,0.004008,-0.053904,0.000898,-0.001074,0.006614,-0.001312,-0.504684,-0.055809,1.301776,-261.025093,-1.412921,66.080445
8.3863,0.027,0.004168,-0.055039,0.000888,-0.00108,0.006613,-0.001312,-0.504684,-0.055809,1.301776,-261.025093,-1.412921,66.080445
8.4066,0.027088,0.004256,-0.054442,0.000888,-0.00108,0.006613,-0.001021,-0.505105,-0.054768,1.27387,-261.023871,-1.394476,66.082483
8.4263,0.026589,0.004261,-0.054757,0.00072,-0.001057,0.006609,-0.000873,-0.505063,-0.054605,1.27387,-261.023871,-1.394476,66.082483
8.4466,0.02658,0.00394,-0.054486,0.000662,-0.00105,0.006611,-0.001297,-0.505011,-0.054547,1.279328,-261.022634,-1.399095,66.084563
8.4664,0.026429,0.004629,-0.052821,0.00068,-0.001021,0.006619,-0.001201,-0.50528,-0.054481,1.279328,-261.022634,-1.399095,66.084563
8.4865,0.026759,0.004034,-0.054087,0.000694,-0.000998,0.006625,-0.001201,-0.50528,-0.054481,1.279328,-261.022634,-1.399095,66.084563
8.5065,0.026608,0.004373,-0.054422,0.000694,-0.000998,0.006625,-0.00079,-0.505261,-0.053841,1.35284,-261.021545,-1.441448,66.086389
8.5265,0.02644,0.004098,-0.053088,0.000616,-0.000999,0.006626,-0.000927,-0.505107,-0.054049,1.35284,-261.021545,-1.441448,66.086389
8.5464,0.026603,0.004121,-0.054105,0.000589,-0.001,0.006628,-0.000602,-0.505216,-0.052878,1.347044,-261.020296,-1.434157,66.088423
8.5663,0.025847,0.003949,-0.051949,0.00057,-0.000998,0.006632,-0.000942,-0.505142,-0.053983,1.347044,-261.020296,-1.434157,66.088423
8.5863,0.026713,0.004005,-0.05425,0.000555,-0.000997,0.006636,-0.000942,-0.505142,-0.053983,1.347044,-261.020296,-1.434157,66.088423
8.6063,0.026573,0.004035,-0.051461,0.000555,-0.000997,0.006636,-0.000919,-0.505287,-0.05398,1.379883,-261.019084,-1.45463,66.090407
8.6265,0.026403,0.004243,-0.053292,0.000328,-0.00098,0.006625,-0.000402,-0.505293,-0.052919,1.379883,-261.019084,-1.45463,66.090407
8.6464,0.026617,0.004256,-0.054285,0.000248,-0.000976,0.006626,-0.000747,-0.505065,-0.053081,1.391255,-261.017845,-1.461387,66.092434
8.6666,0.026271,0.003951,-0.052755,0.000315,-0.00099,0.00664,-0.001025,-0.505001,-0.054159,1.391255,-261.017845,-1.461387,66.092434
8.6865,0.026311,0.004021,-0.052965,0.000367,-0.001001,0.00665,-0.001025,-0.505001,-0.054159,1.391255,-261.017845,-1.461387,66.092434
8.7062,0.026056,0.004253,-0.052073,0.000367,-0.001001,0.00665,-0.000681,-0.505297,-0.052742,1.466258,-261.01685,-1.521394,66.094057
8.7261,0.026121,0.003932,-0.052811,0.000284,-0.001006,0.006647,-0.000602,-0.505202,-0.052443,1.466258,-261.01685,-1.521394,66.094057
8.7465,0.026139,0.003684,-0.051275,0.000255,-0.001009,0.006647,-0.00079,-0.505389,-0.052602,1.451529,-261.015632,-1.498464,66.096063
8.7662,0.025737,0.004139,-0.051703,0.000105,-0.000973,0.00663,-7e-05,-0.505624,-0.051383,1.451529,-261.015632,-1.498464,66.096063
8.7863,0.025615,0.004034,-0.053139,-1.1e-05,-0.000946,0.006623,-7e-05,-0.505624,-0.051383,1.451529,-261.015632,-1.498464,66.096063
8.8064,0.025829,0.003812,-0.053688,-1.1e-05,-0.000946,0.006623,-0.001464,-0.505287,-0.052869,1.487525,-261.014442,-1.520605,66.098036
8.8266,0.025742,0.004236,-0.052965,0.000358,-0.000913,0.00666,-0.001494,-0.50536,-0.053172,1.487525,-261.014442,-1.520605,66.098036
8.8463,0.025656,0.003765,-0.050771,0.000488,-0.000901,0.006669,-0.001259,-0.505074,-0.052786,1.562522,-261.01339,-1.573098,66.099731
8.8665,0.025508,0.003898,-0.05223,0.000345,-0.000893,0.006651,-0.000315,-0.505536,-0.050935,1.562522,-261.01339,-1.573098,66.099731
8.8867,0.025563,0.003914,-0.052511,0.000234,-0.000888,0.006641,-0.000315,-0.505536,-0.050935,1.562522,-261.01339,-1.573098,66.099731
8.9065,0.025638,0.003616,-0.052242,0.000234,-0.000888,0.006641,-0.001198,-0.505406,-0.052341,1.48738,-261.012608,-1.497957,66.100948
8.927,0.025303,0.003582,-0.0515,0.000382,-0.000872,0.006652,-0.001114,-0.505524,-0.052281,1.48738,-261.012608,-1.497957,66.100948
8.9465,0.025169,0.003621,-0.05118,0.000434,-0.000866,0.006654,-0.000945,-0.50577,-0.051291,1.497172,-261.011351,-1.52357,66.102907
8.9665,0.025091,0.003727,-0.050546,0.000434,-0.000846,0.006651,-0.000923,-0.505718,-0.051179,1.497172,-261.011351,-1.52357,66.102907
8.9863,0.025195,0.003997,-0.050027,0.000434,-0.000831,0.006648,-0.000923,-0.505718,-0.051179,1.497172,-261.011351,-1.52357,66.102907
9.0067,0.024827,0.003708,-0.05064,0.000434,-0.000831,0.006648,-0.000293,-0.505399,-0.049772,1.435803,-261.010165,-1.482903,66.104726
9.0266,0.025772,0.003748,-0.049708,0.000308,-0.00085,0.006637,-0.000582,-0.505503,-0.050106,1.435803,-261.010165,-1.482903,66.104726
9.0464,0.024938,0.004323,-0.050181,0.000265,-0.000858,0.006635,0.000443,-0.505649,-0.049498,1.43728,-261.008866,-1.482343,66.106683
9.0666,0.024891,0.00368,-0.050746,0.00023,-0.000896,0.006634,-0.000545,-0.505092,-0.050109,1.43728,-261.008866,-1.482343,66.106683
9.0862,0.024994,0.003672,-0.052236,0.000202,-0.000928,0.006633,-0.000545,-0.505092,-0.050109,1.43728,-261.008866,-1.482343,66.106683
9.1068,0.025078,0.003992,-0.051082,0.000202,-0.000928,0.006633,-0.001626,-0.505666,-0.051975,1.488067,-261.007658,-1.516899,66.108537
9.1264,0.025178,0.003897,-0.050463,0.000448,-0.000883,0.006651,-0.001352,-0.505537,-0.051577,1.488067,-261.007658,-1.516899,66.108537
9.146,0.024725,0.003528,-0.050919,0.000534,-0.000867,0.006654,-0.000542,-0.505483,-0.050254,1.506336,-261.006416,-1.530333,66.110514
9.1664,0.024707,0.003909,-0.051858,0.000566,-0.000835,0.006652,-0.001173,-0.505784,-0.050852,1.506336,-261.006416,-1.530333,66.110514
9.1865,0.024608,0.003561,-0.050052,0.000591,-0.000809,0.00665,-0.001173,-0.505784,-0.050852,1.506336,-261.006416,-1.530333,66.110514
9.2064,0.024798,0.003614,-0.051845,0.000591,-0.000809,0.00665,-0.000893,-0.505829,-0.049832,1.431317,-261.005391,-1.462945,66.112082
9.2263,0.024487,0.003675,-0.051388,0.000638,-0.000771,0.006648,-0.001197,-0.505779,-0.050639,1.431317,-261.005391,-1.462945,66.112082
9.2466,0.024481,0.003375,-0.049184,0.000656,-0.000757,0.006647,-0.001693,-0.505678,-0.051184,1.390963,-261.004108,-1.449981,66.113987
9.2664,0.024423,0.003719,-0.050452,0.000553,-0.000733,0.006634,-0.000687,-0.50598,-0.049347,1.390963,-261.004108,-1.449981,66.113987
9.2863,0.024102,0.003431,-0.049265,0.000474,-0.000715,0.006626,-0.000687,-0.50598,-0.049347,1.390963,-261.004108,-1.449981,66.113987
9.3066,0.024388,0.003893,-0.048294,0.000474,-0.000715,0.006626,-0.000988,-0.505983,-0.04899,1.374806,-261.002771,-1.435504,66.115917
9.3261,0.024362,0.003654,-0.049094,0.000365,-0.000725,0.006624,-0.000674,-0.505794,-0.048671,1.374806,-261.002771,-1.435504,66.115917
9.3472,0.024147,0.003557,-0.049196,0.000327,-0.00073,0.006625,-0.000653,-0.505753,-0.048898,1.429503,-261.001514,-1.471589,66.117704
9.3664,0.024105,0.003688,-0.047848,0.000347,-0.000729,0.006632,-0.000905,-0.505821,-0.049156,1.429503,-261.001514,-1.471589,66.117704
9.3864,0.024106,0.003821,-0.04898,0.000363,-0.000728,0.006638,-0.000905,-0.505821,-0.049156,1.429503,-261.001514,-1.471589,66.117704
9.4067,0.024255,0.00341,-0.047952,0.000363,-0.000728,0.006638,-0.000852,-0.505597,-0.048715,1.472611,-261.000242,-1.502508,66.119532
9.4267,0.024091,0.003907,-0.047918,0.000257,-0.000741,0.006642,-0.000579,-0.505767,-0.048372,1.472611,-261.000242,-1.502508,66.119532
9.4463,0.02381,0.003362,-0.047436,0.00022,-0.000747,0.006645,-0.000327,-0.505531,-0.047707,1.462044,-260.998904,-1.494986,66.121449
9.4664,0.023765,0.00326,-0.046649,0.000136,-0.000727,0.00664,-0.000369,-0.50602,-0.047448,1.462044,-260.998904,-1.494986,66.121449
9.4868,0.02405,0.003275,-0.048668,6.9e-05,-0.000711,0.006639,-0.000369,-0.50602,-0.047448,1.462044,-260.998904,-1.494986,66.121449
9.5064,0.023237,0.00338,-0.046778,6.9e-05,-0.000711,0.006639,-0.000753,-0.506152,-0.048401,1.504315,-260.997633,-1.52495,66.123291
9.5269,0.024181,0.003847,-0.047458,0.000107,-0.00067,0.006655,-0.000694,-0.506119,-0.047708,1.504315,-260.997633,-1.52495,66.123291
9.5465,0.023112,0.003659,-0.048537,0.000119,-0.000654,0.006661,-1.3e-05,-0.5056,-0.047257,1.550169,-260.99636,-1.556327,66.125106
9.5663,0.023299,0.003578,-0.047933,0.000302,-0.000661,0.006679,-0.001494,-0.50573,-0.048418,1.550169,-260.99636,-1.556327,66.125106
9.5865,0.023879,0.003091,-0.048289,0.000447,-0.000666,0.006689,-0.001494,-0.50573,-0.048418,1.550169,-260.99636,-1.556327,66.125106
9.6064,0.023676,0.0037,-0.046098,0.000447,-0.000666,0.006689,-0.000735,-0.506342,-0.048012,1.53587,-260.995001,-1.545546,66.126985
9.6265,0.023343,0.003258,-0.047091,0.000199,-0.000637,0.006658,-0.000362,-0.506106,-0.047196,1.53587,-260.995001,-1.545546,66.126985
9.6465,0.023199,0.003553,-0.047279,0.000115,-0.000629,0.006653,-0.000655,-0.506194,-0.04692,1.46091,-260.993893,-1.477064,66.128518
9.6667,0.023309,0.003221,-0.047183,0.000172,-0.000642,0.006664,-0.000882,-0.505906,-0.047239,1.46091,-260.993893,-1.477064,66.128518
9.6865,0.023361,0.003505,-0.045709,0.000216,-0.000651,0.006671,-0.000882,-0.505906,-0.047239,1.46091,-260.993893,-1.477064,66.128518
9.7064,0.023232,0.003274,-0.046893,0.000216,-0.000651,0.006671,6.1e-05,-0.505985,-0.045475,1.535915,-260.992734,-1.546321,66.130102
9.7268,0.023161,0.003068,-0.04743,9e-06,-0.00064,0.00665,-0.000241,-0.506061,-0.04603,1.535915,-260.992734,-1.546321,66.130102
9.7463,0.022882,0.003414,-0.045695,-6.2e-05,-0.000639,0.006647,-0.001013,-0.506379,-0.047222,1.507665,-260.99139,-1.525034,66.131955
9.7664,0.023411,0.003367,-0.047408,-6.7e-05,-0.000637,0.006653,-0.000466,-0.506082,-0.045817,1.507665,-260.99139,-1.525034,66.131955
9.7864,0.022748,0.003136,-0.04597,-7.1e-05,-0.000636,0.006658,-0.000466,-0.506082,-0.045817,1.507665,-260.99139,-1.525034,66.131955
9.8065,0.02262,0.003225,-0.045839,-7.1e-05,-0.000636,0.006658,-0.000692,-0.506348,-0.045733,1.582613,-260.990227,-1.583998,66.133552
9.8269,0.022937,0.003515,-0.04396,1.9e-05,-0.000584,0.006667,-0.000715,-0.506307,-0.045748,1.582613,-260.990227,-1.583998,66.133552
9.847,0.022914,0.00341,-0.045781,5e-05,-0.000566,0.00667,0.000521,-0.506013,-0.043747,1.591378,-260.988856,-1.585814,66.135431
9.8668,0.022439,0.003249,-0.047156,-8e-06,-0.00058,0.006666,-0.00034,-0.506053,-0.045585,1.591378,-260.988856,-1.585814,66.135431
9.8868,0.022291,0.002865,-0.046756,-5.3e-05,-0.000593,0.006664,-0.00034,-0.506053,-0.045585,1.591378,-260.988856,-1.585814,66.135431
9.9061,0.022374,0.003086,-0.044543,-5.3e-05,-0.000593,0.006664,-0.001545,-0.5066,-0.046485,1.556542,-260.987495,-1.560019,66.137232
9.9261,0.022364,0.003349,-0.045379,0.00017,-0.000494,0.006679,-0.001051,-0.506525,-0.045661,1.556542,-260.987495,-1.560019,66.137232
9.9473,0.02202,0.003185,-0.044541,0.000247,-0.000459,0.006683,-0.000774,-0.506145,-0.045171,1.585978,-260.986134,-1.582118,66.139057
9.9667,0.022436,0.003547,-0.046132,0.000226,-0.000466,0.00668,-0.000696,-0.506295,-0.044587,1.585978,-260.986134,-1.582118,66.139057
9.9861,0.0224,0.003263,-0.044184,0.00021,-0.000471,0.006678,-0.000696,-0.506295,-0.044587,1.585978,-260.986134,-1.582118,66.139057
10.0061,0.022267,0.003438,-0.045415,0.00021,-0.000471,0.006678,-0.000119,-0.506255,-0.043951,1.511021,-260.984922,-1.516347,66.140575
10.0265,0.022181,0.003305,-0.0443,8.3e-05,-0.000506,0.006666,-0.000433,-0.506167,-0.044524,1.511021,-260.984922,-1.516347,66.140575
10.0468,0.022098,0.003212,-0.044805,3.9e-05,-0.00052,0.006663,-0.000399,-0.50621,-0.044087,1.5127,-260.983478,-1.524703,66.142395
10.0666,0.022284,0.003237,-0.043528,6.8e-05,-0.000519,0.006669,-0.000713,-0.506271,-0.044729,1.5127,-260.983478,-1.524703,66.142395
10.0865,0.022155,0.003281,-0.046426,9.1e-05,-0.000517,0.006672,-0.000713,-0.506271,-0.044729,1.5127,-260.983478,-1.524703,66.142395
10.1066,0.021744,0.002824,-0.04412,9.1e-05,-0.000517,0.006672,-0.001513,-0.50619,-0.046163,1.559843,-260.982138,-1.562326,66.144127
10.1265,0.021737,0.002986,-0.043693,0.000326,-0.000468,0.006687,-0.001204,-0.506391,-0.045305,1.559843,-260.982138,-1.562326,66.144127
10.1466,0.022018,0.003208,-0.044099,0.000408,-0.00045,0.00669,-0.000538,-0.506544,-0.043482,1.545251,-260.980722,-1.551004,66.145954
10.1664,0.02173,0.003212,-0.044113,0.000299,-0.000454,0.006675,-0.000472,-0.506319,-0.044032,1.545251,-260.980722,-1.551004,66.145954
10.1863,0.021426,0.003162,-0.042544,0.000214,-0.000458,0.006666,-0.000472,-0.506319,-0.044032,1.545251,-260.980722,-1.551004,66.145954
10.2064,0.02151,0.002863,-0.044442,0.000214,-0.000458,0.006666,-0.000252,-0.506392,-0.042313,1.470258,-260.979521,-1.481064,66.147449
10.2267,0.021639,0.003506,-0.04373,0.000148,-0.000429,0.00666,-0.000612,-0.506491,-0.043145,1.470258,-260.979521,-1.481064,66.147449
10.2463,0.021327,0.003278,-0.044308,0.000126,-0.00042,0.00666,-0.00065,-0.50602,-0.043529,1.511596,-260.978153,-1.523551,66.149164
10.2664,0.022009,0.003059,-0.043812,0.000252,-0.000435,0.006676,-0.001207,-0.506204,-0.044228,1.511596,-260.978153,-1.523551,66.149164
10.2862,0.021448,0.003221,-0.043494,0.000351,-0.000446,0.006686,-0.001207,-0.506204,-0.044228,1.511596,-260.978153,-1.523551,66.149164
10.3064,0.021492,0.003159,-0.04313,0.000351,-0.000446,0.006686,-0.000722,-0.506314,-0.04322,1.536346,-260.976707,-1.542785,66.150942
10.3271,0.021103,0.003229,-0.042958,0.000245,-0.000452,0.006676,-0.000627,-0.506338,-0.04315,1.536346,-260.976707,-1.542785,66.150942
10.3465,0.021215,0.003088,-0.042592,0.000209,-0.000455,0.006674,-0.00079,-0.506313,-0.042767,1.474618,-260.975392,-1.493477,66.152576
10.3665,0.021305,0.00277,-0.043546,0.000153,-0.000446,0.006668,-0.000527,-0.506438,-0.042598,1.474618,-260.975392,-1.493477,66.152576
10.3865,0.020928,0.003172,-0.041835,0.00011,-0.00044,0.006664,-0.000527,-0.506438,-0.042598,1.474618,-260.975392,-1.493477,66.152576
10.4064,0.020874,0.003458,-0.041756,0.00011,-0.00044,0.006664,-0.000394,-0.5064,-0.041567,1.513147,-260.973997,-1.524706,66.154321
10.4267,0.021187,0.003391,-0.04206,2e-06,-0.000467,0.006661,-0.000402,-0.506279,-0.041613,1.513147,-260.973997,-1.524706,66.154321
10.4463,0.020993,0.003483,-0.044076,-3.5e-05,-0.000477,0.006662,-0.000254,-0.506172,-0.041848,1.54045,-260.972573,-1.54637,66.15609
10.4663,0.02103,0.003152,-0.042417,0.000156,-0.000494,0.006683,-0.001366,-0.506036,-0.04386,1.54045,-260.972573,-1.54637,66.15609
10.4861,0.020787,0.003228,-0.040425,0.000307,-0.000507,0.006696,-0.001366,-0.506036,-0.04386,1.54045,-260.972573,-1.54637,66.15609
10.5067,0.020633,0.003579,-0.040577,0.000307,-0.000507,0.006696,0.000174,-0.506374,-0.040158,1.580627,-260.971195,-1.578563,66.157834
10.5268,0.020407,0.003003,-0.042592,-8.4e-05,-0.000502,0.006643,7.9e-05,-0.506224,-0.040298,1.580627,-260.971195,-1.578563,66.157834
10.5463,0.020602,0.003005,-0.040411,-0.000219,-0.000506,0.006633,-0.001302,-0.506547,-0.042423,1.505575,-260.970057,-1.504191,66.159292
10.5668,0.020547,0.003026,-0.042219,-0.000293,-0.000472,0.006626,-0.000116,-0.506577,-0.04058,1.505575,-260.970057,-1.504191,66.159292
10.5866,0.020343,0.003165,-0.042653,-0.000351,-0.000447,0.006623,-0.000116,-0.506577,-0.04058,1.505575,-260.970057,-1.504191,66.159292
10.6063,0.020774,0.002945,-0.041032,-0.000351,-0.000447,0.006623,-0.001404,-0.506385,-0.042479,1.580574,-260.969168,-1.57919,66.160434
10.6266,0.020398,0.003075,-0.041576,-8.2e-05,-0.000423,0.006656,-0.000896,-0.506484,-0.041874,1.580574,-260.969168,-1.57919,66.160434
10.6461,0.019934,0.00299,-0.039926,1e-05,-0.000414,0.006665,-0.000809,-0.506495,-0.041403,1.65553,-260.967982,-1.648775,66.161912
10.6667,0.020594,0.003059,-0.041265,-3.1e-05,-0.000397,0.006652,-0.000457,-0.506595,-0.040045,1.65553,-260.967982,-1.648775,66.161912
10.6866,0.020198,0.002873,-0.040808,-6.1e-05,-0.000383,0.006644,-0.000457,-0.506595,-0.040045,1.65553,-260.967982,-1.648775,66.161912
10.7068,0.020265,0.00329,-0.041011,-6.1e-05,-0.000383,0.006644,-0.000609,-0.506716,-0.040586,1.580401,-260.96681,-1.573645,66.163349
10.7264,0.019849,0.003375,-0.039799,-2.4e-05,-0.000378,0.006646,-0.000624,-0.506535,-0.040738,1.580401,-260.96681,-1.573645,66.163349
10.7461,0.01987,0.002864,-0.039558,-1.1e-05,-0.000376,0.006646,-0.000446,-0.506233,-0.03959,1.58751,-260.965343,-1.584625,66.165122
10.7666,0.020067,0.002513,-0.039527,-8.7e-05,-0.000352,0.006631,-0.00031,-0.5067,-0.039551,1.58751,-260.965343,-1.584625,66.165122
10.7862,0.020271,0.002872,-0.041,-0.000144,-0.000335,0.006622,-0.00031,-0.5067,-0.039551,1.58751,-260.965343,-1.584625,66.165122
10.8068,0.019853,0.002955,-0.039654,-0.000144,-0.000335,0.006622,-0.000634,-0.506715,-0.040725,1.573911,-260.963886,-1.573384,66.166876
10.8264,0.019833,0.003082,-0.03958,-0.000124,-0.000315,0.006626,-0.000525,-0.506688,-0.040256,1.573911,-260.963886,-1.573384,66.166876
10.8463,0.01972,0.003178,-0.041227,-0.000117,-0.000309,0.006628,-0.000352,-0.506528,-0.039377,1.609683,-260.962453,-1.603734,66.168568
10.8662,0.019722,0.003082,-0.040228,5.9e-05,-0.000325,0.00665,-0.001215,-0.506402,-0.041051,1.609683,-260.962453,-1.603734,66.168568
10.8861,0.019608,0.003091,-0.039577,0.000197,-0.000338,0.006663,-0.001215,-0.506402,-0.041051,1.609683,-260.962453,-1.603734,66.168568
10.9063,0.019611,0.002793,-0.039041,0.000197,-0.000338,0.006663,-0.000576,-0.506522,-0.0393,1.602103,-260.960958,-1.597672,66.170309
10.9264,0.019584,0.003174,-0.039642,5.6e-05,-0.000321,0.006638,-0.000462,-0.506644,-0.039163,1.602103,-260.960958,-1.597672,66.170309
10.946,0.019203,0.00322,-0.040606,9e-06,-0.000316,0.006632,-0.000623,-0.506434,-0.039467,1.527101,-260.959728,-1.526222,66.171761
10.9662,0.019577,0.003021,-0.039374,0.000204,-0.000327,0.006652,-0.001421,-0.506367,-0.040494,1.527101,-260.959728,-1.526222,66.171761
10.9863,0.019189,0.002973,-0.038792,0.000358,-0.000335,0.006664,-0.001421,-0.506367,-0.040494,1.527101,-260.959728,-1.526222,66.171761
11.0062,0.019247,0.003214,-0.039527,0.000358,-0.000335,0.006664,-0.000589,-0.506656,-0.038529,1.568377,-260.958316,-1.568727,66.173413
11.0261,0.019449,0.002862,-0.038944,0.000275,-0.000335,0.006645,-0.000717,-0.506549,-0.038901,1.568377,-260.958316,-1.568727,66.173413
11.0461,0.01948,0.003036,-0.037886,0.000248,-0.000336,0.00664,-0.0004,-0.50676,-0.038776,1.493371,-260.957134,-1.493721,66.174804
11.0661,0.019165,0.003129,-0.039361,1.7e-05,-0.000319,0.006602,0.00011,-0.506614,-0.037961,1.493371,-260.957134,-1.493721,66.174804
11.0864,0.019159,0.003023,-0.036528,-0.000162,-0.00031,0.006581,0.00011,-0.506614,-0.037961,1.493371,-260.957134,-1.493721,66.174804
11.1063,0.019037,0.002917,-0.03794,-0.000162,-0.00031,0.006581,0.000544,-0.506651,-0.036252,1.504246,-260.955656,-1.514399,66.176548
11.1261,0.018916,0.003298,-0.039585,-0.00046,-0.000286,0.006561,0.000197,-0.506679,-0.036909,1.504246,-260.955656,-1.514399,66.176548
11.1462,0.018733,0.003047,-0.037732,-0.000563,-0.000282,0.006562,-0.001269,-0.506309,-0.039436,1.579244,-260.954595,-1.589397,66.177787
11.1661,0.019096,0.002971,-0.036969,-0.000445,-0.000301,0.006593,-0.000575,-0.506565,-0.037879,1.579244,-260.954595,-1.589397,66.177787
11.1862,0.018823,0.003482,-0.037668,-0.000355,-0.000315,0.006615,-0.000575,-0.506565,-0.037879,1.579244,-260.954595,-1.589397,66.177787
11.2062,0.018747,0.002976,-0.037447,-0.000355,-0.000315,0.006615,-0.000392,-0.506162,-0.037504,1.654235,-260.953701,-1.664388,66.178813
11.2267,0.019046,0.003194,-0.038429,-0.00031,-0.000379,0.006635,-0.000375,-0.506367,-0.037462,1.654235,-260.953701,-1.664388,66.178813
11.246,0.018575,0.002983,-0.036969,-0.000296,-0.000401,0.00664,-0.000559,-0.506439,-0.038219,1.665709,-260.952211,-1.652029,66.180553
11.266,0.018716,0.003209,-0.037253,-0.000314,-0.000383,0.006634,-0.000301,-0.506648,-0.037071,1.665709,-260.952211,-1.652029,66.180553
11.2861,0.018515,0.002942,-0.036843,-0.000327,-0.000369,0.00663,-0.000301,-0.506648,-0.037071,1.665709,-260.952211,-1.652029,66.180553
11.3065,0.018373,0.002727,-0.037229,-0.000327,-0.000369,0.00663,-0.000283,-0.506728,-0.036567,1.651691,-260.950754,-1.637191,66.182327
11.3267,0.018475,0.003145,-0.036449,-0.000301,-0.000312,0.006625,-0.000417,-0.506808,-0.036804,1.651691,-260.950754,-1.637191,66.182327
11.3465,0.018012,0.003264,-0.036754,-0.000292,-0.000292,0.006623,-0.000121,-0.506527,-0.036237,1.659368,-260.949279,-1.644626,66.184096
11.3662,0.017864,0.003346,-0.037297,-0.000211,-0.000326,0.006639,-0.000672,-0.506405,-0.036695,1.659368,-260.949279,-1.644626,66.184096
11.3864,0.01806,0.003369,-0.037936,-0.000148,-0.000353,0.00665,-0.000672,-0.506405,-0.036695,1.659368,-260.949279,-1.644626,66.184096
11.4065,0.018056,0.00325,-0.036944,-0.000148,-0.000353,0.00665,-0.001295,-0.506276,-0.03766,1.648387,-260.947777,-1.637981,66.18583
11.4268,0.018064,0.003016,-0.036783,0.000115,-0.00039,0.006674,-0.001087,-0.506329,-0.037335,1.648387,-260.947777,-1.637981,66.18583
11.4465,0.017782,0.002909,-0.035283,0.000207,-0.000403,0.006679,-0.000696,-0.506649,-0.03658,1.610658,-260.946352,-1.604291,66.187526
11.4662,0.01786,0.002668,-0.036124,6.1e-05,-0.000361,0.006646,-0.000253,-0.506763,-0.035389,1.610658,-260.946352,-1.604291,66.187526
11.4862,0.017488,0.002315,-0.036536,-5.1e-05,-0.00033,0.006626,-0.000253,-0.506763,-0.035389,1.610658,-260.946352,-1.604291,66.187526
11.5063,0.017613,0.0028,-0.035803,-5.1e-05,-0.00033,0.006626,-0.001136,-0.507358,-0.036318,1.535657,-260.945205,-1.52929,66.188924
11.526,0.017798,0.00244,-0.036864,0.000105,-0.000171,0.006621,-0.000935,-0.507162,-0.036083,1.535657,-260.945205,-1.52929,66.188924
11.546,0.017304,0.002849,-0.034747,0.000159,-0.000116,0.006618,-0.001,-0.507223,-0.03667,1.584414,-260.943836,-1.58236,66.190536
11.5663,0.017262,0.002967,-0.034899,8.3e-05,-0.000122,0.006611,-0.000465,-0.506877,-0.034906,1.584414,-260.943836,-1.58236,66.190536
11.586,0.017906,0.002934,-0.035388,2.5e-05,-0.000127,0.006607,-0.000465,-0.506877,-0.034906,1.584414,-260.943836,-1.58236,66.190536
11.6065,0.017347,0.002857,-0.034774,2.5e-05,-0.000127,0.006607,-0.000132,-0.506751,-0.035134,1.530309,-260.942395,-1.532568,66.192062
11.6274,0.017173,0.003108,-0.035776,-0.000156,-0.000157,0.006595,-0.000235,-0.506786,-0.034958,1.530309,-260.942395,-1.532568,66.192062
11.6467,0.016941,0.003112,-0.033929,-0.000218,-0.000169,0.006594,-0.001069,-0.50657,-0.035568,1.564443,-260.940877,-1.564831,66.193679
11.6663,0.017061,0.002992,-0.034376,-0.000215,-0.000206,0.006609,-0.000414,-0.506593,-0.034046,1.564443,-260.940877,-1.564831,66.193679
11.6862,0.017101,0.002861,-0.03495,-0.000214,-0.000236,0.00662,-0.000414,-0.506593,-0.034046,1.564443,-260.940877,-1.564831,66.193679
11.7062,0.016802,0.002874,-0.035341,-0.000214,-0.000236,0.00662,-0.000728,-0.506834,-0.034706,1.627159,-260.93951,-1.622617,66.195166
11.726,0.016662,0.0027,-0.033932,1e-05,-0.00021,0.006655,-0.000928,-0.506824,-0.034935,1.627159,-260.93951,-1.622617,66.195166
11.7464,0.016742,0.002766,-0.035434,8.6e-05,-0.0002,0.006665,-0.000647,-0.507013,-0.033721,1.626989,-260.937984,-1.620809,66.19688
11.7661,0.016309,0.003219,-0.033899,0.000231,-0.000167,0.006676,-0.001267,-0.506923,-0.035274,1.626989,-260.937984,-1.620809,66.19688
11.7863,0.016753,0.002818,-0.035359,0.000345,-0.00014,0.006683,-0.001267,-0.506923,-0.035274,1.626989,-260.937984,-1.620809,66.19688
11.8065,0.016402,0.002646,-0.032027,0.000345,-0.00014,0.006683,-0.001274,-0.506871,-0.035126,1.551944,-260.936687,-1.550674,66.198311
11.8264,0.016707,0.002925,-0.032343,0.000254,-0.000113,0.006658,-0.000724,-0.506962,-0.033831,1.551944,-260.936687,-1.550674,66.198311
11.8468,0.016564,0.003122,-0.033623,0.000224,-0.000105,0.006651,0.000225,-0.506813,-0.032157,1.483572,-260.935305,-1.489329,66.199791
11.8663,0.0166,0.00296,-0.032333,0.000156,-0.000147,0.006648,-0.000507,-0.50661,-0.03348,1.483572,-260.935305,-1.489329,66.199791
11.8869,0.016471,0.002726,-0.032527,0.000102,-0.000181,0.006647,-0.000507,-0.50661,-0.03348,1.483572,-260.935305,-1.489329,66.199791
11.9069,0.016199,0.003068,-0.033754,0.000102,-0.000181,0.006647,-0.000106,-0.507008,-0.032254,1.514142,-260.933761,-1.516981,66.201415
11.9268,0.016632,0.002769,-0.034303,-7e-06,-0.000172,0.006632,-0.000466,-0.506863,-0.032822,1.514142,-260.933761,-1.516981,66.201415
11.9461,0.016281,0.003073,-0.032513,-4.5e-05,-0.00017,0.006629,-0.000857,-0.506937,-0.034097,1.544502,-260.932251,-1.546751,66.203067
11.9666,0.016147,0.002842,-0.033408,-9.9e-05,-0.000193,0.006629,-0.000346,-0.506682,-0.03264,1.544502,-260.932251,-1.546751,66.203067
11.9862,0.016181,0.002807,-0.034536,-0.000143,-0.000212,0.00663,-0.000346,-0.506682,-0.03264,1.544502,-260.932251,-1.546751,66.203067
12.0061,0.016243,0.003024,-0.033284,-0.000143,-0.000212,0.00663,-0.001431,-0.506896,-0.034271,1.582314,-260.930766,-1.581386,66.204682
12.0266,0.016279,0.003107,-0.031357,0.000152,-0.000185,0.006666,-0.001145,-0.506814,-0.033838,1.582314,-260.930766,-1.581386,66.204682
12.0466,0.015868,0.003124,-0.033013,0.000252,-0.000175,0.006675,0.000285,-0.506649,-0.031149,1.607958,-260.929259,-1.60427,66.206355
12.0667,0.015793,0.002708,-0.032179,0.00026,-0.000202,0.006678,-0.000852,-0.506603,-0.032834,1.607958,-260.929259,-1.60427,66.206355
12.0865,0.015859,0.002945,-0.033893,0.000266,-0.000222,0.00668,-0.000852,-0.506603,-0.032834,1.607958,-260.929259,-1.60427,66.206355
12.107,0.015686,0.002907,-0.030685,0.000266,-0.000222,0.00668,-0.001418,-0.506768,-0.033686,1.532957,-260.928105,-1.529269,66.207612
12.1271,0.016099,0.002926,-0.033136,0.000259,-0.000204,0.006668,-0.000829,-0.506803,-0.03245,1.532957,-260.928105,-1.529269,66.207612
12.1465,0.015822,0.003004,-0.031715,0.000257,-0.000198,0.006665,-0.000789,-0.506802,-0.032928,1.501896,-260.926592,-1.509001,66.209299
12.1665,0.015472,0.003153,-0.031502,0.000144,-0.000203,0.006649,-0.00039,-0.506746,-0.031815,1.501896,-260.926592,-1.509001,66.209299
12.1865,0.015672,0.003086,-0.032009,5.6e-05,-0.000208,0.006639,-0.00039,-0.506746,-0.031815,1.501896,-260.926592,-1.509001,66.209299
12.2062,0.015364,0.002822,-0.031687,5.6e-05,-0.000208,0.006639,-0.00064,-0.506662,-0.031729,1.504538,-260.92504,-1.51068,66.211009
12.2264,0.015628,0.002702,-0.031018,7.5e-05,-0.00021,0.00665,-0.000701,-0.506769,-0.03168,1.504538,-260.92504,-1.51068,66.211009
12.246,0.015246,0.002804,-0.031311,8.1e-05,-0.000211,0.006653,-0.000187,-0.507059,-0.030822,1.556201,-260.923616,-1.557623,66.212587
12.2662,0.015952,0.003041,-0.032543,7.3e-05,-0.000185,0.006648,-0.000673,-0.506957,-0.031259,1.556201,-260.923616,-1.557623,66.212587
12.2865,0.015405,0.003183,-0.030764,6.8e-05,-0.000165,0.006645,-0.000673,-0.506957,-0.031259,1.556201,-260.923616,-1.557623,66.212587
12.3062,0.015057,0.002701,-0.03043,6.8e-05,-0.000165,0.006645,-0.000279,-0.506585,-0.030486,1.54988,-260.922077,-1.551949,66.214295
12.3261,0.015235,0.002731,-0.031327,-8.1e-05,-0.000183,0.006636,-0.000352,-0.506781,-0.030431,1.54988,-260.922077,-1.551949,66.214295
12.3464,0.01499,0.002825,-0.03026,-0.000132,-0.000191,0.006636,-0.000737,-0.507024,-0.031116,1.553395,-260.92052,-1.554757,66.215984
12.3662,0.015019,0.002979,-0.030324,-0.000148,-0.000174,0.006637,-0.000467,-0.506949,-0.030327,1.553395,-260.92052,-1.554757,66.215984
12.3863,0.014976,0.002682,-0.029347,-0.00016,-0.000161,0.006639,-0.000467,-0.506949,-0.030327,1.553395,-260.92052,-1.554757,66.215984
12.4068,0.014586,0.002784,-0.029021,-0.00016,-0.000161,0.006639,6e-06,-0.507106,-0.02909,1.604918,-260.919091,-1.601851,66.217555
12.4267,0.014968,0.002822,-0.030163,-0.00037,-0.000108,0.006611,-8.4e-05,-0.507064,-0.029033,1.604918,-260.919091,-1.601851,66.217555
12.4466,0.01491,0.002929,-0.029961,-0.000442,-9.2e-05,0.006606,-0.000418,-0.506951,-0.029952,1.611882,-260.917527,-1.608744,66.219248
12.4663,0.014408,0.002617,-0.03005,-0.000412,-0.000114,0.006623,-0.000372,-0.506851,-0.029951,1.611882,-260.917527,-1.608744,66.219248
12.4863,0.014921,0.002767,-0.028762,-0.000389,-0.000131,0.006636,-0.000372,-0.506851,-0.029951,1.611882,-260.917527,-1.608744,66.219248
12.5066,0.014642,0.003102,-0.030549,-0.000389,-0.000131,0.006636,0.000239,-0.507025,-0.028527,1.682328,-260.916172,-1.677411,66.220664
12.527,0.01429,0.003333,-0.03057,-0.000423,-0.000148,0.006641,-0.000243,-0.506877,-0.029325,1.682328,-260.916172,-1.677411,66.220664
12.546,0.014366,0.002653,-0.029357,-0.000436,-0.000154,0.006643,-0.001311,-0.506432,-0.03036,1.669738,-260.914605,-1.663561,66.222336
12.5662,0.014607,0.002684,-0.031151,-0.000338,-0.000129,0.006654,-0.000665,-0.507068,-0.029433,1.669738,-260.914605,-1.663561,66.222336
12.5862,0.014286,0.002635,-0.030812,-0.000263,-0.000109,0.00666,-0.000665,-0.507068,-0.029433,1.669738,-260.914605,-1.663561,66.222336
12.6065,0.014117,0.002645,-0.029042,-0.000263,-0.000109,0.00666,-0.001443,-0.507128,-0.030535,1.681947,-260.91304,-1.673883,66.224022
12.6269,0.013989,0.003216,-0.028165,6.5e-05,-3.9e-05,0.00669,-0.001138,-0.507134,-0.029892,1.681947,-260.91304,-1.673883,66.224022
12.6463,0.013759,0.002888,-0.028854,0.000178,-1.4e-05,0.006696,-0.000381,-0.506585,-0.027963,1.637013,-260.911545,-1.633561,66.225599
12.6665,0.014005,0.003071,-0.027728,0.000208,-3.9e-05,0.006699,-0.000903,-0.506871,-0.028762,1.637013,-260.911545,-1.633561,66.225599
12.6863,0.014051,0.003118,-0.027734,0.000232,-5.8e-05,0.0067,-0.000903,-0.506871,-0.028762,1.637013,-260.911545,-1.633561,66.225599
12.7063,0.013942,0.003066,-0.029524,0.000232,-5.8e-05,0.0067,-9e-05,-0.506686,-0.027541,1.562099,-260.910422,-1.558647,66.22673
12.7264,0.013711,0.002738,-0.027089,9.4e-05,-0.000133,0.006681,-0.00051,-0.506697,-0.028333,1.562099,-260.910422,-1.558647,66.22673
12.7465,0.013649,0.002836,-0.029296,4.7e-05,-0.00016,0.006676,-9.6e-05,-0.507077,-0.02689,1.513415,-260.908913,-1.515022,66.228283
12.7664,0.01335,0.002705,-0.029639,0.00018,-0.000134,0.006685,-0.001186,-0.506956,-0.029078,1.513415,-260.908913,-1.515022,66.228283
12.7862,0.013841,0.002701,-0.028174,0.000283,-0.000114,0.00669,-0.001186,-0.506956,-0.029078,1.513415,-260.908913,-1.515022,66.228283
12.8065,0.013558,0.003201,-0.027088,0.000283,-0.000114,0.00669,-0.000524,-0.507102,-0.027913,1.558752,-260.907443,-1.559662,66.229873
12.8262,0.013874,0.00251,-0.027864,6.9e-05,-0.000116,0.006653,-0.000413,-0.5069,-0.027541,1.558752,-260.907443,-1.559662,66.229873
12.8464,0.013434,0.002921,-0.027789,-4e-06,-0.000119,0.006644,-0.000326,-0.507296,-0.027673,1.499709,-260.906012,-1.503541,66.231385
12.8661,0.013151,0.00276,-0.026119,1.4e-05,-0.000119,0.006647,-0.000697,-0.506922,-0.027767,1.499709,-260.906012,-1.503541,66.231385
12.8866,0.013216,0.003089,-0.028432,2.8e-05,-0.000118,0.006649,-0.000697,-0.506922,-0.027767,1.499709,-260.906012,-1.503541,66.231385
12.906,0.012914,0.00285,-0.027143,2.8e-05,-0.000118,0.006649,-0.001282,-0.506709,-0.028194,1.571766,-260.904668,-1.57171,66.23281
12.9268,0.013316,0.002656,-0.026793,0.000248,-0.00013,0.006672,-0.001139,-0.506812,-0.027742,1.571766,-260.904668,-1.57171,66.23281
12.9464,0.013283,0.002671,-0.028295,0.000324,-0.000132,0.006677,-0.000346,-0.507165,-0.02658,1.563765,-260.903088,-1.564163,66.234485
12.9663,0.01277,0.002588,-0.026389,0.000367,-8.7e-05,0.006669,-0.00108,-0.507128,-0.028145,1.563765,-260.903088,-1.564163,66.234485
12.9866,0.013374,0.002928,-0.026828,0.000402,-5.2e-05,0.006663,-0.00108,-0.507128,-0.028145,1.563765,-260.903088,-1.564163,66.234485
13.0063,0.012961,0.002509,-0.026738,0.000402,-5.2e-05,0.006663,-0.000295,-0.506894,-0.026592,1.488934,-260.901755,-1.494066,66.235907
13.0261,0.012747,0.002809,-0.028322,0.000151,-3.3e-05,0.00662,-0.000447,-0.507063,-0.026624,1.488934,-260.901755,-1.494066,66.235907
13.046,0.012874,0.002735,-0.026766,6.6e-05,-2.9e-05,0.00661,-0.001683,-0.506988,-0.028112,1.471154,-260.900159,-1.473643,66.237544
13.0663,0.012714,0.002948,-0.026633,0.000111,-2.2e-05,0.006619,-0.000856,-0.507074,-0.026877,1.471154,-260.900159,-1.473643,66.237544
13.0863,0.012919,0.002486,-0.027648,0.000145,-1.6e-05,0.006625,-0.000856,-0.507074,-0.026877,1.471154,-260.900159,-1.473643,66.237544
13.1064,0.012757,0.002697,-0.026793,0.000145,-1.6e-05,0.006625,-0.001176,-0.50732,-0.027425,1.54614,-260.898866,-1.548629,66.238855
13.1262,0.012341,0.003077,-0.025514,0.00029,4.8e-05,0.00663,-0.001065,-0.507238,-0.02714,1.54614,-260.898866,-1.548629,66.238855
13.1463,0.012403,0.002792,-0.025281,0.00034,7.1e-05,0.00663,-0.000665,-0.506758,-0.025304,1.534781,-260.897261,-1.535072,66.240473
13.1661,0.012597,0.002709,-0.025917,0.000231,4.9e-05,0.006616,-0.000504,-0.507019,-0.025272,1.534781,-260.897261,-1.535072,66.240473
13.1863,0.012572,0.003056,-0.025644,0.000147,3e-05,0.006609,-0.000504,-0.507019,-0.025272,1.534781,-260.897261,-1.535072,66.240473
13.2069,0.012411,0.003204,-0.025549,0.000147,3e-05,0.006609,-0.000491,-0.506774,-0.025386,1.48857,-260.895725,-1.485641,66.241957
13.2265,0.012147,0.002912,-0.026191,6.3e-05,-7.5e-05,0.006625,-0.000542,-0.506715,-0.025423,1.48857,-260.895725,-1.485641,66.241957
13.2466,0.012248,0.00286,-0.027164,3.2e-05,-0.000113,0.006631,-0.001204,-0.506912,-0.025995,1.534589,-260.894209,-1.53405,66.24345
13.2665,0.012631,0.002936,-0.024863,0.000261,-8.3e-05,0.006653,-0.001568,-0.506948,-0.027048,1.534589,-260.894209,-1.53405,66.24345
13.2865,0.012068,0.00279,-0.025548,0.00044,-6e-05,0.006668,-0.001568,-0.506948,-0.027048,1.534589,-260.894209,-1.53405,66.24345
13.3065,0.012091,0.002952,-0.024256,0.00044,-6e-05,0.006668,-0.000959,-0.507048,-0.025277,1.562584,-260.892675,-1.563028,66.245073
13.3262,0.011709,0.002687,-0.025768,0.000287,-5.6e-05,0.006641,-0.000681,-0.506987,-0.024829,1.562584,-260.892675,-1.563028,66.245073
13.3461,0.011996,0.002793,-0.025502,0.000235,-5.7e-05,0.006634,-0.001424,-0.507146,-0.025613,1.487582,-260.891501,-1.488026,66.246281
13.3662,0.011877,0.002843,-0.02323,0.000292,-4.2e-05,0.006639,-0.001046,-0.507051,-0.025504,1.487582,-260.891501,-1.488026,66.246281
13.3861,0.011833,0.003225,-0.024773,0.000335,-3e-05,0.006642,-0.001046,-0.507051,-0.025504,1.487582,-260.891501,-1.488026,66.246281
13.4061,0.011906,0.002843,-0.022704,0.000335,-3e-05,0.006642,-0.00079,-0.506621,-0.024501,1.512012,-260.889932,-1.513625,66.247894
13.4263,0.011429,0.002624,-0.023205,7.2e-05,-8.9e-05,0.006616,-0.00033,-0.506787,-0.023731,1.512012,-260.889932,-1.513625,66.247894
13.446,0.011428,0.002766,-0.023992,-1.9e-05,-0.000113,0.006612,-0.000395,-0.50724,-0.022998,1.487686,-260.888345,-1.4889,66.249505
13.4666,0.011959,0.002909,-0.024705,1.8e-05,-8.6e-05,0.006617,-0.000771,-0.507101,-0.023896,1.487686,-260.888345,-1.4889,66.249505
13.4862,0.011854,0.003233,-0.02401,4.7e-05,-6.5e-05,0.00662,-0.000771,-0.507101,-0.023896,1.487686,-260.888345,-1.4889,66.249505
13.5063,0.011644,0.003136,-0.023452,4.7e-05,-6.5e-05,0.00662,-0.000389,-0.506624,-0.023793,1.56273,-260.887109,-1.563944,66.250811
13.5264,0.011441,0.002798,-0.023775,-8.8e-05,-0.000148,0.00662,-0.000358,-0.506666,-0.023625,1.56273,-260.887109,-1.563944,66.250811
13.5466,0.011598,0.002811,-0.023286,-0.000135,-0.000178,0.006621,-0.000682,-0.50706,-0.023566,1.559031,-260.885527,-1.559405,66.252446
13.5661,0.011108,0.00278,-0.022714,-0.0002,-0.000148,0.006609,-0.000313,-0.507052,-0.0233,1.559031,-260.885527,-1.559405,66.252446
13.5864,0.01115,0.002995,-0.022693,-0.00025,-0.000126,0.006601,-0.000313,-0.507052,-0.0233,1.559031,-260.885527,-1.559405,66.252446
13.6062,0.01153,0.002613,-0.022327,-0.00025,-0.000126,0.006601,-0.000428,-0.506881,-0.022433,1.605826,-260.884077,-1.602868,66.254029
13.6265,0.010931,0.002868,-0.022317,-0.000375,-0.0001,0.006587,-0.000198,-0.507034,-0.02236,1.605826,-260.884077,-1.602868,66.254029
13.6463,0.011215,0.002904,-0.022535,-0.000418,-9.3e-05,0.006585,-0.000458,-0.507009,-0.022111,1.634609,-260.882552,-1.630746,66.255653
13.6661,0.010905,0.002805,-0.022133,-0.000423,-9.8e-05,0.006591,-0.000294,-0.50697,-0.022486,1.634609,-260.882552,-1.630746,66.255653
13.6863,0.010841,0.002847,-0.021959,-0.000428,-0.000102,0.006596,-0.000294,-0.50697,-0.022486,1.634609,-260.882552,-1.630746,66.255653
13.7065,0.010839,0.002692,-0.021173,-0.000428,-0.000102,0.006596,-0.000374,-0.507033,-0.021698,1.676682,-260.881057,-1.671947,66.257218
13.7262,0.010714,0.002989,-0.022418,-0.000488,-7.4e-05,0.006585,-0.000207,-0.507098,-0.021455,1.676682,-260.881057,-1.671947,66.257218
13.7463,0.010383,0.002881,-0.022913,-0.000509,-6.4e-05,0.006583,-0.000732,-0.506886,-0.022208,1.679508,-260.879475,-1.674164,66.258881
13.7662,0.010628,0.002708,-0.021472,-0.000249,-6e-05,0.00662,-0.001251,-0.506976,-0.022838,1.679508,-260.879475,-1.674164,66.258881
13.7864,0.010356,0.003029,-0.021307,-4.6e-05,-5.5e-05,0.006644,-0.001251,-0.506976,-0.022838,1.679508,-260.879475,-1.674164,66.258881
13.8064,0.010597,0.002796,-0.022196,-4.6e-05,-5.5e-05,0.006644,-0.000531,-0.506857,-0.021034,1.698699,-260.877902,-1.694713,66.260504
13.8262,0.010548,0.002478,-0.021981,-5.7e-05,-7.8e-05,0.006636,-0.00061,-0.506947,-0.021471,1.698699,-260.877902,-1.694713,66.260504
13.846,0.009963,0.003041,-0.020335,-6e-05,-8.6e-05,0.006633,-0.000666,-0.5074,-0.021842,1.623796,-260.876849,-1.61981,66.261586
13.8661,0.01065,0.00271,-0.020589,-0.000109,-9.9e-05,0.006622,-0.00043,-0.506901,-0.020458,1.623796,-260.876849,-1.61981,66.261586
13.8862,0.010258,0.002859,-0.020344,-0.000146,-0.00011,0.006615,-0.00043,-0.506901,-0.020458,1.623796,-260.876849,-1.61981,66.261586
13.9067,0.010371,0.003086,-0.021362,-0.000146,-0.00011,0.006615,-0.000119,-0.507039,-0.020078,1.585931,-260.87533,-1.5853,66.263171
13.9263,0.009967,0.002589,-0.021154,-0.00027,-0.000115,0.006595,-0.000282,-0.506942,-0.020565,1.585931,-260.87533,-1.5853,66.263171
13.946,0.010031,0.003157,-0.02139,-0.000312,-0.000118,0.00659,-0.000826,-0.5073,-0.020947,1.607984,-260.87378,-1.606008,66.264808
13.9664,0.010085,0.003122,-0.02225,-0.000189,-0.000141,0.006612,-0.000872,-0.506778,-0.021339,1.607984,-260.87378,-1.606008,66.264808
13.9861,0.009674,0.002677,-0.022117,-9.3e-05,-0.000159,0.006627,-0.000872,-0.506778,-0.021339,1.607984,-260.87378,-1.606008,66.264808
14.0061,0.009884,0.003021,-0.021012,-9.3e-05,-0.000159,0.006627,-0.001617,-0.507203,-0.021856,1.650602,-260.872296,-1.646065,66.266381
14.026,0.009834,0.002748,-0.020084,0.000232,-8.3e-05,0.00665,-0.001299,-0.507066,-0.021482,1.650602,-260.872296,-1.646065,66.266381
14.0464,0.009567,0.002918,-0.018886,0.000345,-5.6e-05,0.006655,-0.000411,-0.507154,-0.019893,1.594703,-260.870882,-1.592901,66.267911
14.0665,0.00984,0.00274,-0.019886,0.000115,-4.7e-05,0.006605,-9.7e-05,-0.507006,-0.018968,1.594703,-260.870882,-1.592901,66.267911
14.0861,0.009279,0.00304,-0.021163,-6.2e-05,-4.4e-05,0.006573,-9.7e-05,-0.507006,-0.018968,1.594703,-260.870882,-1.592901,66.267911
14.1066,0.009288,0.003278,-0.020562,-6.2e-05,-4.4e-05,0.006573,-0.001507,-0.506848,-0.02097,1.519704,-260.869772,-1.517902,66.269052
14.1264,0.009504,0.003017,-0.02058,0.000286,-8.9e-05,0.006619,-0.00138,-0.506753,-0.020782,1.519704,-260.869772,-1.517902,66.269052
14.146,0.009208,0.002765,-0.020303,0.000406,-0.000104,0.00663,-0.000993,-0.506876,-0.020399,1.586295,-260.868398,-1.585958,66.270456
14.1664,0.009091,0.002911,-0.020317,0.000439,-6.9e-05,0.00662,-0.001132,-0.507107,-0.020303,1.586295,-260.868398,-1.585958,66.270456
14.1865,0.009296,0.003032,-0.018662,0.000466,-4.2e-05,0.006612,-0.001132,-0.507107,-0.020303,1.586295,-260.868398,-1.585958,66.270456
14.2064,0.009624,0.002977,-0.019843,0.000466,-4.2e-05,0.006612,-0.000215,-0.506882,-0.01848,1.511301,-260.867363,-1.510964,66.271545
14.2264,0.009415,0.002836,-0.019958,0.000134,-6.7e-05,0.00655,-0.000328,-0.506899,-0.01901,1.511301,-260.867363,-1.510964,66.271545
14.2464,0.009248,0.002402,-0.018907,2.2e-05,-8e-05,0.006535,-0.000749,-0.507064,-0.019767,1.454825,-260.865898,-1.457193,66.27304
14.2664,0.009076,0.002771,-0.020094,-6e-05,-1e-06,0.006507,-0.000424,-0.507469,-0.018971,1.454825,-260.865898,-1.457193,66.27304
14.2863,0.009232,0.002825,-0.021324,-0.000123,5.8e-05,0.006488,-0.000424,-0.507469,-0.018971,1.454825,-260.865898,-1.457193,66.27304
14.3066,0.009406,0.002959,-0.019096,-0.000123,5.8e-05,0.006488,-0.001638,-0.507061,-0.021139,1.530042,-260.864832,-1.53241,66.274151
14.3263,0.008901,0.002782,-0.017715,0.000133,2.4e-05,0.006533,-0.001097,-0.507015,-0.020271,1.530042,-260.864832,-1.53241,66.274151
14.3463,0.008905,0.00287,-0.018387,0.00022,1.3e-05,0.006544,-0.000137,-0.507136,-0.017539,1.601319,-260.863465,-1.602234,66.275478
14.3663,0.009051,0.003067,-0.018813,0.000113,5e-06,0.006523,-0.000442,-0.507052,-0.018301,1.601319,-260.863465,-1.602234,66.275478
14.3866,0.009507,0.003122,-0.018502,3e-05,-3e-06,0.006509,-0.000442,-0.507052,-0.018301,1.601319,-260.863465,-1.602234,66.275478
14.4068,0.009051,0.002943,-0.018897,3e-05,-3e-06,0.006509,7.7e-05,-0.50679,-0.018285,1.526587,-260.862197,-1.527501,66.276737
14.4269,0.009081,0.002907,-0.017046,-0.00019,-6.2e-05,0.006487,-0.000192,-0.506861,-0.018509,1.526587,-260.862197,-1.527501,66.276737
14.4461,0.008716,0.002748,-0.018266,-0.000267,-8.5e-05,0.006483,0.000389,-0.507019,-0.016847,1.563303,-260.860671,-1.563314,66.278265
14.4666,0.008425,0.002921,-0.01888,-0.000251,-6.3e-05,0.006482,-0.000513,-0.507154,-0.018132,1.563303,-260.860671,-1.563314,66.278265
14.4864,0.008578,0.003228,-0.017189,-0.00024,-4.6e-05,0.006481,-0.000513,-0.507154,-0.018132,1.563303,-260.860671,-1.563314,66.278265
14.5066,0.008773,0.002837,-0.01681,-0.00024,-4.6e-05,0.006481,-0.000197,-0.5067,-0.016962,1.638418,-260.859371,-1.636705,66.279623
14.5266,0.00844,0.002721,-0.01694,-0.000436,-8.9e-05,0.00645,-3.5e-05,-0.506861,-0.016873,1.638418,-260.859371,-1.636705,66.279623
14.5464,0.008343,0.002889,-0.017847,-0.000505,-0.000107,0.006443,-0.000207,-0.507208,-0.016735,1.632072,-260.85781,-1.630667,66.28122
14.5664,0.008394,0.002911,-0.018411,-0.000385,-9.8e-05,0.006463,-0.00071,-0.507045,-0.017738,1.632072,-260.85781,-1.630667,66.28122
14.5863,0.008316,0.002851,-0.018204,-0.000293,-9.1e-05,0.006476,-0.00071,-0.507045,-0.017738,1.632072,-260.85781,-1.630667,66.28122
14.6065,0.008432,0.002856,-0.017734,-0.000293,-9.1e-05,0.006476,-0.000986,-0.507068,-0.017971,1.702024,-260.856474,-1.695155,66.282629
14.6261,0.008019,0.002986,-0.017544,-0.000107,-6.9e-05,0.006498,-0.000836,-0.507067,-0.017848,1.702024,-260.856474,-1.695155,66.282629
14.646,0.007821,0.002954,-0.016859,-4.3e-05,-6e-05,0.006504,-0.000937,-0.506938,-0.017356,1.646519,-260.855061,-1.643141,66.284108
14.6662,0.008036,0.003173,-0.016264,-4e-06,-6.8e-05,0.006503,-0.000792,-0.506971,-0.016894,1.646519,-260.855061,-1.643141,66.284108
14.6862,0.007932,0.002663,-0.016798,2.6e-05,-7.4e-05,0.006501,-0.000792,-0.506971,-0.016894,1.646519,-260.855061,-1.643141,66.284108
14.7061,0.00786,0.002659,-0.016647,2.6e-05,-7.4e-05,0.006501,-0.000637,-0.507268,-0.016558,1.581841,-260.853684,-1.581511,66.285527
14.7265,0.007716,0.003088,-0.015578,-1.7e-05,0.0,0.006469,-0.000634,-0.507269,-0.016567,1.581841,-260.853684,-1.581511,66.285527
14.7462,0.007265,0.003232,-0.016339,-3e-05,2.5e-05,0.00646,-0.000227,-0.506853,-0.015373,1.56409,-260.852134,-1.564334,66.287136
14.7662,0.007541,0.003137,-0.017073,6.3e-05,-3.3e-05,0.006477,-0.001001,-0.506712,-0.016253,1.56409,-260.852134,-1.564334,66.287136
14.7863,0.00762,0.002762,-0.016115,0.000136,-7.8e-05,0.006489,-0.001001,-0.506712,-0.016253,1.56409,-260.852134,-1.564334,66.287136
14.8065,0.007658,0.002569,-0.017516,0.000136,-7.8e-05,0.006489,-0.0006,-0.507171,-0.015847,1.578337,-260.850563,-1.578433,66.288688
14.8267,0.007444,0.002908,-0.017061,0.000171,-2e-06,0.006479,-0.000876,-0.507245,-0.016498,1.578337,-260.850563,-1.578433,66.288688
14.846,0.007311,0.002923,-0.016004,0.000184,2.4e-05,0.006476,-0.001252,-0.50702,-0.016866,1.535851,-260.849093,-1.537193,66.290216
14.8667,0.007366,0.002799,-0.015245,0.000201,8e-06,0.006478,-0.000887,-0.507013,-0.016071,1.535851,-260.849093,-1.537193,66.290216
14.8863,0.007097,0.003193,-0.016466,0.000214,-4e-06,0.006479,-0.000887,-0.507013,-0.016071,1.535851,-260.849093,-1.537193,66.290216
14.9065,0.007495,0.002769,-0.015397,0.000214,-4e-06,0.006479,-0.001292,-0.506737,-0.016196,1.52448,-260.847507,-1.523914,66.291783
14.9262,0.006872,0.002931,-0.015058,0.000245,-4.6e-05,0.006484,-0.000912,-0.506913,-0.015841,1.52448,-260.847507,-1.523914,66.291783
