mach0312/omni-docking-bench/src/icros_test_setup/results/MPPI_sample/timeseries/trial_045.csv
t,x,y,yaw,vx,vy,wz,bl_x,bl_y,bl_yaw,front_steering_joint,front_wheel_joint,rear_steering_joint,rear_wheel_joint
0.0,-0.07928,-0.001586,0.066088,-0.013613,-0.002018,0.060815,-0.044611,-0.510232,0.059251,-1.201065,-262.323362,1.236249,71.516982
0.0005,-0.080776,-0.001881,0.069393,-0.011467,-0.0017,0.051228,-0.044611,-0.510232,0.059251,-1.201065,-262.338468,1.236249,71.500356
0.0009,-0.081156,-0.001594,0.069295,-0.010884,-0.001613,0.048623,-0.043875,-0.510301,0.063662,-1.201065,-262.353424,1.236249,71.483896
0.0013,-0.08299,-0.001556,0.071242,-0.010238,-0.001518,0.045739,-0.043875,-0.510301,0.063662,-1.201065,-262.36759,1.236249,71.468305
0.0016,-0.083425,-0.002227,0.070651,-0.009516,-0.001411,0.042511,-0.044272,-0.510451,0.063486,-1.201065,-262.380869,1.236249,71.45369
0.002,-0.082868,-0.002066,0.070294,-0.008738,-0.001295,0.039037,-0.044272,-0.510451,0.063486,-1.201065,-262.392181,1.236249,71.44124
0.0022,-0.08463,-0.002349,0.073256,-0.00788,-0.001168,0.035202,-0.044507,-0.510214,0.065849,-1.201065,-262.401854,1.236249,71.430595
0.0025,-0.084796,-0.002455,0.07348,-0.006966,-0.001033,0.031121,-0.044921,-0.510734,0.066382,-1.201065,-262.401854,1.236249,71.430595
0.0027,-0.086064,-0.002294,0.07698,-0.005977,-0.000886,0.026704,-0.044921,-0.510734,0.066382,-1.201065,-262.401854,1.236249,71.430595
0.003,-0.086309,-0.002561,0.077643,-0.004917,-0.000729,0.021968,-0.044921,-0.510734,0.066382,-1.201065,-262.401854,1.236249,71.430595
0.0155,-0.086371,-0.002391,0.075005,0.0,0.0,0.0,-0.046927,-0.510819,0.076842,-1.201065,-262.401854,1.236249,71.430595
0.0352,-0.086982,-0.002591,0.07736,0.0,0.0,0.0,-0.048401,-0.511014,0.076123,-1.201065,-262.40847,1.236249,71.423313
0.0553,-0.086991,-0.00244,0.076555,0.0,0.0,0.0,-0.048091,-0.511041,0.076755,-1.201065,-262.40847,1.236249,71.423313
0.0748,-0.087267,-0.002639,0.077677,0.0,0.0,0.0,-0.047986,-0.510946,0.076555,-1.201065,-262.40847,1.236249,71.423313
0.0953,-0.086964,-0.002806,0.077231,0.0,0.0,0.0,-0.047716,-0.511088,0.077584,-1.201065,-262.40847,1.236249,71.423313
0.1156,-0.086974,-0.002273,0.076448,0.003695,0.000295,0.014842,-0.047716,-0.511088,0.077584,-1.201065,-262.40847,1.236249,71.423313
0.1353,-0.087107,-0.002409,0.075869,0.004057,0.000376,0.014572,-0.048023,-0.510783,0.076448,-1.201065,-262.40847,1.236249,71.423313
0.1553,-0.087244,-0.002954,0.076058,0.004373,0.00045,0.013035,-0.048199,-0.510849,0.07621,-1.201065,-262.40847,1.236249,71.423313
0.1752,-0.086918,-0.002621,0.07748,0.004649,0.00052,0.012093,-0.048492,-0.51148,0.076058,-1.126125,-262.40847,1.161309,71.423313
0.1955,-0.08693,-0.002353,0.075698,0.004891,0.000588,0.010097,-0.047539,-0.511127,0.07735,-1.126125,-262.40847,1.161309,71.423313
0.2157,-0.087204,-0.002603,0.076006,0.005104,0.000651,0.008804,-0.047539,-0.511127,0.07735,-1.126125,-262.40847,1.161309,71.423313
0.2353,-0.087374,-0.002657,0.077518,0.005289,0.000709,0.007985,-0.048479,-0.51113,0.076006,-1.051156,-262.40847,1.08634,71.423313
0.2553,-0.08707,-0.002497,0.076394,0.005451,0.000759,0.00613,-0.048235,-0.511128,0.076619,-1.051156,-262.40847,1.08634,71.423313
0.2752,-0.086775,-0.002688,0.07789,0.005594,0.000805,0.004865,-0.048146,-0.51101,0.076394,-0.976242,-262.40847,1.011427,71.423313
0.2956,-0.087141,-0.002561,0.076916,0.00572,0.000844,0.002954,-0.047189,-0.51113,0.077751,-0.976242,-262.40847,1.011427,71.423313
0.3154,-0.087192,-0.002517,0.076229,0.005832,0.00088,0.001585,-0.047189,-0.51113,0.077751,-0.976242,-262.40847,1.011427,71.423313
0.3351,-0.087138,-0.002751,0.076746,0.005932,0.000911,0.000621,-0.048353,-0.511036,0.076229,-0.901215,-262.40847,0.936399,71.423313
0.3552,-0.087397,-0.002772,0.078122,0.006021,0.000937,-0.000903,-0.048224,-0.511123,0.076439,-0.901215,-262.40847,0.936399,71.423313
0.3754,-0.08724,-0.002479,0.076367,0.006099,0.000961,-0.002032,-0.047596,-0.511217,0.078122,-0.826227,-262.40847,0.861411,71.423313
0.3953,-0.087253,-0.002295,0.077094,0.00617,0.000977,-0.003457,-0.048268,-0.511011,0.076515,-0.826227,-262.40847,0.861411,71.423313
0.4158,-0.086888,-0.002538,0.075939,0.006234,0.000992,-0.004559,-0.048268,-0.511011,0.076515,-0.826227,-262.40847,0.861411,71.423313
0.4353,-0.08673,-0.002328,0.076848,0.006291,0.001005,-0.005396,-0.048197,-0.511068,0.075939,-0.751099,-262.40847,0.786283,71.423313
0.4557,-0.086956,-0.002738,0.076222,0.006342,0.001014,-0.006441,-0.047942,-0.510967,0.076311,-0.751099,-262.40847,0.786283,71.423313
0.4756,-0.087114,-0.002303,0.074807,0.006387,0.001021,-0.007262,-0.048113,-0.511256,0.076212,-0.676123,-262.408363,0.711308,71.423435
0.4953,-0.087348,-0.002742,0.076984,0.006429,0.001027,-0.008174,-0.048921,-0.51091,0.074928,-0.676123,-262.408363,0.711308,71.423435
0.5156,-0.087356,-0.002664,0.075547,0.006467,0.001032,-0.0089,-0.048921,-0.51091,0.074928,-0.676123,-262.408363,0.711308,71.423435
0.5355,-0.087087,-0.002612,0.076507,0.006501,0.001035,-0.009478,-0.048716,-0.511182,0.075358,-0.601142,-262.406696,0.706988,71.425369
0.5555,-0.087008,-0.002404,0.076809,0.006532,0.001042,-0.010094,-0.04845,-0.511154,0.075807,-0.601142,-262.406696,0.706988,71.425369
0.575,-0.086316,-0.001861,0.075941,0.00656,0.001047,-0.010588,-0.047703,-0.510862,0.076563,-0.631391,-262.404015,0.782033,71.428506
0.5956,-0.086555,-0.002888,0.076663,0.006584,0.001037,-0.011056,-0.047622,-0.510429,0.075982,-0.631391,-262.404015,0.782033,71.428506
0.6158,-0.086189,-0.002511,0.076621,0.006606,0.001028,-0.011431,-0.047622,-0.510429,0.075982,-0.631391,-262.404015,0.782033,71.428506
0.6353,-0.08585,-0.002163,0.075267,0.006626,0.001021,-0.011732,-0.046915,-0.510958,0.076235,-0.690425,-262.401046,0.853058,71.431986
0.6554,-0.08566,-0.002103,0.074822,0.006646,0.001023,-0.012023,-0.047128,-0.510854,0.075793,-0.690425,-262.401046,0.853058,71.431986
0.6751,-0.084949,-0.002198,0.073174,0.006663,0.001025,-0.012257,-0.047343,-0.510631,0.074475,-0.747721,-262.397693,0.890366,71.435895
0.6954,-0.085324,-0.002335,0.074985,0.006679,0.001028,-0.0125,-0.047626,-0.510813,0.07327,-0.747721,-262.397693,0.890366,71.435895
0.7154,-0.085246,-0.002582,0.075654,0.006694,0.00103,-0.012697,-0.047626,-0.510813,0.07327,-0.747721,-262.397693,0.890366,71.435895
0.7353,-0.084718,-0.002468,0.076123,0.006707,0.001031,-0.012855,-0.046427,-0.51106,0.075147,-0.769985,-262.394025,0.906556,71.440166
0.7552,-0.084526,-0.002564,0.074918,0.006719,0.001035,-0.01304,-0.046194,-0.511025,0.075487,-0.769985,-262.394025,0.906556,71.440166
0.7751,-0.08416,-0.002366,0.072265,0.00673,0.001037,-0.01319,-0.046146,-0.511086,0.074515,-0.793787,-262.390253,0.924076,71.444556
0.7954,-0.084061,-0.002036,0.07311,0.00674,0.001042,-0.013362,-0.047224,-0.511037,0.072439,-0.793787,-262.390253,0.924076,71.444556
0.8157,-0.083804,-0.002127,0.074631,0.006749,0.001046,-0.013503,-0.047224,-0.511037,0.072439,-0.793787,-262.390253,0.924076,71.444556
0.8354,-0.083039,-0.002001,0.073539,0.006757,0.001049,-0.013619,-0.045501,-0.510644,0.074082,-0.806383,-262.38638,0.933673,71.449061
0.8555,-0.082953,-0.002033,0.074231,0.006764,0.001042,-0.013761,-0.045496,-0.510628,0.073797,-0.806383,-262.38638,0.933673,71.449061
0.8754,-0.082757,-0.001668,0.072297,0.00677,0.001036,-0.013878,-0.044919,-0.510579,0.073801,-0.821819,-262.382434,0.945848,71.453654
0.8955,-0.082317,-0.002276,0.072621,0.006775,0.001027,-0.014014,-0.045816,-0.510355,0.072412,-0.821819,-262.382434,0.945848,71.453654
0.9154,-0.082537,-0.001558,0.071908,0.006779,0.001019,-0.014127,-0.045816,-0.510355,0.072412,-0.821819,-262.382434,0.945848,71.453654
0.9351,-0.081984,-0.00196,0.072728,0.006784,0.001012,-0.014219,-0.045617,-0.510176,0.071328,-0.832495,-262.378418,0.952272,71.458316
0.9551,-0.08181,-0.001505,0.071054,0.006788,0.001006,-0.014332,-0.045301,-0.510347,0.071835,-0.832495,-262.378418,0.952272,71.458316
0.975,-0.081227,-0.001765,0.070491,0.006792,0.001001,-0.014425,-0.045392,-0.510171,0.070605,-0.846816,-262.37434,0.960308,71.463027
0.995,-0.081232,-0.001485,0.072296,0.006796,0.001001,-0.014532,-0.045303,-0.510468,0.070479,-0.846816,-262.37434,0.960308,71.463027
1.0153,-0.08139,-0.001716,0.070191,0.0068,0.001,-0.014621,-0.045303,-0.510468,0.070479,-0.846816,-262.37434,0.960308,71.463027
1.0353,-0.080427,-0.001779,0.070921,0.006804,0.001,-0.014695,-0.045342,-0.510399,0.069588,-0.854951,-262.370213,0.965282,71.467786
1.0552,-0.080603,-0.002007,0.070697,0.006807,0.000999,-0.014777,-0.044882,-0.510432,0.07006,-0.854951,-262.370213,0.965282,71.467786
1.0751,-0.079706,-0.001304,0.069296,0.00681,0.000999,-0.014845,-0.044364,-0.510686,0.070229,-0.864502,-262.36602,0.972202,71.472615
1.0953,-0.079909,-0.001335,0.07066,0.006811,0.000991,-0.014916,-0.044381,-0.510129,0.069352,-0.864502,-262.36602,0.972202,71.472615
1.1152,-0.079788,-0.001924,0.071295,0.006813,0.000985,-0.014975,-0.044381,-0.510129,0.069352,-0.864502,-262.36602,0.972202,71.472615
1.1355,-0.079162,-0.001286,0.069003,0.006814,0.00098,-0.015024,-0.043178,-0.510566,0.070674,-0.869781,-262.361802,0.975979,71.47747
1.1553,-0.079187,-0.001786,0.068478,0.006816,0.000979,-0.015076,-0.043482,-0.510356,0.069917,-0.869781,-262.361802,0.975979,71.47747
1.1749,-0.078392,-0.00136,0.068385,0.006818,0.000979,-0.015119,-0.044077,-0.510545,0.068,-0.877222,-262.35755,0.979809,71.482349
1.1952,-0.078384,-0.001177,0.068962,0.00682,0.000977,-0.015163,-0.04358,-0.5102,0.068326,-0.877222,-262.35755,0.979809,71.482349
1.2151,-0.078452,-0.000881,0.070821,0.006821,0.000975,-0.0152,-0.04358,-0.5102,0.068326,-0.877222,-262.35755,0.979809,71.482349
1.235,-0.077798,-0.001275,0.068206,0.006823,0.000974,-0.015231,-0.042082,-0.509541,0.070188,-0.880401,-262.353268,0.982124,71.487259
1.2552,-0.077397,-0.001688,0.067219,0.006822,0.000961,-0.015264,-0.042439,-0.509757,0.06931,-0.880401,-262.353268,0.982124,71.487259
1.2749,-0.076964,-0.001037,0.067056,0.006822,0.000951,-0.015291,-0.042926,-0.510491,0.066735,-0.88448,-262.348963,0.984676,71.492192
1.295,-0.077359,-0.001151,0.066221,0.006823,0.000948,-0.015318,-0.042792,-0.509942,0.067002,-0.88448,-262.348963,0.984676,71.492192
1.3153,-0.077123,-0.001421,0.066935,0.006824,0.000946,-0.01534,-0.042792,-0.509942,0.067002,-0.88448,-262.348963,0.984676,71.492192
1.3351,-0.076243,-0.000991,0.065676,0.006825,0.000944,-0.015359,-0.042729,-0.51022,0.066294,-0.888019,-262.344639,0.985352,71.497129
1.3551,-0.076178,-0.000889,0.064946,0.006827,0.000948,-0.015378,-0.042715,-0.51008,0.06597,-0.888019,-262.344639,0.985352,71.497129
1.375,-0.075229,-0.000835,0.06492,0.006828,0.000951,-0.015394,-0.042864,-0.509769,0.064456,-0.890568,-262.340299,0.986708,71.502079
1.3951,-0.075621,-0.001086,0.064428,0.006828,0.000947,-0.015411,-0.042197,-0.509759,0.064853,-0.890568,-262.340299,0.986708,71.502079
1.4151,-0.075235,-0.001172,0.06525,0.006829,0.000944,-0.015426,-0.042197,-0.509759,0.064853,-0.890568,-262.340299,0.986708,71.502079
1.4355,-0.074609,-0.00093,0.06593,0.006829,0.000941,-0.015438,-0.041698,-0.510028,0.064606,-0.891203,-262.335954,0.987744,71.50704
1.4555,-0.074677,-0.000541,0.065599,0.00683,0.000943,-0.01545,-0.041385,-0.509938,0.065071,-0.891203,-262.335954,0.987744,71.50704
1.4753,-0.073719,-0.000757,0.063859,0.006831,0.000944,-0.015461,-0.041031,-0.5094,0.065107,-0.893245,-262.331597,0.988454,71.512006
1.4953,-0.074282,-0.000632,0.064593,0.00683,0.00094,-0.015473,-0.04115,-0.509687,0.063946,-0.893245,-262.331597,0.988454,71.512006
1.5152,-0.074036,-0.000468,0.065234,0.00683,0.000937,-0.015482,-0.04115,-0.509687,0.063946,-0.893245,-262.331597,0.988454,71.512006
1.5354,-0.073162,-0.000504,0.062631,0.006831,0.000934,-0.01549,-0.040507,-0.509325,0.064587,-0.8938,-262.327235,0.989074,71.516978
1.5554,-0.073368,-0.000786,0.063216,0.00683,0.000925,-0.0155,-0.040773,-0.509391,0.063718,-0.8938,-262.327235,0.989074,71.516978
1.575,-0.072517,-0.000341,0.062988,0.006829,0.000917,-0.015508,-0.040933,-0.509724,0.062722,-0.895409,-262.322865,0.989436,71.521954
1.5954,-0.072495,-0.000458,0.061021,0.006828,0.00091,-0.015516,-0.040449,-0.509362,0.06294,-0.895409,-262.322865,0.989436,71.521954
1.6153,-0.072364,-0.000864,0.062065,0.006828,0.000904,-0.015522,-0.040449,-0.509362,0.06294,-0.895409,-262.322865,0.989436,71.521954
1.6354,-0.072028,-0.000666,0.061857,0.006828,0.0009,-0.015527,-0.040448,-0.509826,0.061417,-0.897102,-262.318483,0.989264,71.526931
1.6556,-0.072058,-0.000633,0.061514,0.006829,0.000906,-0.015532,-0.040437,-0.509764,0.061523,-0.897102,-262.318483,0.989264,71.526931
1.6753,-0.070895,-0.000305,0.061222,0.006831,0.000912,-0.015536,-0.04049,-0.509626,0.061019,-0.898851,-262.314093,0.9891,71.531904
1.6955,-0.071062,-0.000468,0.060352,0.00683,0.000907,-0.015541,-0.039749,-0.509372,0.061181,-0.898851,-262.314093,0.9891,71.531904
1.7154,-0.071058,-0.000755,0.059674,0.00683,0.000903,-0.015545,-0.039749,-0.509372,0.061181,-0.898851,-262.314093,0.9891,71.531904
1.7352,-0.070389,-0.000469,0.059127,0.00683,0.0009,-0.015549,-0.04036,-0.509792,0.059025,-0.898238,-262.309707,0.98967,71.536882
1.7556,-0.070428,-0.000382,0.059227,0.006831,0.000907,-0.015551,-0.040283,-0.509697,0.058992,-0.898238,-262.309707,0.98967,71.536882
1.7754,-0.069888,-0.000477,0.059157,0.006832,0.000913,-0.015554,-0.040026,-0.509446,0.058733,-0.899448,-262.305317,0.989579,71.541855
1.7953,-0.06988,9e-06,0.057959,0.006832,0.000915,-0.015557,-0.03975,-0.50957,0.059095,-0.899448,-262.305317,0.989579,71.541855
1.8155,-0.069581,-0.000367,0.058743,0.006833,0.000917,-0.015559,-0.03975,-0.50957,0.059095,-0.899448,-262.305317,0.989579,71.541855
1.8351,-0.069197,-0.000269,0.058833,0.006833,0.000918,-0.015562,-0.039357,-0.509433,0.058093,-0.898671,-262.300927,0.990126,71.546838
1.8556,-0.068766,-0.000262,0.059089,0.006833,0.000916,-0.015564,-0.039263,-0.509408,0.058323,-0.898671,-262.300927,0.990126,71.546838
1.8754,-0.068179,-0.000164,0.058369,0.006832,0.000914,-0.015567,-0.038433,-0.50933,0.058594,-0.898613,-262.296538,0.990482,71.551823
1.8956,-0.068345,-0.000391,0.057722,0.006832,0.000909,-0.015569,-0.038418,-0.509296,0.058364,-0.898613,-262.296538,0.990482,71.551823
1.9155,-0.068491,-0.000154,0.05779,0.006831,0.000904,-0.015571,-0.038418,-0.509296,0.058364,-0.898613,-262.296538,0.990482,71.551823
1.935,-0.067425,0.000288,0.055748,0.006831,0.000901,-0.015573,-0.038751,-0.509248,0.057139,-0.899079,-262.292124,0.990469,71.556833
1.9552,-0.06755,-0.000162,0.057537,0.00683,0.000895,-0.015575,-0.038827,-0.509103,0.056476,-0.899079,-262.292124,0.990469,71.556833
1.9752,-0.067166,0.000198,0.05553,0.006829,0.00089,-0.015576,-0.038009,-0.509277,0.057046,-0.900157,-262.287757,0.990198,71.561781
1.9953,-0.066846,-0.000119,0.055397,0.006829,0.000885,-0.015578,-0.038773,-0.509037,0.055641,-0.900157,-262.287757,0.990198,71.561781
2.0151,-0.066438,0.000313,0.057163,0.006828,0.000881,-0.015579,-0.038773,-0.509037,0.055641,-0.900157,-262.287757,0.990198,71.561781
2.0354,-0.065875,4.9e-05,0.055438,0.006828,0.000878,-0.01558,-0.037017,-0.5088,0.05651,-0.90096,-262.283357,0.989912,71.566759
2.0554,-0.065918,0.000141,0.056313,0.006827,0.00087,-0.015581,-0.037228,-0.508944,0.056,-0.90096,-262.283357,0.989912,71.566759
2.0756,-0.065561,0.000237,0.05676,0.006826,0.000864,-0.015582,-0.036998,-0.509011,0.055817,-0.901891,-262.278947,0.989532,71.571739
2.0954,-0.065342,0.000778,0.055417,0.006825,0.000858,-0.015583,-0.03665,-0.508946,0.056655,-0.901891,-262.278947,0.989532,71.571739
2.115,-0.064999,0.000644,0.054725,0.006825,0.000853,-0.015584,-0.03665,-0.508946,0.056655,-0.901891,-262.278947,0.989532,71.571739
2.1354,-0.064527,0.000627,0.052986,0.006824,0.000848,-0.015584,-0.036821,-0.508541,0.054075,-0.90285,-262.274545,0.989136,71.576702
2.1553,-0.064618,0.000614,0.054224,0.006823,0.000838,-0.015586,-0.037073,-0.508583,0.053554,-0.90285,-262.274545,0.989136,71.576702
2.1755,-0.06348,0.000461,0.052866,0.006822,0.00083,-0.015586,-0.036761,-0.508598,0.053726,-0.90398,-262.270122,0.988616,71.581677
2.1954,-0.063855,0.000805,0.052418,0.006822,0.000829,-0.015586,-0.03654,-0.508805,0.052915,-0.90398,-262.270122,0.988616,71.581677
2.2159,-0.064007,0.000635,0.052921,0.006822,0.000828,-0.015586,-0.03654,-0.508805,0.052915,-0.90398,-262.270122,0.988616,71.581677
2.2353,-0.063043,0.000597,0.053828,0.006822,0.000827,-0.015586,-0.036746,-0.508602,0.052269,-0.905232,-262.265706,0.988027,71.586632
2.2551,-0.062902,0.00084,0.050737,0.006821,0.000821,-0.015587,-0.036247,-0.508622,0.052831,-0.905232,-262.265706,0.988027,71.586632
2.2754,-0.062642,0.000528,0.052079,0.006821,0.000816,-0.015587,-0.036822,-0.508467,0.050241,-0.905392,-262.261293,0.987841,71.591581
2.2956,-0.062232,0.001043,0.049729,0.006821,0.000815,-0.015587,-0.036149,-0.508749,0.051884,-0.905392,-262.261293,0.987841,71.591581
2.3155,-0.062178,0.000517,0.050897,0.006821,0.000815,-0.015587,-0.036149,-0.508749,0.051884,-0.905392,-262.261293,0.987841,71.591581
2.3356,-0.061607,0.000806,0.049163,0.006821,0.000815,-0.015587,-0.035948,-0.508774,0.050243,-0.906144,-262.256859,0.987478,71.596546
2.3557,-0.061796,0.000667,0.050058,0.006821,0.000815,-0.015587,-0.03616,-0.508687,0.049724,-0.906144,-262.256859,0.987478,71.596546
2.3753,-0.060884,0.000708,0.049217,0.006822,0.000816,-0.015587,-0.036062,-0.508657,0.049563,-0.906114,-262.25244,0.987409,71.601495
2.3954,-0.061092,0.001155,0.049263,0.006822,0.000815,-0.015587,-0.035806,-0.508672,0.049222,-0.906114,-262.25244,0.987409,71.601495
2.4153,-0.060697,0.000991,0.050151,0.006822,0.000815,-0.015587,-0.035806,-0.508672,0.049222,-0.906114,-262.25244,0.987409,71.601495
2.4353,-0.059913,0.001643,0.0493,0.006822,0.000815,-0.015587,-0.034847,-0.50832,0.049499,-0.906055,-262.248016,0.987406,71.606449
2.4557,-0.060209,0.000769,0.048074,0.006818,0.000797,-0.01559,-0.034787,-0.508075,0.049342,-0.906055,-262.248016,0.987406,71.606449
2.4753,-0.059582,0.000772,0.048274,0.006816,0.000782,-0.015591,-0.035485,-0.508606,0.047579,-0.906088,-262.243592,0.987383,71.611402
2.4954,-0.059127,0.000964,0.048259,0.006817,0.000786,-0.01559,-0.035005,-0.50863,0.048191,-0.906088,-262.243592,0.987383,71.611402
2.5154,-0.059559,0.000812,0.04824,0.006818,0.000789,-0.015589,-0.035005,-0.50863,0.048191,-0.906088,-262.243592,0.987383,71.611402
2.5355,-0.058756,0.001095,0.047113,0.006818,0.000792,-0.015589,-0.034683,-0.508548,0.047588,-0.90847,-262.239159,0.986404,71.616344
2.5552,-0.058726,0.000922,0.048401,0.006818,0.000789,-0.015589,-0.034673,-0.508457,0.047318,-0.90847,-262.239159,0.986404,71.616344
2.5754,-0.057157,0.000895,0.046473,0.006818,0.000788,-0.015589,-0.033836,-0.508446,0.047906,-0.907681,-262.234727,0.986597,71.62129
2.5953,-0.057866,0.001564,0.046082,0.006818,0.000787,-0.015589,-0.033485,-0.508543,0.046569,-0.907681,-262.234727,0.986597,71.62129
2.6159,-0.057791,0.001505,0.046493,0.006818,0.000787,-0.015589,-0.033485,-0.508543,0.046569,-0.907681,-262.234727,0.986597,71.62129
2.6357,-0.056994,0.00136,0.046615,0.006818,0.000787,-0.015589,-0.033805,-0.507898,0.045841,-0.907949,-262.230297,0.98646,71.626232
2.6554,-0.057458,0.001172,0.045853,0.006815,0.000771,-0.015591,-0.033536,-0.50797,0.046083,-0.907949,-262.230297,0.98646,71.626232
2.6751,-0.056451,0.001273,0.045483,0.006812,0.000757,-0.015592,-0.033867,-0.508257,0.045358,-0.908004,-262.225871,0.986435,71.631168
2.6953,-0.056378,0.001154,0.043301,0.006812,0.000753,-0.015592,-0.033306,-0.508203,0.045447,-0.908004,-262.225871,0.986435,71.631168
2.7153,-0.056567,0.001461,0.044921,0.006811,0.000749,-0.015591,-0.033306,-0.508203,0.045447,-0.908004,-262.225871,0.986435,71.631168
2.7352,-0.055511,0.001031,0.044117,0.006811,0.000745,-0.015591,-0.033381,-0.50798,0.044268,-0.91011,-262.221431,0.985552,71.636101
2.755,-0.055917,0.00103,0.044053,0.006811,0.000743,-0.015591,-0.033201,-0.508175,0.044132,-0.91011,-262.221431,0.985552,71.636101
2.775,-0.054981,0.001195,0.044662,0.006811,0.000741,-0.015591,-0.033242,-0.508442,0.043557,-0.910834,-262.21698,0.985089,71.641037
2.7953,-0.055067,0.001828,0.044271,0.006811,0.00074,-0.01559,-0.032287,-0.508307,0.044544,-0.910834,-262.21698,0.985089,71.641037
2.8151,-0.055017,0.001407,0.043915,0.006811,0.00074,-0.01559,-0.032287,-0.508307,0.044544,-0.910834,-262.21698,0.985089,71.641037
2.8352,-0.053856,0.001262,0.042658,0.006811,0.00074,-0.01559,-0.032344,-0.508058,0.043263,-0.911103,-262.212542,0.98488,71.645956
2.8554,-0.054039,0.001447,0.043913,0.00681,0.000736,-0.01559,-0.032215,-0.508141,0.042943,-0.911103,-262.212542,0.98488,71.645956
2.8751,-0.053822,0.00162,0.041554,0.00681,0.000733,-0.01559,-0.031435,-0.508028,0.043416,-0.911084,-262.20809,0.984811,71.65089
2.8952,-0.05333,0.00172,0.042019,0.006809,0.000727,-0.01559,-0.032523,-0.507946,0.041689,-0.911084,-262.20809,0.984811,71.65089
2.915,-0.053481,0.001471,0.041769,0.006808,0.000721,-0.015591,-0.032523,-0.507946,0.041689,-0.911084,-262.20809,0.984811,71.65089
2.9352,-0.053034,0.001334,0.039991,0.006807,0.000716,-0.015591,-0.031903,-0.508042,0.041118,-0.91155,-262.203643,0.984585,71.655814
2.9553,-0.052869,0.001363,0.041637,0.006808,0.000718,-0.01559,-0.032176,-0.508126,0.040578,-0.91155,-262.203643,0.984585,71.655814
2.9753,-0.052008,0.001361,0.039609,0.006808,0.00072,-0.01559,-0.031425,-0.508163,0.041142,-0.91268,-262.199198,0.984024,71.660725
2.9951,-0.05206,0.001595,0.04112,0.006809,0.000724,-0.015589,-0.031765,-0.508231,0.039725,-0.91268,-262.199198,0.984024,71.660725
3.0158,-0.051878,0.001397,0.041924,0.00681,0.000727,-0.015588,-0.031765,-0.508231,0.039725,-0.91268,-262.199198,0.984024,71.660725
3.0354,-0.051583,0.001677,0.040065,0.00681,0.00073,-0.015588,-0.03022,-0.508113,0.04127,-0.912409,-262.194747,0.984066,71.665643
3.0552,-0.051082,0.001821,0.038694,0.006809,0.000723,-0.015589,-0.030567,-0.508028,0.040706,-0.912409,-262.194747,0.984066,71.665643
3.0755,-0.050468,0.001589,0.039527,0.006807,0.000717,-0.01559,-0.031137,-0.507766,0.038197,-0.911625,-262.190293,0.984376,71.670572
3.0955,-0.050499,0.001677,0.038367,0.006806,0.000711,-0.01559,-0.030375,-0.507989,0.039388,-0.911625,-262.190293,0.984376,71.670572
3.1158,-0.050818,0.002038,0.040403,0.006805,0.000706,-0.01559,-0.030375,-0.507989,0.039388,-0.911625,-262.190293,0.984376,71.670572
3.1354,-0.049892,0.002057,0.038566,0.006805,0.000702,-0.015591,-0.029934,-0.507505,0.039751,-0.912635,-262.185841,0.98401,71.675491
3.1558,-0.049803,0.001805,0.038526,0.006801,0.000683,-0.015592,-0.030022,-0.507524,0.039191,-0.912635,-262.185841,0.98401,71.675491
3.1752,-0.048713,0.00179,0.037514,0.006798,0.000667,-0.015593,-0.029942,-0.507786,0.038027,-0.913649,-262.181382,0.983563,71.680407
3.1954,-0.049163,0.001759,0.038256,0.006798,0.000664,-0.015593,-0.029606,-0.507844,0.037534,-0.913649,-262.181382,0.983563,71.680407
3.2152,-0.049218,0.00157,0.036425,0.006798,0.000662,-0.015592,-0.029606,-0.507844,0.037534,-0.913649,-262.181382,0.983563,71.680407
3.2356,-0.047956,0.00155,0.03678,0.006798,0.00066,-0.015591,-0.030363,-0.508054,0.035775,-0.916126,-262.176918,0.982515,71.685305
3.2552,-0.048428,0.002163,0.036234,0.006799,0.000667,-0.01559,-0.029851,-0.508071,0.036114,-0.916126,-262.176918,0.982515,71.685305
3.2753,-0.047543,0.001693,0.036137,0.006801,0.000674,-0.015589,-0.029737,-0.507473,0.035739,-0.916503,-262.172452,0.98215,71.6902
3.2954,-0.047748,0.002055,0.035122,0.006801,0.000673,-0.015589,-0.02916,-0.50793,0.036079,-0.916503,-262.172452,0.98215,71.6902
3.3154,-0.047082,0.002049,0.037065,0.0068,0.000672,-0.015589,-0.02916,-0.50793,0.036079,-0.916503,-262.172452,0.98215,71.6902
3.3357,-0.047008,0.001909,0.03623,0.0068,0.000671,-0.015589,-0.027901,-0.507562,0.036414,-0.915439,-262.167995,0.982485,71.695095
3.3553,-0.047114,0.002096,0.033892,0.006797,0.000657,-0.01559,-0.028127,-0.507636,0.036263,-0.915439,-262.167995,0.982485,71.695095
3.3753,-0.046388,0.002256,0.035015,0.006795,0.000645,-0.015591,-0.029616,-0.507583,0.033394,-0.915631,-262.163525,0.982401,71.700002
3.3954,-0.045945,0.002179,0.034694,0.006792,0.000632,-0.015592,-0.028617,-0.507443,0.03485,-0.915631,-262.163525,0.982401,71.700002
3.4154,-0.046053,0.002233,0.034759,0.00679,0.000621,-0.015593,-0.028617,-0.507443,0.03485,-0.915631,-262.163525,0.982401,71.700002
3.4353,-0.045465,0.002047,0.034886,0.006789,0.000611,-0.015593,-0.028047,-0.507423,0.034107,-0.917484,-262.159052,0.981673,71.704895
3.4554,-0.045551,0.002044,0.03398,0.006788,0.000603,-0.015593,-0.027863,-0.507508,0.03435,-0.917484,-262.159052,0.981673,71.704895
3.4753,-0.044677,0.002542,0.032448,0.006787,0.000596,-0.015592,-0.028009,-0.507635,0.033484,-0.919808,-262.154574,0.980564,71.709771
3.4952,-0.044452,0.002374,0.032647,0.006784,0.000584,-0.015593,-0.028109,-0.507229,0.032516,-0.919808,-262.154574,0.980564,71.709771
3.5157,-0.044798,0.002527,0.031717,0.006783,0.000573,-0.015593,-0.028109,-0.507229,0.032516,-0.919808,-262.154574,0.980564,71.709771
3.5351,-0.044101,0.002388,0.030605,0.006781,0.000564,-0.015593,-0.028342,-0.507183,0.031065,-0.920769,-262.150093,0.980037,71.71464
3.5558,-0.044231,0.002547,0.032365,0.006781,0.00056,-0.015592,-0.028371,-0.507256,0.030803,-0.920769,-262.150093,0.980037,71.71464
3.5753,-0.042563,0.0023,0.032718,0.006781,0.000556,-0.015592,-0.027512,-0.507161,0.031868,-0.922903,-262.145598,0.978929,71.719501
3.5958,-0.042921,0.002485,0.031344,0.006779,0.000547,-0.015592,-0.026017,-0.507402,0.032616,-0.922903,-262.145598,0.978929,71.719501
3.6154,-0.043399,0.002376,0.030663,0.006777,0.00054,-0.015592,-0.026017,-0.507402,0.032616,-0.922903,-262.145598,0.978929,71.719501
3.6356,-0.042212,0.002466,0.029603,0.006776,0.000533,-0.015592,-0.02748,-0.507352,0.03001,-0.923295,-262.141101,0.97857,71.724361
3.6556,-0.042263,0.002518,0.028713,0.006777,0.000533,-0.015591,-0.027299,-0.507332,0.029769,-0.923295,-262.141101,0.97857,71.724361
3.675,-0.041623,0.002328,0.030247,0.006777,0.000533,-0.01559,-0.027406,-0.507249,0.028217,-0.924875,-262.136593,0.977838,71.729217
3.6956,-0.04151,0.002426,0.027569,0.006777,0.000532,-0.01559,-0.026293,-0.507421,0.030047,-0.924875,-262.136593,0.977838,71.729217
3.7152,-0.041705,0.002523,0.029492,0.006777,0.000531,-0.015589,-0.026293,-0.507421,0.030047,-0.924875,-262.136593,0.977838,71.729217
3.735,-0.041181,0.002481,0.028562,0.006777,0.00053,-0.015589,-0.026384,-0.507224,0.02884,-0.924754,-262.132097,0.97772,71.73406
3.7551,-0.040917,0.00264,0.029354,0.006776,0.000525,-0.015589,-0.026446,-0.507256,0.028651,-0.924754,-262.132097,0.97772,71.73406
3.775,-0.040292,0.002345,0.029089,0.006775,0.000521,-0.015589,-0.025734,-0.507117,0.028858,-0.924909,-262.127585,0.977569,71.738918
3.7953,-0.039897,0.002871,0.028294,0.006775,0.000519,-0.015589,-0.025471,-0.507411,0.029045,-0.924909,-262.127585,0.977569,71.738918
3.8154,-0.040544,0.002596,0.028694,0.006774,0.000517,-0.015589,-0.025471,-0.507411,0.029045,-0.924909,-262.127585,0.977569,71.738918
3.8353,-0.039418,0.002564,0.025781,0.006774,0.000515,-0.015589,-0.02563,-0.507164,0.028043,-0.925507,-262.123077,0.977283,71.743766
3.8551,-0.039464,0.002416,0.026772,0.006773,0.00051,-0.015589,-0.025862,-0.507203,0.027035,-0.925507,-262.123077,0.977283,71.743766
3.8753,-0.039273,0.002894,0.027725,0.006772,0.000505,-0.01559,-0.025597,-0.507379,0.026277,-0.925924,-262.11857,0.977093,71.748608
3.8954,-0.039009,0.002793,0.027793,0.006768,0.000488,-0.015591,-0.025164,-0.506948,0.027578,-0.925924,-262.11857,0.977093,71.748608
3.9156,-0.038487,0.002717,0.02596,0.006765,0.000473,-0.015592,-0.025164,-0.506948,0.027578,-0.925924,-262.11857,0.977093,71.748608
3.9356,-0.037787,0.002795,0.026559,0.006762,0.000461,-0.015593,-0.024966,-0.507083,0.025308,-0.92662,-262.114071,0.976771,71.753436
3.9553,-0.037905,0.002728,0.023911,0.006761,0.000453,-0.015592,-0.024642,-0.507056,0.025737,-0.92662,-262.114071,0.976771,71.753436
3.9749,-0.037579,0.00256,0.024258,0.00676,0.000447,-0.015592,-0.025496,-0.507106,0.023414,-0.929767,-262.109547,0.975469,71.75826
3.9955,-0.037357,0.002807,0.024226,0.006762,0.000455,-0.01559,-0.025224,-0.507273,0.024157,-0.929767,-262.109547,0.975469,71.75826
4.0157,-0.037323,0.002734,0.022736,0.006764,0.000461,-0.015589,-0.025224,-0.507273,0.024157,-0.929767,-262.109547,0.975469,71.75826
4.0353,-0.036636,0.002879,0.024599,0.006765,0.000467,-0.015587,-0.025446,-0.507109,0.022082,-0.930633,-262.105015,0.975001,71.763085
4.0552,-0.036484,0.002735,0.023539,0.006765,0.000462,-0.015587,-0.024861,-0.507048,0.023034,-0.930633,-262.105015,0.975001,71.763085
4.0753,-0.035707,0.002959,0.025518,0.006764,0.000459,-0.015587,-0.024266,-0.507104,0.023042,-0.929028,-262.100493,0.975376,71.767911
4.0952,-0.035856,0.003049,0.024572,0.006757,0.000435,-0.01559,-0.022818,-0.506893,0.025282,-0.929028,-262.100493,0.975376,71.767911
4.1153,-0.035606,0.002819,0.024583,0.006752,0.000415,-0.015592,-0.022818,-0.506893,0.025282,-0.929028,-262.100493,0.975376,71.767911
4.1351,-0.035211,0.003466,0.022106,0.006748,0.000398,-0.015593,-0.022788,-0.507001,0.023931,-0.92957,-262.095969,0.975096,71.772733
4.155,-0.034959,0.00306,0.021238,0.006745,0.000383,-0.015593,-0.023226,-0.506756,0.023108,-0.92957,-262.095969,0.975096,71.772733
4.1749,-0.034144,0.002999,0.02171,0.006743,0.000371,-0.015593,-0.023915,-0.506808,0.020743,-0.93407,-262.091433,0.973499,71.777529
4.1955,-0.03441,0.003055,0.021918,0.006742,0.000366,-0.015591,-0.023135,-0.506874,0.021603,-0.93407,-262.091433,0.973499,71.777529
4.2154,-0.034612,0.002676,0.020316,0.006742,0.000363,-0.015589,-0.023135,-0.506874,0.021603,-0.93407,-262.091433,0.973499,71.777529
4.2354,-0.033586,0.003,0.020432,0.006742,0.00036,-0.015587,-0.02397,-0.507198,0.019664,-0.935881,-262.086885,0.972601,71.782319
4.2557,-0.033415,0.003149,0.022051,0.006746,0.00037,-0.015581,-0.023608,-0.50707,0.019904,-0.935881,-262.086885,0.972601,71.782319
4.2752,-0.033068,0.003223,0.020859,0.006749,0.000378,-0.015575,-0.021955,-0.506711,0.021554,-0.936301,-262.082336,0.971951,71.787102
4.2958,-0.032625,0.002936,0.020075,0.006744,0.00036,-0.015577,-0.022379,-0.506669,0.020895,-0.936301,-262.082336,0.971951,71.787102
4.3153,-0.03326,0.003224,0.019214,0.006741,0.000345,-0.015578,-0.022379,-0.506669,0.020895,-0.936301,-262.082336,0.971951,71.787102
4.3355,-0.032246,0.002867,0.019878,0.006738,0.000332,-0.015579,-0.02318,-0.506661,0.018563,-0.934463,-262.077799,0.972015,71.791886
4.3556,-0.032354,0.003162,0.019039,0.006739,0.000331,-0.01557,-0.022712,-0.50681,0.019023,-0.934463,-262.077799,0.972015,71.791886
4.3755,-0.031538,0.003224,0.018258,0.006741,0.00033,-0.015564,-0.02243,-0.506731,0.018542,-0.937812,-262.073238,0.970695,71.796663
4.3957,-0.031617,0.003218,0.018118,0.006741,0.000322,-0.015553,-0.022234,-0.506694,0.018258,-0.937812,-262.073238,0.970695,71.796663
4.4152,-0.031565,0.003193,0.019725,0.006741,0.000316,-0.015545,-0.022234,-0.506694,0.018258,-0.937812,-262.073238,0.970695,71.796663
4.4358,-0.030479,0.003091,0.017522,0.006742,0.00031,-0.015538,-0.021224,-0.506689,0.019073,-0.937169,-262.068689,0.969952,71.801428
4.4553,-0.030777,0.002752,0.018307,0.00674,0.0003,-0.015533,-0.021321,-0.506744,0.01837,-0.937169,-262.068689,0.969952,71.801428
4.4754,-0.029792,0.003168,0.017359,0.006739,0.000292,-0.01553,-0.021226,-0.507149,0.017811,-0.937348,-262.064126,0.968199,71.806193
4.4954,-0.030199,0.003136,0.017783,0.006739,0.000286,-0.015516,-0.020954,-0.506788,0.017373,-0.937348,-262.064126,0.968199,71.806193
4.5154,-0.029763,0.00296,0.014973,0.006739,0.000281,-0.015504,-0.020954,-0.506788,0.017373,-0.937348,-262.064126,0.968199,71.806193
4.535,-0.029251,0.00343,0.016854,0.00674,0.000276,-0.015495,-0.021846,-0.506967,0.014325,-0.938192,-262.059568,0.967321,71.810941
4.5552,-0.029179,0.003155,0.018148,0.006741,0.000275,-0.015441,-0.021323,-0.506772,0.01529,-0.938192,-262.059568,0.967321,71.810941
4.5752,-0.028707,0.003385,0.016404,0.006741,0.000274,-0.015397,-0.01971,-0.506748,0.017655,-0.937877,-262.055008,0.965454,71.815682
4.5962,-0.028259,0.00297,0.015838,0.006737,0.000255,-0.015396,-0.020278,-0.506563,0.016485,-0.937877,-262.055008,0.965454,71.815682
4.6161,-0.027899,0.003029,0.015774,0.006734,0.000239,-0.015394,-0.020278,-0.506563,0.016485,-0.937877,-262.055008,0.965454,71.815682
4.6358,-0.027727,0.003342,0.014146,0.006732,0.000225,-0.015393,-0.019571,-0.506892,0.015127,-0.93476,-262.050472,0.962388,71.820396
4.6557,-0.028025,0.003554,0.015251,0.006729,0.000221,-0.015335,-0.019919,-0.506775,0.014659,-0.93476,-262.050472,0.962388,71.820396
4.675,-0.027248,0.002831,0.015631,0.006727,0.000217,-0.015288,-0.020033,-0.506377,0.014762,-0.937852,-262.045921,0.960549,71.825093
4.6955,-0.026884,0.00332,0.013418,0.006728,0.000222,-0.015281,-0.019331,-0.507044,0.015533,-0.937852,-262.045921,0.960549,71.825093
4.7155,-0.026992,0.003284,0.014339,0.00673,0.000226,-0.015276,-0.019331,-0.507044,0.015533,-0.937852,-262.045921,0.960549,71.825093
4.7355,-0.026483,0.003622,0.014982,0.006731,0.000229,-0.015272,-0.019399,-0.50665,0.0137,-0.935299,-262.041397,0.957355,71.829758
4.7557,-0.026338,0.003254,0.014561,0.00672,0.000203,-0.015216,-0.019141,-0.506515,0.014145,-0.935299,-262.041397,0.957355,71.829758
4.7752,-0.02572,0.003251,0.010672,0.006712,0.000181,-0.015171,-0.018697,-0.506681,0.014073,-0.93386,-262.036865,0.957173,71.834439
4.7952,-0.02569,0.003181,0.013151,0.0067,0.00019,-0.014827,-0.020129,-0.506716,0.010946,-0.93386,-262.036865,0.957173,71.834439
4.8155,-0.025619,0.003438,0.011401,0.006689,0.000194,-0.01457,-0.020129,-0.506716,0.010946,-0.93386,-262.036865,0.957173,71.834439
4.8352,-0.024956,0.003464,0.011844,0.006679,0.000196,-0.01438,-0.019524,-0.506519,0.010767,-0.934494,-262.032354,0.953094,71.839068
4.8556,-0.024489,0.003448,0.012099,0.006664,0.000178,-0.014265,-0.019244,-0.50651,0.011132,-0.934494,-262.032354,0.953094,71.839068
4.8752,-0.023936,0.003216,0.010194,0.006652,0.000162,-0.01418,-0.01811,-0.506506,0.011647,-0.909735,-262.028072,0.931273,71.843472
4.895,-0.02417,0.003059,0.009901,0.006642,0.000158,-0.014003,-0.018672,-0.506736,0.010298,-0.909735,-262.028072,0.931273,71.843472
4.9157,-0.024313,0.003378,0.010303,0.006632,0.000154,-0.013874,-0.018672,-0.506736,0.010298,-0.909735,-262.028072,0.931273,71.843472
4.9353,-0.023597,0.003407,0.010019,0.006624,0.00015,-0.01378,-0.01878,-0.506586,0.00971,-0.906653,-262.023764,0.924709,71.847882
4.9552,-0.023638,0.003304,0.011797,0.006615,0.000141,-0.013633,-0.01863,-0.506577,0.009767,-0.906653,-262.023764,0.924709,71.847882
4.9752,-0.022465,0.003153,0.009642,0.006606,0.000133,-0.013527,-0.017412,-0.506653,0.011361,-0.895223,-262.019539,0.91257,71.852201
4.9952,-0.022962,0.003503,0.01018,0.006598,0.000124,-0.013447,-0.017525,-0.506808,0.009771,-0.895223,-262.019539,0.91257,71.852201
5.015,-0.022918,0.003392,0.009636,0.00659,0.000117,-0.013389,-0.017525,-0.506808,0.009771,-0.895223,-262.019539,0.91257,71.852201
5.035,-0.022133,0.003769,0.010697,0.006584,0.00011,-0.013347,-0.017728,-0.506577,0.009072,-0.88837,-262.015359,0.904023,71.856465
5.055,-0.022148,0.003548,0.01078,0.00657,8.1e-05,-0.013302,-0.017265,-0.506422,0.009674,-0.88837,-262.015359,0.904023,71.856465
5.075,-0.021804,0.003387,0.009313,0.006559,5.5e-05,-0.013269,-0.016441,-0.506417,0.010356,-0.884779,-262.011202,0.897981,71.86069
5.0954,-0.021335,0.003344,0.009296,0.006552,4.1e-05,-0.013196,-0.016992,-0.506576,0.009381,-0.884779,-262.011202,0.897981,71.86069
5.1154,-0.02136,0.003279,0.008045,0.006545,2.9e-05,-0.013142,-0.016992,-0.506576,0.009381,-0.884779,-262.011202,0.897981,71.86069
5.1356,-0.020701,0.003656,0.008033,0.00654,1.8e-05,-0.013102,-0.016984,-0.5067,0.007491,-0.887008,-262.007054,0.8937,71.864873
5.1556,-0.020855,0.003282,0.008066,0.006536,2.6e-05,-0.012735,-0.016796,-0.506547,0.00765,-0.887008,-262.007054,0.8937,71.864873
5.1751,-0.020374,0.003395,0.006421,0.006532,2.8e-05,-0.012477,-0.016534,-0.506699,0.007649,-0.884531,-262.002928,0.886731,71.869009
5.1956,-0.019824,0.002999,0.006292,0.006534,5.2e-05,-0.012003,-0.017041,-0.506603,0.006507,-0.884531,-262.002928,0.886731,71.869009
5.2153,-0.02004,0.003591,0.00701,0.006534,6.6e-05,-0.011676,-0.017041,-0.506603,0.006507,-0.884531,-262.002928,0.886731,71.869009
5.2353,-0.019367,0.003158,0.005356,0.006532,7.4e-05,-0.01145,-0.016196,-0.506393,0.006498,-0.860278,-261.998998,0.863921,71.872956
5.2551,-0.01946,0.003477,0.006135,0.006527,7.7e-05,-0.011146,-0.016344,-0.506573,0.005974,-0.860278,-261.998998,0.863921,71.872956
5.2754,-0.019045,0.003287,0.004856,0.006521,7.5e-05,-0.010936,-0.016136,-0.50651,0.005791,-0.814111,-261.995403,0.824687,71.876592
5.2954,-0.019243,0.003499,0.005722,0.006522,0.000101,-0.010453,-0.016522,-0.50669,0.004919,-0.814111,-261.995403,0.824687,71.876592
5.3155,-0.018922,0.003198,0.003736,0.00652,0.000118,-0.010124,-0.016522,-0.50669,0.004919,-0.814111,-261.995403,0.824687,71.876592
5.3354,-0.018638,0.00361,0.004679,0.006518,0.000128,-0.009899,-0.016749,-0.506794,0.003286,-0.791651,-261.991751,0.80295,71.880286
5.3556,-0.018368,0.003568,0.006761,0.006519,0.00015,-0.009337,-0.016515,-0.506626,0.003804,-0.791651,-261.991751,0.80295,71.880286
5.3749,-0.017704,0.00352,0.004298,0.006517,0.000163,-0.008954,-0.014728,-0.506416,0.006469,-0.737169,-261.988502,0.758276,71.8836
5.3957,-0.017785,0.003357,0.004385,0.006502,0.000132,-0.00894,-0.01543,-0.50647,0.004481,-0.737169,-261.988502,0.758276,71.8836
5.4153,-0.017842,0.003442,0.003185,0.00649,0.000105,-0.008933,-0.01543,-0.50647,0.004481,-0.737169,-261.988502,0.758276,71.8836
5.4352,-0.017009,0.003503,0.004055,0.006479,8.2e-05,-0.00893,-0.015966,-0.506548,0.002839,-0.683254,-261.985385,0.712672,71.886794
5.4552,-0.017016,0.003371,0.005093,0.006477,8.9e-05,-0.008481,-0.01551,-0.506524,0.003305,-0.683254,-261.985385,0.712672,71.886794
5.4751,-0.016812,0.003554,0.003891,0.006473,9.2e-05,-0.008172,-0.014214,-0.506619,0.004811,-0.692274,-261.982033,0.707011,71.890188
5.4954,-0.01687,0.003521,0.004088,0.00646,6.2e-05,-0.008208,-0.014766,-0.506457,0.003956,-0.692274,-261.982033,0.707011,71.890188
5.5154,-0.016722,0.003673,0.004205,0.006448,3.7e-05,-0.008234,-0.014766,-0.506457,0.003956,-0.692274,-261.982033,0.707011,71.890188
5.535,-0.016255,0.003333,0.005561,0.006439,1.7e-05,-0.008252,-0.014323,-0.506318,0.003883,-0.647781,-261.978973,0.665681,71.893291
5.5551,-0.016565,0.003261,0.00222,0.006422,-2.9e-05,-0.008458,-0.013923,-0.506457,0.004533,-0.647781,-261.978973,0.665681,71.893291
5.5753,-0.015322,0.003516,0.004057,0.006408,-6.5e-05,-0.008602,-0.015229,-0.506736,0.001958,-0.662501,-261.975722,0.66569,71.89655
5.5956,-0.015675,0.003153,0.002813,0.006396,-8.5e-05,-0.008464,-0.013422,-0.506503,0.003853,-0.662501,-261.975722,0.66569,71.89655
5.6158,-0.01565,0.003633,0.002853,0.006386,-0.000103,-0.008365,-0.013422,-0.506503,0.003853,-0.662501,-261.975722,0.66569,71.89655
5.6355,-0.01478,0.003456,0.003702,0.006378,-0.000119,-0.008294,-0.013931,-0.506367,0.002499,-0.692755,-261.972444,0.68063,71.899796
5.6555,-0.015251,0.003518,0.004653,0.006373,-0.000119,-0.007883,-0.013474,-0.506439,0.002953,-0.692755,-261.972444,0.68063,71.899796
5.6751,-0.014615,0.003534,0.001633,0.006369,-0.000122,-0.007597,-0.012677,-0.50648,0.004392,-0.682526,-261.969187,0.659693,71.902994
5.6956,-0.014739,0.003389,0.002698,0.006369,-0.000108,-0.006874,-0.013678,-0.506467,0.001857,-0.682526,-261.969187,0.659693,71.902994
5.7156,-0.014745,0.003609,0.002213,0.006369,-0.0001,-0.006372,-0.013678,-0.506467,0.001857,-0.682526,-261.969187,0.659693,71.902994
5.7353,-0.013845,0.003723,0.003321,0.006369,-9.7e-05,-0.006024,-0.013364,-0.506394,0.001913,-0.642005,-261.966178,0.617008,71.905949
5.7555,-0.014021,0.003206,0.001841,0.006354,-0.000131,-0.006075,-0.012838,-0.506346,0.002455,-0.642005,-261.966178,0.617008,71.905949
5.7757,-0.01402,0.002984,0.003335,0.006342,-0.00016,-0.006113,-0.012943,-0.506795,0.0017,-0.567014,-261.964109,0.542016,71.907991
5.7958,-0.013521,0.003257,0.000387,0.006341,-0.000163,-0.006433,-0.012366,-0.506994,0.003187,-0.567014,-261.964109,0.542016,71.907991
5.8154,-0.014124,0.003451,0.001293,0.00634,-0.000162,-0.00666,-0.012366,-0.506994,0.003187,-0.567014,-261.964109,0.542016,71.907991
5.8355,-0.013491,0.003226,0.002096,0.00634,-0.000158,-0.00682,-0.013205,-0.506555,0.001042,-0.550538,-261.961177,0.51316,71.910859
5.8556,-0.013396,0.003596,0.00089,0.006341,-0.000145,-0.006126,-0.012846,-0.506647,0.001455,-0.550538,-261.961177,0.51316,71.910859
5.8755,-0.01276,0.003187,0.000912,0.00634,-0.000138,-0.00564,-0.012756,-0.506409,0.00069,-0.598481,-261.958343,0.56359,71.913629
5.8956,-0.013392,0.003555,0.003007,0.006336,-0.000133,-0.004993,-0.012325,-0.506778,0.000883,-0.598481,-261.958343,0.56359,71.913629
5.9156,-0.01253,0.003673,0.000224,0.006332,-0.000131,-0.004538,-0.012325,-0.506778,0.000883,-0.598481,-261.958343,0.56359,71.913629
5.9357,-0.012525,0.00308,0.001248,0.006329,-0.000132,-0.00422,-0.012205,-0.506331,3.2e-05,-0.523654,-261.956017,0.488763,71.915913
5.9552,-0.012529,0.003782,0.001836,0.006316,-0.000154,-0.003793,-0.012052,-0.50657,0.000503,-0.523654,-261.956017,0.488763,71.915913
5.9749,-0.01245,0.003493,0.001586,0.006305,-0.000175,-0.003491,-0.011467,-0.50622,0.001742,-0.448786,-261.954277,0.413895,71.917628
5.995,-0.012061,0.00293,0.001609,0.006286,-0.000221,-0.003868,-0.01162,-0.506481,0.001595,-0.448786,-261.954277,0.413895,71.917628
6.0154,-0.012382,0.003641,0.000551,0.006271,-0.000257,-0.004136,-0.01162,-0.506481,0.001595,-0.448786,-261.954277,0.413895,71.917628
6.0354,-0.011968,0.003745,0.001352,0.00626,-0.000285,-0.004327,-0.011918,-0.506362,0.00044,-0.373773,-261.9524,0.338882,71.919473
6.0552,-0.012132,0.003034,7.3e-05,0.006246,-0.000311,-0.004039,-0.011637,-0.506319,0.000797,-0.373773,-261.9524,0.338882,71.919473
6.0751,-0.011473,0.003699,0.001615,0.006235,-0.000335,-0.003835,-0.011909,-0.506974,-5.5e-05,-0.437383,-261.949827,0.360213,71.921964
6.0951,-0.011569,0.003544,0.000874,0.006211,-0.000383,-0.004049,-0.010751,-0.50636,0.001462,-0.437383,-261.949827,0.360213,71.921964
6.1154,-0.011251,0.003118,-0.000341,0.006192,-0.000422,-0.0042,-0.010751,-0.50636,0.001462,-0.437383,-261.949827,0.360213,71.921964
6.1354,-0.011306,0.003143,-0.000502,0.006177,-0.000453,-0.004305,-0.011177,-0.506896,-0.000493,-0.405512,-261.947257,0.311513,71.924445
6.1551,-0.010997,0.003774,0.000251,0.006192,-0.000416,-0.003322,-0.011305,-0.506881,-0.000514,-0.405512,-261.947257,0.311513,71.924445
6.1751,-0.010477,0.003098,0.000133,0.006202,-0.000386,-0.002615,-0.010684,-0.50624,0.000123,-0.462807,-261.944668,0.338681,71.926901
6.1953,-0.010951,0.002742,0.000252,0.006194,-0.000391,-0.00245,-0.010424,-0.506843,0.000125,-0.462807,-261.944668,0.338681,71.926901
6.2153,-0.010934,0.003699,-8.4e-05,0.006186,-0.000395,-0.002332,-0.010424,-0.506843,0.000125,-0.462807,-261.944668,0.338681,71.926901
6.2351,-0.010531,0.003183,-0.000196,0.00618,-0.000399,-0.002247,-0.010853,-0.506309,-0.000153,-0.387852,-261.9434,0.263726,71.928132
6.2554,-0.010527,0.00323,-0.000176,0.006169,-0.00042,-0.002026,-0.010749,-0.506516,-0.000178,-0.387852,-261.9434,0.263726,71.928132
6.275,-0.010353,0.0032,-0.001606,0.00616,-0.000438,-0.001868,-0.010481,-0.506779,-0.000232,-0.31285,-261.941629,0.188723,71.929855
6.2951,-0.010261,0.003401,-0.000123,0.006166,-0.000421,-0.001129,-0.011106,-0.506798,-0.001491,-0.31285,-261.941629,0.188723,71.929855
6.3152,-0.010811,0.003584,0.000271,0.00617,-0.000409,-0.000595,-0.011106,-0.506798,-0.001491,-0.31285,-261.941629,0.188723,71.929855
6.335,-0.010181,0.003434,-0.000895,0.00617,-0.000401,-0.000212,-0.010451,-0.506432,0.000204,-0.250917,-261.939443,0.113596,71.931986
6.3556,-0.00992,0.003395,-0.000566,0.006151,-0.000441,-0.000549,-0.010502,-0.506488,-0.000255,-0.250917,-261.939443,0.113596,71.931986
6.3751,-0.009875,0.003261,-0.002007,0.006136,-0.000472,-0.000785,-0.010124,-0.506611,-0.000581,-0.175899,-261.938373,0.038578,71.933054
6.3952,-0.010212,0.003212,-0.000457,0.006137,-0.000466,-0.000188,-0.010826,-0.506727,-0.001883,-0.175899,-261.938373,0.038578,71.933054
6.415,-0.00967,0.00332,-0.000184,0.006135,-0.000462,0.000244,-0.010826,-0.506727,-0.001883,-0.175899,-261.938373,0.038578,71.933054
6.4358,-0.009472,0.003129,-0.000731,0.006133,-0.00046,0.000555,-0.009515,-0.506699,-0.000216,-0.153942,-261.935966,0.001184,71.935433
6.4552,-0.009648,0.003354,-0.000569,0.006111,-0.000497,8.2e-05,-0.009621,-0.506771,-0.00043,-0.153942,-261.935966,0.001184,71.935433
6.4751,-0.008991,0.003159,0.000346,0.006094,-0.000524,-0.000248,-0.009827,-0.506655,-0.000569,-0.079041,-261.934569,-0.073717,71.936841
6.4954,-0.009368,0.003139,-0.000509,0.006064,-0.000572,-0.000865,-0.008898,-0.506825,0.000266,-0.079041,-261.934569,-0.073717,71.936841
6.5151,-0.009606,0.003238,0.000342,0.00604,-0.000606,-0.0013,-0.008898,-0.506825,0.000266,-0.079041,-261.934569,-0.073717,71.936841
6.5358,-0.00896,0.003441,-0.001479,0.006022,-0.000631,-0.001606,-0.009181,-0.506783,0.000332,-0.110473,-261.932162,-0.061056,71.939238
6.5554,-0.009509,0.003674,0.000127,0.006015,-0.000642,-0.001454,-0.009368,-0.506695,-0.000401,-0.110473,-261.932162,-0.061056,71.939238
6.5751,-0.008492,0.002643,-0.001168,0.006009,-0.000652,-0.001343,-0.009337,-0.506335,0.00011,-0.185431,-261.930785,0.013902,71.94057
6.595,-0.00899,0.003093,-0.000257,0.006022,-0.00061,-0.000927,-0.009105,-0.507265,-0.001055,-0.185431,-261.930785,0.013902,71.94057
6.615,-0.008827,0.002999,-0.001287,0.006031,-0.000577,-0.000626,-0.009105,-0.507265,-0.001055,-0.185431,-261.930785,0.013902,71.94057
6.6352,-0.008525,0.00305,-0.000939,0.006037,-0.000551,-0.000409,-0.009245,-0.507026,-0.001341,-0.240215,-261.928434,0.028094,71.942854
6.655,-0.008479,0.003052,-8.5e-05,0.006031,-0.000557,-0.000195,-0.009119,-0.506998,-0.001183,-0.240215,-261.928434,0.028094,71.942854
6.6752,-0.008197,0.002761,-0.001063,0.006025,-0.000563,-4.1e-05,-0.008379,-0.506963,-9.9e-05,-0.165217,-261.926604,-0.046904,71.944671
6.6953,-0.008528,0.003117,-0.002468,0.00602,-0.000561,-3.9e-05,-0.0087,-0.507214,-0.000978,-0.165217,-261.926604,-0.046904,71.944671
6.7151,-0.008655,0.003272,-0.000876,0.006016,-0.000559,-3.4e-05,-0.0087,-0.507214,-0.000978,-0.165217,-261.926604,-0.046904,71.944671
6.7352,-0.008026,0.003213,-0.000943,0.006012,-0.000558,-2.9e-05,-0.008874,-0.506749,-0.000877,-0.097279,-261.924417,-0.088941,71.946856
6.7551,-0.008086,0.002675,0.000546,0.005988,-0.000604,-6.7e-05,-0.008699,-0.506767,-0.000904,-0.097279,-261.924417,-0.088941,71.946856
6.7752,-0.00772,0.003092,-0.000761,0.005968,-0.000641,-9.2e-05,-0.007615,-0.507342,0.000545,-0.095431,-261.921999,-0.089601,71.949273
6.7952,-0.007605,0.003073,-0.001502,0.00594,-0.00068,-0.000244,-0.008055,-0.506946,-0.000647,-0.095431,-261.921999,-0.089601,71.949273
6.8153,-0.007623,0.003085,-0.001424,0.005917,-0.000711,-0.000351,-0.008055,-0.506946,-0.000647,-0.095431,-261.921999,-0.089601,71.949273
6.8353,-0.007672,0.003572,0.000113,0.005899,-0.000735,-0.000426,-0.008102,-0.506941,-0.001428,-0.116366,-261.919617,-0.097724,71.95165
6.8555,-0.007575,0.00322,-0.000727,0.005866,-0.000785,-0.0004,-0.007876,-0.506736,-0.000803,-0.116366,-261.919617,-0.097724,71.95165
6.8751,-0.007338,0.002737,0.000648,0.00584,-0.000825,-0.00038,-0.007765,-0.506803,-0.00074,-0.167128,-261.917326,-0.080383,71.953916
6.8951,-0.007479,0.002836,-0.001034,0.005808,-0.00085,-0.001087,-0.007063,-0.507225,0.00053,-0.167128,-261.917326,-0.080383,71.953916
6.9151,-0.007325,0.002731,0.000174,0.005783,-0.000865,-0.001594,-0.007063,-0.507225,0.00053,-0.167128,-261.917326,-0.080383,71.953916
6.9355,-0.006923,0.002778,-0.002436,0.005763,-0.000874,-0.001956,-0.006995,-0.507303,0.000158,-0.179068,-261.914977,-0.101177,71.95624
6.9551,-0.007185,0.003259,0.000466,0.005769,-0.00085,-0.001441,-0.007442,-0.507274,-0.000897,-0.179068,-261.914977,-0.101177,71.95624
6.9749,-0.006871,0.00291,-0.00053,0.005772,-0.000832,-0.00107,-0.006867,-0.506752,0.000451,-0.253972,-261.913914,-0.026273,71.957242
6.995,-0.006831,0.002965,-0.000248,0.005747,-0.000859,-0.001044,-0.007115,-0.507062,-0.000448,-0.253972,-261.913914,-0.026273,71.957242
7.0152,-0.007011,0.003127,0.000205,0.005727,-0.000882,-0.001024,-0.007115,-0.507062,-0.000448,-0.253972,-261.913914,-0.026273,71.957242
7.0351,-0.006652,0.002881,-0.001956,0.005712,-0.0009,-0.001009,-0.006666,-0.506907,0.000161,-0.251912,-261.911533,-0.030867,71.959549
7.0554,-0.006331,0.00334,-0.000597,0.005691,-0.000925,-0.000857,-0.007043,-0.506998,-0.000717,-0.251912,-261.911533,-0.030867,71.959549
7.0751,-0.006423,0.002698,-0.000765,0.005675,-0.000946,-0.000747,-0.006455,-0.506689,-0.000629,-0.25952,-261.909184,-0.049667,71.961822
7.0951,-0.005937,0.002978,0.000139,0.005661,-0.000944,-0.000646,-0.006774,-0.507251,-0.000755,-0.25952,-261.909184,-0.049667,71.961822
7.1151,-0.006002,0.003103,-0.000633,0.00565,-0.000943,-0.000573,-0.006774,-0.507251,-0.000755,-0.25952,-261.909184,-0.049667,71.961822
7.1351,-0.005819,0.002655,-0.000978,0.00564,-0.000942,-0.00052,-0.006093,-0.506936,-0.000663,-0.242252,-261.906909,-0.086052,71.964039
7.1551,-0.005627,0.002958,-0.002035,0.005582,-0.00099,-0.000468,-0.006158,-0.507107,-0.000795,-0.242252,-261.906909,-0.086052,71.964039
7.1753,-0.005361,0.002859,2.5e-05,0.005535,-0.001028,-0.00043,-0.006488,-0.507071,-0.002051,-0.219819,-261.904634,-0.110292,71.966272
7.1955,-0.005245,0.002821,-0.001766,0.005435,-0.001093,-0.00075,-0.005439,-0.507136,-0.000158,-0.219819,-261.904634,-0.110292,71.966272
7.2153,-0.005662,0.002499,-0.00084,0.005357,-0.001144,-0.000977,-0.005439,-0.507136,-0.000158,-0.219819,-261.904634,-0.110292,71.966272
7.2352,-0.005411,0.00293,-0.00012,0.005296,-0.001185,-0.001138,-0.005862,-0.507544,-0.000857,-0.229148,-261.902393,-0.137404,71.968475
7.2554,-0.005369,0.002593,-4.3e-05,0.005286,-0.001172,-0.001027,-0.005677,-0.507356,-0.000559,-0.229148,-261.902393,-0.137404,71.968475
7.2752,-0.004922,0.002687,-0.0008,0.005277,-0.001163,-0.000947,-0.005257,-0.507434,-6.8e-05,-0.304054,-261.900614,-0.092273,71.970159
7.2956,-0.005089,0.002429,-0.000546,0.005234,-0.001175,-0.0008,-0.005316,-0.507325,-0.000735,-0.304054,-261.900614,-0.092273,71.970159
7.3158,-0.005134,0.002702,-0.001021,0.005199,-0.001186,-0.000694,-0.005316,-0.507325,-0.000735,-0.304054,-261.900614,-0.092273,71.970159
7.3357,-0.004427,0.00263,-0.001672,0.005172,-0.001196,-0.000617,-0.005435,-0.507346,-0.00106,-0.31869,-261.89841,-0.110337,71.972265
7.3553,-0.005051,0.002555,-0.000829,0.005154,-0.001197,-0.000277,-0.005347,-0.507361,-0.001313,-0.31869,-261.89841,-0.110337,71.972265
7.3749,-0.004434,0.002637,-0.000357,0.005139,-0.001199,-3.2e-05,-0.005316,-0.507482,-0.000848,-0.295328,-261.896341,-0.157092,71.974269
7.3959,-0.004672,0.002462,-0.002034,0.005053,-0.001232,-0.000326,-0.004672,-0.507376,-0.000403,-0.295328,-261.896341,-0.157092,71.974269
7.4155,-0.004409,0.002651,-0.000948,0.004985,-0.001258,-0.000536,-0.004672,-0.507376,-0.000403,-0.295328,-261.896341,-0.157092,71.974269
7.4351,-0.004112,0.00255,-0.001271,0.004932,-0.001278,-0.000684,-0.004705,-0.507393,-0.000949,-0.232764,-261.8945,-0.225552,71.976107
7.4554,-0.004035,0.002243,-0.001659,0.004898,-0.001282,-0.000436,-0.004706,-0.507421,-0.00108,-0.232764,-261.8945,-0.225552,71.976107
7.4752,-0.004243,0.002394,0.000127,0.00487,-0.001287,-0.000257,-0.004752,-0.507789,-0.001675,-0.30776,-261.892792,-0.172738,71.977747
7.4955,-0.004103,0.002226,-0.001312,0.004797,-0.001281,-0.000685,-0.004223,-0.507624,-3.5e-05,-0.30776,-261.892792,-0.172738,71.977747
7.5157,-0.003677,0.002426,-0.000502,0.004739,-0.001275,-0.00099,-0.004223,-0.507624,-3.5e-05,-0.30776,-261.892792,-0.172738,71.977747
7.5355,-0.003798,0.002563,-0.001738,0.004693,-0.001268,-0.001208,-0.00374,-0.507625,-0.000512,-0.28828,-261.890869,-0.227937,71.97964
7.5551,-0.003709,0.002224,-8.1e-05,0.004639,-0.001268,-0.000847,-0.004101,-0.507554,-0.001011,-0.28828,-261.890869,-0.227937,71.97964
7.5755,-0.003658,0.002416,-0.000983,0.004596,-0.001268,-0.000587,-0.003653,-0.507802,-0.0001,-0.363278,-261.889536,-0.152939,71.980873
7.5957,-0.003544,0.002344,-0.00144,0.004568,-0.001261,-0.00045,-0.00411,-0.507604,-0.000907,-0.363278,-261.889536,-0.152939,71.980873
7.6155,-0.003691,0.002585,5.6e-05,0.004545,-0.001256,-0.000353,-0.00411,-0.507604,-0.000907,-0.363278,-261.889536,-0.152939,71.980873
7.6357,-0.003433,0.002502,0.000956,0.004526,-0.001253,-0.000283,-0.003478,-0.507466,3.2e-05,-0.340217,-261.887659,-0.195472,71.982676
7.6556,-0.003206,0.002193,-0.001964,0.004356,-0.001319,-0.000953,-0.00324,-0.507485,0.000406,-0.340217,-261.887659,-0.195472,71.982676
7.6754,-0.003303,0.002424,-0.000568,0.004225,-0.001369,-0.001432,-0.00407,-0.507844,-0.001973,-0.305185,-261.885841,-0.234263,71.984459
7.6951,-0.003279,0.002579,-0.000322,0.004203,-0.00136,-0.001169,-0.003627,-0.507601,-0.000691,-0.305185,-261.885841,-0.234263,71.984459
7.7155,-0.003113,0.002585,-0.00068,0.004184,-0.001354,-0.000981,-0.003627,-0.507601,-0.000691,-0.305185,-261.885841,-0.234263,71.984459
7.7356,-0.002996,0.002238,-0.00036,0.004169,-0.001351,-0.000846,-0.003375,-0.507439,-0.000698,-0.380241,-261.884949,-0.159207,71.985252
7.7558,-0.002965,0.002249,-0.0011,0.004098,-0.001369,-0.000818,-0.003287,-0.507572,-0.000564,-0.380241,-261.884949,-0.159207,71.985252
7.7751,-0.003063,0.001958,-0.00118,0.004043,-0.001384,-0.000797,-0.003399,-0.507791,-0.001126,-0.421157,-261.883212,-0.197624,71.98687
7.7955,-0.002854,0.001709,-0.000409,0.004089,-0.001287,-0.00046,-0.003634,-0.508021,-0.001176,-0.421157,-261.883212,-0.197624,71.98687
7.8154,-0.002982,0.001999,-0.000222,0.004122,-0.001213,-0.000219,-0.003634,-0.508021,-0.001176,-0.421157,-261.883212,-0.197624,71.98687
7.8357,-0.002662,0.001919,-0.000761,0.004146,-0.001155,-4.8e-05,-0.002927,-0.508059,-0.000255,-0.433416,-261.881446,-0.218327,71.988511
7.8555,-0.002696,0.001858,-0.001132,0.004048,-0.001122,-0.000299,-0.002958,-0.508074,-0.000465,-0.433416,-261.881446,-0.218327,71.988511
7.8754,-0.002698,0.001947,-0.00098,0.00397,-0.001096,-0.000478,-0.003188,-0.50817,-0.001138,-0.358425,-261.880316,-0.265245,71.989637
7.8955,-0.002658,0.001776,-0.001236,0.003955,-0.001068,-0.000327,-0.003193,-0.508064,-0.000994,-0.358425,-261.880316,-0.265245,71.989637
7.9154,-0.002836,0.00213,-0.000932,0.003942,-0.001048,-0.000219,-0.003193,-0.508064,-0.000994,-0.358425,-261.880316,-0.265245,71.989637
7.9355,-0.002645,0.002184,-0.000559,0.00393,-0.001032,-0.000143,-0.003157,-0.507912,-0.000951,-0.336204,-261.878757,-0.199771,71.991138
7.9558,-0.002392,0.001982,-0.002494,0.003881,-0.001068,-0.000197,-0.003047,-0.507878,-0.000793,-0.336204,-261.878757,-0.199771,71.991138
7.9752,-0.002001,0.001971,-0.001545,0.003843,-0.001096,-0.000235,-0.003547,-0.508047,-0.002498,-0.27746,-261.877243,-0.236004,71.992636
7.9951,-0.002256,0.001508,-0.001186,0.003786,-0.00109,0.000139,-0.002852,-0.508032,-0.001632,-0.27746,-261.877243,-0.236004,71.992636
8.0153,-0.002127,0.002058,-0.00076,0.003741,-0.001086,0.000408,-0.002852,-0.508032,-0.001632,-0.27746,-261.877243,-0.236004,71.992636
8.0353,-0.002023,0.001854,-0.000731,0.003704,-0.001085,0.000601,-0.002356,-0.507987,-0.00077,-0.312087,-261.875659,-0.243021,71.994189
8.0555,-0.001857,0.001685,-0.002744,0.003573,-0.001097,0.000306,-0.002354,-0.508057,-0.000755,-0.312087,-261.875659,-0.243021,71.994189
8.0749,-0.001498,0.001754,-0.00214,0.003472,-0.001108,9.7e-05,-0.003185,-0.508334,-0.002738,-0.237052,-261.87475,-0.318055,71.995147
8.0957,-0.001643,0.001856,-0.000885,0.003468,-0.00106,0.000609,-0.00264,-0.508254,-0.002194,-0.237052,-261.87475,-0.318055,71.995147
8.1152,-0.00188,0.001664,-0.00191,0.003462,-0.001025,0.000978,-0.00264,-0.508254,-0.002194,-0.237052,-261.87475,-0.318055,71.995147
8.1358,-0.001411,0.00185,-0.000441,0.003455,-0.000998,0.001242,-0.002716,-0.50838,-0.001907,-0.293305,-261.873372,-0.324324,71.996539
8.1554,-0.001626,0.00179,-0.001173,0.003373,-0.000979,0.001046,-0.002269,-0.508293,-0.001321,-0.293305,-261.873372,-0.324324,71.996539
8.175,-0.001351,0.001563,-0.002049,0.00331,-0.000966,0.000908,-0.002189,-0.508221,-0.001166,-0.218308,-261.872934,-0.399321,71.997029
8.1951,-0.001792,0.001778,-0.001352,0.00329,-0.000933,0.001104,-0.002376,-0.508418,-0.001972,-0.218308,-261.872934,-0.399321,71.997029
8.2152,-0.001541,0.001695,-7.2e-05,0.003273,-0.000908,0.001243,-0.002376,-0.508418,-0.001972,-0.218308,-261.872934,-0.399321,71.997029
8.2353,-0.001269,0.001709,-0.001228,0.003259,-0.00089,0.001342,-0.00146,-0.508341,-4.1e-05,-0.143179,-261.871797,-0.43067,71.998271
8.2555,-0.001178,0.001664,-0.000402,0.003057,-0.000925,0.000695,-0.001624,-0.508324,-0.000522,-0.143179,-261.871797,-0.43067,71.998271
8.2752,-0.001529,0.001593,-0.000631,0.002902,-0.000953,0.000238,-0.001305,-0.50836,-0.000373,-0.068181,-261.870813,-0.483216,71.999382
8.2953,-0.001524,0.001612,-0.000997,0.002836,-0.000951,-3.5e-05,-0.0018,-0.508404,-0.000607,-0.068181,-261.870813,-0.483216,71.999382
8.3153,-0.001482,0.001763,-0.000889,0.002784,-0.000949,-0.000227,-0.0018,-0.508404,-0.000607,-0.068181,-261.870813,-0.483216,71.999382
8.3354,-0.001236,0.001582,-0.001329,0.002744,-0.000947,-0.000362,-0.001886,-0.508251,-0.000878,-0.143174,-261.870325,-0.408222,71.999885
8.3557,-0.001297,0.001709,-0.000665,0.002732,-0.000964,-0.000224,-0.001892,-0.508321,-0.00106,-0.143174,-261.870325,-0.408222,71.999885
8.3751,-0.001153,0.00171,-0.002292,0.002722,-0.000977,-0.000125,-0.001615,-0.508297,-0.000663,-0.218154,-261.870044,-0.333242,72.000152
8.3951,-0.00115,0.001643,-0.001526,0.002798,-0.000987,0.000424,-0.00226,-0.508289,-0.002152,-0.218154,-261.870044,-0.333242,72.000152
8.4158,-0.001387,0.001632,-0.00066,0.002854,-0.000995,0.000822,-0.00226,-0.508289,-0.002152,-0.218154,-261.870044,-0.333242,72.000152
8.4359,-0.001312,0.002111,-6e-06,0.002897,-0.001001,0.001109,-0.001644,-0.508393,-0.000659,-0.293183,-261.869238,-0.319632,72.000944
8.4553,-0.001391,0.00173,-0.001768,0.00274,-0.001057,0.000458,-0.0015,-0.50819,-0.000392,-0.293183,-261.869238,-0.319632,72.000944
8.4755,-0.00077,0.001767,0.000282,0.00262,-0.001099,-3e-06,-0.002264,-0.508278,-0.001763,-0.218212,-261.868892,-0.394604,72.001342
8.4956,-0.001277,0.001475,-0.001042,0.002321,-0.001127,-0.0006,-0.000772,-0.508237,9.9e-05,-0.218212,-261.868892,-0.394604,72.001342
8.5159,-0.001295,0.001874,-0.001425,0.002091,-0.001151,-0.001025,-0.000772,-0.508237,9.9e-05,-0.218212,-261.868892,-0.394604,72.001342
8.5355,-0.00086,0.001711,-0.001246,0.001914,-0.001173,-0.001328,-0.001955,-0.50815,-0.001419,-0.293118,-261.868214,-0.396521,72.002019
8.5553,-0.001193,0.001289,-0.001058,0.002053,-0.001181,-0.000788,-0.001762,-0.508209,-0.001348,-0.293118,-261.868214,-0.396521,72.002019
8.5753,-0.001027,0.001064,-0.001059,0.002158,-0.001188,-0.000396,-0.001732,-0.508711,-0.001058,-0.368119,-261.868207,-0.32152,72.002024
8.596,-0.001156,0.001369,-0.001996,0.002244,-0.000998,-0.000224,-0.001583,-0.508915,-0.001059,-0.368119,-261.868207,-0.32152,72.002024
8.6159,-0.000825,0.001309,-0.000444,0.002308,-0.000852,-0.000103,-0.001583,-0.508915,-0.001059,-0.368119,-261.868207,-0.32152,72.002024
8.6358,-0.001162,0.001476,-0.00227,0.002356,-0.000739,-1.9e-05,-0.001013,-0.508709,-0.000447,-0.443119,-261.867783,-0.396521,72.00241
8.6551,-0.000905,0.001626,-0.001095,0.002364,-0.000735,8.8e-05,-0.001537,-0.508636,-0.001185,-0.443119,-261.867783,-0.396521,72.00241
8.676,-0.001204,0.001826,-0.00062,0.00237,-0.000731,0.000164,-0.001416,-0.50839,-0.001097,-0.368118,-261.867148,-0.32152,72.003043
8.6959,-0.000606,0.00144,-0.001438,0.002337,-0.000848,-6.1e-05,-0.001508,-0.508194,-0.000663,-0.368118,-261.867148,-0.32152,72.003043
8.7157,-0.001239,0.001075,-0.001002,0.002314,-0.000938,-0.00022,-0.001508,-0.508194,-0.000663,-0.368118,-261.867148,-0.32152,72.003043
8.7355,-0.000722,0.001518,-0.001295,0.002297,-0.001007,-0.000331,-0.001668,-0.508952,-0.000998,-0.293115,-261.866337,-0.337506,72.003874
8.7551,-0.000974,0.001709,-0.00167,0.002332,-0.000901,-0.000157,-0.001543,-0.508764,-0.001118,-0.293115,-261.866337,-0.337506,72.003874
8.7753,-0.000806,0.00135,-0.000771,0.002359,-0.000821,-3.4e-05,-0.001784,-0.508306,-0.001672,-0.368108,-261.865761,-0.336875,72.004414
8.7954,-0.000725,0.001648,-0.001176,0.00229,-0.000807,-8.9e-05,-0.001249,-0.50862,-0.00085,-0.368108,-261.865761,-0.336875,72.004414
8.8151,-0.000971,0.001862,-3.5e-05,0.002237,-0.000797,-0.000129,-0.001249,-0.50862,-0.00085,-0.368108,-261.865761,-0.336875,72.004414
8.8352,-0.000729,0.001309,-0.001008,0.002196,-0.00079,-0.000158,-0.000892,-0.508172,-3.7e-05,-0.342687,-261.864772,-0.327171,72.005398
8.8553,-0.001061,0.001253,-0.001011,0.002081,-0.000854,-0.000412,-0.001023,-0.508386,-0.000431,-0.342687,-261.864772,-0.327171,72.005398
8.8749,-0.000329,0.001474,-0.001592,0.001994,-0.000904,-0.000592,-0.001509,-0.508771,-0.001015,-0.383686,-261.863856,-0.305794,72.006288
8.8954,-0.000881,0.001112,-0.000218,0.001977,-0.000896,-0.000163,-0.00117,-0.508548,-0.00154,-0.383686,-261.863856,-0.305794,72.006288
8.9152,-0.000569,0.001607,-0.000493,0.001963,-0.000892,0.000145,-0.00117,-0.508548,-0.00154,-0.383686,-261.863856,-0.305794,72.006288
8.9352,-0.000684,0.0014,-0.000711,0.00195,-0.00089,0.000367,-0.000771,-0.508412,-0.000503,-0.458681,-261.863316,-0.265811,72.006761
8.9554,-0.000296,0.001485,-0.002088,0.001851,-0.000912,4.8e-05,-0.000878,-0.508491,-0.000589,-0.458681,-261.863316,-0.265811,72.006761
8.975,-0.000772,0.001449,-9.1e-05,0.001774,-0.000929,-0.000177,-0.001344,-0.508521,-0.002088,-0.383684,-261.863092,-0.340807,72.007005
8.9951,-9.5e-05,0.001375,-0.000908,0.001712,-0.000928,-0.000513,-0.000863,-0.508549,-0.000262,-0.383684,-261.863092,-0.340807,72.007005
9.0149,-0.000308,0.001392,-0.001015,0.001664,-0.000927,-0.000752,-0.000863,-0.508549,-0.000262,-0.383684,-261.863092,-0.340807,72.007005
9.0353,-0.000465,0.001203,-0.001596,0.001627,-0.000925,-0.000922,-0.000779,-0.50863,-0.001017,-0.458798,-261.862583,-0.415921,72.007489
9.0551,-0.000229,0.001429,-0.002413,0.001643,-0.000877,-0.000527,-0.000978,-0.5087,-0.001254,-0.458798,-261.862583,-0.415921,72.007489
9.0753,-0.000632,0.001288,-0.000104,0.001653,-0.000841,-0.000242,-0.001451,-0.508574,-0.002415,-0.533695,-261.862453,-0.341024,72.007587
9.0952,-0.00026,0.001012,-0.001968,0.001588,-0.000819,-0.000528,-0.000753,-0.5087,-0.000309,-0.533695,-261.862453,-0.341024,72.007587
9.1156,-0.00076,0.001512,-0.002313,0.001538,-0.000801,-0.000732,-0.000753,-0.5087,-0.000309,-0.533695,-261.862453,-0.341024,72.007587
9.1354,-0.000444,0.00136,-0.001456,0.001498,-0.000787,-0.000878,-0.001874,-0.508521,-0.002322,-0.539082,-261.861721,-0.397295,72.008268
9.1555,-2.2e-05,0.001336,-0.002404,0.001695,-0.000802,-0.000198,-0.001588,-0.508573,-0.001972,-0.539082,-261.861721,-0.397295,72.008268
9.1754,-0.000187,0.001346,0.00012,0.001847,-0.000812,0.000298,-0.001237,-0.508669,-0.002408,-0.614061,-261.861526,-0.322316,72.008417
9.1955,-8e-05,0.001412,-0.003056,0.001552,-0.000801,-0.000262,-0.000224,-0.508656,-0.000107,-0.614061,-261.861526,-0.322316,72.008417
9.2154,-0.000316,0.001264,-0.001005,0.001326,-0.000795,-0.00066,-0.000224,-0.508656,-0.000107,-0.614061,-261.861526,-0.322316,72.008417
9.2354,-0.000688,0.001417,-0.001709,0.001152,-0.000792,-0.000943,-0.000816,-0.508742,-0.001006,-0.539056,-261.861396,-0.39732,72.008556
9.2555,-0.000368,0.000904,-0.001752,0.001307,-0.000787,-0.00053,-0.001119,-0.508678,-0.001294,-0.539056,-261.861396,-0.39732,72.008556
9.2757,-0.000447,0.001487,-0.00073,0.001427,-0.000781,-0.000231,-0.001258,-0.509097,-0.001754,-0.614053,-261.861339,-0.322323,72.008594
9.2952,-0.000215,0.001146,-0.001368,0.0,0.0,0.0,-0.000859,-0.508565,-0.000822,-0.614053,-261.861339,-0.322323,72.008594
9.3151,-0.000174,0.001184,-0.000115,0.0,0.0,0.0,-0.000859,-0.508565,-0.000822,-0.614053,-261.861339,-0.322323,72.008594
