mach0312/omni-docking-bench/src/icros_test_setup/results/MPPI_sample/timeseries/trial_008.csv
t,x,y,yaw,vx,vy,wz,bl_x,bl_y,bl_yaw,front_steering_joint,front_wheel_joint,rear_steering_joint,rear_wheel_joint
0.0,0.080974,-0.00219,-0.066242,0.007361,0.000317,-0.034774,0.04526,-0.51134,-0.060714,-1.23247,-263.84138,1.241718,62.658525
0.0003,0.080999,-0.002468,-0.064972,0.00632,0.000272,-0.029857,0.046393,-0.511479,-0.060161,-1.23247,-263.826808,1.241718,62.673491
0.0006,0.082294,-0.002602,-0.067285,0.005208,0.000225,-0.024605,0.046393,-0.511479,-0.060161,-1.23247,-263.813796,1.241718,62.686855
0.0008,0.082095,-0.002467,-0.067226,0.004027,0.000174,-0.019022,0.046393,-0.511479,-0.060161,-1.23247,-263.803762,1.241718,62.69716
0.0011,0.083164,-0.002925,-0.068756,0.002773,0.00012,-0.013098,0.046393,-0.511479,-0.060161,-1.23247,-263.796145,1.241718,62.704984
0.0013,0.083587,-0.002542,-0.06908,0.001441,6.2e-05,-0.006805,0.046995,-0.51137,-0.061688,-1.23247,-263.792804,1.241718,62.708415
0.0015,0.083379,-0.002349,-0.06958,4.6e-05,2e-06,-0.000215,0.046953,-0.511436,-0.0626,-1.23247,-263.792804,1.241718,62.708415
0.0017,0.083673,-0.002654,-0.071527,0.0,0.0,0.0,0.046953,-0.511436,-0.0626,-1.23247,-263.792804,1.241718,62.708415
0.0019,0.083889,-0.002503,-0.068907,0.0,0.0,0.0,0.047451,-0.511272,-0.064743,-1.23247,-263.792804,1.241718,62.708415
0.0177,0.083982,-0.002675,-0.070081,0.0,0.0,0.0,0.048776,-0.511293,-0.068914,-1.23247,-263.792749,1.241718,62.708472
0.0372,0.083917,-0.002716,-0.070443,0.0,0.0,0.0,0.04833,-0.511407,-0.069944,-1.23247,-263.792749,1.241718,62.708472
0.0572,0.083672,-0.002591,-0.07043,0.0,0.0,0.0,0.04833,-0.511407,-0.069944,-1.23247,-263.792749,1.241718,62.708472
0.0778,0.083552,-0.002672,-0.069059,0.0,0.0,0.0,0.047782,-0.511327,-0.07043,-1.23247,-263.792749,1.241718,62.708472
0.0974,0.084075,-0.002616,-0.070916,0.0,0.0,0.0,0.048018,-0.511379,-0.06987,-1.23247,-263.792749,1.241718,62.708472
0.1166,0.083762,-0.002595,-0.068736,-0.00485,-0.002318,-0.007005,0.047939,-0.511334,-0.070916,-1.23247,-263.792749,1.241718,62.708472
0.1367,0.083707,-0.002508,-0.070671,-0.005268,-0.002524,-0.005118,0.048662,-0.511385,-0.068935,-1.23247,-263.792749,1.241718,62.708472
0.1571,0.083917,-0.002523,-0.069436,-0.005618,-0.002703,-0.003931,0.048662,-0.511385,-0.068935,-1.23247,-263.792749,1.241718,62.708472
0.1768,0.083778,-0.00275,-0.068495,-0.005912,-0.002855,-0.003216,0.048533,-0.511294,-0.069436,-1.157473,-263.792749,1.166721,62.708472
0.1968,0.083097,-0.00252,-0.070762,-0.006157,-0.002985,-0.001313,0.048667,-0.511397,-0.069064,-1.157473,-263.792749,1.166721,62.708472
0.217,0.083621,-0.002271,-0.069623,-0.006361,-0.003098,-2.7e-05,0.047038,-0.511243,-0.070762,-1.082483,-263.792749,1.091731,62.708472
0.2381,0.083943,-0.00275,-0.071695,-0.006531,-0.003202,0.001961,0.048043,-0.511054,-0.069725,-1.082483,-263.792749,1.091731,62.708472
0.2572,0.083779,-0.002844,-0.068995,-0.006674,-0.003294,0.003413,0.048043,-0.511054,-0.069725,-1.082483,-263.792749,1.091731,62.708472
0.2771,0.083648,-0.002853,-0.070452,-0.006794,-0.003374,0.004447,0.04862,-0.511631,-0.068995,-1.007446,-263.792749,1.016694,62.708472
0.2971,0.083831,-0.002622,-0.069465,-0.006895,-0.003434,0.005998,0.048255,-0.511613,-0.069604,-1.007446,-263.792749,1.016694,62.708472
0.317,0.083588,-0.002512,-0.068926,-0.00698,-0.003486,0.007163,0.048432,-0.511392,-0.069465,-0.93211,-263.792749,0.941358,62.708472
0.3372,0.083948,-0.002527,-0.068912,-0.007052,-0.003537,0.008582,0.048461,-0.511309,-0.068972,-0.93211,-263.792749,0.941358,62.708472
0.3571,0.083534,-0.002492,-0.068764,-0.007112,-0.003582,0.009681,0.048461,-0.511309,-0.068972,-0.93211,-263.792749,0.941358,62.708472
0.3769,0.084058,-0.002592,-0.069732,-0.007164,-0.003622,0.010526,0.048492,-0.511287,-0.068764,-0.857334,-263.792749,0.866582,62.708471
0.397,0.083706,-0.00261,-0.06891,-0.007207,-0.003657,0.011534,0.048505,-0.511314,-0.069162,-0.857334,-263.792749,0.866582,62.708471
0.417,0.083891,-0.002039,-0.070184,-0.007243,-0.003688,0.012324,0.048586,-0.511401,-0.068903,-0.7823,-263.792805,0.941616,62.708383
0.4369,0.083773,-0.002207,-0.069577,-0.007275,-0.003724,0.013172,0.048168,-0.510839,-0.070069,-0.7823,-263.792805,0.941616,62.708383
0.4571,0.083847,-0.002787,-0.071476,-0.007301,-0.003755,0.013845,0.048168,-0.510839,-0.070069,-0.7823,-263.792805,0.941616,62.708383
0.4769,0.08357,-0.002964,-0.070226,-0.007323,-0.003783,0.014376,0.047358,-0.511508,-0.071345,-0.707424,-263.793564,0.997299,62.707146
0.4968,0.083578,-0.002569,-0.069889,-0.007341,-0.003793,0.014888,0.047524,-0.511592,-0.070874,-0.707424,-263.793564,0.997299,62.707146
0.517,0.082965,-0.002405,-0.071164,-0.007357,-0.003802,0.015294,0.047793,-0.511373,-0.069569,-0.632477,-263.796402,1.043036,62.703411
0.5369,0.083422,-0.002366,-0.068607,-0.00737,-0.003818,0.015711,0.046793,-0.51114,-0.071001,-0.632477,-263.796402,1.043036,62.703411
0.557,0.083153,-0.002936,-0.06798,-0.007381,-0.003832,0.016044,0.046793,-0.51114,-0.071001,-0.632477,-263.796402,1.043036,62.703411
0.5767,0.082037,-0.003282,-0.068624,-0.00739,-0.003845,0.016308,0.048195,-0.511895,-0.067345,-0.645357,-263.800058,1.060473,62.697432
0.5971,0.082241,-0.002714,-0.068303,-0.007398,-0.003837,0.016618,0.047697,-0.511987,-0.067794,-0.645357,-263.800058,1.060473,62.697432
0.6165,0.081645,-0.003106,-0.06779,-0.007404,-0.00383,0.016866,0.047199,-0.511627,-0.067802,-0.691276,-263.803747,1.079264,62.69141
0.637,0.081488,-0.002637,-0.06644,-0.007409,-0.003825,0.017159,0.047096,-0.511912,-0.067766,-0.691276,-263.803747,1.079264,62.69141
0.657,0.081657,-0.002955,-0.068031,-0.007413,-0.003821,0.017395,0.047096,-0.511912,-0.067766,-0.691276,-263.803747,1.079264,62.69141
0.6769,0.080798,-0.00311,-0.066605,-0.007417,-0.003818,0.017584,0.046672,-0.511912,-0.067335,-0.718228,-263.807634,1.088182,62.685102
0.6971,0.080428,-0.003119,-0.065667,-0.00742,-0.003813,0.017828,0.04671,-0.511956,-0.066955,-0.718228,-263.807634,1.088182,62.685102
0.7168,0.079801,-0.003486,-0.066438,-0.007423,-0.003809,0.018025,0.046723,-0.512123,-0.065117,-0.750855,-263.811614,1.099551,62.678694
0.7369,0.079579,-0.003424,-0.066652,-0.007425,-0.003796,0.018273,0.045999,-0.512345,-0.066295,-0.750855,-263.811614,1.099551,62.678694
0.7569,0.080022,-0.003521,-0.066132,-0.007427,-0.003786,0.018473,0.045999,-0.512345,-0.066295,-0.750855,-263.811614,1.099551,62.678694
0.7767,0.079416,-0.003103,-0.065772,-0.007428,-0.003777,0.018635,0.046001,-0.512544,-0.065384,-0.770141,-263.815726,1.10638,62.672103
0.7969,0.079227,-0.003511,-0.064738,-0.00743,-0.003769,0.018849,0.045921,-0.512335,-0.065457,-0.770141,-263.815726,1.10638,62.672103
0.817,0.078057,-0.003359,-0.065083,-0.007431,-0.003762,0.019023,0.045993,-0.512546,-0.064153,-0.79711,-263.819924,1.115136,62.665437
0.8368,0.078357,-0.003679,-0.064512,-0.007432,-0.003755,0.019236,0.044971,-0.512307,-0.064975,-0.79711,-263.819924,1.115136,62.665437
0.8568,0.078524,-0.003498,-0.066228,-0.007433,-0.00375,0.019411,0.044971,-0.512307,-0.064975,-0.79711,-263.819924,1.115136,62.665437
0.8769,0.07752,-0.003989,-0.061035,-0.007434,-0.003745,0.019554,0.044452,-0.512516,-0.065434,-0.813189,-263.824226,1.120717,62.658642
0.897,0.07733,-0.003539,-0.060828,-0.007434,-0.003732,0.019738,0.04521,-0.512744,-0.063561,-0.813189,-263.824226,1.120717,62.658642
0.917,0.076443,-0.003777,-0.062344,-0.007434,-0.00372,0.019889,0.046085,-0.5127,-0.06021,-0.834212,-263.828614,1.128294,62.651759
0.9374,0.076465,-0.003565,-0.061209,-0.007434,-0.003707,0.020073,0.044784,-0.512783,-0.06212,-0.834212,-263.828614,1.128294,62.651759
0.9572,0.076708,-0.004023,-0.062212,-0.007434,-0.003696,0.020225,0.044784,-0.512783,-0.06212,-0.834212,-263.828614,1.128294,62.651759
0.9769,0.075867,-0.003802,-0.06045,-0.007434,-0.003687,0.020351,0.044681,-0.513173,-0.061382,-0.847935,-263.833093,1.13265,62.644774
0.9971,0.075419,-0.004022,-0.059932,-0.007433,-0.003672,0.020503,0.044796,-0.513066,-0.060909,-0.847935,-263.833093,1.13265,62.644774
1.0168,0.074417,-0.003803,-0.059822,-0.007433,-0.003659,0.020628,0.04463,-0.513209,-0.059286,-0.866119,-263.837657,1.138611,62.637715
1.0374,0.074626,-0.004335,-0.059904,-0.007433,-0.003649,0.020759,0.043977,-0.512924,-0.059741,-0.866119,-263.837657,1.138611,62.637715
1.0572,0.074897,-0.003933,-0.060319,-0.007433,-0.00364,0.020867,0.043977,-0.512924,-0.059741,-0.866119,-263.837657,1.138611,62.637715
1.0777,0.073649,-0.004254,-0.059709,-0.007433,-0.003632,0.020957,0.043835,-0.51314,-0.059457,-0.87715,-263.842307,1.141968,62.630566
1.0975,0.073963,-0.004117,-0.058846,-0.007433,-0.003618,0.021045,0.043544,-0.51324,-0.05946,-0.87715,-263.842307,1.141968,62.630566
1.1171,0.072916,-0.004161,-0.057655,-0.007432,-0.003606,0.021118,0.043726,-0.513336,-0.058181,-0.889485,-263.847006,1.145987,62.623386
1.1368,0.073105,-0.004123,-0.057727,-0.007432,-0.003593,0.021192,0.043534,-0.513321,-0.057668,-0.889485,-263.847006,1.145987,62.623386
1.1574,0.07329,-0.004237,-0.058012,-0.007431,-0.003581,0.021253,0.043534,-0.513321,-0.057668,-0.889485,-263.847006,1.145987,62.623386
1.1773,0.072211,-0.004762,-0.056678,-0.007431,-0.003572,0.021304,0.043401,-0.513512,-0.057129,-0.896118,-263.851761,1.147674,62.616152
1.1968,0.072204,-0.004701,-0.05601,-0.00743,-0.003554,0.021358,0.043332,-0.513702,-0.056844,-0.896118,-263.851761,1.147674,62.616152
1.2171,0.071256,-0.004695,-0.054835,-0.00743,-0.003539,0.021403,0.043411,-0.514001,-0.055331,-0.903904,-263.856562,1.149509,62.60889
1.2372,0.070794,-0.004286,-0.055604,-0.007428,-0.003519,0.021449,0.043302,-0.51394,-0.054845,-0.903904,-263.856562,1.149509,62.60889
1.2575,0.07106,-0.004303,-0.056346,-0.007427,-0.003503,0.021488,0.043302,-0.51394,-0.054845,-0.903904,-263.856562,1.149509,62.60889
1.2768,0.069749,-0.004746,-0.054646,-0.007427,-0.003488,0.021521,0.04202,-0.513624,-0.055451,-0.908749,-263.861394,1.150211,62.601614
1.2967,0.070218,-0.004974,-0.055276,-0.007426,-0.003477,0.021556,0.041932,-0.513786,-0.05502,-0.908749,-263.861394,1.150211,62.601614
1.3168,0.068971,-0.00489,-0.053404,-0.007426,-0.003466,0.021585,0.041799,-0.514293,-0.054591,-0.915129,-263.866264,1.150833,62.594333
1.3371,0.069272,-0.004621,-0.055011,-0.007424,-0.003447,0.021617,0.04174,-0.514179,-0.053476,-0.915129,-263.866264,1.150833,62.594333
1.3571,0.069146,-0.00471,-0.053045,-0.007423,-0.003431,0.021643,0.04174,-0.514179,-0.053476,-0.915129,-263.866264,1.150833,62.594333
1.3769,0.068062,-0.004711,-0.052037,-0.007422,-0.003417,0.021665,0.041787,-0.514121,-0.052142,-0.918258,-263.871161,1.151276,62.587032
1.3972,0.068534,-0.005152,-0.051194,-0.007422,-0.003405,0.021689,0.041648,-0.514095,-0.051994,-0.918258,-263.871161,1.151276,62.587032
1.4169,0.06742,-0.00551,-0.052188,-0.007421,-0.003396,0.02171,0.042195,-0.51458,-0.050504,-0.92332,-263.876076,1.151429,62.579752
1.4369,0.067178,-0.005264,-0.051085,-0.007419,-0.003369,0.021731,0.040926,-0.5148,-0.052005,-0.92332,-263.876076,1.151429,62.579752
1.4569,0.067579,-0.005215,-0.051963,-0.007416,-0.003347,0.02175,0.040926,-0.5148,-0.052005,-0.92332,-263.876076,1.151429,62.579752
1.4771,0.066585,-0.005482,-0.050779,-0.007415,-0.003328,0.021765,0.040773,-0.514653,-0.051056,-0.925766,-263.881052,1.151618,62.572402
1.497,0.066424,-0.005151,-0.050515,-0.007414,-0.003311,0.021782,0.040704,-0.514741,-0.050831,-0.925766,-263.881052,1.151618,62.572402
1.5171,0.065786,-0.005182,-0.049558,-0.007413,-0.003297,0.021796,0.040434,-0.514594,-0.04983,-0.931077,-263.885984,1.151175,62.565174
1.5368,0.065903,-0.005415,-0.049875,-0.007412,-0.003288,0.021812,0.040502,-0.514564,-0.049547,-0.931077,-263.885984,1.151175,62.565174
1.5571,0.065976,-0.005328,-0.048773,-0.007412,-0.003279,0.021825,0.040502,-0.514564,-0.049547,-0.931077,-263.885984,1.151175,62.565174
1.5769,0.064682,-0.005579,-0.048581,-0.007411,-0.003272,0.021835,0.040795,-0.514845,-0.047861,-0.933616,-263.890961,1.151033,62.557909
1.5967,0.064566,-0.005515,-0.046627,-0.00741,-0.003257,0.021847,0.040401,-0.514913,-0.048049,-0.933616,-263.890961,1.151033,62.557909
1.6168,0.063842,-0.005646,-0.047804,-0.007409,-0.003243,0.021856,0.040554,-0.515054,-0.045931,-0.93602,-263.895968,1.151062,62.550623
1.6372,0.064107,-0.005372,-0.047296,-0.007407,-0.003225,0.021866,0.039552,-0.515067,-0.04761,-0.93602,-263.895968,1.151062,62.550623
1.6573,0.063594,-0.00563,-0.047169,-0.007405,-0.003209,0.021875,0.039552,-0.515067,-0.04761,-0.93602,-263.895968,1.151062,62.550623
1.6769,0.062552,-0.00585,-0.046489,-0.007404,-0.003196,0.021882,0.039231,-0.515183,-0.046256,-0.938178,-263.900979,1.150836,62.543356
1.697,0.062545,-0.005862,-0.046404,-0.007402,-0.003178,0.021889,0.039039,-0.515245,-0.046246,-0.938178,-263.900979,1.150836,62.543356
1.7167,0.061525,-0.005567,-0.045569,-0.0074,-0.003162,0.021895,0.038648,-0.515403,-0.04571,-0.941418,-263.906023,1.150373,62.536082
1.7367,0.062159,-0.005645,-0.045253,-0.007399,-0.00315,0.021902,0.03831,-0.515071,-0.045548,-0.941418,-263.906023,1.150373,62.536082
1.7567,0.061803,-0.006032,-0.045772,-0.007398,-0.003139,0.021908,0.03831,-0.515071,-0.045548,-0.941418,-263.906023,1.150373,62.536082
1.7767,0.060954,-0.005954,-0.045113,-0.007397,-0.00313,0.021912,0.038153,-0.515616,-0.04486,-0.943647,-263.911047,1.149982,62.528865
1.7967,0.060666,-0.005775,-0.043677,-0.007394,-0.003109,0.021917,0.038035,-0.515556,-0.044858,-0.943647,-263.911047,1.149982,62.528865
1.817,0.059693,-0.006121,-0.042346,-0.007392,-0.003091,0.021921,0.038158,-0.515379,-0.042979,-0.945817,-263.916102,1.149636,62.52163
1.8372,0.059777,-0.005994,-0.043306,-0.00739,-0.003071,0.021925,0.038096,-0.515642,-0.042367,-0.945817,-263.916102,1.149636,62.52163
1.857,0.059534,-0.005736,-0.042135,-0.007388,-0.003055,0.021928,0.038096,-0.515642,-0.042367,-0.945817,-263.916102,1.149636,62.52163
1.8771,0.059394,-0.006192,-0.042146,-0.007386,-0.003041,0.021931,0.037737,-0.5154,-0.041218,-0.948186,-263.921205,1.149124,62.514359
1.8968,0.058853,-0.0061,-0.042064,-0.007385,-0.003029,0.021934,0.037772,-0.515557,-0.041504,-0.948186,-263.921205,1.149124,62.514359
1.9171,0.058469,-0.006105,-0.041162,-0.007384,-0.003019,0.021937,0.03717,-0.515735,-0.041373,-0.951148,-263.92628,1.148437,62.507169
1.9368,0.058308,-0.006456,-0.039846,-0.007382,-0.003005,0.02194,0.037446,-0.515682,-0.041146,-0.951148,-263.92628,1.148437,62.507169
1.957,0.058287,-0.00616,-0.040987,-0.007381,-0.002994,0.021942,0.037446,-0.515682,-0.041146,-0.951148,-263.92628,1.148437,62.507169
1.9772,0.056923,-0.006497,-0.039356,-0.00738,-0.002984,0.021944,0.037077,-0.515844,-0.040075,-0.952466,-263.931353,1.148127,62.5
1.9973,0.057134,-0.006612,-0.040054,-0.007377,-0.002965,0.021946,0.036951,-0.515963,-0.039675,-0.952466,-263.931353,1.148127,62.5
2.0172,0.056113,-0.00659,-0.037486,-0.007375,-0.002949,0.021947,0.036473,-0.516289,-0.039354,-0.954479,-263.936468,1.147635,62.4928
2.0372,0.056061,-0.006627,-0.038101,-0.007371,-0.002927,0.021949,0.036943,-0.51624,-0.037611,-0.954479,-263.936468,1.147635,62.4928
2.0572,0.056002,-0.006257,-0.038937,-0.007369,-0.002908,0.02195,0.036943,-0.51624,-0.037611,-0.954479,-263.936468,1.147635,62.4928
2.0771,0.05504,-0.006528,-0.038139,-0.007366,-0.002892,0.021951,0.035837,-0.515982,-0.038021,-0.956463,-263.941586,1.147144,62.485625
2.097,0.055301,-0.006525,-0.040017,-0.007364,-0.002877,0.021953,0.035701,-0.516066,-0.037963,-0.956463,-263.941586,1.147144,62.485625
2.1168,0.05395,-0.006349,-0.036706,-0.007362,-0.002864,0.021954,0.034661,-0.516199,-0.03932,-0.959702,-263.946721,1.146316,62.478471
2.1371,0.054274,-0.006679,-0.035107,-0.00736,-0.00285,0.021956,0.035172,-0.516027,-0.0369,-0.959702,-263.946721,1.146316,62.478471
2.1569,0.054004,-0.006483,-0.035871,-0.007359,-0.002839,0.021957,0.035172,-0.516027,-0.0369,-0.959702,-263.946721,1.146316,62.478471
2.1771,0.053327,-0.007146,-0.034751,-0.007358,-0.002829,0.021958,0.035401,-0.516264,-0.034952,-0.961278,-263.951867,1.145911,62.471324
2.1973,0.053697,-0.006638,-0.035228,-0.007354,-0.002808,0.021958,0.035449,-0.51651,-0.034764,-0.961278,-263.951867,1.145911,62.471324
2.2167,0.0524,-0.007009,-0.035,-0.007351,-0.002789,0.021959,0.035497,-0.516403,-0.034529,-0.963236,-263.957011,1.1454,62.464208
2.2368,0.052452,-0.006669,-0.033887,-0.007346,-0.002766,0.02196,0.03463,-0.516673,-0.034918,-0.963236,-263.957011,1.1454,62.464208
2.257,0.052373,-0.006706,-0.03476,-0.007343,-0.002745,0.02196,0.03463,-0.516673,-0.034918,-0.963236,-263.957011,1.1454,62.464208
2.2769,0.051553,-0.007341,-0.033829,-0.00734,-0.002728,0.021961,0.034336,-0.516504,-0.033839,-0.965439,-263.962178,1.144849,62.457092
2.2973,0.051698,-0.006826,-0.03313,-0.007336,-0.002708,0.021961,0.034288,-0.516736,-0.03373,-0.965439,-263.962178,1.144849,62.457092
2.317,0.050543,-0.007084,-0.029802,-0.007334,-0.002692,0.021962,0.034568,-0.516625,-0.03243,-0.96888,-263.967368,1.144,62.449992
2.3369,0.050727,-0.006879,-0.03304,-0.007331,-0.002677,0.021962,0.035267,-0.516841,-0.029994,-0.96888,-263.967368,1.144,62.449992
2.3572,0.050443,-0.007201,-0.031823,-0.007329,-0.002665,0.021963,0.035267,-0.516841,-0.029994,-0.96888,-263.967368,1.144,62.449992
2.3766,0.050041,-0.007439,-0.031078,-0.007328,-0.002655,0.021963,0.033905,-0.517046,-0.030902,-0.970871,-263.972565,1.143499,62.442913
2.397,0.049631,-0.007317,-0.030231,-0.007323,-0.002632,0.021963,0.033987,-0.517118,-0.030869,-0.970871,-263.972565,1.143499,62.442913
2.4169,0.048653,-0.007276,-0.027425,-0.007319,-0.002612,0.021963,0.03398,-0.517161,-0.029533,-0.97289,-263.977763,1.142929,62.43586
2.4372,0.048814,-0.007457,-0.030411,-0.007317,-0.002597,0.021964,0.034594,-0.517095,-0.027579,-0.97289,-263.977763,1.142929,62.43586
2.4571,0.048661,-0.007204,-0.029969,-0.007315,-0.002584,0.021964,0.034594,-0.517095,-0.027579,-0.97289,-263.977763,1.142929,62.43586
2.4774,0.047411,-0.007515,-0.028373,-0.007313,-0.002573,0.021965,0.03307,-0.517075,-0.02905,-0.97526,-263.982983,1.142379,62.428812
2.497,0.047868,-0.007721,-0.026948,-0.007308,-0.002552,0.021965,0.032982,-0.517183,-0.028666,-0.97526,-263.982983,1.142379,62.428812
2.517,0.047156,-0.007151,-0.026566,-0.007305,-0.002535,0.021965,0.033891,-0.517612,-0.026249,-0.977385,-263.988213,1.141812,62.421781
2.5373,0.04686,-0.007729,-0.029016,-0.007303,-0.002526,0.021965,0.033622,-0.517032,-0.026502,-0.977385,-263.988213,1.141812,62.421781
2.5571,0.046906,-0.007203,-0.026251,-0.007302,-0.002518,0.021966,0.033622,-0.517032,-0.026502,-0.977385,-263.988213,1.141812,62.421781
2.5773,0.046131,-0.007522,-0.027688,-0.007301,-0.002512,0.021966,0.033211,-0.517126,-0.025333,-0.979554,-263.993462,1.14133,62.414754
2.598,0.046118,-0.007631,-0.025547,-0.007298,-0.002495,0.021966,0.032682,-0.51722,-0.026195,-0.979554,-263.993462,1.14133,62.414754
2.6167,0.045415,-0.008099,-0.024919,-0.007295,-0.002481,0.021966,0.032853,-0.51754,-0.024839,-0.980757,-263.998703,1.140975,62.407756
2.6374,0.045265,-0.007705,-0.025327,-0.007287,-0.002449,0.021966,0.032709,-0.517908,-0.024875,-0.980757,-263.998703,1.140975,62.407756
2.6575,0.045005,-0.007567,-0.023993,-0.00728,-0.002422,0.021965,0.032709,-0.517908,-0.024875,-0.980757,-263.998703,1.140975,62.407756
2.677,0.044109,-0.007929,-0.022635,-0.007275,-0.0024,0.021965,0.032461,-0.517518,-0.023071,-0.982515,-264.003999,1.140591,62.40071
2.6971,0.044512,-0.008006,-0.02372,-0.007272,-0.002384,0.021963,0.03247,-0.517647,-0.02278,-0.982515,-264.003999,1.140591,62.40071
2.717,0.043397,-0.007989,-0.024648,-0.007269,-0.00237,0.021961,0.032184,-0.517933,-0.023025,-0.987135,-264.009252,1.139658,62.393783
2.737,0.043343,-0.007769,-0.022082,-0.007262,-0.002343,0.021961,0.030933,-0.517846,-0.024474,-0.987135,-264.009252,1.139658,62.393783
2.7571,0.043048,-0.007874,-0.024489,-0.007256,-0.00232,0.021962,0.030933,-0.517846,-0.024474,-0.987135,-264.009252,1.139658,62.393783
2.7773,0.042266,-0.007725,-0.022892,-0.007252,-0.002301,0.021962,0.030255,-0.517812,-0.023572,-0.988599,-264.014554,1.139183,62.386814
2.7968,0.041844,-0.00776,-0.022905,-0.007247,-0.002282,0.021961,0.030361,-0.51773,-0.023179,-0.988599,-264.014554,1.139183,62.386814
2.8169,0.041257,-0.007867,-0.021063,-0.007243,-0.002266,0.021961,0.029932,-0.517694,-0.022209,-0.99263,-264.019861,1.138446,62.379892
2.8371,0.04125,-0.008228,-0.01964,-0.00724,-0.002251,0.021952,0.030461,-0.517752,-0.021121,-0.99263,-264.019861,1.138446,62.379892
2.8571,0.041454,-0.007723,-0.021658,-0.007238,-0.002239,0.021945,0.030461,-0.517752,-0.021121,-0.99263,-264.019861,1.138446,62.379892
2.8772,0.040504,-0.008176,-0.019221,-0.007236,-0.002228,0.021939,0.030106,-0.517691,-0.020744,-0.994561,-264.025158,1.138007,62.373011
2.8976,0.040416,-0.008141,-0.020022,-0.007233,-0.002214,0.021924,0.030316,-0.517862,-0.020012,-0.994561,-264.025158,1.138007,62.373011
2.917,0.039808,-0.00825,-0.019777,-0.007231,-0.002202,0.021913,0.029974,-0.518105,-0.019325,-0.996018,-264.030496,1.137164,62.366104
2.9372,0.039261,-0.008298,-0.018817,-0.007226,-0.002178,0.021899,0.029732,-0.51815,-0.019703,-0.996018,-264.030496,1.137164,62.366104
2.9576,0.039506,-0.008316,-0.017963,-0.007221,-0.002158,0.021889,0.029732,-0.51815,-0.019703,-0.996018,-264.030496,1.137164,62.366104
2.9771,0.038721,-0.008572,-0.017844,-0.007218,-0.002141,0.02188,0.030042,-0.518321,-0.017047,-0.996729,-264.0358,1.13638,62.35926
2.9976,0.03866,-0.008405,-0.017411,-0.007218,-0.002119,0.021815,0.029838,-0.518399,-0.017262,-0.996729,-264.0358,1.13638,62.35926
3.0166,0.037692,-0.008467,-0.017296,-0.007219,-0.002101,0.021763,0.029549,-0.518392,-0.016712,-0.999229,-264.041137,1.135101,62.352419
3.0371,0.037735,-0.008183,-0.01711,-0.007217,-0.002076,0.021719,0.028921,-0.518394,-0.017208,-0.999229,-264.041137,1.135101,62.352419
3.0574,0.037884,-0.008189,-0.015299,-0.007216,-0.002056,0.021684,0.028921,-0.518394,-0.017208,-0.999229,-264.041137,1.135101,62.352419
3.0774,0.036849,-0.008054,-0.01666,-0.007215,-0.002038,0.021657,0.029777,-0.518213,-0.014387,-0.99792,-264.046475,1.132275,62.345605
3.0969,0.036884,-0.008415,-0.015917,-0.00722,-0.002031,0.021529,0.029158,-0.518129,-0.015215,-0.99792,-264.046475,1.132275,62.345605
3.1167,0.036272,-0.008799,-0.014029,-0.007225,-0.002026,0.02143,0.028536,-0.518411,-0.015229,-0.998061,-264.051788,1.129257,62.338867
3.1375,0.03614,-0.008805,-0.016271,-0.007219,-0.002001,0.021259,0.029054,-0.518722,-0.014102,-0.998061,-264.051788,1.129257,62.338867
3.1575,0.035698,-0.008839,-0.013797,-0.007217,-0.001979,0.021128,0.029054,-0.518722,-0.014102,-0.998061,-264.051788,1.129257,62.338867
3.1776,0.035199,-0.008762,-0.013028,-0.007216,-0.001961,0.021029,0.028359,-0.518872,-0.012899,-0.992255,-264.057088,1.124877,62.332147
3.1974,0.034799,-0.008801,-0.013429,-0.007203,-0.001933,0.020807,0.028405,-0.518818,-0.012849,-0.992255,-264.057088,1.124877,62.332147
3.2172,0.034021,-0.008595,-0.012131,-0.007194,-0.001909,0.020642,0.027721,-0.518814,-0.012762,-0.98532,-264.062283,1.11727,62.325596
3.2371,0.034326,-0.008814,-0.013425,-0.007182,-0.001889,0.020419,0.027812,-0.518584,-0.012154,-0.98532,-264.062283,1.11727,62.325596
3.2575,0.034191,-0.008565,-0.011892,-0.007174,-0.001871,0.020254,0.027812,-0.518584,-0.012154,-0.98532,-264.062283,1.11727,62.325596
3.2771,0.033232,-0.008942,-0.011022,-0.00717,-0.001856,0.020133,0.027825,-0.518606,-0.011028,-0.97878,-264.067432,1.110689,62.319124
3.2973,0.03314,-0.008845,-0.010336,-0.00715,-0.001835,0.019832,0.027703,-0.518739,-0.010927,-0.97878,-264.067432,1.110689,62.319124
3.317,0.032521,-0.009086,-0.010466,-0.007137,-0.001818,0.019616,0.02764,-0.518874,-0.009695,-0.969053,-264.072515,1.101861,62.312758
3.337,0.032116,-0.008984,-0.011336,-0.007115,-0.001787,0.019349,0.027207,-0.519047,-0.010383,-0.969053,-264.072515,1.101861,62.312758
3.357,0.032169,-0.008929,-0.01047,-0.007101,-0.001761,0.019159,0.027207,-0.519047,-0.010383,-0.969053,-264.072515,1.101861,62.312758
3.377,0.031459,-0.008933,-0.009518,-0.007092,-0.001738,0.019024,0.026533,-0.518973,-0.009658,-0.958583,-264.077459,1.093469,62.306574
3.397,0.03159,-0.008726,-0.007811,-0.007071,-0.001713,0.018735,0.026529,-0.518956,-0.009504,-0.958583,-264.077459,1.093469,62.306574
3.417,0.030364,-0.008871,-0.007273,-0.007058,-0.001691,0.018531,0.027382,-0.518764,-0.007211,-0.948279,-264.082286,1.082694,62.300571
3.4377,0.030439,-0.009469,-0.009238,-0.007012,-0.001688,0.017783,0.026708,-0.518852,-0.007236,-0.948279,-264.082286,1.082694,62.300571
3.4575,0.030194,-0.008945,-0.00873,-0.006983,-0.001682,0.017265,0.026708,-0.518852,-0.007236,-0.948279,-264.082286,1.082694,62.300571
3.4771,0.029504,-0.009226,-0.005861,-0.006966,-0.001674,0.016908,0.025446,-0.518994,-0.007957,-0.938154,-264.087057,1.073703,62.294656
3.4975,0.029802,-0.009114,-0.00689,-0.006946,-0.001649,0.016589,0.025853,-0.519094,-0.007003,-0.938154,-264.087057,1.073703,62.294656
3.517,0.028542,-0.009299,-0.007237,-0.006935,-0.001626,0.016369,0.026076,-0.519152,-0.006376,-0.892945,-264.091305,1.044831,62.28935
3.5372,0.029245,-0.009377,-0.006483,-0.006924,-0.001588,0.01625,0.024943,-0.519277,-0.007141,-0.892945,-264.091305,1.044831,62.28935
3.5576,0.028872,-0.009315,-0.004977,-0.006917,-0.001554,0.016168,0.024943,-0.519277,-0.007141,-0.892945,-264.091305,1.044831,62.28935
3.5776,0.028299,-0.009251,-0.006038,-0.006912,-0.001526,0.016113,0.026044,-0.519376,-0.004292,-0.878986,-264.095616,1.032894,62.283982
3.5967,0.028293,-0.009349,-0.004513,-0.006872,-0.001525,0.015335,0.025684,-0.51933,-0.004908,-0.878986,-264.095616,1.032894,62.283982
3.6171,0.027288,-0.009581,-0.005091,-0.006847,-0.00152,0.014798,0.025771,-0.519392,-0.004,-0.877307,-264.099958,1.024448,62.27864
3.6375,0.0275,-0.009243,-0.003996,-0.006825,-0.001494,0.014451,0.024764,-0.519562,-0.004985,-0.877307,-264.099958,1.024448,62.27864
3.6568,0.027533,-0.009647,-0.00503,-0.006811,-0.001469,0.014213,0.024764,-0.519562,-0.004985,-0.877307,-264.099958,1.024448,62.27864
3.6768,0.026759,-0.009614,-0.003939,-0.006802,-0.001446,0.01405,0.024696,-0.5197,-0.004443,-0.832072,-264.103822,0.995507,62.273858
3.6969,0.02666,-0.009177,-0.003367,-0.00678,-0.001428,0.013621,0.024686,-0.51967,-0.00417,-0.832072,-264.103822,0.995507,62.273858
3.7166,0.026523,-0.009364,-0.003792,-0.006766,-0.00141,0.013324,0.024729,-0.519219,-0.002926,-0.809279,-264.107705,0.974707,62.269085
3.7377,0.026473,-0.009541,-0.003784,-0.006754,-0.001406,0.012918,0.024591,-0.51935,-0.003692,-0.809279,-264.107705,0.974707,62.269085
3.7574,0.026292,-0.009676,-0.00297,-0.006748,-0.0014,0.012637,0.024591,-0.51935,-0.003692,-0.809279,-264.107705,0.974707,62.269085
3.7768,0.025472,-0.009725,-0.003577,-0.006745,-0.001394,0.012442,0.024499,-0.519731,-0.002421,-0.78256,-264.111453,0.954281,62.264488
3.7969,0.025145,-0.00932,-0.002904,-0.006726,-0.001376,0.011922,0.024121,-0.519734,-0.002828,-0.78256,-264.111453,0.954281,62.264488
3.8168,0.02498,-0.00933,-0.000932,-0.006713,-0.001359,0.011558,0.023456,-0.51936,-0.00252,-0.743786,-264.114991,0.927274,62.26015
3.8368,0.024733,-0.009651,-0.001846,-0.006707,-0.001377,0.010455,0.0244,-0.519334,-0.001056,-0.743786,-264.114991,0.927274,62.26015
3.8572,0.024977,-0.009752,-0.003189,-0.006705,-0.001386,0.009656,0.0244,-0.519334,-0.001056,-0.743786,-264.114991,0.927274,62.26015
3.8772,0.024254,-0.009735,-0.002341,-0.006706,-0.00139,0.009081,0.023081,-0.519803,-0.002723,-0.704002,-264.118377,0.897591,62.25601
3.8969,0.024135,-0.009336,-0.0011,-0.006707,-0.001342,0.009397,0.023041,-0.519781,-0.002515,-0.704002,-264.118377,0.897591,62.25601
3.9172,0.023776,-0.009907,-0.002335,-0.006704,-0.001302,0.00962,0.023449,-0.519359,-0.000916,-0.629004,-264.120285,0.822593,62.253676
3.9367,0.02397,-0.009859,-0.001617,-0.006691,-0.001264,0.009605,0.022668,-0.51985,-0.002176,-0.629004,-264.120285,0.822593,62.253676
3.9569,0.023861,-0.010345,-0.001309,-0.00668,-0.001232,0.009592,0.022668,-0.51985,-0.002176,-0.629004,-264.120285,0.822593,62.253676
3.9767,0.023323,-0.009691,-0.001959,-0.006671,-0.001204,0.00958,0.022916,-0.520398,-0.000912,-0.598663,-264.123484,0.819493,62.249806
3.997,0.023034,-0.009785,0.000293,-0.006652,-0.00118,0.009118,0.022645,-0.520117,-0.00129,-0.598663,-264.123484,0.819493,62.249806
4.0166,0.023174,-0.009874,0.00011,-0.006637,-0.001158,0.008782,0.022972,-0.519824,0.000598,-0.608458,-264.126733,0.813379,62.245925
4.0369,0.022844,-0.009854,-0.000247,-0.006633,-0.001168,0.007874,0.023198,-0.519872,0.000167,-0.608458,-264.126733,0.813379,62.245925
4.0571,0.02259,-0.010119,0.002174,-0.006631,-0.001173,0.007201,0.023198,-0.519872,0.000167,-0.608458,-264.126733,0.813379,62.245925
4.0772,0.022214,-0.010067,0.001056,-0.006632,-0.001173,0.006703,0.023435,-0.520164,0.002522,-0.564869,-264.129723,0.776619,62.242384
4.0976,0.021878,-0.009923,0.000679,-0.006626,-0.001177,0.005806,0.02312,-0.520129,0.001952,-0.564869,-264.129723,0.776619,62.242384
4.1167,0.021546,-0.010219,-0.000336,-0.006624,-0.001174,0.005126,0.022105,-0.519942,0.000813,-0.489711,-264.131407,0.701461,62.240416
4.1371,0.021947,-0.010082,0.000917,-0.006614,-0.001123,0.005378,0.021435,-0.520195,-0.000225,-0.489711,-264.131407,0.701461,62.240416
4.157,0.022153,-0.010025,-9.8e-05,-0.006603,-0.001081,0.005546,0.021435,-0.520195,-0.000225,-0.489711,-264.131407,0.701461,62.240416
4.1769,0.021494,-0.009935,9.4e-05,-0.006592,-0.001046,0.005659,0.021995,-0.52004,4e-06,-0.414975,-264.132516,0.626725,62.239147
4.1973,0.022157,-0.010279,0.00114,-0.006588,-0.001032,0.005598,0.021798,-0.519999,5.2e-05,-0.414975,-264.132516,0.626725,62.239147
4.2167,0.021342,-0.010198,0.001321,-0.006585,-0.00102,0.005547,0.022545,-0.52031,0.001307,-0.350501,-264.135112,0.599196,62.236195
4.2375,0.021186,-0.010043,0.000841,-0.006579,-0.001015,0.005008,0.022052,-0.52021,0.001328,-0.350501,-264.135112,0.599196,62.236195
4.257,0.021416,-0.010015,-0.00035,-0.006576,-0.00101,0.004606,0.022052,-0.52021,0.001328,-0.350501,-264.135112,0.599196,62.236195
4.2772,0.02082,-0.010006,0.001173,-0.006574,-0.001003,0.004305,0.020962,-0.520058,-0.000119,-0.345247,-264.137906,0.589869,62.233032
4.2974,0.02085,-0.009829,0.001065,-0.00657,-0.000981,0.004424,0.021117,-0.520042,0.000435,-0.345247,-264.137906,0.589869,62.233032
4.317,0.020666,-0.010012,0.000714,-0.006565,-0.000963,0.004503,0.021236,-0.519851,0.001173,-0.270274,-264.139943,0.514897,62.230772
4.3371,0.020526,-0.010572,0.001075,-0.006561,-0.00095,0.004414,0.021041,-0.519998,0.000761,-0.270274,-264.139943,0.514897,62.230772
4.3571,0.020086,-0.010316,-0.001198,-0.006557,-0.000939,0.004345,0.021041,-0.519998,0.000761,-0.270274,-264.139943,0.514897,62.230772
4.3768,0.020451,-0.010412,-0.0002,-0.006554,-0.00093,0.004291,0.0192,-0.520355,-0.001009,-0.265778,-264.142666,0.514748,62.227753
4.3973,0.020236,-0.010224,0.0019,-0.006544,-0.000868,0.004958,0.019639,-0.520383,-0.000656,-0.265778,-264.142666,0.514748,62.227753
4.4174,0.019923,-0.009923,0.001036,-0.00653,-0.000819,0.005428,0.020998,-0.520252,0.002035,-0.252515,-264.145369,0.496511,62.224777
4.4371,0.019349,-0.010533,0.001518,-0.006522,-0.000826,0.004946,0.020483,-0.519949,0.001116,-0.252515,-264.145369,0.496511,62.224777
4.457,0.019526,-0.01024,0.003013,-0.006518,-0.00083,0.004588,0.020483,-0.519949,0.001116,-0.252515,-264.145369,0.496511,62.224777
4.4768,0.019247,-0.010317,0.000562,-0.006515,-0.000832,0.004322,0.020857,-0.520268,0.003178,-0.328015,-264.147482,0.564443,62.222441
4.4969,0.019231,-0.01052,0.00128,-0.006503,-0.000824,0.003816,0.020277,-0.520292,0.002099,-0.328015,-264.147482,0.564443,62.222441
4.5168,0.018978,-0.01038,0.002236,-0.006494,-0.000815,0.003435,0.019705,-0.520543,0.001399,-0.270733,-264.149821,0.48967,62.219887
4.5371,0.018901,-0.010561,0.002504,-0.006483,-0.000797,0.003124,0.020074,-0.520393,0.002171,-0.270733,-264.149821,0.48967,62.219887
4.557,0.018906,-0.010497,0.00097,-0.006475,-0.000781,0.00289,0.020074,-0.520393,0.002171,-0.270733,-264.149821,0.48967,62.219887
4.5772,0.018415,-0.010488,0.001594,-0.006469,-0.000767,0.002714,0.01917,-0.520526,0.001092,-0.195932,-264.152062,0.421612,62.217478
4.597,0.018434,-0.010245,0.002556,-0.006453,-0.000727,0.002866,0.019168,-0.520513,0.001311,-0.195932,-264.152062,0.421612,62.217478
4.617,0.018285,-0.010311,0.002644,-0.006438,-0.000695,0.002972,0.019555,-0.520266,0.002633,-0.13685,-264.154381,0.358546,62.215024
4.6371,0.018215,-0.010009,0.002005,-0.006433,-0.000692,0.002639,0.019618,-0.520307,0.002647,-0.13685,-264.154381,0.358546,62.215024
4.657,0.018433,-0.01025,0.001942,-0.006429,-0.000688,0.002389,0.019618,-0.520307,0.002647,-0.13685,-264.154381,0.358546,62.215024
4.6773,0.017628,-0.010819,0.004104,-0.006427,-0.000683,0.002203,0.019161,-0.520278,0.002064,-0.172263,-264.156936,0.371751,62.212322
4.697,0.017663,-0.010335,0.002335,-0.006418,-0.000668,0.001999,0.01936,-0.520501,0.002913,-0.172263,-264.156936,0.371751,62.212322
4.7167,0.017241,-0.010327,0.003873,-0.006411,-0.000654,0.001847,0.018678,-0.520353,0.002395,-0.102717,-264.159167,0.305689,62.209995
4.7369,0.017154,-0.010318,0.003216,-0.006406,-0.00065,0.00156,0.019163,-0.520326,0.003753,-0.102717,-264.159167,0.305689,62.209995
4.7571,0.017301,-0.010535,0.00092,-0.006404,-0.000644,0.001343,0.019163,-0.520326,0.003753,-0.102717,-264.159167,0.305689,62.209995
4.7769,0.01699,-0.010497,0.001973,-0.006402,-0.000637,0.00118,0.017511,-0.520561,0.000994,-0.073852,-264.161651,0.271166,62.207424
4.7972,0.017454,-0.010628,0.001782,-0.006384,-0.000577,0.001741,0.017678,-0.520538,0.0014,-0.073852,-264.161651,0.271166,62.207424
4.8173,0.016784,-0.010586,0.001743,-0.006364,-0.00053,0.002131,0.018182,-0.520646,0.001815,-0.013035,-264.163925,0.209057,62.2051
4.8373,0.016382,-0.010675,0.004118,-0.006342,-0.000492,0.002271,0.017707,-0.520592,0.001751,-0.013035,-264.163925,0.209057,62.2051
4.857,0.017032,-0.010807,0.002808,-0.006324,-0.000461,0.002369,0.017707,-0.520592,0.001751,-0.013035,-264.163925,0.209057,62.2051
4.8772,0.016175,-0.010775,0.004033,-0.006308,-0.000436,0.002437,0.018261,-0.520826,0.002871,-0.088219,-264.165884,0.28017,62.203076
4.8976,0.01647,-0.010813,0.002022,-0.006295,-0.00043,0.002061,0.018226,-0.520806,0.00335,-0.088219,-264.165884,0.28017,62.203076
4.9169,0.016182,-0.010856,0.003978,-0.006286,-0.000423,0.001778,0.017318,-0.520826,0.002092,-0.163036,-264.1682,0.296049,62.200687
4.9368,0.0163,-0.011084,0.002363,-0.006276,-0.000416,0.001474,0.018122,-0.52085,0.003813,-0.163036,-264.1682,0.296049,62.200687
4.9569,0.016027,-0.010614,0.001272,-0.006269,-0.000407,0.001244,0.018122,-0.52085,0.003813,-0.163036,-264.1682,0.296049,62.200687
4.9766,0.015733,-0.010523,0.001952,-0.006265,-0.000398,0.001071,0.01644,-0.520629,0.001338,-0.104975,-264.17046,0.235624,62.198377
4.9968,0.015743,-0.010927,0.003075,-0.006248,-0.000348,0.001573,0.016531,-0.520588,0.001596,-0.104975,-264.17046,0.235624,62.198377
5.0168,0.0156,-0.010717,0.003914,-0.00623,-0.000309,0.001924,0.017138,-0.520936,0.003104,-0.040777,-264.172639,0.166463,62.196169
5.0369,0.015751,-0.010805,0.002596,-0.006223,-0.000312,0.001571,0.017549,-0.520733,0.003848,-0.040777,-264.172639,0.166463,62.196169
5.0569,0.015508,-0.010613,0.002232,-0.006218,-0.000312,0.001303,0.017549,-0.520733,0.003848,-0.040777,-264.172639,0.166463,62.196169
5.0768,0.015737,-0.010645,0.004505,-0.006215,-0.00031,0.0011,0.016439,-0.520625,0.002293,-0.115949,-264.174644,0.233899,62.194127
5.0969,0.015226,-0.010661,0.001003,-0.006209,-0.000293,0.001082,0.017065,-0.520633,0.003202,-0.115949,-264.174644,0.233899,62.194127
5.1167,0.015092,-0.010479,0.002539,-0.006203,-0.00028,0.001066,0.015567,-0.52067,0.001033,-0.058183,-264.17679,0.159068,62.191959
5.1371,0.015019,-0.010737,0.00172,-0.00619,-0.000251,0.001269,0.016305,-0.520495,0.002405,-0.058183,-264.17679,0.159068,62.191959
5.1574,0.014852,-0.010577,0.002951,-0.006179,-0.000227,0.001412,0.016305,-0.520495,0.002405,-0.058183,-264.17679,0.159068,62.191959
5.1773,0.014211,-0.010479,0.003507,-0.006168,-0.000209,0.001513,0.016098,-0.520587,0.002995,-0.059757,-264.179271,0.148978,62.189454
5.1973,0.014427,-0.010938,0.000856,-0.006151,-0.000191,0.001372,0.016028,-0.520543,0.003209,-0.059757,-264.179271,0.148978,62.189454
5.2169,0.014379,-0.010725,0.004172,-0.006137,-0.000175,0.001267,0.01468,-0.520944,0.000901,-0.115501,-264.181596,0.181628,62.187106
5.2372,0.013992,-0.010822,0.003429,-0.006126,-0.000168,0.001049,0.016337,-0.52074,0.003887,-0.115501,-264.181596,0.181628,62.187106
5.2574,0.014315,-0.010943,0.003643,-0.006118,-0.00016,0.000885,0.016337,-0.52074,0.003887,-0.115501,-264.181596,0.181628,62.187106
5.2773,0.013746,-0.010747,0.0011,-0.006112,-0.000152,0.000763,0.01592,-0.520947,0.003695,-0.097217,-264.18402,0.153482,62.184664
5.2971,0.014258,-0.010515,0.004026,-0.006084,-0.000104,0.000971,0.01523,-0.520866,0.002638,-0.097217,-264.18402,0.153482,62.184664
5.3167,0.013863,-0.010604,0.002657,-0.00606,-6.5e-05,0.001119,0.016132,-0.520516,0.004049,-0.051375,-264.186285,0.100732,62.182391
5.3372,0.013637,-0.010622,0.001683,-0.006047,-4.4e-05,0.001188,0.015286,-0.520595,0.002776,-0.051375,-264.186285,0.100732,62.182391
5.3574,0.01358,-0.010591,0.00175,-0.006036,-2.7e-05,0.001237,0.015286,-0.520595,0.002776,-0.051375,-264.186285,0.100732,62.182391
5.3773,0.013525,-0.010625,0.001625,-0.006026,-1.3e-05,0.001273,0.014231,-0.520593,0.001794,-0.101764,-264.188606,0.122849,62.180065
5.3971,0.013132,-0.010554,0.003435,-0.005998,3.1e-05,0.001637,0.014254,-0.520606,0.00173,-0.101764,-264.188606,0.122849,62.180065
5.4169,0.013133,-0.01086,0.0038,-0.005971,6.6e-05,0.001896,0.014695,-0.520552,0.003475,-0.126101,-264.191011,0.130407,62.177658
5.437,0.013181,-0.010411,0.003961,-0.005957,6.7e-05,0.00154,0.01503,-0.52083,0.003775,-0.126101,-264.191011,0.130407,62.177658
5.4571,0.013384,-0.010768,0.003483,-0.005946,7e-05,0.001271,0.01503,-0.52083,0.003775,-0.126101,-264.191011,0.130407,62.177658
5.4772,0.012973,-0.010246,0.005517,-0.005938,7.5e-05,0.001069,0.014942,-0.520763,0.003552,-0.201112,-264.19314,0.180884,62.175538
5.4972,0.012422,-0.010838,0.002701,-0.005945,6e-05,0.000819,0.015259,-0.52055,0.004357,-0.201112,-264.19314,0.180884,62.175538
5.5168,0.012501,-0.010738,0.002258,-0.005952,4.9e-05,0.00063,0.013646,-0.520835,0.00273,-0.126282,-264.195075,0.106054,62.173609
5.5371,0.012548,-0.011094,0.002753,-0.005918,0.000106,0.000982,0.013644,-0.520745,0.002302,-0.126282,-264.195075,0.106054,62.173609
5.5571,0.012617,-0.010813,0.0026,-0.005888,0.000151,0.001231,0.013644,-0.520745,0.002302,-0.126282,-264.195075,0.106054,62.173609
5.5772,0.011823,-0.010721,0.004145,-0.005862,0.000188,0.001407,0.013714,-0.52081,0.002624,-0.072768,-264.19727,0.056286,62.171416
5.5969,0.012211,-0.011088,0.00206,-0.00584,0.000208,0.001276,0.013779,-0.520771,0.003252,-0.072768,-264.19727,0.056286,62.171416
5.6173,0.012242,-0.011021,0.004472,-0.005822,0.000226,0.001179,0.013113,-0.521085,0.002092,-0.14788,-264.199164,0.114093,62.169538
5.6374,0.011852,-0.010716,0.002437,-0.005815,0.000225,0.000912,0.014388,-0.521022,0.004259,-0.14788,-264.199164,0.114093,62.169538
5.6574,0.011945,-0.0106,0.003692,-0.005811,0.000226,0.000712,0.014388,-0.521022,0.004259,-0.14788,-264.199164,0.114093,62.169538
5.6769,0.011377,-0.010491,0.00346,-0.005808,0.000229,0.000561,0.013589,-0.520588,0.003741,-0.161093,-264.201495,0.084643,62.16723
5.6973,0.011749,-0.01042,0.002014,-0.005795,0.000249,0.000569,0.013375,-0.520546,0.00363,-0.161093,-264.201495,0.084643,62.16723
5.7166,0.011162,-0.010754,0.003865,-0.005784,0.000266,0.000575,0.012614,-0.520413,0.00203,-0.098004,-264.203533,0.019627,62.165201
5.7369,0.011291,-0.010669,0.002515,-0.005762,0.000294,0.000562,0.013078,-0.520719,0.003699,-0.098004,-264.203533,0.019627,62.165201
5.7568,0.0113,-0.010359,0.003739,-0.005743,0.000318,0.000551,0.013078,-0.520719,0.003699,-0.098004,-264.203533,0.019627,62.165201
5.7769,0.011071,-0.010509,0.005015,-0.005728,0.000337,0.000544,0.012965,-0.520345,0.003763,-0.106375,-264.205874,0.014713,62.162874
5.797,0.011048,-0.010777,0.002414,-0.005728,0.000335,0.000413,0.01322,-0.520411,0.004299,-0.106375,-264.205874,0.014713,62.162874
5.8171,0.010648,-0.010564,0.003458,-0.005729,0.000334,0.000314,0.0121,-0.520765,0.002431,-0.116376,-264.20815,-0.0009,62.160612
5.8368,0.011036,-0.010666,0.003787,-0.005701,0.000372,0.000434,0.012375,-0.520578,0.003367,-0.116376,-264.20815,-0.0009,62.160612
5.8573,0.010193,-0.010493,0.003427,-0.005677,0.000403,0.00052,0.012375,-0.520578,0.003367,-0.116376,-264.20815,-0.0009,62.160612
5.8775,0.010339,-0.010342,0.003094,-0.005657,0.000428,0.000582,0.011704,-0.520477,0.00344,-0.09144,-264.210423,-0.024777,62.158348
5.8976,0.010368,-0.010736,0.003858,-0.005626,0.000462,0.000641,0.011764,-0.520419,0.003298,-0.09144,-264.210423,-0.024777,62.158348
5.9171,0.009999,-0.010715,0.002014,-0.005599,0.000491,0.000683,0.012163,-0.520719,0.003876,-0.137582,-264.212611,-0.012777,62.15618
5.9372,0.010156,-0.01051,0.003358,-0.005548,0.00055,0.001041,0.011121,-0.520714,0.002185,-0.137582,-264.212611,-0.012777,62.15618
5.9574,0.009876,-0.010321,0.004734,-0.005503,0.000597,0.001295,0.011121,-0.520714,0.002185,-0.137582,-264.212611,-0.012777,62.15618
5.9769,0.009781,-0.010583,0.00229,-0.005465,0.000636,0.001475,0.012058,-0.520296,0.004763,-0.160752,-264.214861,-0.013046,62.15396
5.9975,0.009908,-0.010662,0.00316,-0.005456,0.000631,0.001203,0.011581,-0.52041,0.003762,-0.160752,-264.214861,-0.013046,62.15396
6.0167,0.009546,-0.010804,0.004287,-0.00545,0.000629,0.000999,0.011386,-0.520647,0.003192,-0.235729,-264.216602,0.048534,62.152281
6.0371,0.00975,-0.010679,0.003826,-0.005437,0.000633,0.000766,0.011696,-0.520786,0.004195,-0.235729,-264.216602,0.048534,62.152281
6.057,0.009141,-0.010524,0.003729,-0.005427,0.000639,0.000591,0.011696,-0.520786,0.004195,-0.235729,-264.216602,0.048534,62.152281
6.0771,0.009397,-0.01092,0.003332,-0.00542,0.000645,0.000459,0.010825,-0.520496,0.003769,-0.22358,-264.218736,-0.003402,62.150201
6.0968,0.009316,-0.010422,0.002875,-0.005392,0.000677,0.00048,0.010909,-0.520662,0.003599,-0.22358,-264.218736,-0.003402,62.150201
6.1169,0.009396,-0.010498,0.003826,-0.005368,0.000703,0.000494,0.010628,-0.520402,0.002888,-0.169111,-264.220707,-0.067122,62.148253
6.137,0.009089,-0.010636,0.002822,-0.005367,0.000706,0.000474,0.011282,-0.520486,0.003751,-0.169111,-264.220707,-0.067122,62.148253
6.157,0.009133,-0.010651,0.005056,-0.005366,0.000709,0.000459,0.011282,-0.520486,0.003751,-0.169111,-264.220707,-0.067122,62.148253
6.1771,0.008686,-0.010334,0.003935,-0.005366,0.000711,0.000448,0.011489,-0.520616,0.005076,-0.185051,-264.222873,-0.074612,62.146119
6.1969,0.008653,-0.010401,0.004913,-0.00536,0.000711,0.000281,0.011138,-0.520496,0.004613,-0.185051,-264.222873,-0.074612,62.146119
6.2166,0.008792,-0.010518,0.004613,-0.005356,0.000712,0.000155,0.010988,-0.520373,0.004927,-0.181591,-264.225054,-0.081405,62.143967
6.2369,0.008377,-0.010637,0.004634,-0.005352,0.000714,5.7e-05,0.011122,-0.520499,0.004642,-0.181591,-264.225054,-0.081405,62.143967
6.2567,0.00831,-0.010858,0.002582,-0.00535,0.000717,-1.7e-05,0.011122,-0.520499,0.004642,-0.181591,-264.225054,-0.081405,62.143967
6.277,0.00816,-0.010295,0.003297,-0.005348,0.00072,-7.2e-05,0.009411,-0.520828,0.002589,-0.149534,-264.227147,-0.114714,62.141883
6.2971,0.007846,-0.010208,0.004022,-0.005284,0.00079,0.000283,0.009562,-0.520606,0.002879,-0.149534,-264.227147,-0.114714,62.141883
6.317,0.00762,-0.010418,0.003386,-0.005228,0.000847,0.000535,0.00973,-0.520182,0.004019,-0.125827,-264.229259,-0.141893,62.139767
6.3368,0.007847,-0.01043,0.003549,-0.005179,0.000889,0.000568,0.009373,-0.520393,0.003443,-0.125827,-264.229259,-0.141893,62.139767
6.3569,0.007864,-0.010099,0.003449,-0.005137,0.000923,0.000592,0.009373,-0.520393,0.003443,-0.125827,-264.229259,-0.141893,62.139767
6.377,0.007888,-0.010343,0.004232,-0.005103,0.000951,0.00061,0.009439,-0.520068,0.003465,-0.200773,-264.23106,-0.099111,62.138001
6.3976,0.007596,-0.010528,0.002671,-0.005095,0.000955,0.000551,0.009665,-0.520175,0.00378,-0.200773,-264.23106,-0.099111,62.138001
6.4166,0.00765,-0.010291,0.002778,-0.005089,0.000958,0.000508,0.008801,-0.520497,0.00269,-0.253806,-264.233069,-0.112946,62.136043
6.4367,0.007694,-0.010038,0.00169,-0.005053,0.000995,0.000725,0.009034,-0.520307,0.002771,-0.253806,-264.233069,-0.112946,62.136043
6.4572,0.007242,-0.010521,0.004555,-0.005023,0.001024,0.000881,0.009034,-0.520307,0.002771,-0.253806,-264.233069,-0.112946,62.136043
6.477,0.007563,-0.009933,0.003496,-0.004996,0.001047,0.000993,0.009353,-0.520476,0.004576,-0.244337,-264.235161,-0.126641,62.133997
6.4971,0.006853,-0.010302,0.005777,-0.004988,0.001042,0.000769,0.009325,-0.520248,0.004136,-0.244337,-264.235161,-0.126641,62.133997
6.5171,0.007135,-0.010288,0.004524,-0.004982,0.00104,0.000601,0.009658,-0.520265,0.005805,-0.319433,-264.237038,-0.08792,62.132208
6.5374,0.006971,-0.009921,0.003314,-0.004982,0.001031,0.000393,0.009454,-0.52028,0.004636,-0.319433,-264.237038,-0.08792,62.132208
6.5572,0.006972,-0.010352,0.004544,-0.004983,0.001026,0.000236,0.009454,-0.52028,0.004636,-0.319433,-264.237038,-0.08792,62.132208
6.5772,0.006586,-0.010244,0.004332,-0.004985,0.001023,0.000119,0.009093,-0.520307,0.004567,-0.275207,-264.238975,-0.134238,62.130328
6.5973,0.006905,-0.010053,0.003488,-0.004964,0.00104,5.4e-05,0.00895,-0.520275,0.004474,-0.275207,-264.238975,-0.134238,62.130328
6.6175,0.006437,-0.010259,0.003403,-0.004947,0.001054,6e-06,0.008541,-0.520021,0.003491,-0.216278,-264.24082,-0.188359,62.128492
6.6376,0.006658,-0.00998,0.003905,-0.004898,0.001101,0.000192,0.008197,-0.520235,0.003411,-0.216278,-264.24082,-0.188359,62.128492
6.657,0.006648,-0.01024,0.003471,-0.004857,0.001138,0.000325,0.008197,-0.520235,0.003411,-0.216278,-264.24082,-0.188359,62.128492
6.6772,0.005852,-0.00996,0.002721,-0.004822,0.001168,0.000422,0.008212,-0.520194,0.003471,-0.210655,-264.242828,-0.209166,62.126485
6.6972,0.006146,-0.010186,0.005199,-0.004776,0.001204,0.000553,0.00779,-0.520092,0.003163,-0.210655,-264.242828,-0.209166,62.126485
6.717,0.006007,-0.010141,0.003009,-0.004738,0.001233,0.000648,0.008658,-0.520146,0.005211,-0.28561,-264.244646,-0.186486,62.124711
6.7372,0.005887,-0.010134,0.002914,-0.004695,0.001264,0.000709,0.007626,-0.520138,0.003188,-0.28561,-264.244646,-0.186486,62.124711
6.7568,0.005932,-0.010067,0.004299,-0.00466,0.001288,0.000753,0.007626,-0.520138,0.003188,-0.28561,-264.244646,-0.186486,62.124711
6.7773,0.006016,-0.010108,0.004224,-0.00463,0.001308,0.000786,0.007934,-0.520014,0.004325,-0.331152,-264.246575,-0.175012,62.122859
6.7971,0.005829,-0.01029,0.004211,-0.004629,0.001298,0.000586,0.008008,-0.520045,0.004287,-0.331152,-264.246575,-0.175012,62.122859
6.8173,0.005372,-0.009953,0.003443,-0.00463,0.001292,0.000436,0.007831,-0.520245,0.004235,-0.368478,-264.248522,-0.176998,62.121013
6.8372,0.005671,-0.010003,0.004797,-0.004587,0.001322,0.000477,0.007178,-0.519972,0.003508,-0.368478,-264.248522,-0.176998,62.121013
6.8575,0.005737,-0.009985,0.004218,-0.004551,0.001347,0.000507,0.007178,-0.519972,0.003508,-0.368478,-264.248522,-0.176998,62.121013
6.8771,0.005329,-0.010026,0.005487,-0.004521,0.001367,0.000529,0.007706,-0.51993,0.004235,-0.324608,-264.250365,-0.217892,62.119224
6.8975,0.005235,-0.00981,0.002203,-0.004538,0.001345,0.000322,0.007856,-0.51996,0.004748,-0.324608,-264.250365,-0.217892,62.119224
6.9166,0.004991,-0.009845,0.003315,-0.004553,0.00133,0.000165,0.006215,-0.519766,0.002219,-0.357694,-264.252256,-0.226803,62.117407
6.9369,0.004937,-0.01013,0.003884,-0.004499,0.001373,0.000354,0.006631,-0.519833,0.003215,-0.357694,-264.252256,-0.226803,62.117407
6.957,0.005109,-0.009861,0.004662,-0.004454,0.001406,0.00049,0.006631,-0.519833,0.003215,-0.357694,-264.252256,-0.226803,62.117407
6.9772,0.005069,-0.009934,0.004127,-0.004415,0.001433,0.000588,0.007308,-0.519804,0.004668,-0.304484,-264.254044,-0.263611,62.11564
6.9969,0.004837,-0.00982,0.005526,-0.00442,0.001422,0.000412,0.007232,-0.51985,0.004447,-0.304484,-264.254044,-0.263611,62.11564
7.0168,0.004737,-0.009889,0.003296,-0.004424,0.001415,0.000279,0.00753,-0.519773,0.005542,-0.379642,-264.255739,-0.238669,62.114024
7.0372,0.00464,-0.009752,0.004421,-0.004383,0.001444,0.000366,0.006512,-0.519874,0.003499,-0.379642,-264.255739,-0.238669,62.114024
7.0572,0.00465,-0.009705,0.004273,-0.004348,0.001468,0.000429,0.006512,-0.519874,0.003499,-0.379642,-264.255739,-0.238669,62.114024
7.0771,0.004961,-0.009773,0.003629,-0.004319,0.001488,0.000475,0.006651,-0.519644,0.004284,-0.344081,-264.257544,-0.274098,62.112258
7.0971,0.004414,-0.009579,0.004475,-0.004315,0.001487,0.0004,0.006695,-0.519688,0.004022,-0.344081,-264.257544,-0.274098,62.112258
7.1175,0.004272,-0.009512,0.005585,-0.004311,0.001486,0.000345,0.006563,-0.519528,0.00449,-0.390375,-264.259349,-0.270463,62.110526
7.1371,0.003961,-0.009674,0.005183,-0.004339,0.001454,8.4e-05,0.007063,-0.519504,0.005486,-0.390375,-264.259349,-0.270463,62.110526
7.1569,0.004057,-0.009216,0.005196,-0.004363,0.001429,-0.000115,0.007063,-0.519504,0.005486,-0.390375,-264.259349,-0.270463,62.110526
7.1773,0.004104,-0.009608,0.003654,-0.004384,0.001411,-0.000267,0.006528,-0.519148,0.00521,-0.375088,-264.261187,-0.28766,62.108743
7.1973,0.003916,-0.009229,0.004631,-0.004359,0.00143,-0.000251,0.006279,-0.519327,0.004579,-0.375088,-264.261187,-0.28766,62.108743
7.2172,0.00405,-0.009516,0.00439,-0.004338,0.001446,-0.00024,0.006164,-0.519186,0.004626,-0.300086,-264.262672,-0.344659,62.107225
7.2375,0.004061,-0.009172,0.003506,-0.004314,0.001465,-0.000202,0.006272,-0.51948,0.004411,-0.300086,-264.262672,-0.344659,62.107225
7.2573,0.003882,-0.009625,0.003283,-0.004294,0.00148,-0.000174,0.006272,-0.51948,0.004411,-0.300086,-264.262672,-0.344659,62.107225
7.2769,0.00326,-0.009342,0.003388,-0.004278,0.001492,-0.000153,0.005374,-0.519562,0.003273,-0.2911,-264.264479,-0.351875,62.105381
7.2971,0.003559,-0.009302,0.002546,-0.004187,0.00155,9.5e-05,0.005199,-0.519467,0.003318,-0.2911,-264.264479,-0.351875,62.105381
7.3168,0.003219,-0.00928,0.003274,-0.004112,0.001595,0.000274,0.004723,-0.519254,0.002541,-0.315928,-264.266262,-0.354801,62.103574
7.3369,0.003408,-0.009053,0.00345,-0.004029,0.00164,0.000431,0.004866,-0.519273,0.003204,-0.315928,-264.266262,-0.354801,62.103574
7.3568,0.003274,-0.009263,0.002965,-0.00396,0.001676,0.000544,0.004866,-0.519273,0.003204,-0.315928,-264.266262,-0.354801,62.103574
7.3769,0.003116,-0.009233,0.00417,-0.003903,0.001704,0.000627,0.004635,-0.519204,0.002973,-0.390929,-264.267827,-0.334322,62.102052
7.3971,0.003455,-0.009096,0.004426,-0.003857,0.001722,0.000626,0.004864,-0.519208,0.00346,-0.390929,-264.267827,-0.334322,62.102052
7.4171,0.002882,-0.009306,0.005702,-0.00382,0.001737,0.000626,0.005606,-0.519047,0.004441,-0.465927,-264.269333,-0.326283,62.100649
7.4377,0.002859,-0.0093,0.005126,-0.003858,0.001698,0.000288,0.005769,-0.519273,0.005592,-0.465927,-264.269333,-0.326283,62.100649
7.4573,0.002852,-0.009289,0.00459,-0.003891,0.001668,2.8e-05,0.005769,-0.519273,0.005592,-0.465927,-264.269333,-0.326283,62.100649
7.4768,0.002469,-0.009412,0.005756,-0.003919,0.001646,-0.00017,0.005037,-0.519214,0.004615,-0.506491,-264.271029,-0.340879,62.099076
7.4971,0.002904,-0.008686,0.004705,-0.003897,0.001657,-0.000259,0.005167,-0.519282,0.005079,-0.506491,-264.271029,-0.340879,62.099076
7.5166,0.002759,-0.009048,0.004353,-0.003879,0.001667,-0.000325,0.005219,-0.518642,0.004705,-0.43157,-264.272188,-0.415801,62.097894
7.5371,0.002923,-0.008874,0.004417,-0.003862,0.001681,-0.000258,0.004994,-0.51901,0.00438,-0.43157,-264.272188,-0.415801,62.097894
7.5574,0.002941,-0.008881,0.004553,-0.003848,0.001693,-0.000209,0.004994,-0.51901,0.00438,-0.43157,-264.272188,-0.415801,62.097894
7.5772,0.002651,-0.009229,0.005157,-0.003836,0.001702,-0.000172,0.005115,-0.518813,0.004541,-0.361847,-264.273689,-0.448287,62.096336
7.5972,0.002343,-0.008824,0.002074,-0.003841,0.001697,-0.000213,0.005166,-0.518972,0.00479,-0.361847,-264.273689,-0.448287,62.096336
7.6166,0.002315,-0.008308,0.004192,-0.003846,0.001694,-0.000244,0.00328,-0.51877,0.002069,-0.394397,-264.275322,-0.44023,62.094671
7.6372,0.002768,-0.008676,0.00434,-0.003805,0.001715,-0.000126,0.004342,-0.518342,0.004001,-0.394397,-264.275322,-0.44023,62.094671
7.657,0.002363,-0.008608,0.00448,-0.003771,0.001731,-3.9e-05,0.004342,-0.518342,0.004001,-0.394397,-264.275322,-0.44023,62.094671
7.677,0.0024,-0.008723,0.004183,-0.003742,0.001742,2.4e-05,0.004486,-0.518533,0.004469,-0.382114,-264.276974,-0.446909,62.09297
7.697,0.002483,-0.008724,0.004695,-0.003721,0.001749,3e-06,0.004486,-0.518598,0.004355,-0.382114,-264.276974,-0.446909,62.09297
7.7173,0.002111,-0.008564,0.004728,-0.003704,0.001754,-1.3e-05,0.004764,-0.518666,0.004696,-0.439036,-264.278539,-0.43251,62.09141
7.7374,0.001807,-0.00866,0.005579,-0.003696,0.001752,-8.6e-05,0.004538,-0.518565,0.004725,-0.439036,-264.278539,-0.43251,62.09141
7.7579,0.001836,-0.008416,0.004421,-0.00369,0.001752,-0.00014,0.004538,-0.518565,0.004725,-0.439036,-264.278539,-0.43251,62.09141
7.777,0.001722,-0.008838,0.004074,-0.003685,0.001751,-0.000181,0.003934,-0.518338,0.004421,-0.440592,-264.280172,-0.443969,62.089774
7.797,0.001697,-0.008564,0.003387,-0.00362,0.001779,-0.000141,0.003864,-0.518524,0.004284,-0.440592,-264.280172,-0.443969,62.089774
7.8171,0.001608,-0.008772,0.004296,-0.003567,0.001802,-0.000111,0.003308,-0.518507,0.003381,-0.418927,-264.281761,-0.467737,62.088148
7.837,0.001311,-0.008646,0.003951,-0.003504,0.001829,-7.6e-05,0.003749,-0.51874,0.004213,-0.418927,-264.281761,-0.467737,62.088148
7.8569,0.001672,-0.008481,0.003763,-0.003452,0.00185,-5e-05,0.003749,-0.51874,0.004213,-0.418927,-264.281761,-0.467737,62.088148
7.8772,0.001658,-0.008315,0.004301,-0.00341,0.001868,-3e-05,0.003444,-0.518404,0.003759,-0.452556,-264.283315,-0.48274,62.08657
7.897,0.001686,-0.008725,0.002773,-0.003374,0.001881,3.2e-05,0.003593,-0.518357,0.003978,-0.452556,-264.283315,-0.48274,62.08657
7.917,0.001367,-0.008388,0.005893,-0.003344,0.001891,7.8e-05,0.002996,-0.518667,0.002772,-0.496923,-264.284805,-0.505285,62.085074
7.937,0.001304,-0.008596,0.004514,-0.003382,0.00186,-0.000136,0.004244,-0.518402,0.005614,-0.496923,-264.284805,-0.505285,62.085074
7.9569,0.001325,-0.008002,0.004001,-0.003413,0.001837,-0.0003,0.004244,-0.518402,0.005614,-0.496923,-264.284805,-0.505285,62.085074
7.9771,0.001378,-0.008345,0.004121,-0.00344,0.00182,-0.000424,0.003227,-0.51792,0.004005,-0.52548,-264.286331,-0.503808,62.083566
7.9969,0.001043,-0.008479,0.004024,-0.003382,0.001848,-0.00027,0.003314,-0.518082,0.004052,-0.52548,-264.286331,-0.503808,62.083566
8.0167,0.000695,-0.008158,0.005001,-0.003333,0.00187,-0.000157,0.003005,-0.518426,0.004014,-0.45045,-264.287589,-0.543563,62.082227
8.0369,0.000851,-0.007911,0.004285,-0.003279,0.001883,-0.000229,0.00322,-0.518173,0.004914,-0.45045,-264.287589,-0.543563,62.082227
8.0569,0.000952,-0.008365,0.005727,-0.003235,0.001895,-0.000283,0.00322,-0.518173,0.004914,-0.45045,-264.287589,-0.543563,62.082227
8.0768,0.000902,-0.008201,0.004695,-0.0032,0.001905,-0.000322,0.003737,-0.518282,0.005721,-0.489043,-264.289062,-0.532811,62.080718
8.0971,0.0009,-0.007782,0.002451,-0.003203,0.001899,-0.000404,0.003541,-0.518238,0.005299,-0.489043,-264.289062,-0.532811,62.080718
8.1166,0.001018,-0.007869,0.002685,-0.003206,0.001895,-0.000465,0.002052,-0.517722,0.002441,-0.490322,-264.290471,-0.581067,62.079231
8.1371,0.000511,-0.007749,0.004799,-0.003093,0.001944,6.9e-05,0.002362,-0.517856,0.002669,-0.490322,-264.290471,-0.581067,62.079231
8.1571,0.000743,-0.007917,0.004415,-0.002997,0.00198,0.000444,0.002362,-0.517856,0.002669,-0.490322,-264.290471,-0.581067,62.079231
8.1769,0.000539,-0.007899,0.004927,-0.002918,0.002007,0.00071,0.002864,-0.517836,0.004396,-0.465766,-264.291873,-0.597068,62.077717
8.1977,0.000569,-0.008147,0.00364,-0.002916,0.001992,0.000481,0.002924,-0.51785,0.004608,-0.465766,-264.291873,-0.597068,62.077717
8.2166,0.000472,-0.00774,0.004609,-0.002916,0.001981,0.000308,0.00239,-0.518123,0.003643,-0.540028,-264.292419,-0.522807,62.077241
8.2369,0.000343,-0.007943,0.004662,-0.002904,0.001977,0.000188,0.002784,-0.517766,0.004528,-0.540028,-264.292419,-0.522807,62.077241
8.2571,0.000575,-0.007774,0.004304,-0.002895,0.001974,9.9e-05,0.002784,-0.517766,0.004528,-0.540028,-264.292419,-0.522807,62.077241
8.2773,0.000318,-0.007913,0.003759,-0.002888,0.001972,3.1e-05,0.002666,-0.517702,0.004313,-0.615324,-264.293638,-0.551343,62.076092
8.2972,0.000146,-0.007804,0.003943,-0.002847,0.001985,5.7e-05,0.002481,-0.517777,0.004091,-0.615324,-264.293638,-0.551343,62.076092
8.317,0.000368,-0.007344,0.005362,-0.002813,0.001996,7.5e-05,0.002067,-0.517739,0.003944,-0.603566,-264.295,-0.594609,62.074738
8.337,5e-05,-0.007646,0.00292,-0.002865,0.001962,-8.7e-05,0.003011,-0.517367,0.005242,-0.603566,-264.295,-0.594609,62.074738
8.3573,9.1e-05,-0.007553,0.004069,-0.002908,0.001937,-0.000212,0.003011,-0.517367,0.005242,-0.603566,-264.295,-0.594609,62.074738
8.3774,-0.00038,-0.007392,0.004842,-0.002943,0.001918,-0.000306,0.002049,-0.517466,0.004072,-0.627788,-264.296371,-0.606,62.073388
8.397,-1.7e-05,-0.007621,0.003395,-0.00285,0.001945,-0.000252,0.002052,-0.517425,0.004381,-0.627788,-264.296371,-0.606,62.073388
8.4175,1.1e-05,-0.007545,0.003353,-0.002774,0.001966,-0.000211,0.001634,-0.517565,0.003388,-0.552927,-264.297545,-0.620873,62.072145
8.4375,0.000176,-0.007336,0.004348,-0.002666,0.002003,4.3e-05,0.001709,-0.517542,0.003356,-0.552927,-264.297545,-0.620873,62.072145
8.4576,-3.2e-05,-0.0074,0.004859,-0.002578,0.002031,0.000227,0.001709,-0.517542,0.003356,-0.552927,-264.297545,-0.620873,62.072145
8.4776,-0.00029,-0.007189,0.003421,-0.002504,0.002052,0.00036,0.002333,-0.517314,0.00485,-0.585012,-264.29884,-0.64676,62.070792
8.4977,-0.000256,-0.007482,0.005009,-0.002486,0.002045,0.000271,0.001964,-0.517253,0.00427,-0.585012,-264.29884,-0.64676,62.070792
8.5173,-0.000247,-0.007348,0.004299,-0.002471,0.00204,0.000205,0.002241,-0.517433,0.005013,-0.660016,-264.299771,-0.631416,62.069938
8.537,-0.000465,-0.00691,0.003707,-0.002457,0.002037,0.000139,0.001969,-0.517349,0.004363,-0.660016,-264.299771,-0.631416,62.069938
8.5577,-0.000295,-0.007223,0.004347,-0.002447,0.002035,9e-05,0.001969,-0.517349,0.004363,-0.660016,-264.299771,-0.631416,62.069938
8.5767,-0.000558,-0.007402,0.003305,-0.002438,0.002034,5.3e-05,0.001825,-0.517139,0.004355,-0.719487,-264.300997,-0.659282,62.068771
8.5971,-0.000885,-0.007522,0.005036,-0.002375,0.002047,0.000106,0.001529,-0.517236,0.003928,-0.719487,-264.300997,-0.659282,62.068771
8.6169,-0.000292,-0.007191,0.0037,-0.002324,0.002057,0.000145,0.001607,-0.517452,0.005038,-0.703209,-264.302254,-0.68742,62.06753
8.6372,-0.000446,-0.007278,0.004071,-0.002293,0.002062,0.000199,0.001592,-0.517208,0.003821,-0.703209,-264.302254,-0.68742,62.06753
8.6576,-0.000544,-0.007056,0.003557,-0.002267,0.002066,0.000239,0.001592,-0.517208,0.003821,-0.703209,-264.302254,-0.68742,62.06753
8.6771,-0.000976,-0.006936,0.004123,-0.002246,0.002069,0.000269,0.001175,-0.516969,0.003563,-0.745434,-264.303479,-0.702623,62.066351
8.6973,-0.000531,-0.006964,0.004404,-0.00217,0.002075,0.000292,0.001145,-0.516944,0.003792,-0.745434,-264.303479,-0.702623,62.066351
8.7167,-0.000991,-0.006862,0.003081,-0.002109,0.002078,0.000311,0.001645,-0.516895,0.004412,-0.782552,-264.304728,-0.703304,62.06519
8.7369,-0.000383,-0.006772,0.004515,-0.001988,0.002093,0.000464,0.000654,-0.51686,0.003178,-0.782552,-264.304728,-0.703304,62.06519
8.7572,-0.000766,-0.007124,0.005425,-0.001889,0.002102,0.000576,0.000654,-0.51686,0.003178,-0.782552,-264.304728,-0.703304,62.06519
8.7771,-0.001076,-0.006846,0.005951,-0.001809,0.002108,0.000659,0.001916,-0.517034,0.005438,-0.821718,-264.305913,-0.7302,62.064106
8.7973,-0.001011,-0.006915,0.003321,-0.001929,0.002059,0.000322,0.001924,-0.516944,0.005648,-0.821718,-264.305913,-0.7302,62.064106
8.8171,-0.001166,-0.006746,0.004661,-0.002026,0.002023,6e-05,0.000636,-0.516861,0.003335,-0.896148,-264.306868,-0.756054,62.063339
8.8373,-0.000959,-0.00646,0.003795,-0.002,0.002023,5e-06,0.001156,-0.516749,0.004542,-0.896148,-264.306868,-0.756054,62.063339
8.8571,-0.001052,-0.006934,0.004757,-0.001979,0.002023,-3.6e-05,0.001156,-0.516749,0.004542,-0.896148,-264.306868,-0.756054,62.063339
8.8768,-0.000874,-0.006698,0.004532,-0.001962,0.002023,-6.6e-05,0.001303,-0.516857,0.004761,-0.82115,-264.307838,-0.775431,62.062386
8.8971,-0.001243,-0.006425,0.004003,-0.001978,0.002017,-0.000106,0.00135,-0.516782,0.004668,-0.82115,-264.307838,-0.775431,62.062386
8.9171,-0.001366,-0.006519,0.005009,-0.001991,0.002014,-0.000137,0.000738,-0.516359,0.004001,-0.790464,-264.308916,-0.81036,62.061286
8.937,-0.000749,-0.006488,0.003291,-0.001977,0.002005,-0.0002,0.001144,-0.516495,0.004914,-0.790464,-264.308916,-0.81036,62.061286
8.9572,-0.000755,-0.007012,0.003559,-0.001966,0.001998,-0.000247,0.001144,-0.516495,0.004914,-0.790464,-264.308916,-0.81036,62.061286
8.9768,-0.001217,-0.006459,0.003566,-0.001958,0.001992,-0.000282,0.000977,-0.516925,0.003553,-0.769772,-264.310017,-0.811271,62.060137
8.9967,-0.000774,-0.006508,0.004359,-0.001898,0.002015,-4.5e-05,0.000816,-0.516726,0.003558,-0.769772,-264.310017,-0.811271,62.060137
9.0168,-0.001314,-0.006188,0.003284,-0.001847,0.00203,0.000126,0.001387,-0.516441,0.00435,-0.748993,-264.311069,-0.835469,62.058989
9.0368,-0.001431,-0.006056,0.00553,-0.001754,0.002032,0.000287,0.000461,-0.516208,0.003391,-0.748993,-264.311069,-0.835469,62.058989
9.0568,-0.00142,-0.006259,0.003566,-0.001678,0.002032,0.000405,0.000461,-0.516208,0.003391,-0.748993,-264.311069,-0.835469,62.058989
9.0767,-0.001506,-0.006389,0.001572,-0.001617,0.002029,0.00049,0.000333,-0.516186,0.003569,-0.823989,-264.312015,-0.813262,62.058082
9.0967,-0.001389,-0.006146,0.00515,-0.001473,0.002037,0.000717,-0.000109,-0.516262,0.002734,-0.823989,-264.312015,-0.813262,62.058082
9.1168,-0.001676,-0.006145,0.004571,-0.001357,0.002041,0.000881,0.001198,-0.516094,0.005159,-0.899359,-264.312839,-0.819093,62.057394
9.137,-0.00133,-0.006193,0.004027,-0.001401,0.00201,0.000621,0.000703,-0.516133,0.004625,-0.899359,-264.312839,-0.819093,62.057394
9.1567,-0.001381,-0.005874,0.00259,-0.001437,0.001988,0.000424,0.000703,-0.516133,0.004625,-0.899359,-264.312839,-0.819093,62.057394
9.1779,-0.001703,-0.006056,0.005318,-0.001466,0.001971,0.000274,-9.5e-05,-0.515826,0.002608,-0.974008,-264.3135,-0.836114,62.056934
9.1977,-0.001136,-0.006014,0.004342,-0.001432,0.001966,0.000328,0.000346,-0.515911,0.003704,-0.974008,-264.3135,-0.836114,62.056934
9.2166,-0.001621,-0.005844,0.003475,-0.001404,0.00196,0.000368,0.001034,-0.51595,0.00435,-0.969973,-264.314492,-0.888406,62.056045
9.2368,-0.00151,-0.006119,0.004779,-0.001362,0.001954,0.000428,0.000228,-0.515848,0.003554,-0.969973,-264.314492,-0.888406,62.056045
9.2568,-0.001633,-0.006252,0.005203,-0.001327,0.001949,0.000472,0.000228,-0.515848,0.003554,-0.969973,-264.314492,-0.888406,62.056045
9.2774,-0.001613,-0.005799,0.003889,-0.001299,0.001944,0.000505,0.000962,-0.516164,0.005219,-0.999582,-264.315516,-0.890454,62.055165
9.2972,-0.001867,-0.005792,0.005207,-0.001361,0.001926,0.000329,0.000716,-0.516005,0.004682,-0.999582,-264.315516,-0.890454,62.055165
9.3169,-0.001503,-0.005947,0.003644,-0.001411,0.001913,0.000196,0.000749,-0.515726,0.005223,-1.047408,-264.316518,-0.899348,62.05436
9.337,-0.001826,-0.005539,0.003253,-0.001396,0.001916,0.000254,0.000389,-0.515921,0.00379,-1.047408,-264.316518,-0.899348,62.05436
9.3573,-0.001784,-0.005813,0.004573,-0.001383,0.001917,0.000297,0.000389,-0.515921,0.00379,-1.047408,-264.316518,-0.899348,62.05436
9.3771,-0.001888,-0.006261,0.005017,-0.001373,0.001918,0.000328,0.000495,-0.515736,0.004581,-0.972395,-264.317403,-0.904101,62.053544
9.3978,-0.001626,-0.005229,0.004568,-0.001395,0.001906,0.00018,0.00056,-0.515937,0.004757,-0.972395,-264.317403,-0.904101,62.053544
9.417,-0.001988,-0.005803,0.004846,-0.001413,0.001898,6.9e-05,0.00066,-0.515163,0.004579,-0.995641,-264.318403,-0.896384,62.052673
9.4368,-0.001709,-0.005597,0.004566,-0.00142,0.001884,-2.6e-05,0.000497,-0.515735,0.004822,-0.995641,-264.318403,-0.896384,62.052673
9.4569,-0.001923,-0.005466,0.005124,-0.001426,0.001874,-9.7e-05,0.000497,-0.515735,0.004822,-0.995641,-264.318403,-0.896384,62.052673
9.4769,-0.002193,-0.005502,0.003215,-0.001431,0.001866,-0.00015,0.000634,-0.515384,0.005127,-0.941415,-264.31931,-0.920218,62.051791
9.4969,-0.001856,-0.005643,0.003995,-0.001374,0.001854,-0.000119,0.000151,-0.515422,0.00436,-0.941415,-264.31931,-0.920218,62.051791
9.5166,-0.002322,-0.005362,0.005912,-0.001328,0.001843,-9.5e-05,0.000137,-0.515582,0.00399,-0.892197,-264.320182,-0.939638,62.050864
9.5369,-0.002116,-0.005707,0.003987,-0.001388,0.001809,-0.000267,0.000641,-0.515371,0.005738,-0.892197,-264.320182,-0.939638,62.050864
9.5575,-0.0022,-0.005495,0.004076,-0.001436,0.001783,-0.0004,0.000641,-0.515371,0.005738,-0.892197,-264.320182,-0.939638,62.050864
9.5767,-0.002209,-0.005323,0.004096,-0.001474,0.001764,-0.000501,-0.000175,-0.515416,0.004072,-0.930998,-264.321045,-0.960814,62.049964
9.5967,-0.002019,-0.005134,0.006003,-0.001352,0.001775,-0.000325,-0.000159,-0.515368,0.004082,-0.930998,-264.321045,-0.960814,62.049964
9.6167,-0.002218,-0.005614,0.003132,-0.001255,0.001781,-0.000196,0.001011,-0.515085,0.005994,-0.855915,-264.321619,-0.951838,62.049261
9.6376,-0.002508,-0.005108,0.004306,-0.00112,0.001799,5.3e-05,-0.000475,-0.515562,0.003389,-0.855915,-264.321619,-0.951838,62.049261
9.6577,-0.002335,-0.005361,0.00431,-0.001012,0.001811,0.000234,-0.000475,-0.515562,0.003389,-0.855915,-264.321619,-0.951838,62.049261
9.6772,-0.002159,-0.005216,0.004177,-0.000924,0.00182,0.000366,-0.000185,-0.515288,0.004302,-0.923894,-264.322377,-0.987296,62.048432
9.6976,-0.002455,-0.005379,0.004464,-0.000917,0.001801,0.00029,-0.000127,-0.515249,0.00425,-0.923894,-264.322377,-0.987296,62.048432
9.7171,-0.002283,-0.005263,0.004989,-0.000911,0.001786,0.000233,-0.000193,-0.51535,0.004467,-0.998958,-264.322759,-1.046123,62.048118
9.7371,-0.002488,-0.005275,0.004292,-0.000975,0.001765,8.8e-05,0.00022,-0.515264,0.004942,-0.998958,-264.322759,-1.046123,62.048118
9.7571,-0.002253,-0.005151,0.003358,-0.001026,0.00175,-2.3e-05,0.00022,-0.515264,0.004942,-0.998958,-264.322759,-1.046123,62.048118
9.7774,-0.002104,-0.005098,0.004738,-0.001066,0.001739,-0.000108,-0.000571,-0.515093,0.003364,-1.073889,-264.323404,-1.064891,62.047549
9.7974,-0.00209,-0.005005,0.003333,-0.001013,0.001735,4e-06,-0.000224,-0.515086,0.003911,-1.073889,-264.323404,-1.064891,62.047549
9.817,-0.002435,-0.005226,0.003836,-0.000969,0.001729,8.7e-05,-0.000422,-0.514951,0.00333,-1.003408,-264.324128,-1.037173,62.046784
9.8371,-0.0023,-0.005272,0.003291,-0.000886,0.001731,0.000168,-0.000475,-0.515194,0.003788,-1.003408,-264.324128,-1.037173,62.046784
9.8575,-0.001997,-0.005071,0.003313,-0.00082,0.001731,0.000228,-0.000475,-0.515194,0.003788,-1.003408,-264.324128,-1.037173,62.046784
9.877,-0.002238,-0.004637,0.005163,-0.000767,0.00173,0.000273,-0.000345,-0.515001,0.003316,-1.072668,-264.324878,-1.046581,62.046068
9.8973,-0.002429,-0.005008,0.004775,-0.00081,0.001704,0.000261,-4.7e-05,-0.514842,0.00407,-1.072668,-264.324878,-1.046581,62.046068
9.9168,-0.002472,-0.005075,0.004513,-0.000844,0.001684,0.000251,-1.4e-05,-0.514961,0.00478,-1.147661,-264.325495,-1.114756,62.045543
9.9371,-0.002557,-0.005031,0.002785,-0.000858,0.001676,0.000158,-0.000157,-0.515058,0.004537,-1.147661,-264.325495,-1.114756,62.045543
9.9571,-0.00241,-0.005052,0.002525,-0.000869,0.00167,8.8e-05,-0.000157,-0.515058,0.004537,-1.147661,-264.325495,-1.114756,62.045543
9.9769,-0.002414,-0.00492,0.003551,-0.000878,0.001666,3.5e-05,-0.001156,-0.514983,0.002535,-1.140261,-264.326274,-1.066847,62.04487
9.9967,-0.002698,-0.004721,0.004846,-0.000732,0.001666,0.000337,-0.000935,-0.514948,0.002949,-1.140261,-264.326274,-1.066847,62.04487
10.0171,-0.002468,-0.004896,0.003698,-0.000614,0.001665,0.000554,-0.000254,-0.514664,0.004847,-1.091108,-264.327004,-1.080584,62.044155
10.0373,-0.002739,-0.004605,0.004454,-0.000594,0.001653,0.000517,-0.000554,-0.514869,0.0038,-1.091108,-264.327004,-1.080584,62.044155
10.0574,-0.002298,-0.004691,0.004849,-0.000577,0.001643,0.000489,-0.000554,-0.514869,0.0038,-1.091108,-264.327004,-1.080584,62.044155
10.0766,-0.002263,-0.004558,0.005286,-0.000564,0.001635,0.000469,0.000158,-0.514647,0.00486,-1.16609,-264.327471,-1.136958,62.043829
10.0966,-0.002425,-0.004764,0.002975,-0.000728,0.001592,0.000268,0.000268,-0.514604,0.005034,-1.16609,-264.327471,-1.136958,62.043829
10.1166,-0.002642,-0.004655,0.002358,-0.000857,0.00156,0.000113,-0.000923,-0.514722,0.002986,-1.241103,-264.328093,-1.174965,62.043375
10.137,-0.00273,-0.004617,0.003665,-0.000619,0.001551,0.000553,-0.001394,-0.514657,0.002415,-1.241103,-264.328093,-1.174965,62.043375
10.157,-0.002433,-0.004819,0.002978,-0.000427,0.001542,0.000867,-0.001394,-0.514657,0.002415,-1.241103,-264.328093,-1.174965,62.043375
10.1768,-0.002579,-0.004276,0.004849,-0.000274,0.001533,0.001091,-0.000932,-0.514781,0.002981,-1.16614,-264.328483,-1.100002,62.04301
10.1966,-0.002557,-0.004602,0.003945,-0.000313,0.001519,0.000933,-0.000586,-0.514562,0.003766,-1.16614,-264.328483,-1.100002,62.04301
10.2169,-0.002828,-0.00472,0.006316,-0.000343,0.001508,0.000814,-0.000548,-0.51459,0.003951,-1.24149,-264.328643,-1.175352,62.042945
10.2369,-0.002511,-0.004381,0.004395,-0.00056,0.00148,0.000417,0.000316,-0.5147,0.006124,-1.24149,-264.328643,-1.175352,62.042945
10.257,-0.00264,-0.004252,0.00412,-0.000732,0.001462,0.000104,0.000316,-0.5147,0.006124,-1.24149,-264.328643,-1.175352,62.042945
10.2769,-0.002793,-0.004663,0.006107,-0.000869,0.001451,-0.000142,-0.00055,-0.51421,0.00414,-1.316418,-264.329142,-1.243578,62.042683
10.2976,-0.002859,-0.004788,0.004379,-0.000869,0.00144,-0.000195,-0.000197,-0.514386,0.004941,-1.316418,-264.329142,-1.243578,62.042683
10.3171,-0.002519,-0.00472,0.005555,-0.00087,0.001431,-0.000235,-0.000629,-0.514778,0.004378,-1.241678,-264.329217,-1.168838,62.0426
10.3373,-0.002489,-0.004481,0.002753,-0.00096,0.001439,-0.000329,0.000229,-0.514718,0.005449,-1.241678,-264.329217,-1.168838,62.0426
10.357,-0.002652,-0.004448,0.005035,-0.001032,0.001448,-0.000403,0.000229,-0.514718,0.005449,-1.241678,-264.329217,-1.168838,62.0426
10.377,-0.002667,-0.004694,0.003341,-0.00109,0.001456,-0.000461,-9.3e-05,-0.514424,0.005033,-1.166669,-264.329387,-1.09383,62.042404
10.3968,-0.002531,-0.004559,0.005012,-0.000989,0.001469,-0.000336,-0.000466,-0.514536,0.00431,-1.166669,-264.329387,-1.09383,62.042404
10.4169,-0.002576,-0.004697,0.005125,-0.000909,0.001479,-0.000243,2.2e-05,-0.514546,0.005011,-1.091074,-264.32947,-1.018234,62.042298
10.437,-0.00271,-0.004463,0.003671,-0.000952,0.001486,-0.000297,3.7e-05,-0.51468,0.005117,-1.091074,-264.32947,-1.018234,62.042298
10.4575,-0.002577,-0.004411,0.005425,-0.000986,0.001492,-0.000338,3.7e-05,-0.51468,0.005117,-1.091074,-264.32947,-1.018234,62.042298
10.477,-0.002524,-0.004271,0.004952,-0.001013,0.001499,-0.00037,0.000162,-0.514356,0.005418,-1.016188,-264.329964,-1.061264,62.041727
10.4972,-0.002805,-0.004502,0.004009,-0.001051,0.001476,-0.000407,9.3e-05,-0.514313,0.005228,-1.016188,-264.329964,-1.061264,62.041727
10.517,-0.002775,-0.004253,0.003646,-0.00108,0.001459,-0.000436,-0.000785,-0.51446,0.004,-0.941676,-264.330481,-1.039563,62.041091
10.5374,-0.002518,-0.004327,0.003785,-0.000885,0.001451,-0.00019,-0.000905,-0.514266,0.003677,-0.941676,-264.330481,-1.039563,62.041091
10.5573,-0.002606,-0.004374,0.003792,-0.00073,0.001443,-9e-06,-0.000905,-0.514266,0.003677,-0.941676,-264.330481,-1.039563,62.041091
10.577,-0.002735,-0.004685,0.00354,-0.000607,0.001435,0.000124,-0.000709,-0.51432,0.003778,-0.866648,-264.331009,-1.011257,62.040422
10.5968,-0.002623,-0.004195,0.004755,-0.000534,0.001444,0.000225,-0.000803,-0.514461,0.00368,-0.866648,-264.331009,-1.011257,62.040422
10.6169,-0.002779,-0.00429,0.003312,-0.000476,0.001449,0.000299,-0.000201,-0.514184,0.004755,-0.941632,-264.331097,-1.086241,62.040342
10.6369,-0.002698,-0.00418,0.006889,-0.000383,0.001438,0.000403,-0.001006,-0.514277,0.003448,-0.941632,-264.331097,-1.086241,62.040342
10.6572,-0.002884,-0.004338,0.005228,-0.000309,0.001428,0.000481,-0.001006,-0.514277,0.003448,-0.941632,-264.331097,-1.086241,62.040342
10.6772,-0.002577,-0.004428,0.003418,-0.00025,0.001419,0.000538,-0.000222,-0.514325,0.005228,-1.016627,-264.331173,-1.161236,62.040282
10.6974,-0.002885,-0.00441,0.004371,-0.000319,0.001413,0.00039,-0.000469,-0.514365,0.004497,-1.016627,-264.331173,-1.161236,62.040282
10.7171,-0.002808,-0.00431,0.005047,-0.000375,0.001409,0.000278,-0.000656,-0.514404,0.004371,-1.091625,-264.331197,-1.236234,62.040266
10.7373,-0.002532,-0.004314,0.003608,-0.000461,0.001397,0.000123,-0.000274,-0.514313,0.004983,-1.091625,-264.331197,-1.236234,62.040266
10.7569,-0.002927,-0.004224,0.005023,-0.000529,0.00139,4e-06,-0.000274,-0.514313,0.004983,-1.091625,-264.331197,-1.236234,62.040266
10.7773,-0.002534,-0.004407,0.003187,-0.000583,0.001385,-8.7e-05,-0.000373,-0.514197,0.005027,-1.16665,-264.331435,-1.277169,62.040077
10.7973,-0.002823,-0.004086,0.003736,-0.000556,0.001386,-4.7e-05,-0.000591,-0.514279,0.00428,-1.16665,-264.331435,-1.277169,62.040077
10.817,-0.002828,-0.004515,0.004242,-0.000534,0.001386,-1.7e-05,-0.000934,-0.514044,0.003734,-1.158033,-264.331942,-1.202197,62.039535
10.8372,-0.002976,-0.004546,0.003767,-0.000498,0.001401,1.8e-05,-0.00069,-0.514467,0.004196,-1.158033,-264.331942,-1.202197,62.039535
10.857,-0.002938,-0.004201,0.003927,-0.00047,0.001412,4.4e-05,-0.00069,-0.514467,0.004196,-1.158033,-264.331942,-1.202197,62.039535
10.8769,-0.002718,-0.004019,0.003741,-0.000447,0.00142,6.3e-05,-0.000957,-0.514141,0.003926,-1.200374,-264.332516,-1.205474,62.038954
10.8968,-0.002819,-0.004048,0.004324,-0.000377,0.001397,0.000144,-0.0009,-0.514083,0.003851,-1.200374,-264.332516,-1.205474,62.038954
10.9166,-0.002769,-0.004359,0.005091,-0.000321,0.001378,0.000205,-0.000627,-0.514003,0.004325,-1.273524,-264.333055,-1.257891,62.038441
10.9371,-0.00286,-0.004045,0.005624,-0.000434,0.001372,6.3e-05,-0.000207,-0.514324,0.005034,-1.273524,-264.333055,-1.257891,62.038441
10.9572,-0.002826,-0.003918,0.005086,-0.000523,0.00137,-4.6e-05,-0.000207,-0.514324,0.005034,-1.273524,-264.333055,-1.257891,62.038441
10.977,-0.002953,-0.003977,0.004421,-0.000593,0.001369,-0.000131,-0.000244,-0.513863,0.005093,-1.348945,-264.333565,-1.31966,62.038012
10.9971,-0.002773,-0.004165,0.004862,-0.000597,0.001336,-0.000167,-0.00043,-0.513902,0.004821,-1.348945,-264.333565,-1.31966,62.038012
11.0168,-0.002772,-0.003851,0.004888,-0.0006,0.00131,-0.000193,-0.000299,-0.514143,0.004861,-1.274394,-264.333773,-1.245109,62.037783
11.0371,-0.002948,-0.004125,0.004448,-0.000638,0.001286,-0.000219,-0.000281,-0.513871,0.004886,-1.274394,-264.333773,-1.245109,62.037783
11.0569,-0.002615,-0.004203,0.003783,-0.000668,0.001267,-0.000239,-0.000281,-0.513871,0.004886,-1.274394,-264.333773,-1.245109,62.037783
11.0767,-0.002825,-0.004342,0.00451,-0.000692,0.001252,-0.000255,-0.000699,-0.514167,0.00378,-1.199369,-264.334081,-1.17301,62.037425
11.0972,-0.003024,-0.003887,0.004624,-0.000634,0.001278,-0.000131,-0.00063,-0.514232,0.004074,-1.199369,-264.334081,-1.17301,62.037425
11.117,-0.002855,-0.004004,0.004039,-0.000587,0.001297,-4.1e-05,-0.000676,-0.51386,0.004621,-1.124401,-264.334352,-1.11394,62.037096
11.1368,-0.002714,-0.003833,0.003629,-0.000512,0.001289,1.8e-05,-0.000783,-0.513983,0.004101,-1.124401,-264.334352,-1.11394,62.037096
11.1571,-0.002764,-0.004277,0.003037,-0.000453,0.001282,6.2e-05,-0.000783,-0.513983,0.004101,-1.124401,-264.334352,-1.11394,62.037096
11.1766,-0.002936,-0.003718,0.004196,-0.000406,0.001276,9.6e-05,-0.001239,-0.514222,0.003035,-1.138355,-264.334898,-1.1527,62.036533
11.1971,-0.002931,-0.003984,0.003804,-0.000308,0.001273,0.000244,-0.001062,-0.514009,0.003507,-1.138355,-264.334898,-1.1527,62.036533
11.217,-0.002866,-0.003969,0.005262,-0.00023,0.00127,0.000353,-0.001001,-0.513954,0.003806,-1.213354,-264.335254,-1.227699,62.036205
11.237,-0.002906,-0.004118,0.004399,-0.000351,0.001252,0.000167,-0.000257,-0.51396,0.005131,-1.213354,-264.335254,-1.227699,62.036205
11.2571,-0.002813,-0.003651,0.004039,-0.000447,0.001239,2.3e-05,-0.000257,-0.51396,0.005131,-1.213354,-264.335254,-1.227699,62.036205
11.2772,-0.002719,-0.004092,0.004603,-0.000522,0.001231,-8.9e-05,-0.000759,-0.513626,0.004045,-1.288358,-264.335491,-1.302704,62.036035
11.2971,-0.003024,-0.003472,0.003604,-0.000499,0.001219,-4.2e-05,-0.000602,-0.513811,0.004273,-1.288358,-264.335491,-1.302704,62.036035
11.3169,-0.003109,-0.003899,0.00455,-0.00048,0.00121,-7e-06,-0.001194,-0.513445,0.003603,-1.213362,-264.335799,-1.227708,62.035703
11.337,-0.002868,-0.004031,0.003979,-0.000415,0.0012,-2.3e-05,-0.000826,-0.513851,0.004463,-1.213362,-264.335799,-1.227708,62.035703
11.3572,-0.003022,-0.003662,0.004749,-0.000363,0.001193,-3.4e-05,-0.000826,-0.513851,0.004463,-1.213362,-264.335799,-1.227708,62.035703
11.3769,-0.002522,-0.003685,0.002592,-0.000323,0.001186,-4e-05,-0.000619,-0.513607,0.004749,-1.191453,-264.336305,-1.193972,62.035194
11.3972,-0.002797,-0.003546,0.00449,-0.00028,0.001165,7e-05,-0.000856,-0.513632,0.003879,-1.191453,-264.336305,-1.193972,62.035194
11.4173,-0.002928,-0.003844,0.003697,-0.000246,0.001147,0.000152,-0.000516,-0.513516,0.004489,-1.266451,-264.336627,-1.26897,62.034859
11.4373,-0.002915,-0.003517,0.003223,-0.000191,0.001148,0.000231,-0.000995,-0.51381,0.00377,-1.266451,-264.336627,-1.26897,62.034859
11.4573,-0.002535,-0.003571,0.004329,-0.000147,0.001149,0.00029,-0.000995,-0.51381,0.00377,-1.266451,-264.336627,-1.26897,62.034859
11.477,-0.00276,-0.003578,0.003136,-0.000111,0.001148,0.000334,-0.000335,-0.51353,0.004334,-1.341546,-264.337013,-1.3415,62.034529
11.4974,-0.003139,-0.003405,0.003428,-0.000153,0.001124,0.000364,-0.000679,-0.513544,0.003837,-1.341546,-264.337013,-1.3415,62.034529
11.517,-0.003088,-0.003453,0.003585,-0.000185,0.001104,0.000385,-0.001394,-0.513381,0.003434,-1.416736,-264.337327,-1.41669,62.034309
11.5373,-0.002672,-0.003811,0.00393,-6.5e-05,0.001067,0.000437,-0.001271,-0.513443,0.003573,-1.416736,-264.337327,-1.41669,62.034309
11.5574,-0.003033,-0.003424,0.003445,2.9e-05,0.001037,0.000478,-0.001271,-0.513443,0.003573,-1.416736,-264.337327,-1.41669,62.034309
11.5773,-0.002896,-0.003619,0.00471,0.000103,0.001013,0.00051,-0.001283,-0.513377,0.00346,-1.433674,-264.337838,-1.361356,62.033973
11.5974,-0.0029,-0.003509,0.003541,8.7e-05,0.000999,0.000462,-0.000965,-0.513467,0.003967,-1.433674,-264.337838,-1.361356,62.033973
11.617,-0.003172,-0.003838,0.003817,7.5e-05,0.000987,0.000426,-0.001094,-0.513504,0.003542,-1.508501,-264.337871,-1.436183,62.033956
11.6374,-0.003007,-0.003641,0.004629,0.000115,0.00101,0.000426,-0.001215,-0.513809,0.003796,-1.508501,-264.337871,-1.436183,62.033956
11.6573,-0.003209,-0.003694,0.005927,0.000146,0.001028,0.000426,-0.001215,-0.513809,0.003796,-1.508501,-264.337871,-1.436183,62.033956
11.6767,-0.00282,-0.003652,0.004092,0.000171,0.001043,0.000427,-0.000187,-0.513672,0.005932,-1.583792,-264.338028,-1.511474,62.033864
11.6966,-0.003053,-0.003647,0.003538,4e-06,0.001034,0.000222,-0.000409,-0.513661,0.005186,-1.583792,-264.338028,-1.511474,62.033864
11.717,-0.003198,-0.003628,0.004801,-0.000128,0.00103,6.3e-05,-0.001249,-0.513644,0.003538,-1.658395,-264.338028,-1.436871,62.033864
11.7371,-0.003042,-0.003642,0.004452,-0.000138,0.001028,2e-06,-0.000792,-0.513624,0.004694,-1.658395,-264.338028,-1.436871,62.033864
11.7569,-0.003273,-0.003341,0.002451,-0.000146,0.001027,-4.5e-05,-0.000792,-0.513624,0.004694,-1.658395,-264.338028,-1.436871,62.033864
11.7768,-0.002765,-0.003764,0.0045,-0.000153,0.001026,-8e-05,-0.002025,-0.513318,0.002453,-1.583026,-264.338243,-1.442759,62.033664
11.7969,-0.003042,-0.003477,0.003991,-1.8e-05,0.001012,0.000172,-0.001389,-0.513496,0.00329,-1.583026,-264.338243,-1.442759,62.033664
11.8166,-0.003271,-0.003515,0.003347,9e-05,0.000999,0.000355,-0.001009,-0.513452,0.003989,-1.508398,-264.338496,-1.429139,62.033386
11.8373,-0.002984,-0.00317,0.00267,0.000205,0.000983,0.000458,-0.001524,-0.513507,0.003393,-1.508398,-264.338496,-1.429139,62.033386
11.8572,-0.003174,-0.003384,0.00319,0.000296,0.00097,0.000534,-0.001524,-0.513507,0.003393,-1.508398,-264.338496,-1.429139,62.033386
11.8774,-0.003373,-0.003599,0.003723,0.000369,0.000959,0.000591,-0.001547,-0.513371,0.003194,-1.583947,-264.33862,-1.504688,62.033306
11.8972,-0.003095,-0.003352,0.005529,0.000426,0.000944,0.00063,-0.001517,-0.51346,0.003408,-1.583947,-264.33862,-1.504688,62.033306
11.9173,-0.003118,-0.003497,0.005166,0.000472,0.000932,0.000659,-0.000275,-0.513344,0.005529,-1.509491,-264.33862,-1.430232,62.033306
11.9373,-0.002799,-0.00348,0.004403,0.000254,0.000922,0.000405,-0.000465,-0.513477,0.005199,-1.509491,-264.33862,-1.430232,62.033306
11.9572,-0.003257,-0.003437,0.004813,8.4e-05,0.000917,0.000207,-0.000465,-0.513477,0.005199,-1.509491,-264.33862,-1.430232,62.033306
11.977,-0.003353,-0.003469,0.004466,-5e-05,0.000916,5.3e-05,-0.000803,-0.513431,0.004813,-1.434078,-264.33862,-1.354819,62.033306
11.9969,-0.002893,-0.003719,0.005041,-4.3e-05,0.000914,-3e-06,-0.000913,-0.513444,0.004672,-1.434078,-264.33862,-1.354819,62.033306
12.0169,-0.003195,-0.0031,0.005443,-3.8e-05,0.000913,-4.4e-05,-0.000324,-0.513695,0.005042,-1.508668,-264.338845,-1.429409,62.033097
12.0368,-0.00323,-0.00317,0.004523,-0.000159,0.000875,-0.000165,-0.000411,-0.513147,0.005407,-1.508668,-264.338845,-1.429409,62.033097
12.0567,-0.003029,-0.003706,0.005481,-0.000253,0.000846,-0.000259,-0.000411,-0.513147,0.005407,-1.508668,-264.338845,-1.429409,62.033097
12.0768,-0.002916,-0.003608,0.004136,-0.000327,0.000825,-0.000333,-0.000235,-0.513666,0.005479,-1.527682,-264.339146,-1.504401,62.032777
12.0968,-0.002901,-0.003329,0.003047,-0.000372,0.000869,-0.000325,-0.000475,-0.513636,0.004916,-1.527682,-264.339146,-1.504401,62.032777
12.1169,-0.003013,-0.0033,0.004166,-0.000408,0.000904,-0.00032,-0.001347,-0.513326,0.003047,-1.452296,-264.33915,-1.429016,62.03277
12.1366,-0.003136,-0.003555,0.003726,-0.00032,0.000899,-0.000176,-0.000926,-0.513298,0.004075,-1.452296,-264.33915,-1.429016,62.03277
12.1567,-0.00329,-0.00311,0.004823,-0.00025,0.000893,-6.9e-05,-0.000926,-0.513298,0.004075,-1.452296,-264.33915,-1.429016,62.03277
12.1766,-0.002752,-0.003356,0.003366,-0.000196,0.000888,9e-06,-0.000831,-0.513103,0.004822,-1.377425,-264.339161,-1.354145,62.032755
12.1969,-0.003307,-0.003405,0.00369,-0.000154,0.00087,4e-05,-0.000915,-0.513206,0.004223,-1.377425,-264.339161,-1.354145,62.032755
12.217,-0.003198,-0.003301,0.004059,-0.00012,0.000856,6.3e-05,-0.001431,-0.513374,0.00369,-1.354806,-264.339523,-1.352068,62.032397
12.2371,-0.003375,-0.003261,0.003495,-3.8e-05,0.000852,0.000111,-0.001157,-0.513303,0.004025,-1.354806,-264.339523,-1.352068,62.032397
12.2571,-0.003294,-0.003619,0.003384,2.6e-05,0.000849,0.000148,-0.001157,-0.513303,0.004025,-1.354806,-264.339523,-1.352068,62.032397
12.2768,-0.003164,-0.003029,0.005514,7.7e-05,0.000846,0.000176,-0.001573,-0.513586,0.003386,-1.429678,-264.339821,-1.424712,62.032125
12.2969,-0.003337,-0.003475,0.004921,9.6e-05,0.000848,0.000156,-0.001075,-0.513352,0.004254,-1.429678,-264.339821,-1.424712,62.032125
12.3171,-0.003038,-0.003356,0.005162,0.000111,0.00085,0.000142,-0.000827,-0.513465,0.004922,-1.50468,-264.339884,-1.499714,62.032076
12.3367,-0.002137,-0.003525,0.0041,-3.5e-05,0.00085,1.1e-05,-0.000444,-0.513359,0.00514,-1.50468,-264.339884,-1.499714,62.032076
12.3568,-0.003378,-0.003588,0.003144,-0.000148,0.000853,-9.1e-05,-0.000444,-0.513359,0.00514,-1.50468,-264.339884,-1.499714,62.032076
12.3768,-0.003431,-0.003361,0.003496,-0.000237,0.000856,-0.000171,-0.001775,-0.513576,0.003145,-1.579682,-264.339987,-1.574716,62.031992
12.397,-0.003222,-0.0035,0.004262,-1.2e-05,0.000861,9.6e-05,-0.001723,-0.513486,0.003288,-1.579682,-264.339987,-1.574716,62.031992
12.417,-0.002787,-0.003033,0.003402,0.000166,0.000864,0.000291,-0.001049,-0.513493,0.004262,-1.504689,-264.340011,-1.499722,62.031962
12.4368,-0.003161,-0.00331,0.004465,0.000168,0.000835,0.000411,-0.001052,-0.513072,0.003479,-1.504689,-264.340011,-1.499722,62.031962
12.4571,-0.003052,-0.002961,0.004882,0.000171,0.000811,0.000498,-0.001052,-0.513072,0.003479,-1.504689,-264.340011,-1.499722,62.031962
12.4766,-0.003149,-0.003606,0.005342,0.000174,0.000792,0.00056,-0.000562,-0.512955,0.004882,-1.579698,-264.340011,-1.424713,62.031962
12.4968,-0.003268,-0.003283,0.004892,3.4e-05,0.000784,0.000341,-0.000506,-0.513216,0.005069,-1.579698,-264.340011,-1.424713,62.031962
12.5171,-0.002984,-0.003141,0.003748,-7.6e-05,0.000781,0.000171,-0.000773,-0.513277,0.004892,-1.654689,-264.340011,-1.349722,62.031962
12.5371,-0.002879,-0.003416,0.004245,-2.3e-05,0.000776,0.000235,-0.001047,-0.51315,0.003846,-1.654689,-264.340011,-1.349722,62.031962
12.5568,-0.002766,-0.003482,0.003821,1.9e-05,0.000772,0.000282,-0.001047,-0.51315,0.003846,-1.654689,-264.340011,-1.349722,62.031962
12.5769,-0.003361,-0.003255,0.003744,5.2e-05,0.000768,0.000317,-0.000819,-0.513461,0.003824,-1.579589,-264.340195,-1.424822,62.03182
12.5971,-0.002667,-0.003289,0.00331,7.8e-05,0.000792,0.000352,-0.001076,-0.513374,0.003792,-1.579589,-264.340195,-1.424822,62.03182
12.6171,-0.003154,-0.003014,0.004634,9.9e-05,0.00081,0.000378,-0.000979,-0.513277,0.003314,-1.624674,-264.340347,-1.499737,62.031729
12.6373,-0.003202,-0.00307,0.00449,5.7e-05,0.00078,0.000273,-0.000808,-0.513032,0.004513,-1.624674,-264.340347,-1.499737,62.031729
12.657,-0.003309,-0.003191,0.003508,2.4e-05,0.000756,0.000194,-0.000808,-0.513032,0.004513,-1.624674,-264.340347,-1.499737,62.031729
12.6771,-0.002916,-0.003822,0.003102,-2e-06,0.000739,0.000134,-0.001519,-0.513175,0.003514,-1.665425,-264.340508,-1.574729,62.031639
12.6975,-0.002986,-0.003101,0.004396,0.000116,0.00077,0.000311,-0.001443,-0.513439,0.003345,-1.665425,-264.340508,-1.574729,62.031639
12.7171,-0.002837,-0.002904,0.004553,0.000211,0.000793,0.00044,-0.000744,-0.513076,0.0044,-1.590328,-264.340789,-1.567089,62.031414
12.7377,-0.002754,-0.00322,0.005346,0.0,0.0,0.0,-0.000535,-0.512913,0.00454,-1.590328,-264.340789,-1.567089,62.031414
12.7574,-0.003099,-0.003666,0.004898,0.0,0.0,0.0,-0.000535,-0.512913,0.00454,-1.590328,-264.340789,-1.567089,62.031414
12.7773,-0.003057,-0.003754,0.003426,0.0,0.0,0.0,-0.0006,-0.51366,0.004898,-1.515329,-264.340789,-1.49209,62.031414
12.7975,-0.003098,-0.003402,0.004067,0.0,0.0,0.0,-0.00089,-0.513698,0.004296,-1.515329,-264.340789,-1.49209,62.031414
12.8171,-0.002885,-0.00317,0.004644,0.0,0.0,0.0,-0.001024,-0.513398,0.004067,-1.515329,-264.340789,-1.49209,62.031414
12.8367,-0.003356,-0.003176,0.003913,0.0,0.0,0.0,-0.000561,-0.513184,0.004594,-1.515329,-264.340789,-1.49209,62.031414
12.8572,-0.003056,-0.00342,0.006349,0.0,0.0,0.0,-0.000561,-0.513184,0.004594,-1.515329,-264.340789,-1.49209,62.031414
12.8772,-0.002904,-0.003172,0.004233,0.0,0.0,0.0,0.000182,-0.51341,0.006349,-1.515329,-264.340789,-1.49209,62.031414
12.8974,-0.00294,-0.003223,0.005028,0.0,0.0,0.0,-0.000199,-0.51331,0.00548,-1.515329,-264.340789,-1.49209,62.031414
12.9168,-0.002914,-0.003253,0.004733,0.0,0.0,0.0,-0.000376,-0.513217,0.005028,-1.515329,-264.340789,-1.49209,62.031414
12.9367,-0.002985,-0.003396,0.004667,0.0,0.0,0.0,-0.000489,-0.513245,0.004759,-1.515329,-264.340789,-1.49209,62.031414
12.9568,-0.003037,-0.003451,0.004111,0.0,0.0,0.0,-0.000489,-0.513245,0.004759,-1.515329,-264.340789,-1.49209,62.031414
12.9771,-0.003137,-0.0031,0.004986,0.0,0.0,0.0,-0.00094,-0.513447,0.004111,-1.515329,-264.340789,-1.49209,62.031414
12.9967,-0.003087,-0.002983,0.006097,0.0,0.0,0.0,-0.000797,-0.513301,0.004473,-1.515329,-264.340789,-1.49209,62.031414
13.0167,-0.003348,-0.003036,0.004793,0.0,0.0,0.0,2.2e-05,-0.512973,0.006097,-1.515329,-264.340789,-1.49209,62.031414
13.0368,-0.003098,-0.003437,0.003759,0.0,0.0,0.0,-0.000825,-0.513025,0.004904,-1.515329,-264.340789,-1.49209,62.031414
13.0567,-0.002967,-0.003202,0.00529,0.0,0.0,0.0,-0.000825,-0.513025,0.004904,-1.515329,-264.340789,-1.49209,62.031414
13.0768,-0.002988,-0.003185,0.003781,0.0,0.0,0.0,-0.000269,-0.513195,0.00529,-1.515329,-264.340789,-1.49209,62.031414
13.0969,-0.002979,-0.003135,0.003424,0.0,0.0,0.0,-0.000592,-0.513189,0.004674,-1.515329,-264.340789,-1.49209,62.031414
13.117,-0.003203,-0.003212,0.004007,0.0,0.0,0.0,-0.001232,-0.513132,0.003424,-1.515329,-264.340789,-1.49209,62.031414
13.1369,-0.003157,-0.00332,0.003167,0.0,0.0,0.0,-0.001166,-0.513201,0.003956,-1.515329,-264.340789,-1.49209,62.031414
13.1571,-0.002958,-0.003118,0.004049,0.0,0.0,0.0,-0.001166,-0.513201,0.003956,-1.515329,-264.340789,-1.49209,62.031414
13.1768,-0.002839,-0.00309,0.003808,0.0,0.0,0.0,-0.000893,-0.513114,0.004049,-1.515329,-264.340789,-1.49209,62.031414
13.1971,-0.003248,-0.003052,0.002899,0.0,0.0,0.0,-0.000895,-0.513103,0.003951,-1.515329,-264.340789,-1.49209,62.031414
13.217,-0.003143,-0.003363,0.005011,0.0,0.0,0.0,-0.001769,-0.513049,0.002899,-1.515329,-264.340789,-1.49209,62.031414
13.2369,-0.003019,-0.003574,0.004875,0.0,0.0,0.0,-0.000693,-0.513329,0.004823,-1.515329,-264.340789,-1.49209,62.031414
13.2568,-0.00356,-0.003376,0.004714,0.0,0.0,0.0,-0.000693,-0.513329,0.004823,-1.515329,-264.340789,-1.49209,62.031414
13.2772,-0.002853,-0.003353,0.005614,0.0,0.0,0.0,-0.001156,-0.51337,0.004714,-1.515329,-264.340789,-1.49209,62.031414
13.2969,-0.002646,-0.00304,0.003921,0.0,0.0,0.0,-0.00068,-0.51336,0.005081,-1.515329,-264.340789,-1.49209,62.031414
13.317,-0.003293,-0.003134,0.004342,0.0,0.0,0.0,-0.000646,-0.513036,0.003921,-1.515329,-264.340789,-1.49209,62.031414
13.3368,-0.003139,-0.00318,0.004151,0.0,0.0,0.0,-0.00104,-0.513121,0.004304,-1.515329,-264.340789,-1.49209,62.031414
13.3569,-0.002982,-0.003114,0.004615,0.0,0.0,0.0,-0.00104,-0.513121,0.004304,-1.515329,-264.340789,-1.49209,62.031414
13.3771,-0.003289,-0.003529,0.00507,0.0,0.0,0.0,-0.000629,-0.513109,0.004615,-1.515329,-264.340789,-1.49209,62.031414
13.3972,-0.003126,-0.003202,0.004875,0.0,0.0,0.0,-0.000659,-0.513279,0.004803,-1.515329,-264.340789,-1.49209,62.031414
13.4168,-0.003084,-0.00307,0.002854,0.0,0.0,0.0,-0.00064,-0.513196,0.004875,-1.515329,-264.340789,-1.49209,62.031414
13.4371,-0.002801,-0.003072,0.004801,0.0,0.0,0.0,-0.001543,-0.513079,0.003029,-1.515329,-264.340789,-1.49209,62.031414
13.4568,-0.002963,-0.003504,0.003912,0.0,0.0,0.0,-0.001543,-0.513079,0.003029,-1.515329,-264.340789,-1.49209,62.031414
13.4772,-0.00298,-0.003367,0.003021,0.0,0.0,0.0,-0.000968,-0.5135,0.003912,-1.515329,-264.340789,-1.49209,62.031414
13.4972,-0.002869,-0.002867,0.005471,0.0,0.0,0.0,-0.001161,-0.513444,0.003547,-1.515329,-264.340789,-1.49209,62.031414
13.5167,-0.003297,-0.003264,0.004001,0.0,0.0,0.0,-7.8e-05,-0.512859,0.005471,-1.515329,-264.340789,-1.49209,62.031414
13.5369,-0.002904,-0.00307,0.00458,0.0,0.0,0.0,-0.001149,-0.513223,0.004134,-1.515329,-264.340789,-1.49209,62.031414
13.557,-0.003337,-0.00361,0.005301,0.0,0.0,0.0,-0.001149,-0.513223,0.004134,-1.515329,-264.340789,-1.49209,62.031414
13.5769,-0.003281,-0.003014,0.002484,0.0,0.0,0.0,-0.000634,-0.513603,0.005301,-1.515329,-264.340789,-1.49209,62.031414
13.5971,-0.00281,-0.003407,0.002886,0.0,0.0,0.0,-0.001205,-0.513359,0.004135,-1.515329,-264.340789,-1.49209,62.031414
13.6168,-0.003068,-0.003301,0.003274,0.0,0.0,0.0,-0.001338,-0.513405,0.002886,-1.515329,-264.340789,-1.49209,62.031414
13.637,-0.003107,-0.003206,0.004801,0.0,0.0,0.0,-0.001394,-0.513308,0.003241,-1.515329,-264.340789,-1.49209,62.031414
13.6573,-0.003127,-0.003362,0.005105,0.0,0.0,0.0,-0.001394,-0.513308,0.003241,-1.515329,-264.340789,-1.49209,62.031414
13.6774,-0.003287,-0.003424,0.005309,0.0,0.0,0.0,-0.000523,-0.513356,0.005105,-1.515329,-264.340789,-1.49209,62.031414
13.6972,-0.002899,-0.003465,0.004729,0.0,0.0,0.0,-0.000546,-0.513381,0.005189,-1.515329,-264.340789,-1.49209,62.031414
13.7175,-0.002921,-0.003404,0.00462,0.0,0.0,0.0,-0.000487,-0.513459,0.004729,-1.515329,-264.340789,-1.49209,62.031414
13.737,-0.003337,-0.003091,0.004346,0.0,0.0,0.0,-0.000558,-0.513404,0.00463,-1.515329,-264.340789,-1.49209,62.031414
13.757,-0.003297,-0.003091,0.003525,0.0,0.0,0.0,-0.000558,-0.513404,0.00463,-1.515329,-264.340789,-1.49209,62.031414
13.7772,-0.002819,-0.003506,0.00481,0.0,0.0,0.0,-0.001499,-0.513088,0.003525,-1.515329,-264.340789,-1.49209,62.031414
13.7973,-0.003243,-0.003221,0.005038,0.0,0.0,0.0,-0.001039,-0.513255,0.004047,-1.515329,-264.340789,-1.49209,62.031414
13.8167,-0.002923,-0.003215,0.004477,0.0,0.0,0.0,-0.000673,-0.513215,0.005038,-1.515329,-264.340789,-1.49209,62.031414
13.8368,-0.003094,-0.003321,0.004374,0.0,0.0,0.0,-0.000643,-0.51321,0.004528,-1.515329,-264.340789,-1.49209,62.031414
13.8573,-0.003056,-0.002962,0.003619,0.0,0.0,0.0,-0.000643,-0.51321,0.004528,-1.515329,-264.340789,-1.49209,62.031414
13.877,-0.003216,-0.003275,0.004602,0.0,0.0,0.0,-0.00121,-0.512959,0.003619,-1.515329,-264.340789,-1.49209,62.031414
13.8972,-0.003241,-0.00337,0.004063,0.0,0.0,0.0,-0.001074,-0.513083,0.004011,-1.515329,-264.340789,-1.49209,62.031414
13.9172,-0.003352,-0.003358,0.004524,0.0,0.0,0.0,-0.001169,-0.513366,0.004063,-1.515329,-264.340789,-1.49209,62.031414
13.9372,-0.002974,-0.002924,0.004693,0.0,0.0,0.0,-0.001056,-0.513354,0.00448,-1.515329,-264.340789,-1.49209,62.031414
13.9568,-0.00349,-0.003351,0.004042,0.0,0.0,0.0,-0.001056,-0.513354,0.00448,-1.515329,-264.340789,-1.49209,62.031414
13.9774,-0.003052,-0.003223,0.005332,0.0,0.0,0.0,-0.001428,-0.513347,0.004042,-1.515329,-264.340789,-1.49209,62.031414
13.9971,-0.003099,-0.00317,0.005549,0.0,0.0,0.0,-0.000981,-0.513293,0.004569,-1.515329,-264.340789,-1.49209,62.031414
14.0169,-0.003051,-0.002888,0.003846,0.0,0.0,0.0,-0.000269,-0.513162,0.005549,-1.515329,-264.340789,-1.49209,62.031414
14.0373,-0.003183,-0.003186,0.003131,0.0,0.0,0.0,-0.001016,-0.512909,0.003999,-1.515329,-264.340789,-1.49209,62.031414
14.057,-0.003127,-0.003198,0.005207,0.0,0.0,0.0,-0.001016,-0.512909,0.003999,-1.515329,-264.340789,-1.49209,62.031414
14.077,-0.003466,-0.003151,0.004332,0.0,0.0,0.0,-0.000472,-0.513191,0.005207,-1.515329,-264.340789,-1.49209,62.031414
14.097,-0.003036,-0.003307,0.001872,0.0,0.0,0.0,-0.000792,-0.513173,0.00485,-1.515329,-264.340789,-1.49209,62.031414
14.1167,-0.003077,-0.003263,0.003676,0.0,0.0,0.0,-0.002081,-0.513306,0.001872,-1.515329,-264.340789,-1.49209,62.031414
14.1367,-0.003233,-0.003517,0.004211,0.0,0.0,0.0,-0.001281,-0.513264,0.003514,-1.515329,-264.340789,-1.49209,62.031414
14.1569,-0.003391,-0.00343,0.00506,0.0,0.0,0.0,-0.001281,-0.513264,0.003514,-1.515329,-264.340789,-1.49209,62.031414
14.1768,-0.003338,-0.003122,0.003777,0.0,0.0,0.0,-0.00081,-0.513423,0.00506,-1.515329,-264.340789,-1.49209,62.031414
14.1969,-0.003215,-0.002877,0.003625,0.0,0.0,0.0,-0.001056,-0.513298,0.004535,-1.515329,-264.340789,-1.49209,62.031414
14.2168,-0.002859,-0.003278,0.00464,0.0,0.0,0.0,-0.001366,-0.512874,0.003625,-1.515329,-264.340789,-1.49209,62.031414
14.2371,-0.002945,-0.003284,0.004899,0.0,0.0,0.0,-0.000571,-0.513237,0.00455,-1.515329,-264.340789,-1.49209,62.031414
14.2573,-0.003283,-0.003611,0.003221,0.0,0.0,0.0,-0.000571,-0.513237,0.00455,-1.515329,-264.340789,-1.49209,62.031414
14.2769,-0.003324,-0.003075,0.006267,0.0,0.0,0.0,-0.00164,-0.513609,0.003221,-1.515329,-264.340789,-1.49209,62.031414
14.2973,-0.00324,-0.003696,0.005346,0.0,0.0,0.0,-0.001027,-0.513388,0.004457,-1.515329,-264.340789,-1.49209,62.031414
14.317,-0.003147,-0.003455,0.003547,0.0,0.0,0.0,-0.000514,-0.513689,0.005346,-1.515329,-264.340789,-1.49209,62.031414
14.3371,-0.003119,-0.003586,0.004414,0.0,0.0,0.0,-0.00127,-0.513472,0.003697,-1.515329,-264.340789,-1.49209,62.031414
14.3568,-0.003072,-0.003457,0.005354,0.0,0.0,0.0,-0.00127,-0.513472,0.003697,-1.515329,-264.340789,-1.49209,62.031414
14.3767,-0.002939,-0.003146,0.003992,0.0,0.0,0.0,-0.000341,-0.51345,0.005354,-1.515329,-264.340789,-1.49209,62.031414
14.3969,-0.003363,-0.002966,0.00456,0.0,0.0,0.0,-0.000576,-0.513321,0.004784,-1.515329,-264.340789,-1.49209,62.031414
14.4167,-0.003198,-0.002805,0.004301,0.0,0.0,0.0,-0.001037,-0.51296,0.00456,-1.515329,-264.340789,-1.49209,62.031414
14.4368,-0.003129,-0.003315,0.00559,0.0,0.0,0.0,-0.001007,-0.512816,0.004325,-1.515329,-264.340789,-1.49209,62.031414
14.4568,-0.002806,-0.003124,0.003191,0.0,0.0,0.0,-0.001007,-0.512816,0.004325,-1.515329,-264.340789,-1.49209,62.031414
14.4768,-0.00306,-0.003275,0.004471,0.0,0.0,0.0,-0.001179,-0.513122,0.003191,-1.515329,-264.340789,-1.49209,62.031414
14.4968,-0.003177,-0.003286,0.003524,0.0,0.0,0.0,-0.001018,-0.513182,0.003708,-1.515329,-264.340789,-1.49209,62.031414
14.5168,-0.003141,-0.003482,0.003026,0.0,0.0,0.0,-0.001379,-0.513283,0.003524,-1.515329,-264.340789,-1.49209,62.031414
14.5367,-0.00291,-0.003252,0.003614,0.0,0.0,0.0,-0.001578,-0.513462,0.003071,-1.515329,-264.340789,-1.49209,62.031414
14.5571,-0.002847,-0.003235,0.003697,0.0,0.0,0.0,-0.001578,-0.513462,0.003071,-1.515329,-264.340789,-1.49209,62.031414
14.5768,-0.003547,-0.003147,0.005672,0.0,0.0,0.0,-0.000962,-0.513232,0.003697,-1.515329,-264.340789,-1.49209,62.031414
14.5968,-0.003171,-0.003297,0.003854,0.0,0.0,0.0,-0.000837,-0.513194,0.004497,-1.515329,-264.340789,-1.49209,62.031414
14.6167,-0.002921,-0.003314,0.002583,0.0,0.0,0.0,-0.001206,-0.513294,0.003854,-1.515329,-264.340789,-1.49209,62.031414
14.637,-0.003027,-0.003237,0.004041,0.0,0.0,0.0,-0.001568,-0.513311,0.002697,-1.515329,-264.340789,-1.49209,62.031414
14.6569,-0.00268,-0.003069,0.004382,0.0,0.0,0.0,-0.001568,-0.513311,0.002697,-1.515329,-264.340789,-1.49209,62.031414
14.6766,-0.003054,-0.003161,0.005784,0.0,0.0,0.0,-0.000446,-0.513064,0.004382,-1.515329,-264.340789,-1.49209,62.031414
14.6967,-0.003204,-0.003362,0.003509,0.0,0.0,0.0,-0.000307,-0.5131,0.00495,-1.515329,-264.340789,-1.49209,62.031414
14.717,-0.003159,-0.002998,0.004478,0.0,0.0,0.0,-0.001415,-0.513359,0.003509,-1.515329,-264.340789,-1.49209,62.031414
14.7371,-0.003323,-0.002884,0.003414,0.0,0.0,0.0,-0.000923,-0.513025,0.004393,-1.515329,-264.340789,-1.49209,62.031414
14.7573,-0.003148,-0.003245,0.005246,0.0,0.0,0.0,-0.000923,-0.513025,0.004393,-1.515329,-264.340789,-1.49209,62.031414
14.7771,-0.003288,-0.003164,0.003068,0.0,0.0,0.0,-0.000472,-0.513238,0.005246,-1.515329,-264.340789,-1.49209,62.031414
14.7967,-0.002901,-0.003447,0.003313,0.0,0.0,0.0,-0.000973,-0.513208,0.004375,-1.515329,-264.340789,-1.49209,62.031414
14.817,-0.003117,-0.003024,0.005539,0.0,0.0,0.0,-0.001211,-0.513444,0.003313,-1.515329,-264.340789,-1.49209,62.031414
14.837,-0.002898,-0.003249,0.005612,0.0,0.0,0.0,-0.000374,-0.513055,0.005339,-1.515329,-264.340789,-1.49209,62.031414
14.8567,-0.003269,-0.003415,0.005708,0.0,0.0,0.0,-0.000374,-0.513055,0.005339,-1.515329,-264.340789,-1.49209,62.031414
14.877,-0.002862,-0.003417,0.003701,0.0,0.0,0.0,-0.000358,-0.513407,0.005708,-1.515329,-264.340789,-1.49209,62.031414
14.8972,-0.003072,-0.003291,0.005516,0.0,0.0,0.0,-0.00061,-0.513409,0.004885,-1.515329,-264.340789,-1.49209,62.031414
14.9169,-0.002981,-0.003351,0.004409,0.0,0.0,0.0,-0.00061,-0.513409,0.004885,-1.515329,-264.340789,-1.49209,62.031414
14.9372,-0.003056,-0.003044,0.005101,0.0,0.0,0.0,-0.000691,-0.51334,0.004508,-1.515329,-264.340789,-1.49209,62.031414
14.9573,-0.003154,-0.003179,0.003339,0.0,0.0,0.0,-0.000691,-0.51334,0.004508,-1.515329,-264.340789,-1.49209,62.031414
14.9771,-0.003267,-0.003206,0.00364,0.0,0.0,0.0,-0.001451,-0.513176,0.003339,-1.515329,-264.340789,-1.49209,62.031414
14.9972,-0.00266,-0.003126,0.004815,0.0,0.0,0.0,-0.001435,-0.513187,0.003461,-1.515329,-264.340789,-1.49209,62.031414
15.0165,-0.002919,-0.003409,0.004673,0.0,0.0,0.0,-0.000205,-0.51312,0.004815,-1.515329,-264.340789,-1.49209,62.031414
15.0368,-0.003186,-0.003286,0.006242,0.0,0.0,0.0,-0.000508,-0.51338,0.004685,-1.515329,-264.340789,-1.49209,62.031414
15.0571,-0.002748,-0.002796,0.00442,0.0,0.0,0.0,-0.000508,-0.51338,0.004685,-1.515329,-264.340789,-1.49209,62.031414
15.077,-0.003004,-0.003303,0.004805,0.0,0.0,0.0,-0.000494,-0.512791,0.00442,-1.515329,-264.340789,-1.49209,62.031414
15.0976,-0.003106,-0.003256,0.0048,0.0,0.0,0.0,-0.000518,-0.512996,0.004576,-1.515329,-264.340789,-1.49209,62.031414
15.1169,-0.003135,-0.003115,0.004405,0.0,0.0,0.0,-0.000658,-0.51325,0.0048,-1.515329,-264.340789,-1.49209,62.031414
15.1375,-0.003338,-0.003297,0.004393,0.0,0.0,0.0,-0.000868,-0.513123,0.004441,-1.515329,-264.340789,-1.49209,62.031414
15.1574,-0.003056,-0.003469,0.003994,0.0,0.0,0.0,-0.000868,-0.513123,0.004441,-1.515329,-264.340789,-1.49209,62.031414
