mach0312/omni-docking-bench/src/icros_test_setup/results/MPPI_sample/timeseries/trial_033.csv
t,x,y,yaw,vx,vy,wz,bl_x,bl_y,bl_yaw,front_steering_joint,front_wheel_joint,rear_steering_joint,rear_wheel_joint
0.0,0.017677,0.019785,-0.069131,-0.004377,0.000167,-0.001986,-0.01709,-0.489253,-0.069204,0.2345,-262.936762,-0.305521,70.191476
0.0005,0.017341,0.019527,-0.070796,-0.003603,0.000138,-0.001635,-0.01709,-0.489253,-0.069204,0.2345,-262.939851,-0.305521,70.188326
0.0008,0.017323,0.019887,-0.070617,-0.002778,0.000106,-0.00126,-0.017599,-0.489217,-0.070183,0.2345,-262.942487,-0.305521,70.185637
0.0011,0.017268,0.019684,-0.069804,-0.0019,7.3e-05,-0.000862,-0.017599,-0.489217,-0.070183,0.2345,-262.944287,-0.305521,70.183801
0.0014,0.017137,0.019752,-0.070102,-0.000977,3.7e-05,-0.000443,-0.017599,-0.489217,-0.070183,0.2345,-262.94543,-0.305521,70.182636
0.0017,0.016989,0.019741,-0.070489,0.0,0.0,0.0,-0.018372,-0.488998,-0.070676,0.2345,-262.94543,-0.305521,70.182636
0.002,0.016912,0.019884,-0.0706,0.0,0.0,0.0,-0.018166,-0.488989,-0.070108,0.2345,-262.94543,-0.305521,70.182636
0.0023,0.017053,0.019743,-0.071476,0.0,0.0,0.0,-0.018166,-0.488989,-0.070108,0.2345,-262.94543,-0.305521,70.182636
0.0025,0.017146,0.020023,-0.071595,0.0,0.0,0.0,-0.017654,-0.489013,-0.069233,0.2345,-262.94543,-0.305521,70.182636
0.0164,0.017122,0.019675,-0.068967,0.0,0.0,0.0,-0.019337,-0.48867,-0.071595,0.2345,-262.94543,-0.305521,70.182636
0.0362,0.017117,0.019963,-0.07062,0.0,0.0,0.0,-0.018142,-0.489073,-0.069204,0.2345,-262.94543,-0.305521,70.182636
0.0561,0.017203,0.019907,-0.070689,0.0,0.0,0.0,-0.018142,-0.489073,-0.069204,0.2345,-262.94543,-0.305521,70.182636
0.0763,0.01683,0.019665,-0.070629,0.0,0.0,0.0,-0.018818,-0.488819,-0.070689,0.2345,-262.94543,-0.305521,70.182636
0.0963,0.016977,0.019879,-0.069393,0.0,0.0,0.0,-0.018957,-0.488918,-0.070665,0.2345,-262.94543,-0.305521,70.182636
0.1161,0.016875,0.01949,-0.072049,0.001898,-0.004457,0.007045,-0.018385,-0.488894,-0.069393,0.2345,-262.94543,-0.305521,70.182636
0.1362,0.017377,0.020045,-0.069973,0.002049,-0.004821,0.007572,-0.019707,-0.48916,-0.071809,0.2345,-262.94543,-0.305521,70.182636
0.1564,0.017507,0.019991,-0.069432,0.002169,-0.005128,0.007997,-0.019707,-0.48916,-0.071809,0.2345,-262.94543,-0.305521,70.182636
0.1761,0.017144,0.019858,-0.069652,0.002264,-0.005388,0.00834,-0.017875,-0.48878,-0.069432,0.15948,-262.94543,-0.380541,70.182636
0.1962,0.017092,0.020181,-0.067328,0.002308,-0.005644,0.008641,-0.01807,-0.488832,-0.069522,0.15948,-262.94543,-0.380541,70.182636
0.2166,0.016703,0.020013,-0.068822,0.00234,-0.005862,0.008885,-0.017219,-0.488663,-0.067328,0.084338,-262.94543,-0.455683,70.182636
0.236,0.017232,0.019654,-0.070767,0.002365,-0.006046,0.009146,-0.018262,-0.488769,-0.068683,0.084338,-262.94543,-0.455683,70.182636
0.2564,0.01684,0.019729,-0.07134,0.002383,-0.006204,0.009359,-0.018262,-0.488769,-0.068683,0.084338,-262.94543,-0.455683,70.182636
0.2762,0.017286,0.020112,-0.070222,0.002396,-0.006338,0.009533,-0.019512,-0.488974,-0.07134,0.009349,-262.94543,-0.530672,70.182636
0.2959,0.016766,0.019988,-0.068993,0.00242,-0.006436,0.009672,-0.019096,-0.488833,-0.070881,0.009349,-262.94543,-0.530672,70.182636
0.3166,0.017433,0.019644,-0.067748,0.002438,-0.006521,0.009787,-0.018392,-0.488798,-0.068993,-0.065632,-262.94543,-0.605653,70.182637
0.3362,0.017263,0.01948,-0.070766,0.002421,-0.006626,0.009883,-0.017203,-0.489153,-0.067854,-0.065632,-262.94543,-0.605653,70.182637
0.3561,0.016847,0.019763,-0.069317,0.002405,-0.006717,0.009962,-0.017203,-0.489153,-0.067854,-0.065632,-262.94543,-0.605653,70.182637
0.3759,0.017103,0.019535,-0.071272,0.00239,-0.006794,0.010026,-0.018476,-0.489013,-0.069317,-0.140636,-262.94543,-0.680657,70.182637
0.3963,0.016826,0.019681,-0.069878,0.002403,-0.006832,0.010076,-0.018776,-0.489077,-0.07011,-0.140636,-262.94543,-0.680657,70.182637
0.4169,0.017479,0.019974,-0.070498,0.002413,-0.006866,0.010117,-0.018783,-0.489074,-0.069878,-0.215491,-262.945429,-0.755512,70.182638
0.4361,0.017142,0.020073,-0.069972,0.002412,-0.006905,0.010153,-0.018476,-0.488788,-0.070441,-0.215491,-262.945429,-0.755512,70.182638
0.4565,0.01658,0.019753,-0.06973,0.00241,-0.006939,0.010183,-0.018476,-0.488788,-0.070441,-0.215491,-262.945429,-0.755512,70.182638
0.4764,0.016956,0.02011,-0.069144,0.002408,-0.006969,0.010208,-0.018953,-0.489008,-0.069729,-0.277194,-262.945428,-0.830642,70.182644
0.4965,0.016902,0.019754,-0.070226,0.002409,-0.006991,0.010228,-0.018679,-0.488871,-0.069492,-0.277194,-262.945428,-0.830642,70.182644
0.516,0.016889,0.020018,-0.069289,0.00241,-0.00701,0.010246,-0.018883,-0.48899,-0.070225,-0.296151,-262.945423,-0.905516,70.182671
0.5361,0.017086,0.01969,-0.069253,0.002405,-0.007032,0.010261,-0.01846,-0.488778,-0.06937,-0.296151,-262.945423,-0.905516,70.182671
0.5562,0.01655,0.019407,-0.069139,0.002401,-0.007052,0.010274,-0.01846,-0.488778,-0.06937,-0.296151,-262.945423,-0.905516,70.182671
0.5762,0.017307,0.020098,-0.07032,0.002397,-0.007069,0.010285,-0.018679,-0.48938,-0.069132,-0.302513,-262.945403,-0.980643,70.182777
0.5963,0.017077,0.01966,-0.068823,0.0024,-0.007076,0.010294,-0.018616,-0.489078,-0.069619,-0.302513,-262.945403,-0.980643,70.182777
0.6168,0.016883,0.020138,-0.069319,0.002403,-0.007082,0.010302,-0.017987,-0.489145,-0.068805,-0.317251,-262.945342,-1.055645,70.183104
0.6364,0.017049,0.019673,-0.069402,0.002395,-0.007098,0.01031,-0.018402,-0.488682,-0.069274,-0.317251,-262.945342,-1.055645,70.183104
0.6562,0.017214,0.019663,-0.070105,0.002389,-0.007113,0.010316,-0.018402,-0.488682,-0.069274,-0.317251,-262.945342,-1.055645,70.183104
0.6763,0.016859,0.019898,-0.070089,0.002383,-0.007125,0.010322,-0.018487,-0.489129,-0.070043,-0.317663,-262.945184,-1.130622,70.183956
0.6962,0.01683,0.01966,-0.070102,0.002387,-0.007126,0.010326,-0.018638,-0.489018,-0.070055,-0.317663,-262.945184,-1.130622,70.183956
0.7163,0.016938,0.019464,-0.070507,0.002391,-0.007126,0.010329,-0.018861,-0.489159,-0.070003,-0.331831,-262.944859,-1.20588,70.185711
0.736,0.017058,0.019777,-0.071218,0.002403,-0.007116,0.010332,-0.018981,-0.489264,-0.070467,-0.331831,-262.944859,-1.20588,70.185711
0.7559,0.016752,0.019846,-0.070097,0.002414,-0.007108,0.010334,-0.018981,-0.489264,-0.070467,-0.331831,-262.944859,-1.20588,70.185711
0.7761,0.017091,0.019517,-0.069853,0.002423,-0.007102,0.010337,-0.018906,-0.489068,-0.069863,-0.32949,-262.944293,-1.281102,70.188769
0.7961,0.016908,0.019338,-0.070922,0.002425,-0.007103,0.010394,-0.018732,-0.489159,-0.069831,-0.32949,-262.944293,-1.281102,70.188769
0.8162,0.016768,0.018856,-0.069628,0.002426,-0.007104,0.010439,-0.019176,-0.489567,-0.070656,-0.314575,-262.94346,-1.355677,70.193226
0.836,0.016575,0.018784,-0.068296,0.002439,-0.007091,0.010512,-0.01875,-0.489889,-0.069702,-0.314575,-262.94346,-1.355677,70.193226
0.8563,0.016785,0.019486,-0.069501,0.002451,-0.00708,0.010571,-0.01875,-0.489889,-0.069702,-0.314575,-262.94346,-1.355677,70.193226
0.8765,0.016695,0.018991,-0.069285,0.002461,-0.007071,0.010619,-0.018554,-0.489577,-0.069077,-0.29167,-262.942479,-1.392732,70.198532
0.8965,0.016751,0.018604,-0.069369,0.002463,-0.007071,0.010699,-0.018568,-0.489695,-0.069112,-0.29167,-262.942479,-1.392732,70.198532
0.9164,0.016652,0.018115,-0.068164,0.002465,-0.00707,0.010763,-0.01854,-0.490388,-0.069048,-0.233824,-262.941517,-1.391255,70.20377
0.9363,0.016582,0.017898,-0.06813,0.002474,-0.007061,0.010853,-0.01812,-0.490685,-0.068222,-0.233824,-262.941517,-1.391255,70.20377
0.9566,0.01659,0.018403,-0.068758,0.002482,-0.007053,0.010926,-0.01812,-0.490685,-0.068222,-0.233824,-262.941517,-1.391255,70.20377
0.9765,0.016464,0.018402,-0.06671,0.002489,-0.007047,0.010985,-0.018368,-0.490687,-0.068318,-0.198805,-262.940532,-1.392036,70.209204
0.9962,0.016582,0.018224,-0.068789,0.002492,-0.007045,0.011071,-0.018014,-0.490629,-0.067603,-0.198805,-262.940532,-1.392036,70.209204
1.0161,0.016323,0.017803,-0.067831,0.002495,-0.007043,0.01114,-0.018413,-0.490784,-0.068462,-0.134988,-262.939592,-1.391794,70.214432
1.036,0.015874,0.017663,-0.0669,0.002508,-0.007029,0.01123,-0.018256,-0.491014,-0.067871,-0.134988,-262.939592,-1.391794,70.214432
1.0565,0.016104,0.01795,-0.065929,0.002519,-0.007018,0.011303,-0.018256,-0.491014,-0.067871,-0.134988,-262.939592,-1.391794,70.214432
1.0763,0.016144,0.017392,-0.067723,0.002529,-0.007008,0.011363,-0.017413,-0.491236,-0.065474,-0.095702,-262.938614,-1.39254,70.219923
1.0964,0.015576,0.017239,-0.065277,0.002534,-0.007003,0.011446,-0.017792,-0.491352,-0.066336,-0.095702,-262.938614,-1.39254,70.219923
1.1162,0.01578,0.017288,-0.06603,0.002539,-0.006999,0.011514,-0.017631,-0.491887,-0.064941,-0.026963,-262.937675,-1.391464,70.225189
1.1364,0.015801,0.017125,-0.067767,0.002549,-0.006988,0.011598,-0.017848,-0.491635,-0.06592,-0.026963,-262.937675,-1.391464,70.225189
1.1565,0.0158,0.017095,-0.066454,0.002557,-0.00698,0.011668,-0.017848,-0.491635,-0.06592,-0.026963,-262.937675,-1.391464,70.225189
1.1763,0.015347,0.016951,-0.068383,0.002565,-0.006972,0.011724,-0.017983,-0.49207,-0.065985,0.013139,-262.936687,-1.391778,70.230737
1.196,0.015476,0.016923,-0.067586,0.002589,-0.006942,0.011795,-0.01859,-0.492017,-0.066906,0.013139,-262.936687,-1.391778,70.230737
1.2161,0.015169,0.016742,-0.065013,0.002611,-0.006917,0.011854,-0.018904,-0.492127,-0.067234,0.073247,-262.935716,-1.391289,70.23616
1.236,0.015506,0.016642,-0.064383,0.002623,-0.006904,0.011923,-0.018046,-0.492187,-0.065194,0.073247,-262.935716,-1.391289,70.23616
1.2559,0.014945,0.016532,-0.065813,0.002633,-0.006893,0.01198,-0.018046,-0.492187,-0.065194,0.073247,-262.935716,-1.391289,70.23616
1.2764,0.015214,0.016799,-0.06526,0.002642,-0.006884,0.012026,-0.018509,-0.492649,-0.065336,0.122956,-262.934704,-1.388419,70.241697
1.2965,0.015141,0.01658,-0.064248,0.002659,-0.006864,0.012077,-0.01831,-0.492465,-0.06525,0.122956,-262.934704,-1.388419,70.241697
1.3157,0.014961,0.015654,-0.062843,0.002673,-0.006848,0.012119,-0.017536,-0.492583,-0.063881,0.172891,-262.933672,-1.387183,70.247267
1.3362,0.014806,0.016197,-0.064281,0.002679,-0.006841,0.012161,-0.017104,-0.493285,-0.062913,0.172891,-262.933672,-1.387183,70.247267
1.356,0.015033,0.016015,-0.063162,0.002684,-0.006836,0.012195,-0.017104,-0.493285,-0.062913,0.172891,-262.933672,-1.387183,70.247267
1.3761,0.01498,0.015853,-0.062351,0.002688,-0.006832,0.012223,-0.017066,-0.493256,-0.062664,0.204293,-262.932599,-1.385369,70.252964
1.396,0.014525,0.015417,-0.064103,0.002688,-0.006832,0.012251,-0.016947,-0.493249,-0.062479,0.204293,-262.932599,-1.385369,70.252964
1.4159,0.014465,0.015088,-0.0626,0.002688,-0.006833,0.012273,-0.018074,-0.493755,-0.063719,0.231585,-262.931507,-1.384969,70.258715
1.4363,0.014694,0.015441,-0.063289,0.002708,-0.006806,0.012295,-0.017493,-0.49391,-0.06268,0.231585,-262.931507,-1.384969,70.258715
1.4563,0.014642,0.015322,-0.062486,0.002726,-0.006783,0.012312,-0.017493,-0.49391,-0.06268,0.231585,-262.931507,-1.384969,70.258715
1.4766,0.014253,0.015049,-0.060632,0.002741,-0.006764,0.012327,-0.017111,-0.493975,-0.061973,0.241816,-262.9304,-1.385368,70.264544
1.4966,0.014578,0.014723,-0.061145,0.002746,-0.006758,0.012344,-0.016911,-0.494024,-0.061363,0.241816,-262.9304,-1.385368,70.264544
1.5163,0.014344,0.014611,-0.061247,0.00275,-0.006754,0.012358,-0.016514,-0.49454,-0.060758,0.272125,-262.92928,-1.381315,70.270272
1.5365,0.014286,0.01447,-0.06183,0.00276,-0.006741,0.012373,-0.016837,-0.494454,-0.061184,0.272125,-262.92928,-1.381315,70.270272
1.5568,0.014348,0.014392,-0.061585,0.002769,-0.006729,0.012386,-0.016837,-0.494454,-0.061184,0.272125,-262.92928,-1.381315,70.270272
1.5759,0.014005,0.014426,-0.061135,0.002776,-0.00672,0.012396,-0.016943,-0.494931,-0.061068,0.281012,-262.928137,-1.380806,70.276088
1.5961,0.014085,0.014261,-0.06223,0.002792,-0.006698,0.012407,-0.017018,-0.494839,-0.061036,0.281012,-262.928137,-1.380806,70.276088
1.6164,0.013641,0.014077,-0.061053,0.002806,-0.00668,0.012417,-0.017557,-0.49497,-0.061836,0.297329,-262.92698,-1.378921,70.281887
1.6361,0.013968,0.013864,-0.060739,0.002827,-0.006651,0.012428,-0.017482,-0.494987,-0.061118,0.297329,-262.92698,-1.378921,70.281887
1.656,0.013739,0.013841,-0.059891,0.002845,-0.006626,0.012438,-0.017482,-0.494987,-0.061118,0.297329,-262.92698,-1.378921,70.281887
1.6759,0.013504,0.0139,-0.059568,0.002861,-0.006605,0.012446,-0.016687,-0.495531,-0.059372,0.311532,-262.925802,-1.376562,70.287696
1.696,0.01377,0.013693,-0.060176,0.00287,-0.006593,0.012456,-0.016746,-0.495426,-0.059393,0.311532,-262.925802,-1.376562,70.287696
1.7161,0.013622,0.013185,-0.059022,0.002878,-0.006582,0.012465,-0.016824,-0.495596,-0.059785,0.33519,-262.924603,-1.372073,70.293433
1.7361,0.013274,0.013752,-0.057897,0.00289,-0.006566,0.012474,-0.016489,-0.495909,-0.059068,0.33519,-262.924603,-1.372073,70.293433
1.7561,0.013033,0.013734,-0.057683,0.0029,-0.006552,0.012482,-0.016489,-0.495909,-0.059068,0.33519,-262.924603,-1.372073,70.293433
1.7761,0.013338,0.012357,-0.058318,0.002908,-0.00654,0.012488,-0.016265,-0.495699,-0.057162,0.343806,-262.923382,-1.370742,70.299219
1.7962,0.013519,0.012554,-0.059526,0.002917,-0.006527,0.012496,-0.016303,-0.496173,-0.057576,0.343806,-262.923382,-1.370742,70.299219
1.8162,0.013294,0.012897,-0.058598,0.002924,-0.006517,0.012502,-0.016742,-0.496756,-0.05913,0.357831,-262.922144,-1.368317,70.304985
1.8361,0.01328,0.012569,-0.058332,0.002937,-0.006497,0.012509,-0.016584,-0.496285,-0.058625,0.357831,-262.922144,-1.368317,70.304985
1.8563,0.013206,0.012842,-0.058074,0.002949,-0.006481,0.012515,-0.016584,-0.496285,-0.058625,0.357831,-262.922144,-1.368317,70.304985
1.8765,0.012946,0.012668,-0.056984,0.002958,-0.006467,0.01252,-0.016288,-0.496577,-0.057551,0.365449,-262.920894,-1.367041,70.310753
1.8963,0.012923,0.012392,-0.055377,0.002966,-0.006457,0.012525,-0.016202,-0.496581,-0.057267,0.365449,-262.920894,-1.367041,70.310753
1.9167,0.01243,0.012159,-0.05746,0.002972,-0.006448,0.01253,-0.015222,-0.497037,-0.054978,0.379247,-262.919623,-1.364192,70.316511
1.9363,0.01272,0.011818,-0.057343,0.002992,-0.006415,0.012533,-0.016685,-0.497016,-0.057181,0.379247,-262.919623,-1.364192,70.316511
1.9566,0.012778,0.011839,-0.056422,0.00301,-0.006388,0.012536,-0.016685,-0.497016,-0.057181,0.379247,-262.919623,-1.364192,70.316511
1.9762,0.01248,0.011688,-0.057093,0.003025,-0.006365,0.012539,-0.015873,-0.497626,-0.055897,0.385193,-262.918342,-1.36307,70.322266
1.9961,0.01283,0.011422,-0.054925,0.003041,-0.00634,0.012542,-0.016164,-0.497599,-0.056323,0.385193,-262.918342,-1.36307,70.322266
2.0158,0.012104,0.011489,-0.054575,0.003054,-0.006318,0.012544,-0.015083,-0.498015,-0.054528,0.40392,-262.917027,-1.358367,70.328001
2.0361,0.012129,0.011316,-0.056538,0.003062,-0.006307,0.012548,-0.015664,-0.49778,-0.054554,0.40392,-262.917027,-1.358367,70.328001
2.0561,0.012319,0.011499,-0.056155,0.003068,-0.006297,0.012551,-0.015664,-0.49778,-0.054554,0.40392,-262.917027,-1.358367,70.328001
2.0763,0.012213,0.011392,-0.055486,0.003073,-0.006289,0.012553,-0.016193,-0.497966,-0.055635,0.414417,-262.9157,-1.355682,70.333689
2.0961,0.012057,0.011366,-0.053821,0.003087,-0.006265,0.012554,-0.01613,-0.497939,-0.055513,0.414417,-262.9157,-1.355682,70.333689
2.1161,0.011884,0.01094,-0.054909,0.0031,-0.006245,0.012555,-0.015291,-0.4981,-0.053423,0.421442,-262.914355,-1.354072,70.339401
2.136,0.011754,0.010643,-0.055054,0.003115,-0.006219,0.012557,-0.016033,-0.498285,-0.054763,0.421442,-262.914355,-1.354072,70.339401
2.1561,0.011839,0.011087,-0.053272,0.003129,-0.006197,0.012558,-0.016033,-0.498285,-0.054763,0.421442,-262.914355,-1.354072,70.339401
2.1763,0.011677,0.010494,-0.053174,0.00314,-0.006178,0.012559,-0.015201,-0.498457,-0.052747,0.430479,-262.912994,-1.351584,70.345086
2.1962,0.011946,0.010476,-0.05502,0.003145,-0.00617,0.012561,-0.01528,-0.498621,-0.05286,0.430479,-262.912994,-1.351584,70.345086
2.2161,0.011294,0.010193,-0.053289,0.003149,-0.006163,0.012562,-0.016011,-0.498953,-0.054622,0.443743,-262.911607,-1.347834,70.350751
2.2363,0.011517,0.010241,-0.053923,0.00317,-0.006125,0.012562,-0.015879,-0.499082,-0.053386,0.443743,-262.911607,-1.347834,70.350751
2.2563,0.011649,0.010103,-0.052996,0.003187,-0.006093,0.012563,-0.015879,-0.499082,-0.053386,0.443743,-262.911607,-1.347834,70.350751
2.2763,0.011126,0.009876,-0.052475,0.003203,-0.006066,0.012563,-0.015249,-0.499445,-0.052471,0.447116,-262.910209,-1.347007,70.356432
2.2964,0.011051,0.010237,-0.052417,0.003216,-0.006041,0.012564,-0.01539,-0.499466,-0.052412,0.447116,-262.910209,-1.347007,70.356432
2.3161,0.011056,0.009812,-0.049338,0.003228,-0.00602,0.012565,-0.015578,-0.499259,-0.05202,0.4651,-262.908781,-1.341781,70.362053
2.3362,0.011292,0.009815,-0.051729,0.003222,-0.006031,0.012567,-0.014212,-0.499552,-0.049537,0.4651,-262.908781,-1.341781,70.362053
2.3567,0.011403,0.009573,-0.050456,0.003216,-0.00604,0.012568,-0.014212,-0.499552,-0.049537,0.4651,-262.908781,-1.341781,70.362053
2.3761,0.011342,0.009336,-0.050011,0.003212,-0.006047,0.012569,-0.014196,-0.500036,-0.049931,0.473545,-262.907337,-1.339291,70.367655
2.3963,0.011026,0.009386,-0.05162,0.003218,-0.006033,0.012569,-0.014165,-0.500061,-0.049903,0.473545,-262.907337,-1.339291,70.367655
2.4161,0.010792,0.008738,-0.051866,0.003223,-0.006021,0.012569,-0.015197,-0.500132,-0.05122,0.469578,-262.905896,-1.340918,70.373294
2.4362,0.011214,0.008797,-0.04917,0.003256,-0.005954,0.012567,-0.015604,-0.500547,-0.051789,0.469578,-262.905896,-1.340918,70.373294
2.456,0.010921,0.009027,-0.05049,0.003285,-0.005898,0.012566,-0.015604,-0.500547,-0.051789,0.469578,-262.905896,-1.340918,70.373294
2.4764,0.010673,0.00912,-0.050634,0.003309,-0.00585,0.012565,-0.014696,-0.500581,-0.049965,0.474421,-262.904448,-1.339678,70.378918
2.4961,0.010927,0.008421,-0.048056,0.003319,-0.005833,0.012566,-0.014861,-0.500468,-0.050174,0.474421,-262.904448,-1.339678,70.378918
2.5163,0.010465,0.008408,-0.049831,0.003328,-0.005818,0.012567,-0.013478,-0.501178,-0.047663,0.503791,-262.902959,-1.330851,70.384404
2.5362,0.010725,0.008397,-0.050377,0.003344,-0.005785,0.012566,-0.014802,-0.500989,-0.049615,0.503791,-262.902959,-1.330851,70.384404
2.5559,0.010511,0.008675,-0.050059,0.003358,-0.005757,0.012566,-0.014802,-0.500989,-0.049615,0.503791,-262.902959,-1.330851,70.384404
2.5758,0.01043,0.008196,-0.048161,0.00337,-0.005733,0.012566,-0.014882,-0.500936,-0.049533,0.508936,-262.901433,-1.329002,70.38997
2.596,0.010674,0.008249,-0.047455,0.003379,-0.005716,0.012566,-0.014552,-0.50108,-0.048904,0.508936,-262.901433,-1.329002,70.38997
2.6159,0.01049,0.008095,-0.047595,0.003387,-0.005701,0.012566,-0.013421,-0.501364,-0.047057,0.522639,-262.899883,-1.324517,70.39548
2.636,0.010651,0.0076,-0.047066,0.003388,-0.005698,0.012566,-0.01374,-0.50134,-0.04753,0.522639,-262.899883,-1.324517,70.39548
2.6562,0.010356,0.007589,-0.049013,0.003388,-0.005696,0.012566,-0.01374,-0.50134,-0.04753,0.522639,-262.899883,-1.324517,70.39548
2.6761,0.010113,0.007318,-0.047255,0.003389,-0.005694,0.012566,-0.0145,-0.502043,-0.048488,0.527656,-262.898318,-1.322799,70.400989
2.6961,0.010363,0.00781,-0.047588,0.003411,-0.005641,0.012565,-0.014275,-0.502099,-0.04793,0.527656,-262.898318,-1.322799,70.400989
2.716,0.009976,0.007464,-0.046214,0.00343,-0.005596,0.012563,-0.013798,-0.5018,-0.047185,0.529014,-262.896747,-1.322519,70.406506
2.736,0.009817,0.007126,-0.046367,0.003436,-0.005583,0.012564,-0.013598,-0.501984,-0.04628,0.529014,-262.896747,-1.322519,70.406506
2.756,0.010088,0.007468,-0.047578,0.003441,-0.005572,0.012564,-0.013598,-0.501984,-0.04628,0.529014,-262.896747,-1.322519,70.406506
2.7761,0.009836,0.007125,-0.047182,0.003445,-0.005563,0.012564,-0.014036,-0.502195,-0.047055,0.54444,-262.89515,-1.317849,70.411965
2.796,0.009645,0.007618,-0.046747,0.00346,-0.005528,0.012563,-0.014095,-0.502268,-0.047046,0.54444,-262.89515,-1.317849,70.411965
2.8157,0.009525,0.00687,-0.04502,0.003473,-0.005498,0.012562,-0.014086,-0.502007,-0.046347,0.549604,-262.893533,-1.316192,70.417441
2.836,0.009415,0.006847,-0.045882,0.003482,-0.005474,0.012562,-0.013478,-0.502571,-0.045113,0.549604,-262.893533,-1.316192,70.417441
2.8559,0.009418,0.006685,-0.045046,0.003491,-0.005454,0.012562,-0.013478,-0.502571,-0.045113,0.549604,-262.893533,-1.316192,70.417441
2.8758,0.009423,0.006828,-0.044475,0.003498,-0.005438,0.012561,-0.013413,-0.503033,-0.044521,0.559369,-262.891899,-1.312987,70.422872
2.8962,0.009213,0.006527,-0.045388,0.003508,-0.005409,0.012561,-0.013332,-0.502912,-0.044442,0.559369,-262.891899,-1.312987,70.422872
2.9164,0.009339,0.006185,-0.042913,0.003518,-0.005385,0.01256,-0.013823,-0.503125,-0.044988,0.568481,-262.890241,-1.310071,70.428291
2.936,0.009331,0.006378,-0.044874,0.003526,-0.005359,0.01256,-0.01265,-0.503335,-0.043078,0.568481,-262.890241,-1.310071,70.428291
2.9559,0.009348,0.005889,-0.04451,0.003533,-0.005338,0.012559,-0.01265,-0.503335,-0.043078,0.568481,-262.890241,-1.310071,70.428291
2.9765,0.009026,0.005808,-0.043151,0.00354,-0.00532,0.012559,-0.013208,-0.503837,-0.043986,0.576279,-262.888565,-1.307617,70.433694
2.9968,0.009149,0.006122,-0.044357,0.003559,-0.005264,0.012557,-0.013096,-0.503815,-0.043583,0.576279,-262.888565,-1.307617,70.433694
3.0162,0.00926,0.005385,-0.042818,0.003575,-0.005218,0.012556,-0.01336,-0.50355,-0.043958,0.586175,-262.886866,-1.304772,70.439077
3.0362,0.008977,0.005934,-0.04231,0.00359,-0.005173,0.012556,-0.012634,-0.504104,-0.042898,0.586175,-262.886866,-1.304772,70.439077
3.0561,0.008895,0.005978,-0.041517,0.003603,-0.005135,0.012556,-0.012634,-0.504104,-0.042898,0.586175,-262.886866,-1.304772,70.439077
3.0761,0.008404,0.005749,-0.041501,0.003614,-0.005104,0.012555,-0.012133,-0.503806,-0.040995,0.600923,-262.885139,-1.300183,70.444406
3.0961,0.008873,0.005258,-0.042457,0.003615,-0.005103,0.012556,-0.012373,-0.503834,-0.041143,0.600923,-262.885139,-1.300183,70.444406
3.1162,0.008814,0.005415,-0.042461,0.003616,-0.005102,0.012556,-0.012666,-0.504448,-0.04206,0.617138,-262.883375,-1.295036,70.449691
3.136,0.008649,0.005141,-0.042507,0.003628,-0.005068,0.012555,-0.012815,-0.504161,-0.042407,0.617138,-262.883375,-1.295036,70.449691
3.156,0.008725,0.005157,-0.040952,0.003638,-0.00504,0.012554,-0.012815,-0.504161,-0.042407,0.617138,-262.883375,-1.295036,70.449691
3.1764,0.008453,0.004981,-0.040311,0.003647,-0.005016,0.012554,-0.012012,-0.504634,-0.040428,0.617316,-262.8816,-1.294837,70.455001
3.1962,0.008746,0.005419,-0.041267,0.003655,-0.004985,0.012553,-0.012032,-0.504648,-0.040319,0.617316,-262.8816,-1.294837,70.455001
3.2158,0.008627,0.004955,-0.040128,0.003662,-0.004959,0.012553,-0.012185,-0.504311,-0.040868,0.62861,-262.879789,-1.290843,70.460304
3.236,0.00844,0.004575,-0.040337,0.003666,-0.004945,0.012552,-0.011853,-0.504618,-0.040163,0.62861,-262.879789,-1.290843,70.460304
3.2564,0.008347,0.004605,-0.040153,0.00367,-0.004932,0.012552,-0.011853,-0.504618,-0.040163,0.62861,-262.879789,-1.290843,70.460304
3.2762,0.008297,0.004644,-0.038366,0.003673,-0.004922,0.012551,-0.011982,-0.505196,-0.039633,0.63651,-262.877984,-1.288476,70.465513
3.296,0.008219,0.004831,-0.039808,0.003682,-0.004882,0.01255,-0.011675,-0.505133,-0.039059,0.63651,-262.877984,-1.288476,70.465513
3.3161,0.008066,0.004075,-0.039236,0.003691,-0.004848,0.012549,-0.011967,-0.504927,-0.039408,0.641654,-262.876148,-1.286899,70.470765
3.3358,0.007898,0.004198,-0.039533,0.003706,-0.004789,0.012548,-0.011937,-0.505489,-0.039231,0.641654,-262.876148,-1.286899,70.470765
3.356,0.008192,0.004245,-0.040028,0.00372,-0.004739,0.012547,-0.011937,-0.505489,-0.039231,0.641654,-262.876148,-1.286899,70.470765
3.3761,0.008146,0.004224,-0.039571,0.003731,-0.004698,0.012546,-0.012071,-0.505555,-0.039503,0.651684,-262.874298,-1.283948,70.475965
3.3963,0.007755,0.004338,-0.039553,0.003742,-0.00466,0.012545,-0.012038,-0.505506,-0.039471,0.651684,-262.874298,-1.283948,70.475965
3.4161,0.008095,0.004005,-0.039069,0.003752,-0.004628,0.012544,-0.012299,-0.505416,-0.039156,0.67137,-262.872401,-1.27763,70.481104
3.4365,0.007927,0.003797,-0.03775,0.00376,-0.0046,0.012544,-0.01186,-0.505597,-0.039057,0.67137,-262.872401,-1.27763,70.481104
3.4568,0.007669,0.003491,-0.036641,0.003767,-0.004575,0.012543,-0.01186,-0.505597,-0.039057,0.67137,-262.872401,-1.27763,70.481104
3.4761,0.00785,0.003783,-0.03669,0.003774,-0.004555,0.012542,-0.010864,-0.506366,-0.036117,0.67986,-262.870477,-1.2745,70.486227
3.4959,0.007944,0.004128,-0.036609,0.003779,-0.004516,0.01254,-0.010844,-0.50619,-0.036288,0.67986,-262.870477,-1.2745,70.486227
3.5162,0.00751,0.003413,-0.037007,0.003784,-0.004483,0.012539,-0.010607,-0.50568,-0.03621,0.688474,-262.868525,-1.271177,70.491334
3.5359,0.007499,0.003526,-0.036193,0.003792,-0.004446,0.012538,-0.011285,-0.506195,-0.036914,0.688474,-262.868525,-1.271177,70.491334
3.5562,0.007412,0.003255,-0.037297,0.003799,-0.004416,0.012536,-0.011285,-0.506195,-0.036914,0.688474,-262.868525,-1.271177,70.491334
3.5759,0.007359,0.003402,-0.035341,0.003804,-0.00439,0.012535,-0.011454,-0.506583,-0.036773,0.698062,-262.86655,-1.268675,70.496421
3.5966,0.007544,0.003269,-0.034989,0.003812,-0.004349,0.012534,-0.01111,-0.506481,-0.036123,0.698062,-262.86655,-1.268675,70.496421
3.6162,0.007119,0.002731,-0.03457,0.003818,-0.004316,0.012533,-0.010181,-0.506562,-0.034592,0.709408,-262.864548,-1.264877,70.501463
3.6363,0.007091,0.003132,-0.034823,0.003824,-0.004261,0.012531,-0.010475,-0.506937,-0.034552,0.709408,-262.864548,-1.264877,70.501463
3.6566,0.00762,0.003157,-0.035087,0.00383,-0.004216,0.01253,-0.010475,-0.506937,-0.034552,0.709408,-262.864548,-1.264877,70.501463
3.6761,0.006647,0.00292,-0.033286,0.003835,-0.004179,0.012528,-0.010118,-0.506715,-0.034564,0.71852,-262.862526,-1.26202,70.506473
3.6962,0.007281,0.002875,-0.034104,0.003835,-0.004169,0.012527,-0.010185,-0.50677,-0.033983,0.71852,-262.862526,-1.26202,70.506473
3.7161,0.006887,0.002632,-0.032108,0.003835,-0.004161,0.012526,-0.009992,-0.506965,-0.033707,0.735945,-262.860457,-1.257344,70.511445
3.736,0.007122,0.002511,-0.033814,0.003833,-0.004137,0.012524,-0.009519,-0.507101,-0.032214,0.735945,-262.860457,-1.257344,70.511445
3.756,0.006925,0.002487,-0.034163,0.003831,-0.004118,0.012523,-0.009519,-0.507101,-0.032214,0.735945,-262.860457,-1.257344,70.511445
3.7761,0.006693,0.002353,-0.03347,0.003829,-0.004102,0.012521,-0.010341,-0.507393,-0.033643,0.738282,-262.858383,-1.256858,70.516414
3.7961,0.006638,0.002294,-0.034288,0.003837,-0.004044,0.012519,-0.010337,-0.507401,-0.033509,0.738282,-262.858383,-1.256858,70.516414
3.8158,0.006268,0.002177,-0.031176,0.003845,-0.003997,0.012517,-0.01073,-0.507539,-0.033894,0.746925,-262.856299,-1.255726,70.521349
3.8362,0.006747,0.001885,-0.031097,0.003848,-0.003952,0.012516,-0.00971,-0.507579,-0.031372,0.746925,-262.856299,-1.255726,70.521349
3.8562,0.006831,0.002335,-0.032805,0.003851,-0.003915,0.012514,-0.00971,-0.507579,-0.031372,0.746925,-262.856299,-1.255726,70.521349
3.876,0.006956,0.00193,-0.032772,0.003853,-0.003884,0.012513,-0.009743,-0.507562,-0.032285,0.759175,-262.854189,-1.251844,70.526229
3.8965,0.006834,0.002014,-0.0313,0.003856,-0.003848,0.012511,-0.00973,-0.507679,-0.032427,0.759175,-262.854189,-1.251844,70.526229
3.916,0.006227,0.001789,-0.032498,0.003859,-0.003817,0.01251,-0.009008,-0.507864,-0.030904,0.772863,-262.852049,-1.248185,70.531063
3.9363,0.006403,0.002523,-0.031205,0.003866,-0.003761,0.012508,-0.010217,-0.507941,-0.032333,0.772863,-262.852049,-1.248185,70.531063
3.9563,0.006385,0.001568,-0.032026,0.003873,-0.003714,0.012507,-0.010217,-0.507941,-0.032333,0.772863,-262.852049,-1.248185,70.531063
3.976,0.006545,0.001689,-0.031102,0.003878,-0.003676,0.012506,-0.009789,-0.508335,-0.031503,0.780635,-262.849875,-1.245896,70.5359
3.9961,0.006097,0.00137,-0.030896,0.00388,-0.003621,0.012505,-0.009576,-0.508243,-0.031278,0.780635,-262.849875,-1.245896,70.5359
4.0161,0.006152,0.001676,-0.029828,0.003881,-0.003576,0.012504,-0.009539,-0.508507,-0.0305,0.796119,-262.847665,-1.240552,70.540668
4.0365,0.006407,0.001553,-0.029346,0.003879,-0.003557,0.012502,-0.009093,-0.508138,-0.029866,0.796119,-262.847665,-1.240552,70.540668
4.0561,0.006229,0.001671,-0.030244,0.003877,-0.003541,0.012501,-0.009093,-0.508138,-0.029866,0.796119,-262.847665,-1.240552,70.540668
4.076,0.006071,0.001445,-0.029713,0.003875,-0.003527,0.0125,-0.009036,-0.50825,-0.029724,0.80794,-262.845428,-1.237541,70.545392
4.0963,0.005817,0.001141,-0.027459,0.003873,-0.003499,0.012498,-0.009036,-0.5083,-0.029659,0.80794,-262.845428,-1.237541,70.545392
4.116,0.005944,0.001116,-0.028186,0.003872,-0.003475,0.012497,-0.008065,-0.508782,-0.027061,0.814476,-262.843171,-1.236615,70.550115
4.1361,0.005896,0.001028,-0.029123,0.003863,-0.003417,0.012496,-0.00839,-0.508696,-0.028064,0.814476,-262.843171,-1.236615,70.550115
4.1562,0.005572,0.00108,-0.029316,0.003857,-0.003369,0.012495,-0.00839,-0.508696,-0.028064,0.814476,-262.843171,-1.236615,70.550115
4.1767,0.005778,0.000848,-0.027776,0.003851,-0.00333,0.012495,-0.00922,-0.508851,-0.028792,0.820867,-262.8409,-1.235376,70.554817
4.1963,0.00544,0.001041,-0.02753,0.003851,-0.003271,0.012493,-0.008864,-0.508911,-0.028321,0.820867,-262.8409,-1.235376,70.554817
4.2166,0.005755,0.000904,-0.028084,0.003852,-0.003223,0.012492,-0.00848,-0.508874,-0.027134,0.840522,-262.838596,-1.232925,70.559454
4.2363,0.005851,0.000501,-0.028018,0.003849,-0.003186,0.012491,-0.008554,-0.508898,-0.027991,0.840522,-262.838596,-1.232925,70.559454
4.2564,0.005308,0.000441,-0.02635,0.003848,-0.003155,0.01249,-0.008554,-0.508898,-0.027991,0.840522,-262.838596,-1.232925,70.559454
4.2761,0.005723,0.000797,-0.0279,0.003847,-0.00313,0.012488,-0.007973,-0.509519,-0.025831,0.852519,-262.83627,-1.229737,70.56403
4.2959,0.005571,0.000529,-0.028028,0.003837,-0.003059,0.012489,-0.008172,-0.509325,-0.026618,0.852519,-262.83627,-1.229737,70.56403
4.316,0.005472,0.000235,-0.025826,0.003829,-0.003002,0.012489,-0.008602,-0.509374,-0.027632,0.863248,-262.833908,-1.227385,70.56859
4.3363,0.005158,0.000794,-0.027671,0.003813,-0.002921,0.012492,-0.007773,-0.50958,-0.025968,0.863248,-262.833908,-1.227385,70.56859
4.3562,0.005553,0.000411,-0.026242,0.0038,-0.002855,0.012493,-0.007773,-0.50958,-0.025968,0.863248,-262.833908,-1.227385,70.56859
4.3763,0.005448,0.000317,-0.025664,0.00379,-0.002802,0.012494,-0.007673,-0.509543,-0.025722,0.879406,-262.831516,-1.225034,70.573091
4.3962,0.005391,0.000407,-0.025632,0.00378,-0.002762,0.012494,-0.007641,-0.509546,-0.025638,0.879406,-262.831516,-1.225034,70.573091
4.4163,0.005415,0.000139,-0.024403,0.003773,-0.00273,0.012494,-0.007563,-0.509517,-0.025238,0.905387,-262.829083,-1.222341,70.577489
4.4363,0.005333,0.000281,-0.024748,0.00375,-0.00268,0.012498,-0.00707,-0.509697,-0.024456,0.905387,-262.829083,-1.222341,70.577489
4.4564,0.0053,0.000211,-0.026072,0.003732,-0.00264,0.0125,-0.00707,-0.509697,-0.024456,0.905387,-262.829083,-1.222341,70.577489
4.4762,0.004883,-0.000216,-0.023551,0.003717,-0.002607,0.012501,-0.00784,-0.509733,-0.025549,0.914727,-262.826617,-1.221565,70.581886
4.4965,0.005155,-6.4e-05,-0.023623,0.003712,-0.002559,0.012499,-0.007534,-0.509885,-0.024682,0.914727,-262.826617,-1.221565,70.581886
4.5163,0.004474,-0.000242,-0.024001,0.003709,-0.002519,0.012497,-0.006776,-0.510007,-0.023227,0.934245,-262.824127,-1.222677,70.586224
4.5365,0.005048,1.9e-05,-0.023348,0.003705,-0.002463,0.012496,-0.007675,-0.510092,-0.023915,0.934245,-262.824127,-1.222677,70.586224
4.5564,0.004448,-5.6e-05,-0.023578,0.003702,-0.002417,0.012494,-0.007675,-0.510092,-0.023915,0.934245,-262.824127,-1.222677,70.586224
4.5765,0.004972,-0.00034,-0.023693,0.003701,-0.002379,0.012492,-0.007423,-0.510023,-0.023055,0.943332,-262.821607,-1.220556,70.590535
4.5965,0.004423,-3.3e-05,-0.02285,0.003692,-0.002342,0.012493,-0.00728,-0.510105,-0.023251,0.943332,-262.821607,-1.220556,70.590535
4.6158,0.004788,-0.00024,-0.022584,0.003684,-0.002312,0.012494,-0.007114,-0.509978,-0.022452,0.956771,-262.819045,-1.216562,70.594791
4.6364,0.004554,-0.000475,-0.022725,0.003663,-0.002282,0.012498,-0.006758,-0.510102,-0.022552,0.956771,-262.819045,-1.216562,70.594791
4.6565,0.004643,-0.000252,-0.024696,0.003645,-0.002257,0.012501,-0.006758,-0.510102,-0.022552,0.956771,-262.819045,-1.216562,70.594791
4.6763,0.004231,-0.000651,-0.022904,0.00363,-0.002237,0.012503,-0.007799,-0.510196,-0.024174,0.964987,-262.81646,-1.215935,70.599027
4.6965,0.004482,-0.00068,-0.022312,0.003636,-0.002201,0.012499,-0.007638,-0.510339,-0.023595,0.964987,-262.81646,-1.215935,70.599027
4.7162,0.004299,-0.000554,-0.021628,0.003641,-0.002171,0.012495,-0.006782,-0.510627,-0.021913,0.978835,-262.813866,-1.218453,70.603222
4.7366,0.004161,-0.000345,-0.018844,0.003617,-0.002117,0.0125,-0.006729,-0.510456,-0.021633,0.978835,-262.813866,-1.218453,70.603222
4.7564,0.00434,-0.000428,-0.022015,0.003597,-0.002074,0.012503,-0.006729,-0.510456,-0.021633,0.978835,-262.813866,-1.218453,70.603222
4.7759,0.003975,-0.000812,-0.0201,0.003582,-0.002038,0.012504,-0.006736,-0.510399,-0.021491,0.982608,-262.811239,-1.21513,70.607407
4.796,0.004117,-0.000516,-0.02118,0.003559,-0.001995,0.012507,-0.006532,-0.510536,-0.020866,0.982608,-262.811239,-1.21513,70.607407
4.8158,0.003635,-0.000772,-0.019482,0.003541,-0.001959,0.012508,-0.006573,-0.510469,-0.020785,1.001666,-262.808594,-1.216218,70.611514
4.8361,0.004223,-0.000864,-0.019964,0.003513,-0.001909,0.012508,-0.006318,-0.510661,-0.019573,1.001666,-262.808594,-1.216218,70.611514
4.8561,0.00392,-0.00128,-0.019572,0.003491,-0.001868,0.012507,-0.006318,-0.510661,-0.019573,1.001666,-262.808594,-1.216218,70.611514
4.8763,0.003885,-0.000872,-0.019288,0.003473,-0.001835,0.012505,-0.005914,-0.511268,-0.019048,1.013316,-262.805923,-1.217356,70.615596
4.8965,0.00394,-0.000921,-0.01971,0.003418,-0.001734,0.012512,-0.005912,-0.511077,-0.019086,1.013316,-262.805923,-1.217356,70.615596
4.9162,0.003528,-0.001094,-0.018536,0.003375,-0.001652,0.012515,-0.006003,-0.510882,-0.019314,1.031493,-262.803237,-1.219368,70.619603
4.9363,0.003712,-0.001001,-0.018094,0.003347,-0.001601,0.012512,-0.005926,-0.510997,-0.018595,1.031493,-262.803237,-1.219368,70.619603
4.9567,0.003845,-0.000845,-0.019593,0.003325,-0.001559,0.012508,-0.005926,-0.510997,-0.018595,1.031493,-262.803237,-1.219368,70.619603
4.9763,0.003448,-0.001014,-0.018722,0.003307,-0.001525,0.012504,-0.006009,-0.510818,-0.019076,1.057733,-262.800516,-1.222499,70.623516
4.9962,0.003745,-0.001045,-0.018369,0.003304,-0.00152,0.012499,-0.00603,-0.51087,-0.018871,1.057733,-262.800516,-1.222499,70.623516
5.016,0.003391,-0.000982,-0.017733,0.003302,-0.001516,0.012495,-0.005518,-0.511009,-0.017973,1.074876,-262.79775,-1.224421,70.627393
5.0361,0.003205,-0.00127,-0.017911,0.003276,-0.001495,0.012488,-0.005635,-0.510914,-0.017734,1.074876,-262.79775,-1.224421,70.627393
5.056,0.003596,-0.001473,-0.018086,0.003255,-0.001478,0.012481,-0.005635,-0.510914,-0.017734,1.074876,-262.79775,-1.224421,70.627393
5.0765,0.003611,-0.001417,-0.017785,0.003237,-0.001464,0.012475,-0.00549,-0.511456,-0.017563,1.075683,-262.794967,-1.224389,70.631288
5.0961,0.003171,-0.001369,-0.016364,0.003184,-0.001367,0.012478,-0.005462,-0.511414,-0.017594,1.075683,-262.794967,-1.224389,70.631288
5.116,0.003032,-0.001145,-0.01655,0.003143,-0.00129,0.012478,-0.005072,-0.511348,-0.015968,1.086663,-262.79219,-1.228427,70.635137
5.1363,0.003287,-0.001548,-0.016741,0.003124,-0.001276,0.012459,-0.005375,-0.511101,-0.016482,1.086663,-262.79219,-1.228427,70.635137
5.1565,0.003126,-0.001354,-0.016083,0.003107,-0.001264,0.012444,-0.005375,-0.511101,-0.016482,1.086663,-262.79219,-1.228427,70.635137
5.1768,0.002968,-0.00153,-0.016698,0.003094,-0.001254,0.012431,-0.004947,-0.511344,-0.015565,1.109969,-262.789387,-1.231692,70.638885
5.197,0.002879,-0.001217,-0.016913,0.003052,-0.00119,0.012419,-0.005177,-0.511397,-0.015968,1.109969,-262.789387,-1.231692,70.638885
5.2167,0.002547,-0.001713,-0.014915,0.003019,-0.001139,0.012408,-0.005649,-0.511186,-0.016518,1.116664,-262.786561,-1.234312,70.642639
5.2364,0.002447,-0.001381,-0.015198,0.002974,-0.001062,0.012382,-0.005115,-0.51161,-0.015058,1.116664,-262.786561,-1.234312,70.642639
5.2561,0.002552,-0.001448,-0.017696,0.00294,-0.001,0.01236,-0.005115,-0.51161,-0.015058,1.116664,-262.786561,-1.234312,70.642639
5.2763,0.002736,-0.001542,-0.015584,0.002913,-0.000951,0.012343,-0.006349,-0.511417,-0.017182,1.132373,-262.783736,-1.237416,70.646305
5.2963,0.002922,-0.001681,-0.014576,0.002953,-0.000967,0.01234,-0.005865,-0.511449,-0.016463,1.132373,-262.783736,-1.237416,70.646305
5.3161,0.002962,-0.001784,-0.015209,0.002987,-0.00098,0.012337,-0.00442,-0.511658,-0.014187,1.154485,-262.78088,-1.240256,70.649864
5.3361,0.002317,-0.001468,-0.013197,0.002914,-0.000898,0.012335,-0.004757,-0.511721,-0.015101,1.154485,-262.78088,-1.240256,70.649864
5.3562,0.002389,-0.002071,-0.013572,0.002856,-0.000834,0.012332,-0.004757,-0.511721,-0.015101,1.154485,-262.78088,-1.240256,70.649864
5.3763,0.002307,-0.001703,-0.014147,0.002811,-0.000782,0.012328,-0.004409,-0.512067,-0.013058,1.143255,-262.778009,-1.233452,70.65346
5.396,0.002296,-0.0015,-0.012545,0.002744,-0.000698,0.012264,-0.004597,-0.511903,-0.013441,1.143255,-262.778009,-1.233452,70.65346
5.416,0.002327,-0.001421,-0.012968,0.002691,-0.000632,0.012214,-0.004014,-0.511486,-0.01216,1.176112,-262.775141,-1.244707,70.656902
5.4362,0.002161,-0.001783,-0.012428,0.002648,-0.000646,0.012141,-0.004258,-0.511389,-0.012876,1.176112,-262.775141,-1.244707,70.656902
5.4563,0.002128,-0.001814,-0.012873,0.002612,-0.000657,0.012085,-0.004258,-0.511389,-0.012876,1.176112,-262.775141,-1.244707,70.656902
5.4768,0.002103,-0.001605,-0.011241,0.002582,-0.000666,0.012044,-0.004325,-0.511799,-0.012364,1.195338,-262.772219,-1.249688,70.660297
5.4962,0.002322,-0.00171,-0.011956,0.002505,-0.000595,0.01194,-0.004035,-0.511713,-0.011858,1.195338,-262.772219,-1.249688,70.660297
5.5158,0.001809,-0.002253,-0.012866,0.002444,-0.000539,0.011864,-0.003694,-0.511696,-0.011573,1.202411,-262.769362,-1.259324,70.663655
5.536,0.001849,-0.001835,-0.010898,0.002437,-0.000468,0.011865,-0.004652,-0.512165,-0.01273,1.202411,-262.769362,-1.259324,70.663655
5.5561,0.001653,-0.001686,-0.012016,0.002433,-0.00041,0.011866,-0.004652,-0.512165,-0.01273,1.202411,-262.769362,-1.259324,70.663655
5.5762,0.001509,-0.00149,-0.010872,0.002432,-0.000363,0.011868,-0.004373,-0.511673,-0.011522,1.221345,-262.766525,-1.266605,70.666897
5.5961,0.001461,-0.001938,-0.013035,0.002422,-0.000391,0.011734,-0.004225,-0.511589,-0.011202,1.221345,-262.766525,-1.266605,70.666897
5.6158,0.001679,-0.001533,-0.012361,0.002414,-0.000413,0.011636,-0.00511,-0.511907,-0.012658,1.231301,-262.763607,-1.261577,70.67009
5.6359,0.00157,-0.002036,-0.011042,0.002462,-0.000474,0.011658,-0.004663,-0.511531,-0.012368,1.231301,-262.763607,-1.261577,70.67009
5.6564,0.001538,-0.001996,-0.011515,0.0025,-0.000522,0.011676,-0.004663,-0.511531,-0.012368,1.231301,-262.763607,-1.261577,70.67009
5.6762,0.001193,-0.001307,-0.008955,0.00253,-0.000559,0.01169,-0.004234,-0.511981,-0.011029,1.224684,-262.760766,-1.260204,70.673244
5.6962,0.001076,-0.001614,-0.00988,0.002439,-0.000495,0.011478,-0.003873,-0.511701,-0.01013,1.224684,-262.760766,-1.260204,70.673244
5.7162,0.000994,-0.001621,-0.009595,0.002368,-0.000447,0.011325,-0.003883,-0.511608,-0.00951,1.203748,-262.757964,-1.25329,70.676464
5.7362,0.001033,-0.001827,-0.008809,0.00232,-0.000424,0.011128,-0.003894,-0.511599,-0.00957,1.203748,-262.757964,-1.25329,70.676464
5.7562,0.001012,-0.001954,-0.008785,0.002282,-0.000406,0.010988,-0.003894,-0.511599,-0.00957,1.203748,-262.757964,-1.25329,70.676464
5.7763,0.000932,-0.001766,-0.00934,0.002253,-0.000393,0.01089,-0.003369,-0.511954,-0.008314,1.21994,-262.755219,-1.25964,70.679546
5.7964,0.000868,-0.002051,-0.00888,0.002157,-0.000306,0.010679,-0.003549,-0.511869,-0.008683,1.21994,-262.755219,-1.25964,70.679546
5.8162,0.000923,-0.001897,-0.009076,0.002084,-0.000239,0.010532,-0.00359,-0.512043,-0.008535,1.225186,-262.752562,-1.26119,70.6825
5.836,0.000925,-0.00132,-0.009416,0.002049,-0.000193,0.010483,-0.003692,-0.511891,-0.009013,1.225186,-262.752562,-1.26119,70.6825
5.8564,0.000836,-0.001817,-0.008109,0.002023,-0.000157,0.01045,-0.003692,-0.511891,-0.009013,1.225186,-262.752562,-1.26119,70.6825
5.8764,0.000616,-0.001933,-0.008048,0.002003,-0.000127,0.010428,-0.003213,-0.511811,-0.007671,1.246233,-262.749969,-1.268008,70.685274
5.8967,0.000618,-0.001775,-0.008437,0.001927,-8e-05,0.010182,-0.003315,-0.511855,-0.007775,1.246233,-262.749969,-1.268008,70.685274
5.916,0.000468,-0.001894,-0.007316,0.001869,-4.3e-05,0.010011,-0.003621,-0.511762,-0.008105,1.260315,-262.747356,-1.271758,70.687984
5.9361,0.000353,-0.001237,-0.005983,0.001818,-9e-06,0.009803,-0.003291,-0.51187,-0.007369,1.260315,-262.747356,-1.271758,70.687984
5.9562,0.000235,-0.001927,-0.007756,0.001778,1.8e-05,0.009661,-0.003291,-0.51187,-0.007369,1.260315,-262.747356,-1.271758,70.687984
5.9763,-3e-05,-0.002231,-0.006845,0.001748,4e-05,0.009565,-0.003643,-0.511914,-0.007339,1.272225,-262.744821,-1.276187,70.690551
5.9963,-5.3e-05,-0.001993,-0.00651,0.001755,6.9e-05,0.009427,-0.003584,-0.51204,-0.007088,1.272225,-262.744821,-1.276187,70.690551
6.0162,7.4e-05,-0.001971,-0.004409,0.001762,9.2e-05,0.009334,-0.003318,-0.511982,-0.006206,1.281906,-262.742371,-1.278174,70.692972
6.0361,0.000146,-0.002259,-0.00622,0.001527,0.00017,0.008512,-0.00227,-0.511967,-0.004548,1.281906,-262.742371,-1.278174,70.692972
6.0563,2e-05,-0.00181,-0.005341,0.001346,0.000235,0.007972,-0.00227,-0.511967,-0.004548,1.281906,-262.742371,-1.278174,70.692972
6.0759,0.00024,-0.001918,-0.006002,0.001206,0.000287,0.007619,-0.002631,-0.511799,-0.004952,1.275493,-262.739956,-1.266354,70.695316
6.0964,-0.000394,-0.002073,-0.004886,0.001201,0.000281,0.007638,-0.0027,-0.511844,-0.005339,1.275493,-262.739956,-1.266354,70.695316
6.1161,-0.000162,-0.001843,-0.007783,0.001197,0.000278,0.007658,-0.00285,-0.512059,-0.004661,1.331394,-262.738061,-1.301339,70.697004
6.136,-0.000322,-0.001832,-0.005657,0.001394,0.000185,0.00813,-0.004015,-0.511848,-0.007492,1.331394,-262.738061,-1.301339,70.697004
6.1559,-3.2e-05,-0.002027,-0.005243,0.00155,0.000117,0.008476,-0.004015,-0.511848,-0.007492,1.331394,-262.738061,-1.301339,70.697004
6.1759,-0.000369,-0.001853,-0.005181,0.001674,6.7e-05,0.008729,-0.002655,-0.512009,-0.004922,1.333885,-262.736022,-1.305206,70.698827
6.1959,-0.000244,-0.001651,-0.00483,0.001575,0.000124,0.008281,-0.002795,-0.511941,-0.004991,1.333885,-262.736022,-1.305206,70.698827
6.2164,-0.000401,-0.001786,-0.006063,0.001499,0.000169,0.00798,-0.002659,-0.511644,-0.004577,1.270113,-262.733953,-1.262884,70.700849
6.236,-0.000453,-0.001827,-0.003097,0.001562,0.000134,0.008032,-0.003422,-0.511766,-0.005929,1.270113,-262.733953,-1.262884,70.700849
6.2562,-0.000887,-0.001747,-0.00455,0.001611,0.000108,0.00807,-0.003422,-0.511766,-0.005929,1.270113,-262.733953,-1.262884,70.700849
6.276,-0.000873,-0.001814,-0.00274,0.00165,8.8e-05,0.008098,-0.003145,-0.511735,-0.004216,1.281913,-262.731864,-1.262389,70.702809
6.2961,-0.000435,-0.001673,-0.003201,0.001571,0.000104,0.007313,-0.002789,-0.511765,-0.00359,1.281913,-262.731864,-1.262389,70.702809
6.316,-0.000772,-0.001847,-0.002091,0.001512,0.000117,0.006794,-0.002016,-0.511668,-0.002948,1.254149,-262.729783,-1.243415,70.704824
6.3361,-0.000666,-0.001716,-0.00346,0.001249,0.000181,0.005783,-0.001851,-0.51183,-0.002154,1.254149,-262.729783,-1.243415,70.704824
6.3562,-0.000756,-0.001875,-0.004596,0.001048,0.000235,0.005114,-0.001851,-0.51183,-0.002154,1.254149,-262.729783,-1.243415,70.704824
6.376,-0.000729,-0.001846,-0.003315,0.000896,0.000281,0.004676,-0.003038,-0.511866,-0.004319,1.23022,-262.728015,-1.212027,70.706507
6.3962,-0.000835,-0.001776,-0.002368,0.00098,0.000271,0.005115,-0.002777,-0.511856,-0.003874,1.23022,-262.728015,-1.212027,70.706507
6.4162,-0.000901,-0.001635,-0.004589,0.001046,0.000266,0.00543,-0.002017,-0.511766,-0.00223,1.292647,-262.726802,-1.236068,70.707521
6.4363,-0.000776,-0.001743,-0.003691,0.001174,0.000199,0.005804,-0.003129,-0.511641,-0.004367,1.292647,-262.726802,-1.236068,70.707521
6.4561,-0.001133,-0.001276,-0.003331,0.001274,0.000149,0.006069,-0.003129,-0.511641,-0.004367,1.292647,-262.726802,-1.236068,70.707521
6.4762,-0.000659,-0.001742,-0.002728,0.001351,0.000112,0.006255,-0.002788,-0.511262,-0.003104,1.286775,-262.725311,-1.240591,70.70881
6.4962,-0.001115,-0.001629,-0.003237,0.001307,8e-05,0.005831,-0.002483,-0.511455,-0.002925,1.286775,-262.725311,-1.240591,70.70881
6.5165,-0.000902,-0.002024,-0.002294,0.001272,5.6e-05,0.005547,-0.002725,-0.511623,-0.003046,1.239763,-262.723715,-1.221337,70.710325
6.5364,-0.001061,-0.001725,-0.003083,0.001127,0.00016,0.005101,-0.002129,-0.511986,-0.002352,1.239763,-262.723715,-1.221337,70.710325
6.5564,-0.001133,-0.001409,-0.002243,0.001017,0.000242,0.004803,-0.002129,-0.511986,-0.002352,1.239763,-262.723715,-1.221337,70.710325
6.5761,-0.0014,-0.001603,-0.001804,0.000934,0.000308,0.004606,-0.002225,-0.511405,-0.002014,1.217019,-262.722263,-1.206041,70.711734
6.5964,-0.001121,-0.001527,-0.000984,0.000936,0.000248,0.004228,-0.002257,-0.511485,-0.001902,1.217019,-262.722263,-1.206041,70.711734
6.6163,-0.000828,-0.001574,-0.001722,0.000937,0.000203,0.003976,-0.001595,-0.511518,-0.000847,1.279931,-262.721042,-1.213901,70.712737
6.6363,-0.001017,-0.001524,-0.001563,0.000794,0.000217,0.003678,-0.001694,-0.511568,-0.001636,1.279931,-262.721042,-1.213901,70.712737
6.6562,-0.001469,-0.001701,-0.00253,0.000683,0.000229,0.003476,-0.001694,-0.511568,-0.001636,1.279931,-262.721042,-1.213901,70.712737
6.6765,-0.001212,-0.00179,-0.002489,0.000598,0.000239,0.003339,-0.002723,-0.511692,-0.002375,1.228689,-262.72,-1.172125,70.713637
6.6963,-0.001392,-0.001828,-0.000753,0.000726,0.000229,0.003618,-0.00262,-0.51173,-0.002404,1.228689,-262.72,-1.172125,70.713637
6.7158,-0.001282,-0.001903,-0.002105,0.000826,0.000222,0.003814,-0.001761,-0.511822,-0.000667,1.303693,-262.719238,-1.24713,70.71425
6.7359,-0.001465,-0.001717,-0.001603,0.000831,0.000268,0.003752,-0.002301,-0.511894,-0.001971,1.303693,-262.719238,-1.24713,70.71425
6.7562,-0.001128,-0.002027,-0.002754,0.000835,0.000304,0.00371,-0.002301,-0.511894,-0.001971,1.303693,-262.719238,-1.24713,70.71425
6.7762,-0.001374,-0.001692,-0.000301,0.00084,0.000333,0.003681,-0.0025,-0.512016,-0.002605,1.257697,-262.718242,-1.197219,70.715091
6.7959,-0.001416,-0.001468,-0.0017,0.000802,0.000364,0.003501,-0.002102,-0.511884,-0.001654,1.257697,-262.718242,-1.197219,70.715091
6.8157,-0.001313,-0.00143,-0.000676,0.000774,0.00039,0.003376,-0.002257,-0.511457,-0.001586,1.256086,-262.717184,-1.157298,70.715906
6.8361,-0.001385,-0.001743,-0.002856,0.0007,0.000323,0.002758,-0.00171,-0.511432,-0.000752,1.256086,-262.717184,-1.157298,70.715906
6.8564,-0.001259,-0.001594,-0.001486,0.000642,0.000273,0.002332,-0.00171,-0.511432,-0.000752,1.256086,-262.717184,-1.157298,70.715906
6.876,-0.00129,-0.001453,-0.000117,0.000597,0.000237,0.00204,-0.001984,-0.511577,-0.001346,1.265102,-262.716163,-1.13744,70.716638
6.8966,-0.001635,-0.001825,-0.00151,0.000558,0.00023,0.001893,-0.001722,-0.511524,-0.000829,1.265102,-262.716163,-1.13744,70.716638
6.9168,-0.001496,-0.00164,-6.4e-05,0.000528,0.000226,0.001792,-0.002391,-0.511819,-0.00146,1.190094,-262.715669,-1.062432,70.717
6.9364,-0.001434,-0.001405,-0.002061,0.000464,0.000247,0.001331,-0.001604,-0.511655,-0.000185,1.190094,-262.715669,-1.062432,70.717
6.9565,-0.001014,-0.001987,-0.000203,0.000415,0.000265,0.001014,-0.001604,-0.511655,-0.000185,1.190094,-262.715669,-1.062432,70.717
6.976,-0.001512,-0.001338,0.000591,0.000378,0.00028,0.000797,-0.001096,-0.511978,-0.00013,1.190615,-262.715113,-1.025033,70.717398
6.9961,-0.001558,-0.001707,-0.001351,0.000218,0.000322,0.000439,-0.00114,-0.511717,0.000172,1.190615,-262.715113,-1.025033,70.717398
7.0159,-0.001282,-0.001697,-0.000743,9.6e-05,0.000357,0.00019,-0.002247,-0.511706,-0.001351,1.115656,-262.71511,-0.950074,70.717399
7.0365,-0.001449,-0.001516,0.001455,0.000158,0.000366,0.000609,-0.001713,-0.511698,-0.000797,1.115656,-262.71511,-0.950074,70.717399
7.0565,-0.001481,-0.001708,-0.000466,0.000206,0.000373,0.000901,-0.001713,-0.511698,-0.000797,1.115656,-262.71511,-0.950074,70.717399
7.0764,-0.00161,-0.001602,-0.001195,0.000242,0.000379,0.001103,-0.001719,-0.511708,-0.000466,1.190684,-262.71511,-0.875047,70.717399
7.0967,-0.001343,-0.001632,-0.001578,0.000322,0.000365,0.001221,-0.001923,-0.511664,-0.000763,1.190684,-262.71511,-0.875047,70.717399
7.1162,-0.001196,-0.001472,-0.001667,0.000384,0.000354,0.001302,-0.002141,-0.511623,-0.001555,1.265683,-262.714815,-0.882416,70.717503
7.136,-0.00186,-0.001252,-0.000795,0.000478,0.000306,0.001847,-0.002054,-0.511484,-0.001656,1.265683,-262.714815,-0.882416,70.717503
7.1562,-0.001747,-0.001836,-6.8e-05,0.00055,0.000269,0.002225,-0.002054,-0.511484,-0.001656,1.265683,-262.714815,-0.882416,70.717503
7.1761,-0.001354,-0.001805,-0.000526,0.000605,0.000242,0.002486,-0.001766,-0.511821,-1.4e-05,1.248352,-262.714339,-0.854918,70.717733
7.1962,-0.001686,-0.001314,-0.001808,0.000537,0.000289,0.001836,-0.001705,-0.511813,-0.000218,1.248352,-262.714339,-0.854918,70.717733
7.2158,-0.001712,-0.001467,-0.001489,0.000486,0.000328,0.001387,-0.002601,-0.511311,-0.001786,1.239439,-262.714115,-0.929911,70.717903
7.2366,-0.001497,-0.001582,-0.000398,0.000647,0.000252,0.001809,-0.002481,-0.511455,-0.00151,1.239439,-262.714115,-0.929911,70.717903
7.2564,-0.001424,-0.001417,-0.001143,0.000772,0.000195,0.002104,-0.002481,-0.511455,-0.00151,1.239439,-262.714115,-0.929911,70.717903
7.2762,-0.001303,-0.001498,-0.001204,0.00087,0.000151,0.002311,-0.001992,-0.511406,-0.001098,1.178212,-262.713726,-0.854419,70.718121
7.2963,-0.001493,-0.001603,0.001091,0.000835,0.000142,0.002266,-0.00196,-0.511442,-0.001136,1.178212,-262.713726,-0.854419,70.718121
7.3163,-0.001717,-0.001873,-0.001289,0.000807,0.000134,0.002234,-0.000919,-0.511599,0.001139,1.103721,-262.713254,-0.92891,70.718525
7.3363,-0.001866,-0.001808,0.000477,0.000818,0.000191,0.002171,-0.002241,-0.511848,-0.001066,1.103721,-262.713254,-0.92891,70.718525
7.3564,-0.001383,-0.001529,-0.000132,0.000829,0.000236,0.002129,-0.002241,-0.511848,-0.001066,1.103721,-262.713254,-0.92891,70.718525
7.3764,-0.001391,-0.001466,-0.000443,0.000838,0.000272,0.0021,-0.001419,-0.511524,-4.5e-05,1.076448,-262.712619,-0.989997,70.719074
7.396,-0.001706,-0.001852,-0.000818,0.000688,0.000258,0.001562,-0.001497,-0.511499,-0.000199,1.076448,-262.712619,-0.989997,70.719074
7.4164,-0.001253,-0.001491,-0.000935,0.000573,0.000248,0.001187,-0.002102,-0.511845,-0.000763,1.076258,-262.712037,-0.91486,70.719507
7.4365,-0.001423,-0.001285,0.000785,0.000553,0.000243,0.001362,-0.001757,-0.511517,-0.000919,1.076258,-262.712037,-0.91486,70.719507
7.4567,-0.001872,-0.001563,-0.001151,0.000537,0.000238,0.001483,-0.001757,-0.511517,-0.000919,1.076258,-262.712037,-0.91486,70.719507
7.4767,-0.001719,-0.001605,-0.002003,0.000523,0.000235,0.001568,-0.002449,-0.511559,-0.001128,1.038491,-262.711838,-0.839495,70.719638
7.4961,-0.0014,-0.001031,-0.000278,0.0,0.0,0.0,-0.002566,-0.511577,-0.00148,1.038491,-262.711838,-0.839495,70.719638
