mach0312/omni-docking-bench/src/icros_test_setup/results/MPPI_sample/timeseries/trial_037.csv
t,x,y,yaw,vx,vy,wz,bl_x,bl_y,bl_yaw,front_steering_joint,front_wheel_joint,rear_steering_joint,rear_wheel_joint
0.0,-0.027607,0.000386,0.000415,-0.003722,-0.000332,-0.000273,-0.026941,-0.509507,2.1e-05,0.133158,-262.332863,0.04432,71.443273
0.0003,-0.027853,9e-06,-0.000272,-0.002549,-0.000227,-0.000187,-0.028087,-0.509759,-0.002027,0.133158,-262.335624,0.04432,71.440533
0.0006,-0.02836,0.000333,-0.000954,-0.001304,-0.000116,-9.6e-05,-0.028087,-0.509759,-0.002027,0.133158,-262.337574,0.04432,71.438599
0.0008,-0.028227,0.000158,5.2e-05,0.0,0.0,0.0,-0.028147,-0.509556,-0.001799,0.133158,-262.3381,0.04432,71.438077
0.001,-0.028444,0.000378,0.00098,0.0,0.0,0.0,-0.028147,-0.509556,-0.001799,0.133158,-262.3381,0.04432,71.438077
0.0013,-0.028025,-2.5e-05,-0.001402,0.0,0.0,0.0,-0.028147,-0.509556,-0.001799,0.133158,-262.3381,0.04432,71.438077
0.0014,-0.028173,0.00038,-0.001596,0.0,0.0,0.0,-0.027186,-0.510001,-0.000471,0.133158,-262.3381,0.04432,71.438077
0.0016,-0.027972,0.0002,-0.000295,0.0,0.0,0.0,-0.027697,-0.50965,-0.000865,0.133158,-262.3381,0.04432,71.438077
0.0173,-0.027994,0.00029,-0.000878,0.0,0.0,0.0,-0.028964,-0.509657,-0.001578,0.133158,-262.3381,0.04432,71.438077
0.0372,-0.027831,0.000563,-0.002013,0.0,0.0,0.0,-0.028442,-0.50971,-0.000878,0.133158,-262.3381,0.04432,71.438077
0.0576,-0.0282,0.000351,-0.000536,0.0,0.0,0.0,-0.028612,-0.509598,-0.001342,0.133158,-262.3381,0.04432,71.438077
0.0776,-0.028253,0.000139,0.000426,0.0,0.0,0.0,-0.028473,-0.509649,-0.000536,0.133158,-262.3381,0.04432,71.438077
0.0974,-0.028055,0.001004,7.3e-05,0.0,0.0,0.0,-0.028077,-0.509842,0.000336,0.133158,-262.3381,0.04432,71.438077
0.1173,-0.028323,0.000344,-0.000394,0.004783,0.000903,0.004363,-0.028077,-0.509842,0.000336,0.133158,-262.3381,0.04432,71.438077
0.1376,-0.02827,8.1e-05,-0.001476,0.0052,0.000972,0.00431,-0.028524,-0.509656,-0.000394,0.133158,-262.3381,0.04432,71.438077
0.1573,-0.028398,0.000168,-0.001501,0.005589,0.001047,0.004964,-0.028727,-0.509763,-0.000834,0.133158,-262.3381,0.04432,71.438077
0.1769,-0.028249,0.000221,3.5e-05,0.005915,0.001107,0.00546,-0.029162,-0.509832,-0.001501,0.208152,-262.338092,-0.030673,71.438084
0.1977,-0.028216,0.000567,0.000411,0.006172,0.001144,0.005428,-0.028314,-0.509784,-0.000103,0.208152,-262.338092,-0.030673,71.438084
0.2177,-0.028392,-0.000248,-6.9e-05,0.006393,0.001177,0.005426,-0.028314,-0.509784,-0.000103,0.208152,-262.338092,-0.030673,71.438084
0.2377,-0.028038,0.000162,-0.001462,0.006583,0.001207,0.005441,-0.028425,-0.510248,-6.8e-05,0.283166,-262.33807,-0.105687,71.438102
0.2578,-0.027764,0.000207,-0.000966,0.006761,0.001251,0.00576,-0.02857,-0.510082,-0.000633,0.283166,-262.33807,-0.105687,71.438102
0.2774,-0.028004,0.000386,-0.000224,0.006911,0.001288,0.005995,-0.028235,-0.509791,-0.000956,0.358156,-262.337763,-0.180678,71.438368
0.2973,-0.028037,0.000254,0.001297,0.007027,0.001296,0.005978,-0.028128,-0.509631,-0.000292,0.358156,-262.337763,-0.180678,71.438368
0.3173,-0.028377,0.000273,-0.00127,0.007128,0.001305,0.005972,-0.028128,-0.509631,-0.000292,0.358156,-262.337763,-0.180678,71.438368
0.3375,-0.028244,0.000315,-0.001529,0.007215,0.001313,0.005973,-0.028955,-0.509718,-0.001228,0.433153,-262.336993,-0.255675,71.43903
0.3576,-0.028107,0.000475,0.000373,0.007318,0.001339,0.006534,-0.028975,-0.509704,-0.001345,0.433153,-262.336993,-0.255675,71.43903
0.3773,-0.027939,0.000604,-0.001252,0.007402,0.001357,0.006935,-0.027773,-0.509506,0.000477,0.508147,-262.334897,-0.313009,71.440846
0.3973,-0.027411,0.000328,0.000468,0.007462,0.001356,0.00709,-0.028495,-0.509405,-0.001084,0.508147,-262.334897,-0.313009,71.440846
0.4176,-0.027871,0.000498,-0.000587,0.007513,0.001355,0.0072,-0.028495,-0.509405,-0.001084,0.508147,-262.334897,-0.313009,71.440846
0.4376,-0.028038,3.2e-05,0.000525,0.007555,0.001353,0.007279,-0.02795,-0.509469,-0.000396,0.583121,-262.332316,-0.370896,71.443055
0.4575,-0.027611,0.000538,-0.000112,0.007565,0.001341,0.006733,-0.027852,-0.509667,-3e-06,0.583121,-262.332316,-0.370896,71.443055
0.4769,-0.027693,0.00038,0.000469,0.007579,0.001337,0.006353,-0.027447,-0.509422,0.000102,0.654573,-262.328823,-0.388511,71.446049
0.4976,-0.027624,0.000346,-0.001288,0.007581,0.001324,0.005837,-0.027442,-0.5096,0.000446,0.654573,-262.328823,-0.388511,71.446049
0.5173,-0.027372,0.000407,0.002429,0.007587,0.001318,0.005477,-0.027442,-0.5096,0.000446,0.654573,-262.328823,-0.388511,71.446049
0.537,-0.027428,0.0006,0.000533,0.007596,0.001316,0.005227,-0.025849,-0.509541,0.002667,0.60285,-262.325526,-0.323762,71.448914
0.5572,-0.027157,0.000416,0.002276,0.007579,0.001286,0.004391,-0.026347,-0.509478,0.001828,0.60285,-262.325526,-0.323762,71.448914
0.5773,-0.027275,0.000634,0.000297,0.007571,0.001268,0.003804,-0.025793,-0.509548,0.002417,0.535561,-262.322573,-0.248766,71.45153
0.5974,-0.02726,0.000109,0.002049,0.007597,0.001278,0.004032,-0.026992,-0.509381,0.000497,0.535561,-262.322573,-0.248766,71.45153
0.6176,-0.027023,0.000747,0.000561,0.007618,0.001284,0.004195,-0.026992,-0.509381,0.000497,0.535561,-262.322573,-0.248766,71.45153
0.6371,-0.026866,0.000641,0.000817,0.007635,0.001289,0.004311,-0.026511,-0.509216,0.000685,0.460563,-262.320169,-0.173768,71.453723
0.6576,-0.027277,0.000788,0.002369,0.007643,0.001282,0.004258,-0.02646,-0.50927,0.000753,0.460563,-262.320169,-0.173768,71.453723
0.6772,-0.026697,0.000709,-7.3e-05,0.007651,0.001277,0.004223,-0.025825,-0.509168,0.002506,0.47452,-262.316747,-0.174287,71.456814
0.6974,-0.026899,0.000754,0.001179,0.007671,0.001284,0.004506,-0.026639,-0.509277,0.00017,0.47452,-262.316747,-0.174287,71.456814
0.7173,-0.026714,0.000597,0.000941,0.007686,0.001288,0.004708,-0.026639,-0.509277,0.00017,0.47452,-262.316747,-0.174287,71.456814
0.737,-0.026066,0.000909,0.000879,0.007697,0.00129,0.004852,-0.025914,-0.509349,0.001118,0.46687,-262.313307,-0.168517,71.45993
0.7573,-0.026383,0.000539,0.000699,0.007685,0.001272,0.0045,-0.025753,-0.509235,0.001039,0.46687,-262.313307,-0.168517,71.45993
0.7769,-0.025733,0.000992,-1.7e-05,0.007678,0.001259,0.004253,-0.025796,-0.509422,0.000845,0.504845,-262.309998,-0.214032,71.462893
0.7972,-0.026351,0.000808,0.001271,0.007695,0.001261,0.004583,-0.025734,-0.509044,6.9e-05,0.504845,-262.309998,-0.214032,71.462893
0.8172,-0.026207,0.000953,9.5e-05,0.007707,0.001259,0.004818,-0.025734,-0.509044,6.9e-05,0.504845,-262.309998,-0.214032,71.462893
0.8372,-0.026121,0.000806,0.002691,0.007715,0.001256,0.004984,-0.025853,-0.508997,0.000264,0.465514,-262.306732,-0.172573,71.465856
0.8574,-0.025964,0.000778,0.000833,0.007694,0.001229,0.004488,-0.025367,-0.50907,0.001275,0.465514,-262.306732,-0.172573,71.465856
0.8779,-0.025636,0.000918,0.001418,0.00768,0.00121,0.00414,-0.025312,-0.509184,0.000979,0.508514,-262.303441,-0.227733,71.468807
0.8973,-0.025864,0.001117,0.002129,0.00767,0.001195,0.003842,-0.024931,-0.509087,0.001394,0.508514,-262.303441,-0.227733,71.468807
0.9173,-0.025966,0.000926,0.003317,0.007665,0.001184,0.003633,-0.024931,-0.509087,0.001394,0.508514,-262.303441,-0.227733,71.468807
0.9373,-0.025312,0.000711,0.000618,0.007662,0.001177,0.003488,-0.023988,-0.509025,0.003471,0.453027,-262.300384,-0.170043,71.471596
0.9575,-0.025508,0.000624,0.000813,0.007645,0.001158,0.003,-0.024366,-0.509127,0.002324,0.453027,-262.300384,-0.170043,71.471596
0.9777,-0.02551,0.00095,0.003654,0.007634,0.001147,0.00266,-0.024865,-0.509341,0.000917,0.407511,-262.297264,-0.123748,71.474482
0.9971,-0.025404,0.001217,0.001719,0.007612,0.001117,0.002035,-0.023745,-0.509071,0.003411,0.407511,-262.297264,-0.123748,71.474482
1.0171,-0.025112,0.001073,0.00116,0.007599,0.001098,0.001597,-0.023745,-0.509071,0.003411,0.407511,-262.297264,-0.123748,71.474482
1.0375,-0.025014,0.001387,0.001419,0.007591,0.001086,0.001292,-0.024236,-0.508883,0.001259,0.348224,-262.294372,-0.062474,71.477206
1.0573,-0.025022,0.001041,0.001799,0.007626,0.001102,0.001912,-0.024225,-0.508768,0.001336,0.348224,-262.294372,-0.062474,71.477206
1.0771,-0.024815,0.001144,0.002121,0.00765,0.001111,0.002343,-0.023934,-0.508933,0.001837,0.273226,-262.292159,0.012524,71.479356
1.0974,-0.024257,0.00073,0.003008,0.007652,0.001105,0.002309,-0.023742,-0.50886,0.002097,0.273226,-262.292159,0.012524,71.479356
1.1175,-0.024616,0.000831,0.002603,0.007654,0.0011,0.002284,-0.023742,-0.50886,0.002097,0.273226,-262.292159,0.012524,71.479356
1.1376,-0.024297,0.00142,0.00304,0.007657,0.001096,0.002264,-0.022994,-0.509124,0.002693,0.320792,-262.289194,-0.041873,71.482172
1.1576,-0.024525,0.001047,0.001569,0.007646,0.00108,0.001958,-0.02286,-0.508898,0.002843,0.320792,-262.289194,-0.041873,71.482172
1.1772,-0.024224,0.001048,0.003508,0.007639,0.00107,0.001745,-0.023481,-0.508917,0.001641,0.313065,-262.285963,-0.037453,71.485248
1.1976,-0.024288,0.001419,0.001354,0.007628,0.001055,0.001409,-0.022507,-0.508945,0.003364,0.313065,-262.285963,-0.037453,71.485248
1.2176,-0.023948,0.000662,0.001206,0.007622,0.001045,0.001175,-0.022507,-0.508945,0.003364,0.313065,-262.285963,-0.037453,71.485248
1.2376,-0.023902,0.001218,0.003317,0.007619,0.00104,0.001014,-0.02303,-0.509295,0.001275,0.27259,-262.282957,0.000541,71.488143
1.2573,-0.023848,0.001333,0.003426,0.007644,0.001064,0.001386,-0.022664,-0.509082,0.002108,0.27259,-262.282957,0.000541,71.488143
1.2769,-0.023624,0.001294,0.003455,0.007662,0.00108,0.001643,-0.021882,-0.508634,0.003455,0.214409,-262.280125,0.055147,71.490914
1.2978,-0.023371,0.001452,0.003541,0.007647,0.00105,0.001307,-0.021854,-0.508696,0.003456,0.214409,-262.280125,0.055147,71.490914
1.3179,-0.023183,0.001681,0.002413,0.007637,0.001028,0.001071,-0.021854,-0.508696,0.003456,0.214409,-262.280125,0.055147,71.490914
1.3374,-0.023307,0.00135,0.002882,0.007631,0.001012,0.000907,-0.021656,-0.508275,0.002476,0.265509,-262.277193,0.010047,71.493744
1.3573,-0.023415,0.00141,0.002739,0.007641,0.001001,0.001093,-0.021695,-0.508421,0.002648,0.265509,-262.277193,0.010047,71.493744
1.377,-0.022927,0.001169,0.004375,0.007647,0.000989,0.001221,-0.021797,-0.508558,0.002765,0.202382,-262.274384,0.059997,71.496501
1.3973,-0.022625,0.001793,0.002571,0.007631,0.000968,0.000755,-0.020783,-0.508801,0.004233,0.202382,-262.274384,0.059997,71.496501
1.4171,-0.022904,0.001442,0.001942,0.007621,0.000954,0.000424,-0.020783,-0.508801,0.004233,0.202382,-262.274384,0.059997,71.496501
1.4373,-0.022387,0.001388,0.004243,0.007615,0.000946,0.000191,-0.0216,-0.508516,0.001992,0.22314,-262.271309,0.031827,71.499501
1.4573,-0.022417,0.0018,0.002235,0.007631,0.000953,0.000496,-0.021003,-0.508548,0.002915,0.22314,-262.271309,0.031827,71.499501
1.4773,-0.022333,0.001148,0.002894,0.007643,0.000956,0.000707,-0.021081,-0.508173,0.002242,0.148183,-262.268812,0.106784,71.501989
1.4973,-0.021735,0.001765,0.002632,0.007655,0.00097,0.000883,-0.020867,-0.508789,0.002837,0.148183,-262.268812,0.106784,71.501989
1.5173,-0.022153,0.00147,0.002807,0.007664,0.000979,0.001004,-0.020867,-0.508789,0.002837,0.148183,-262.268812,0.106784,71.501989
1.5373,-0.021778,0.0016,0.002419,0.00767,0.000986,0.001086,-0.020414,-0.508489,0.002836,0.179612,-262.265824,0.06849,71.504935
1.5573,-0.021494,0.001111,0.001861,0.007674,0.000975,0.001205,-0.020432,-0.508447,0.002669,0.179612,-262.265824,0.06849,71.504935
1.5771,-0.021142,0.001453,0.004141,0.007676,0.000966,0.001285,-0.020307,-0.508857,0.001894,0.211788,-262.262772,0.042064,71.507922
1.5971,-0.021555,0.001642,0.002191,0.007657,0.000935,0.000881,-0.019134,-0.50857,0.003939,0.211788,-262.262772,0.042064,71.507922
1.617,-0.021491,0.001654,0.002965,0.007644,0.000913,0.000594,-0.019134,-0.50857,0.003939,0.211788,-262.262772,0.042064,71.507922
1.6371,-0.020995,0.00145,0.004495,0.007635,0.000898,0.000394,-0.01966,-0.508303,0.003019,0.224239,-262.259641,0.02352,71.510975
1.6572,-0.02112,0.001737,0.002632,0.007631,0.000883,0.000359,-0.019227,-0.508398,0.003636,0.224239,-262.259641,0.02352,71.510975
1.6769,-0.021191,0.001663,0.003152,0.007629,0.000872,0.000335,-0.01957,-0.508236,0.002643,0.149078,-262.256995,0.085869,71.513602
1.697,-0.020762,0.001648,0.003542,0.007638,0.00087,0.00051,-0.019572,-0.508325,0.003111,0.149078,-262.256995,0.085869,71.513602
1.7172,-0.020529,0.001946,0.002981,0.007645,0.000867,0.000629,-0.019572,-0.508325,0.003111,0.149078,-262.256995,0.085869,71.513602
1.7369,-0.020514,0.001611,0.003819,0.007649,0.000863,0.000709,-0.018691,-0.508014,0.002995,0.140157,-262.253927,0.087255,71.516651
1.7573,-0.020474,0.001546,0.004088,0.007645,0.000842,0.000679,-0.018604,-0.508161,0.003332,0.140157,-262.253927,0.087255,71.516651
1.7773,-0.019846,0.001761,0.004761,0.007642,0.000824,0.000656,-0.018152,-0.508422,0.00411,0.167927,-262.250887,0.056168,71.519654
1.7972,-0.020018,0.001541,0.003879,0.007619,0.000782,0.000182,-0.017463,-0.508246,0.004714,0.167927,-262.250887,0.056168,71.519654
1.8175,-0.019767,0.001736,0.002891,0.007604,0.000751,-0.000157,-0.017463,-0.508246,0.004714,0.167927,-262.250887,0.056168,71.519654
1.8378,-0.019608,0.001908,0.00337,0.007593,0.000728,-0.000396,-0.017975,-0.508226,0.002918,0.158948,-262.247818,0.055347,71.522689
1.8573,-0.019541,0.001796,0.001969,0.007612,0.000738,-2e-06,-0.017904,-0.508167,0.003103,0.158948,-262.247818,0.055347,71.522689
1.8773,-0.019482,0.001663,0.004647,0.007625,0.000742,0.000272,-0.018344,-0.508183,0.001962,0.084503,-262.245392,0.127011,71.525129
1.8974,-0.019105,0.001766,0.00483,0.007614,0.000725,5e-06,-0.017214,-0.508317,0.004403,0.084503,-262.245392,0.127011,71.525129
1.9174,-0.01931,0.001858,0.003765,0.007606,0.000713,-0.000183,-0.017214,-0.508317,0.004403,0.084503,-262.245392,0.127011,71.525129
1.9377,-0.018975,0.001836,0.004029,0.007601,0.000705,-0.000314,-0.017089,-0.508108,0.003775,0.118603,-262.242503,0.0754,71.528006
1.9579,-0.018558,0.001788,0.003003,0.007602,0.000696,-0.000228,-0.016986,-0.508125,0.003879,0.118603,-262.242503,0.0754,71.528006
1.9776,-0.018901,0.002464,0.002811,0.007603,0.000687,-0.000167,-0.016798,-0.508188,0.002994,0.067385,-262.239663,0.117391,71.53086
1.9972,-0.018719,0.002068,0.003518,0.007617,0.000669,0.000266,-0.017393,-0.507593,0.002828,0.067385,-262.239663,0.117391,71.53086
2.0171,-0.018668,0.002018,0.003379,0.007626,0.00065,0.000564,-0.017393,-0.507593,0.002828,0.067385,-262.239663,0.117391,71.53086
2.0375,-0.018127,0.001942,0.004025,0.007631,0.000632,0.000769,-0.016627,-0.507949,0.003372,0.076819,-262.236626,0.103447,71.533904
2.0573,-0.018225,0.002108,0.003189,0.007622,0.000616,0.000607,-0.016366,-0.507989,0.003637,0.076819,-262.236626,0.103447,71.533904
2.0773,-0.017857,0.002021,0.002855,0.007615,0.000604,0.000492,-0.016396,-0.507872,0.003208,0.143393,-262.234048,0.028411,71.536455
2.097,-0.018153,0.001486,0.003444,0.007624,0.000607,0.00069,-0.01639,-0.507967,0.002888,0.143393,-262.234048,0.028411,71.536455
2.1176,-0.018094,0.001847,0.004186,0.00763,0.000608,0.000826,-0.01639,-0.507967,0.002888,0.143393,-262.234048,0.028411,71.536455
2.1371,-0.017605,0.001919,0.004072,0.007633,0.000607,0.000918,-0.015644,-0.508122,0.004207,0.118293,-262.231011,0.039885,71.539473
2.157,-0.01769,0.002131,0.002458,0.007614,0.000583,0.000529,-0.01556,-0.5081,0.004154,0.118293,-262.231011,0.039885,71.539473
2.1777,-0.017302,0.001833,0.003808,0.007601,0.000568,0.000254,-0.016203,-0.507849,0.002486,0.151757,-262.228022,0.005996,71.542428
2.197,-0.01726,0.001986,0.002907,0.007598,0.000567,0.000214,-0.015413,-0.508138,0.003709,0.151757,-262.228022,0.005996,71.542428
2.2171,-0.017049,0.002175,0.004085,0.007596,0.000566,0.000187,-0.015413,-0.508138,0.003709,0.151757,-262.228022,0.005996,71.542428
2.237,-0.016707,0.001851,0.00267,0.007595,0.000566,0.000168,-0.014676,-0.507798,0.004095,0.094823,-262.22524,0.054243,71.545202
2.257,-0.016835,0.001957,0.002588,0.007592,0.000551,0.000227,-0.014919,-0.50794,0.003508,0.094823,-262.22524,0.054243,71.545202
2.2775,-0.016376,0.002006,0.004226,0.007589,0.000538,0.000267,-0.015274,-0.508023,0.002594,0.087832,-262.222201,0.060927,71.548235
2.2971,-0.016216,0.001848,0.00349,0.007577,0.000514,9.5e-05,-0.014305,-0.507991,0.004076,0.087832,-262.222201,0.060927,71.548235
2.3173,-0.016253,0.001923,0.002588,0.007568,0.000496,-2.5e-05,-0.014305,-0.507991,0.004076,0.087832,-262.222201,0.060927,71.548235
2.3372,-0.01612,0.002243,0.002147,0.007561,0.000482,-0.000108,-0.014616,-0.508052,0.002599,0.092186,-262.219159,0.049361,71.551268
2.3578,-0.016254,0.002093,0.0037,0.007588,0.000498,0.00046,-0.014747,-0.507929,0.002416,0.092186,-262.219159,0.049361,71.551268
2.3772,-0.015877,0.002401,0.003202,0.007606,0.000508,0.000853,-0.014133,-0.507888,0.003697,0.054926,-262.216215,0.072257,71.554215
2.3972,-0.01551,0.002383,0.003889,0.007593,0.00047,0.000798,-0.014223,-0.50762,0.003243,0.054926,-262.216215,0.072257,71.554215
2.4176,-0.015691,0.002092,0.00185,0.007583,0.00044,0.000757,-0.014223,-0.50762,0.003243,0.054926,-262.216215,0.072257,71.554215
2.4374,-0.015207,0.002151,0.002746,0.007575,0.000415,0.000728,-0.014484,-0.50789,0.001879,0.130088,-262.213674,-0.001758,71.556733
2.4575,-0.015513,0.002103,0.002224,0.007593,0.000429,0.001103,-0.014174,-0.50787,0.00224,0.130088,-262.213674,-0.001758,71.556733
2.4769,-0.015214,0.00223,0.0034,0.007605,0.000436,0.001361,-0.01414,-0.507882,0.002247,0.113015,-262.210609,-0.003847,71.559779
2.4972,-0.014841,0.002384,0.003566,0.007586,0.000407,0.001108,-0.013511,-0.507774,0.003333,0.113015,-262.210609,-0.003847,71.559779
2.5172,-0.01539,0.002233,0.00143,0.007572,0.000385,0.00093,-0.013511,-0.507774,0.003333,0.113015,-262.210609,-0.003847,71.559779
2.5373,-0.014846,0.00234,0.003443,0.007562,0.000368,0.000806,-0.014372,-0.50775,0.001481,0.165171,-262.207777,-0.051852,71.562576
2.5576,-0.015073,0.002092,0.002292,0.007574,0.00037,0.001113,-0.013791,-0.507708,0.002323,0.165171,-262.207777,-0.051852,71.562576
2.5768,-0.014282,0.002316,0.00388,0.007582,0.000369,0.001325,-0.01368,-0.507895,0.002316,0.113192,-262.204934,-0.016462,71.565401
2.5973,-0.014601,0.002528,0.003629,0.007552,0.00032,0.000928,-0.012409,-0.507698,0.003749,0.113192,-262.204934,-0.016462,71.565401
2.617,-0.014529,0.002365,0.004,0.00753,0.000284,0.000649,-0.012409,-0.507698,0.003749,0.113192,-262.204934,-0.016462,71.565401
2.6371,-0.013968,0.002322,0.003404,0.007515,0.000256,0.000454,-0.012189,-0.507615,0.004052,0.15412,-262.202033,-0.057984,71.568272
2.6573,-0.014167,0.002238,0.002295,0.007499,0.000225,0.000302,-0.012172,-0.507638,0.003793,0.15412,-262.202033,-0.057984,71.568272
2.6772,-0.013927,0.002532,0.003452,0.007488,0.0002,0.000197,-0.012793,-0.507753,0.002309,0.07927,-262.199465,-0.002867,71.570834
2.6975,-0.013869,0.002005,0.003713,0.007484,0.000177,0.000286,-0.012214,-0.507492,0.003346,0.07927,-262.199465,-0.002867,71.570834
2.7172,-0.013763,0.002175,0.003561,0.00748,0.000158,0.000348,-0.012214,-0.507492,0.003346,0.07927,-262.199465,-0.002867,71.570834
2.7372,-0.013375,0.002139,0.002916,0.007478,0.000141,0.000392,-0.011641,-0.507812,0.003569,0.042781,-262.196539,0.010658,71.573758
2.7571,-0.013607,0.002044,0.004873,0.007481,0.000147,0.000438,-0.011706,-0.50783,0.003303,0.042781,-262.196539,0.010658,71.573758
2.7772,-0.012885,0.002176,0.004514,0.007483,0.000152,0.00047,-0.010886,-0.507944,0.004886,0.050817,-262.193574,-0.013235,71.576719
2.7975,-0.013059,0.001986,0.00207,0.007455,0.00011,6.5e-05,-0.010599,-0.50783,0.004548,0.050817,-262.193574,-0.013235,71.576719
2.8172,-0.013284,0.001895,0.003365,0.007435,8e-05,-0.000221,-0.010599,-0.50783,0.004548,0.050817,-262.193574,-0.013235,71.576719
2.8369,-0.012339,0.002281,0.003801,0.00742,5.8e-05,-0.000422,-0.011254,-0.508095,0.003385,0.058594,-262.19058,-0.018088,71.579708
2.8569,-0.012835,0.002521,0.004119,0.00743,7.5e-05,-0.00022,-0.010871,-0.50794,0.003557,0.058594,-262.19058,-0.018088,71.579708
2.8773,-0.012528,0.002125,0.001958,0.007438,8.8e-05,-7.7e-05,-0.010536,-0.507472,0.004109,-0.01642,-262.18809,0.042474,71.5822
2.8971,-0.012878,0.002764,0.003879,0.007472,0.000121,0.000576,-0.011427,-0.507837,0.002156,-0.01642,-262.18809,0.042474,71.5822
2.9172,-0.012126,0.002081,0.003242,0.007496,0.000143,0.001027,-0.011427,-0.507837,0.002156,-0.01642,-262.18809,0.042474,71.5822
2.9376,-0.012205,0.00198,0.00333,0.007512,0.000157,0.001337,-0.010166,-0.507912,0.003239,0.005482,-262.185165,0.018204,71.585125
2.9577,-0.01203,0.002598,0.002015,0.007491,0.000136,0.001099,-0.010269,-0.507954,0.003276,0.005482,-262.185165,0.018204,71.585125
2.9769,-0.011979,0.002415,0.002803,0.007474,0.00012,0.000931,-0.010843,-0.507398,0.002033,0.080486,-262.183183,-0.056801,71.587099
2.997,-0.011598,0.002062,0.002714,0.007463,8.6e-05,0.001019,-0.010568,-0.507566,0.002733,0.080486,-262.183183,-0.056801,71.587099
3.0168,-0.01172,0.002578,0.003451,0.007454,5.8e-05,0.001079,-0.010568,-0.507566,0.002733,0.080486,-262.183183,-0.056801,71.587099
3.0375,-0.011177,0.002497,0.002765,0.007446,3.4e-05,0.001119,-0.009648,-0.507413,0.00349,0.091918,-262.180186,-0.059917,71.590088
3.0576,-0.011557,0.00213,0.004659,0.007412,-3.1e-05,0.00096,-0.009661,-0.507448,0.003198,0.091918,-262.180186,-0.059917,71.590088
3.0775,-0.011405,0.002133,0.003,0.007385,-8.2e-05,0.000848,-0.008946,-0.507862,0.004695,0.095994,-262.177229,-0.08702,71.593042
3.0973,-0.011439,0.00242,0.004453,0.007383,-7.5e-05,0.000777,-0.009761,-0.507864,0.003185,0.095994,-262.177229,-0.08702,71.593042
3.1175,-0.011065,0.002003,0.002386,0.007381,-7e-05,0.000727,-0.009761,-0.507864,0.003185,0.095994,-262.177229,-0.08702,71.593042
3.1372,-0.010866,0.0023,0.004652,0.00738,-6.6e-05,0.000692,-0.009545,-0.507998,0.002421,0.058998,-262.174335,-0.081032,71.595941
3.1571,-0.010822,0.002158,0.003277,0.007365,-8.1e-05,0.000607,-0.009083,-0.507875,0.003332,0.058998,-262.174335,-0.081032,71.595941
3.177,-0.010311,0.001813,0.003981,0.007353,-9.4e-05,0.000548,-0.008917,-0.507841,0.003299,0.04835,-262.171396,-0.06609,71.598883
3.1972,-0.010254,0.002292,0.004321,0.007329,-0.000103,0.00029,-0.008326,-0.508153,0.003921,0.04835,-262.171396,-0.06609,71.598883
3.2169,-0.010233,0.002168,0.003696,0.00731,-0.000109,0.000109,-0.008326,-0.508153,0.003921,0.04835,-262.171396,-0.06609,71.598883
3.2369,-0.01017,0.00208,0.004865,0.007295,-0.000112,-1.6e-05,-0.008042,-0.507831,0.003719,0.032774,-262.168468,-0.058179,71.601815
3.2571,-0.010153,0.002273,0.001957,0.007253,-0.000173,-0.0002,-0.007863,-0.507865,0.004189,0.032774,-262.168468,-0.058179,71.601815
3.2769,-0.009664,0.002012,0.003393,0.00722,-0.00022,-0.000328,-0.008938,-0.507729,0.001956,-0.016637,-262.165748,-0.013989,71.604535
3.2975,-0.009652,0.002174,0.003832,0.00722,-0.000223,-8.5e-05,-0.008013,-0.507962,0.003264,-0.016637,-262.165748,-0.013989,71.604535
3.3176,-0.009903,0.001984,0.003392,0.007218,-0.000226,8.5e-05,-0.008013,-0.507962,0.003264,-0.016637,-262.165748,-0.013989,71.604535
3.337,-0.009156,0.002518,0.002464,0.007215,-0.000231,0.000204,-0.007879,-0.508021,0.003378,-0.058249,-262.162924,-0.002741,71.607353
3.3574,-0.009374,0.002339,0.003246,0.007204,-0.000259,0.000386,-0.007853,-0.507795,0.002993,-0.058249,-262.162924,-0.002741,71.607353
3.3768,-0.008964,0.002459,0.003969,0.007195,-0.000283,0.000512,-0.007504,-0.507664,0.003252,-0.014677,-262.160233,-0.049214,71.610047
3.3971,-0.009302,0.002429,0.003962,0.007119,-0.000395,0.000253,-0.006979,-0.507549,0.003906,-0.014677,-262.160233,-0.049214,71.610047
3.417,-0.009366,0.002239,0.003565,0.00706,-0.000482,7.1e-05,-0.006979,-0.507549,0.003906,-0.014677,-262.160233,-0.049214,71.610047
3.4371,-0.008738,0.002182,0.004448,0.007015,-0.00055,-5.5e-05,-0.007254,-0.507768,0.003586,0.004142,-262.157418,-0.082635,71.612872
3.4569,-0.009145,0.002098,0.003628,0.00699,-0.000574,-0.000158,-0.006896,-0.507788,0.003944,0.004142,-262.157418,-0.082635,71.612872
3.4773,-0.008134,0.00235,0.003933,0.006971,-0.000593,-0.000228,-0.007098,-0.507912,0.003628,-0.07097,-262.154933,-0.073421,71.615356
3.497,-0.008626,0.002313,0.004038,0.006905,-0.000663,-0.000278,-0.006203,-0.507671,0.003906,-0.07097,-262.154933,-0.073421,71.615356
3.517,-0.008667,0.002342,0.003572,0.006853,-0.000718,-0.000311,-0.006203,-0.507671,0.003906,-0.07097,-262.154933,-0.073421,71.615356
3.5369,-0.00797,0.002278,0.003762,0.006812,-0.000762,-0.000333,-0.006559,-0.507678,0.003563,-0.10466,-262.152183,-0.064961,71.618096
3.5573,-0.008092,0.002555,0.003829,0.006794,-0.000781,-0.000252,-0.006319,-0.507697,0.003643,-0.10466,-262.152183,-0.064961,71.618096
3.5772,-0.007667,0.002214,0.003722,0.006779,-0.000797,-0.000194,-0.005928,-0.507464,0.003818,-0.140779,-262.1495,-0.081781,71.620761
3.5974,-0.008102,0.002063,0.002918,0.006728,-0.000835,-0.000196,-0.005772,-0.507754,0.00373,-0.140779,-262.1495,-0.081781,71.620761
3.6172,-0.007803,0.001949,0.002525,0.006687,-0.000865,-0.000198,-0.005772,-0.507754,0.00373,-0.140779,-262.1495,-0.081781,71.620761
3.6374,-0.007147,0.001964,0.003845,0.006655,-0.000888,-0.000198,-0.006233,-0.508082,0.002517,-0.134256,-262.146779,-0.099827,71.623471
3.6573,-0.007408,0.001862,0.005657,0.006662,-0.000842,5e-05,-0.005774,-0.508065,0.003057,-0.134256,-262.146779,-0.099827,71.623471
3.677,-0.007146,0.002011,0.004684,0.006664,-0.000809,0.000222,-0.004312,-0.508156,0.005651,-0.150532,-262.144108,-0.114773,71.626129
3.6974,-0.006868,0.002145,0.003925,0.00652,-0.000887,-0.000265,-0.004706,-0.508,0.004771,-0.150532,-262.144108,-0.114773,71.626129
3.7174,-0.00699,0.002209,0.00485,0.006409,-0.000944,-0.000611,-0.004706,-0.508,0.004771,-0.150532,-262.144108,-0.114773,71.626129
3.7375,-0.006916,0.001857,0.004413,0.006322,-0.000987,-0.000853,-0.004251,-0.507816,0.004858,-0.100668,-262.141561,-0.140717,71.628689
3.7577,-0.006038,0.001721,0.003225,0.006206,-0.001046,-0.001003,-0.004388,-0.50795,0.004679,-0.100668,-262.141561,-0.140717,71.628689
3.7774,-0.006472,0.001789,0.004447,0.006117,-0.001091,-0.001105,-0.004251,-0.508294,0.003213,-0.175665,-262.139745,-0.073526,71.63046
3.7977,-0.006699,0.001756,0.002582,0.006045,-0.001074,-0.001067,-0.004201,-0.508215,0.004333,-0.175665,-262.139745,-0.073526,71.63046
3.8176,-0.006333,0.002092,0.002951,0.005987,-0.001061,-0.001037,-0.004201,-0.508215,0.004333,-0.175665,-262.139745,-0.073526,71.63046
3.837,-0.006172,0.002107,0.003353,0.005941,-0.001052,-0.001013,-0.004613,-0.50794,0.002918,-0.250655,-262.137615,-0.06784,71.632512
3.857,-0.006775,0.002247,0.003749,0.005949,-0.001064,-0.000536,-0.004527,-0.507924,0.003091,-0.250655,-262.137615,-0.06784,71.632512
3.8769,-0.005815,0.002104,0.002962,0.005953,-0.001076,-0.000205,-0.004676,-0.507782,0.003717,-0.274082,-262.135169,-0.072824,71.634873
3.8972,-0.005981,0.001745,0.004861,0.005926,-0.001107,4.2e-05,-0.004328,-0.507885,0.003028,-0.274082,-262.135169,-0.072824,71.634873
3.9172,-0.005674,0.001845,0.003557,0.005903,-0.001133,0.000213,-0.004328,-0.507885,0.003028,-0.274082,-262.135169,-0.072824,71.634873
3.9373,-0.005741,0.00211,0.003482,0.005884,-0.001155,0.00033,-0.003657,-0.508187,0.003548,-0.199175,-262.133194,-0.147859,71.636833
3.9574,-0.005718,0.001993,0.002904,0.005783,-0.001178,0.000207,-0.003759,-0.508069,0.00352,-0.199175,-262.133194,-0.147859,71.636833
3.9773,-0.0054,0.001933,0.003474,0.005704,-0.001195,0.000122,-0.004072,-0.508037,0.002913,-0.16064,-262.131086,-0.222867,71.638968
3.9975,-0.005446,0.001865,0.003927,0.005626,-0.001213,9.3e-05,-0.003659,-0.508063,0.003425,-0.16064,-262.131086,-0.222867,71.638968
4.0175,-0.005705,0.002017,0.002587,0.005565,-0.001227,7.3e-05,-0.003659,-0.508063,0.003425,-0.16064,-262.131086,-0.222867,71.638968
4.037,-0.005253,0.001662,0.005197,0.005516,-0.001238,6.1e-05,-0.004151,-0.508029,0.002592,-0.193981,-262.128803,-0.218916,71.641264
4.0573,-0.005182,0.002052,0.003259,0.005452,-0.001238,-3.5e-05,-0.003495,-0.508157,0.00365,-0.193981,-262.128803,-0.218916,71.641264
4.0773,-0.004539,0.001699,0.004915,0.005402,-0.001239,-0.000101,-0.003345,-0.507984,0.003261,-0.214273,-262.126562,-0.227092,71.643511
4.0973,-0.005048,0.001632,0.002777,0.00502,-0.001302,-0.000565,-0.002142,-0.508269,0.004765,-0.214273,-262.126562,-0.227092,71.643511
4.1171,-0.005129,0.002004,0.004622,0.004732,-0.00135,-0.00089,-0.002142,-0.508269,0.004765,-0.214273,-262.126562,-0.227092,71.643511
4.1373,-0.0044,0.001448,0.003875,0.004514,-0.001386,-0.001112,-0.002547,-0.508041,0.004618,-0.236198,-262.124357,-0.214549,71.645705
4.1573,-0.004562,0.001592,0.003593,0.004445,-0.001393,-0.0011,-0.00247,-0.508256,0.004311,-0.236198,-262.124357,-0.214549,71.645705
4.1769,-0.004616,0.001442,0.004132,0.004391,-0.001399,-0.001087,-0.002654,-0.508423,0.003582,-0.311355,-262.123321,-0.15544,71.646659
4.197,-0.004555,0.001648,0.00296,0.004394,-0.001322,-0.000998,-0.002516,-0.508545,0.004092,-0.311355,-262.123321,-0.15544,71.646659
4.2172,-0.004512,0.001397,0.002766,0.004392,-0.001264,-0.000932,-0.002516,-0.508545,0.004092,-0.311355,-262.123321,-0.15544,71.646659
4.2371,-0.004309,0.001804,0.003357,0.004389,-0.001222,-0.000884,-0.00296,-0.508641,0.002737,-0.386755,-262.121828,-0.165738,71.648028
4.257,-0.003919,0.001088,0.003383,0.004463,-0.001181,-0.000435,-0.002788,-0.508454,0.002999,-0.386755,-262.121828,-0.165738,71.648028
4.2774,-0.00378,0.001758,0.002267,0.004518,-0.001152,-0.000124,-0.002056,-0.508947,0.003355,-0.381664,-262.119958,-0.154096,71.649785
4.2974,-0.00411,0.001916,0.002145,0.004507,-0.00116,0.000331,-0.002566,-0.508306,0.002364,-0.381664,-262.119958,-0.154096,71.649785
4.3172,-0.003735,0.001833,0.004873,0.004496,-0.001168,0.000645,-0.002566,-0.508306,0.002364,-0.381664,-262.119958,-0.154096,71.649785
4.3371,-0.003876,0.001486,0.003439,0.004485,-0.001177,0.00086,-0.001113,-0.508198,0.004864,-0.307295,-262.118596,-0.228465,71.651136
4.3573,-0.003984,0.001556,0.004158,0.004138,-0.001255,0.000273,-0.001507,-0.508329,0.004285,-0.307295,-262.118596,-0.228465,71.651136
4.3769,-0.00396,0.001521,0.005399,0.003878,-0.001313,-0.00014,-0.001794,-0.508459,0.004163,-0.2323,-262.117711,-0.303459,71.652073
4.3972,-0.003709,0.001194,0.003135,0.003598,-0.001352,-0.000723,-0.001256,-0.508471,0.005288,-0.2323,-262.117711,-0.303459,71.652073
4.4172,-0.003794,0.001642,0.003029,0.003385,-0.001382,-0.001136,-0.001256,-0.508471,0.005288,-0.2323,-262.117711,-0.303459,71.652073
4.4373,-0.003583,0.001403,0.00343,0.003223,-0.001405,-0.001427,-0.002116,-0.508397,0.003029,-0.307301,-262.116372,-0.306525,71.653393
4.4574,-0.003595,0.001382,0.00362,0.003361,-0.001358,-0.000891,-0.001986,-0.508482,0.003191,-0.307301,-262.116372,-0.306525,71.653393
4.4779,-0.003487,0.001638,0.003099,0.003463,-0.001326,-0.000519,-0.001731,-0.50862,0.003618,-0.382306,-262.116128,-0.23152,71.653596
4.4974,-0.003658,0.00127,0.003145,0.00351,-0.001333,-0.00025,-0.00189,-0.508384,0.003146,-0.382306,-262.116128,-0.23152,71.653596
4.5172,-0.003526,0.001707,0.001976,0.003544,-0.00134,-6.4e-05,-0.00189,-0.508384,0.003146,-0.382306,-262.116128,-0.23152,71.653596
4.5374,-0.003581,0.001128,0.002914,0.003569,-0.001347,6.3e-05,-0.002387,-0.508342,0.001956,-0.443147,-262.114744,-0.283539,71.654898
4.5575,-0.00314,0.001743,0.004046,0.003719,-0.001275,0.000486,-0.002254,-0.508562,0.002342,-0.443147,-262.114744,-0.283539,71.654898
4.5769,-0.003217,0.001192,0.004026,0.003832,-0.001224,0.000774,-0.000988,-0.508286,0.004046,-0.368135,-262.113566,-0.358551,71.656085
4.597,-0.003201,0.001632,0.004169,0.003561,-0.001194,0.000298,-0.001143,-0.508759,0.004028,-0.368135,-262.113566,-0.358551,71.656085
4.6172,-0.003429,0.001074,0.00312,0.003356,-0.00117,-3.6e-05,-0.001143,-0.508759,0.004028,-0.368135,-262.113566,-0.358551,71.656085
4.6373,-0.003096,0.001112,0.003541,0.0032,-0.001151,-0.000269,-0.001746,-0.508958,0.003131,-0.293051,-262.11266,-0.41682,71.657057
4.6574,-0.003533,0.001249,0.004803,0.003248,-0.00106,-0.000153,-0.001551,-0.508933,0.003298,-0.293051,-262.11266,-0.41682,71.657057
4.6773,-0.003244,0.00094,0.001401,0.003282,-0.000991,-7.3e-05,-0.001013,-0.508771,0.004801,-0.368011,-262.1117,-0.34186,71.657986
4.6974,-0.003267,0.001011,0.004374,0.003577,-0.000848,0.000711,-0.002415,-0.509039,0.001651,-0.368011,-262.1117,-0.34186,71.657986
4.7175,-0.002973,0.001284,0.002608,0.003799,-0.000742,0.001248,-0.002415,-0.509039,0.001651,-0.368011,-262.1117,-0.34186,71.657986
4.7374,-0.003135,0.001449,0.00423,0.003966,-0.000663,0.001611,-0.001521,-0.508751,0.002606,-0.305692,-262.110489,-0.280802,71.659188
4.7571,-0.002864,0.001169,0.002932,0.003702,-0.00078,0.001153,-0.001287,-0.508672,0.003263,-0.305692,-262.110489,-0.280802,71.659188
4.7772,-0.00288,0.001245,0.004263,0.003505,-0.000868,0.000831,-0.00136,-0.508832,0.002933,-0.23118,-262.110377,-0.355314,71.659309
4.7975,-0.00328,0.001103,0.003045,0.003171,-0.000929,0.000286,-0.000754,-0.508756,0.004164,-0.23118,-262.110377,-0.355314,71.659309
4.8174,-0.002692,0.001343,0.002134,0.002919,-0.000976,-9.7e-05,-0.000754,-0.508756,0.004164,-0.23118,-262.110377,-0.355314,71.659309
4.8375,-0.002938,0.001239,0.003001,0.002728,-0.001011,-0.000363,-0.001493,-0.508686,0.002155,-0.155722,-262.109309,-0.373834,71.66045
4.8571,-0.002923,0.000968,0.003312,0.002847,-0.001008,9.5e-05,-0.001445,-0.508719,0.002502,-0.155722,-262.109309,-0.373834,71.66045
4.8773,-0.00253,0.000972,0.00413,0.002935,-0.001009,0.000411,-0.00121,-0.509036,0.003313,-0.230265,-262.108984,-0.29929,71.660758
4.8974,-0.002669,0.000952,0.002168,0.002656,-0.000951,2.4e-05,-0.000494,-0.509025,0.004056,-0.230265,-262.108984,-0.29929,71.660758
4.9174,-0.002786,0.001509,0.003331,0.002444,-0.000908,-0.000244,-0.000494,-0.509025,0.004056,-0.230265,-262.108984,-0.29929,71.660758
4.9371,-0.002494,0.000861,0.002185,0.00228,-0.000876,-0.000428,-0.000985,-0.508522,0.003343,-0.252916,-262.107981,-0.374284,71.661815
4.9571,-0.002417,0.001392,0.003201,0.002392,-0.000906,-9.9e-05,-0.001133,-0.508775,0.002875,-0.252916,-262.107981,-0.374284,71.661815
4.9773,-0.002536,0.000811,0.000624,0.002476,-0.000931,0.000129,-0.000754,-0.508615,0.0032,-0.327863,-262.10757,-0.299338,71.662196
4.9974,-0.002609,0.001382,0.004146,0.002882,-0.000772,0.001249,-0.002084,-0.509137,0.000857,-0.327863,-262.10757,-0.299338,71.662196
5.0175,-0.002769,0.00147,0.005176,0.003188,-0.000657,0.00202,-0.002084,-0.509137,0.000857,-0.327863,-262.10757,-0.299338,71.662196
5.038,-0.00253,0.000578,0.002052,0.00342,-0.000572,0.002543,-3.7e-05,-0.508556,0.00518,-0.331505,-262.106638,-0.374392,71.663148
5.0577,-0.002651,0.000871,0.00486,0.003053,-0.000661,0.001615,-0.000632,-0.508922,0.003871,-0.331505,-262.106638,-0.374392,71.663148
5.0773,-0.002312,0.001121,0.003935,0.002778,-0.000726,0.000952,-0.000173,-0.509123,0.00486,-0.255914,-262.106636,-0.449983,71.66315
5.0975,-0.002747,0.000965,0.003572,0.002449,-0.00078,0.000434,-0.000296,-0.508892,0.003999,-0.255914,-262.106636,-0.449983,71.66315
5.1178,-0.002162,0.001077,0.002664,0.0022,-0.000821,7e-05,-0.000296,-0.508892,0.003999,-0.255914,-262.106636,-0.449983,71.66315
5.1372,-0.002576,0.001092,0.003961,0.002011,-0.000852,-0.000183,-0.000745,-0.50894,0.002678,-0.180871,-262.106071,-0.439812,71.663774
5.1576,-0.002198,0.000868,0.002716,0.002019,-0.000856,-6.8e-05,-0.00066,-0.508927,0.003212,-0.180871,-262.106071,-0.439812,71.663774
5.1772,-0.002203,0.001121,0.004071,0.002023,-0.000861,1.2e-05,-0.000794,-0.509136,0.002717,-0.255499,-262.10582,-0.365184,71.664015
5.1971,-0.002317,0.001679,0.004351,0.001837,-0.00088,-0.000206,-0.000186,-0.508898,0.003949,-0.255499,-262.10582,-0.365184,71.664015
5.2172,-0.00258,0.000998,0.004264,0.001696,-0.000895,-0.000356,-0.000186,-0.508898,0.003949,-0.255499,-262.10582,-0.365184,71.664015
5.2374,-0.002696,0.001087,0.001895,0.001587,-0.000907,-0.000456,-0.000346,-0.509021,0.004268,-0.330233,-262.105206,-0.405395,71.66463
5.2573,-0.00244,0.001125,0.004163,0.001787,-0.00088,-0.000269,-0.000901,-0.508979,0.003304,-0.330233,-262.105206,-0.405395,71.66463
5.2768,-0.002132,0.00108,0.003922,0.001937,-0.000861,-0.000142,-0.000306,-0.508875,0.004162,-0.405222,-262.105043,-0.37668,71.664771
5.2974,-0.002238,0.001077,0.001915,0.001755,-0.000875,-0.000305,-0.000143,-0.508913,0.00394,-0.405222,-262.105043,-0.37668,71.664771
5.3173,-0.002215,0.001139,0.004101,0.001617,-0.000887,-0.000416,-0.000143,-0.508913,0.00394,-0.405222,-262.105043,-0.37668,71.664771
5.337,-0.001936,0.0008,0.004455,0.00151,-0.000895,-0.00049,-4.6e-05,-0.508891,0.004096,-0.454992,-262.10422,-0.380113,71.665567
5.3574,-0.001997,0.00091,0.004182,0.001332,-0.000863,-0.000647,0.000119,-0.509018,0.004242,-0.454992,-262.10422,-0.380113,71.665567
5.3768,-0.002049,0.00115,0.004162,0.001194,-0.000839,-0.000752,0.00016,-0.509097,0.004177,-0.529456,-262.103852,-0.37592,71.665877
5.3973,-0.002361,0.001048,0.003709,0.001098,-0.000869,-0.000792,8.2e-05,-0.508868,0.004163,-0.529456,-262.103852,-0.37592,71.665877
5.4173,-0.001998,0.001234,0.002563,0.001024,-0.000892,-0.000817,8.2e-05,-0.508868,0.004163,-0.529456,-262.103852,-0.37592,71.665877
5.4372,-0.002026,0.00103,0.003756,0.000967,-0.00091,-0.000831,-0.000679,-0.508771,0.002558,-0.604462,-262.103696,-0.307903,71.665988
5.4574,-0.002116,0.000997,0.002887,0.0,0.0,0.0,-0.000439,-0.508854,0.00306,-0.604462,-262.103696,-0.307903,71.665988
