mach0312/omni-docking-bench/src/icros_test_setup/results/MPPI_sample/timeseries/trial_044.csv
t,x,y,yaw,vx,vy,wz,bl_x,bl_y,bl_yaw,front_steering_joint,front_wheel_joint,rear_steering_joint,rear_wheel_joint
0.0,0.019522,-0.000619,-0.032916,0.010704,-0.002582,-0.097396,0.002352,-0.510059,-0.021368,-1.400022,-261.724676,1.384866,72.103112
0.0004,0.01956,-0.000581,-0.032078,0.010161,-0.002451,-0.09246,0.003527,-0.509643,-0.021982,-1.400022,-261.706464,1.384866,72.121236
0.0008,0.022717,-0.000605,-0.037066,0.009552,-0.002304,-0.086915,0.003527,-0.509643,-0.021982,-1.400022,-261.685748,1.384866,72.141863
0.0011,0.022966,-0.000546,-0.03708,0.00889,-0.002144,-0.080896,0.00305,-0.509878,-0.02344,-1.400022,-261.662531,1.384866,72.164992
0.0015,0.022804,-0.000592,-0.036289,0.008157,-0.001967,-0.074222,0.00305,-0.509878,-0.02344,-1.400022,-261.640042,1.384866,72.185666
0.0017,0.026118,-0.001128,-0.041523,0.007361,-0.001775,-0.066982,0.002732,-0.50993,-0.026678,-1.400022,-261.620855,1.384866,72.203305
0.002,0.025599,-0.000919,-0.041609,0.006503,-0.001568,-0.059172,0.002526,-0.510259,-0.02896,-1.400022,-261.620855,1.384866,72.203305
0.0022,0.027714,-0.001274,-0.045017,0.005579,-0.001346,-0.050767,0.002526,-0.510259,-0.02896,-1.400022,-261.620855,1.384866,72.203305
0.0026,0.027799,-0.000911,-0.044808,0.004582,-0.001105,-0.041694,0.002526,-0.510259,-0.02896,-1.400022,-261.620855,1.384866,72.203305
0.0169,0.027793,-0.001371,-0.045348,0.0,0.0,0.0,0.004765,-0.510743,-0.045043,-1.400022,-261.620855,1.384866,72.203305
0.0368,0.029564,-0.000935,-0.048154,0.0,0.0,0.0,0.004904,-0.510913,-0.047468,-1.400022,-261.607723,1.384866,72.215378
0.057,0.029192,-0.001078,-0.047352,0.0,0.0,0.0,0.004976,-0.510687,-0.047997,-1.400022,-261.607723,1.384866,72.215378
0.0766,0.029764,-0.000964,-0.048346,0.0,0.0,0.0,0.005086,-0.51055,-0.047686,-1.400022,-261.604593,1.384866,72.217448
0.097,0.029582,-0.001344,-0.048908,0.0,0.0,0.0,0.005116,-0.510386,-0.048305,-1.400022,-261.604593,1.384866,72.217448
0.1168,0.02934,-0.00095,-0.046358,-0.00648,0.001664,-0.02906,0.005116,-0.510386,-0.048305,-1.400022,-261.604593,1.384866,72.217448
0.1368,0.029533,-0.000982,-0.048661,-0.007037,0.001834,-0.028957,0.005706,-0.510402,-0.046358,-1.400022,-261.604593,1.384866,72.217448
0.1568,0.029527,-0.001362,-0.048758,-0.007504,0.001989,-0.027154,0.005305,-0.510393,-0.0473,-1.400022,-261.604593,1.384866,72.217448
0.1765,0.030069,-0.001462,-0.047749,-0.007906,0.002134,-0.026223,0.00467,-0.510756,-0.048758,-1.325035,-261.604593,1.30988,72.217448
0.1975,0.029936,-0.001006,-0.047623,-0.008244,0.002343,-0.023886,0.005636,-0.51087,-0.047836,-1.325035,-261.604593,1.30988,72.217448
0.2174,0.029463,-0.001277,-0.048055,-0.008539,0.002525,-0.022552,0.005636,-0.51087,-0.047836,-1.325035,-261.604593,1.30988,72.217448
0.2368,0.029726,-0.001469,-0.04777,-0.008793,0.002682,-0.021822,0.004964,-0.510688,-0.048055,-1.249988,-261.604593,1.234833,72.217448
0.2567,0.029955,-0.000992,-0.046716,-0.008983,0.002803,-0.019442,0.005131,-0.51077,-0.047938,-1.249988,-261.604593,1.234833,72.217448
0.2766,0.029739,-0.001172,-0.048598,-0.009151,0.002908,-0.01799,0.006138,-0.510436,-0.046716,-1.175016,-261.604593,1.159861,72.217448
0.2974,0.029813,-0.000939,-0.046774,-0.009292,0.002956,-0.01525,0.005066,-0.510558,-0.048435,-1.175016,-261.604593,1.159861,72.217448
0.3167,0.029399,-0.001019,-0.048645,-0.009416,0.003002,-0.013436,0.005066,-0.510558,-0.048435,-1.175016,-261.604593,1.159861,72.217448
0.337,0.029415,-0.000937,-0.048156,-0.009525,0.003043,-0.012273,0.0046,-0.510416,-0.048645,-1.099998,-261.604593,1.084843,72.217448
0.3573,0.029404,-0.001199,-0.047876,-0.009598,0.003043,-0.009775,0.004709,-0.510387,-0.048443,-1.099998,-261.604593,1.084843,72.217448
0.377,0.029395,-0.001127,-0.047431,-0.009664,0.003047,-0.00799,0.004996,-0.510615,-0.047876,-1.024975,-261.604593,1.00982,72.217448
0.3971,0.029667,-0.001482,-0.047919,-0.009746,0.003087,-0.005478,0.005195,-0.510559,-0.04747,-1.024975,-261.604593,1.00982,72.217448
0.417,0.029952,-0.001493,-0.048092,-0.009819,0.003121,-0.003529,0.005195,-0.510559,-0.04747,-1.024975,-261.604593,1.00982,72.217448
0.4367,0.029788,-0.001217,-0.047585,-0.009884,0.003148,-0.002044,0.005434,-0.510904,-0.048092,-0.949996,-261.604593,0.93484,72.217448
0.4567,0.029546,-0.001212,-0.049099,-0.009947,0.003213,-9.8e-05,0.005473,-0.510796,-0.047885,-0.949996,-261.604593,0.93484,72.217448
0.4768,0.029587,-0.001016,-0.046445,-0.010003,0.003265,0.001459,0.004515,-0.510597,-0.049099,-0.875087,-261.604593,0.859932,72.217448
0.497,0.029413,-0.001063,-0.048109,-0.010066,0.003244,0.003115,0.005789,-0.510477,-0.046673,-0.875087,-261.604593,0.859932,72.217448
0.517,0.029558,-0.001196,-0.048317,-0.01012,0.003228,0.004486,0.005789,-0.510477,-0.046673,-0.875087,-261.604593,0.859932,72.217448
0.5367,0.030018,-0.001116,-0.048668,-0.010166,0.003215,0.005613,0.004926,-0.510601,-0.048317,-0.799997,-261.604593,0.784841,72.217448
0.5567,0.029417,-0.001028,-0.047719,-0.010168,0.003223,0.006752,0.005041,-0.510565,-0.048461,-0.799997,-261.604593,0.784841,72.217448
0.5765,0.029688,-0.000925,-0.047775,-0.010171,0.003229,0.007704,0.005089,-0.510447,-0.047719,-0.725016,-261.604594,0.70986,72.217448
0.5966,0.029381,-0.001053,-0.047588,-0.010191,0.00319,0.008523,0.005311,-0.510352,-0.04777,-0.725016,-261.604594,0.70986,72.217448
0.6167,0.029892,-0.001281,-0.048654,-0.010208,0.003159,0.009205,0.005311,-0.510352,-0.04777,-0.725016,-261.604594,0.70986,72.217448
0.6365,0.029707,-0.00102,-0.048068,-0.010222,0.003134,0.009771,0.005086,-0.510677,-0.048652,-0.662482,-261.604616,0.634877,72.21743
0.6566,0.029578,-0.001071,-0.046286,-0.010224,0.003159,0.010246,0.005133,-0.510577,-0.048414,-0.662482,-261.604616,0.634877,72.21743
0.6769,0.029592,-0.001375,-0.047829,-0.010225,0.003179,0.010639,0.005949,-0.510518,-0.046245,-0.727462,-261.605197,0.55986,72.21698
0.6967,0.02952,-0.00138,-0.047868,-0.010232,0.003231,0.010963,0.005275,-0.510767,-0.047682,-0.727462,-261.605197,0.55986,72.21698
0.717,0.029736,-0.000836,-0.047386,-0.010239,0.003272,0.011229,0.005275,-0.510767,-0.047682,-0.727462,-261.605197,0.55986,72.21698
0.7369,0.029183,-0.000594,-0.048254,-0.010245,0.003304,0.011449,0.005427,-0.51022,-0.047199,-0.757838,-261.607283,0.484967,72.215387
0.757,0.029074,-0.000867,-0.048394,-0.010241,0.003197,0.011628,0.005066,-0.510126,-0.047606,-0.757838,-261.607283,0.484967,72.215387
0.777,0.029115,-0.001349,-0.046975,-0.010237,0.003113,0.011778,0.004174,-0.51019,-0.048118,-0.787904,-261.611475,0.409976,72.212244
0.7969,0.028407,-0.001029,-0.048245,-0.010228,0.003175,0.011976,0.005066,-0.510729,-0.047063,-0.787904,-261.611475,0.409976,72.212244
0.8169,0.029034,-0.000718,-0.047902,-0.010221,0.003223,0.012139,0.005066,-0.510729,-0.047063,-0.787904,-261.611475,0.409976,72.212244
0.8369,0.027853,-0.000908,-0.046443,-0.010216,0.003259,0.012274,0.004198,-0.509985,-0.047416,-0.788759,-261.617199,0.379255,72.207902
0.8573,0.027938,-0.000813,-0.045451,-0.010136,0.00315,0.012451,0.004141,-0.51012,-0.046963,-0.788759,-261.617199,0.379255,72.207902
0.8766,0.026873,-0.000727,-0.04655,-0.010072,0.003065,0.012597,0.004449,-0.510169,-0.045064,-0.811115,-261.623069,0.393113,72.203526
0.8966,0.027478,-0.000437,-0.046808,-0.009896,0.003012,0.012794,0.003244,-0.510168,-0.046394,-0.811115,-261.623069,0.393113,72.203526
0.9171,0.027029,-0.000497,-0.046122,-0.009761,0.002969,0.012955,0.003244,-0.510168,-0.046394,-0.811115,-261.623069,0.393113,72.203526
0.9373,0.026107,-0.000322,-0.045166,-0.009657,0.002934,0.013086,0.003109,-0.50981,-0.045608,-0.81838,-261.628825,0.43075,72.199196
0.9573,0.026352,-0.00034,-0.047075,-0.009527,0.002775,0.013238,0.003051,-0.50979,-0.045368,-0.81838,-261.628825,0.43075,72.199196
0.9772,0.025797,-0.000266,-0.043922,-0.009428,0.002651,0.013365,0.002066,-0.509673,-0.04668,-0.847009,-261.63434,0.4825,72.195073
0.9969,0.025514,-6.9e-05,-0.044834,-0.009376,0.002545,0.013499,0.003249,-0.509758,-0.044184,-0.847009,-261.63434,0.4825,72.195073
1.017,0.025878,0.0,-0.044487,-0.009336,0.002463,0.013613,0.003249,-0.509758,-0.044184,-0.847009,-261.63434,0.4825,72.195073
1.0372,0.024517,-4.1e-05,-0.043995,-0.009305,0.002398,0.013708,0.002821,-0.509371,-0.043947,-0.853763,-261.639879,0.52898,72.190857
1.057,0.024603,2.4e-05,-0.043972,-0.009102,0.002226,0.013835,0.002479,-0.509429,-0.043904,-0.853763,-261.639879,0.52898,72.190857
1.0772,0.023733,8.8e-05,-0.043669,-0.00895,0.002092,0.013942,0.001898,-0.509396,-0.043546,-0.858241,-261.645421,0.570745,72.186552
1.0971,0.023926,-3e-05,-0.041486,-0.008511,0.001965,0.014072,0.001492,-0.509419,-0.043637,-0.858241,-261.645421,0.570745,72.186552
1.1167,0.024145,-0.000193,-0.044147,-0.008186,0.00186,0.014183,0.001492,-0.509419,-0.043637,-0.858241,-261.645421,0.570745,72.186552
1.1372,0.023027,0.000314,-0.042683,-0.007946,0.001776,0.014277,0.001283,-0.509597,-0.043589,-0.869948,-261.650721,0.622473,72.182344
1.1571,0.023165,5.9e-05,-0.041096,-0.007651,0.001708,0.014381,0.001235,-0.509433,-0.043158,-0.869948,-261.650721,0.622473,72.182344
1.1772,0.022624,7.6e-05,-0.041849,-0.007431,0.001651,0.014469,0.002003,-0.509453,-0.040724,-0.92275,-261.655069,0.697375,72.178859
1.1974,0.02248,0.000588,-0.041259,-0.007303,0.001615,0.014559,0.001347,-0.509472,-0.041715,-0.92275,-261.655069,0.697375,72.178859
1.2169,0.022678,0.000306,-0.043002,-0.007207,0.001583,0.014635,0.001347,-0.509472,-0.041715,-0.92275,-261.655069,0.697375,72.178859
1.2367,0.021913,0.000643,-0.042259,-0.007136,0.001557,0.014698,0.000474,-0.509147,-0.042451,-0.954352,-261.659734,0.768639,72.175107
1.2569,0.0221,0.000298,-0.040743,-0.006672,0.001405,0.014743,0.000399,-0.509039,-0.04231,-0.954352,-261.659734,0.768639,72.175107
1.2769,0.021368,0.000357,-0.039837,-0.006325,0.001282,0.014788,0.001107,-0.509222,-0.040287,-0.975373,-261.664688,0.804943,72.171099
1.2975,0.021384,0.000366,-0.039866,-0.00634,0.001232,0.014845,0.00105,-0.509234,-0.039853,-0.975373,-261.664688,0.804943,72.171099
1.3174,0.021236,0.000172,-0.040452,-0.00635,0.001193,0.014893,0.00105,-0.509234,-0.039853,-0.975373,-261.664688,0.804943,72.171099
1.3373,0.021002,0.000713,-0.039903,-0.006356,0.00116,0.014934,0.000382,-0.509354,-0.039915,-1.020675,-261.668895,0.880041,72.167621
1.3573,0.020871,0.00047,-0.039709,-0.006122,0.001122,0.014969,0.000468,-0.509155,-0.039848,-1.020675,-261.668895,0.880041,72.167621
1.3767,0.020323,0.000953,-0.039818,-0.005947,0.00109,0.015,0.000424,-0.509083,-0.039233,-1.017094,-261.673707,0.897048,72.163565
1.397,0.019864,0.001031,-0.03844,-0.005656,0.000934,0.015004,4.7e-05,-0.50868,-0.039742,-1.017094,-261.673707,0.897048,72.163565
1.4171,0.019526,0.000653,-0.039352,-0.005435,0.00081,0.015012,4.7e-05,-0.50868,-0.039742,-1.017094,-261.673707,0.897048,72.163565
1.4367,0.019143,0.000976,-0.037896,-0.005268,0.000712,0.015023,-0.000776,-0.508899,-0.038747,-1.045103,-261.678275,0.935816,72.1597
1.4568,0.019137,0.000466,-0.038149,-0.00492,0.000709,0.015034,-0.00056,-0.508795,-0.038331,-1.045103,-261.678275,0.935816,72.1597
1.4766,0.018569,0.000745,-0.03833,-0.004657,0.000701,0.015044,-0.000463,-0.509137,-0.037724,-1.081224,-261.682254,1.010759,72.156159
1.497,0.018638,0.000817,-0.038552,-0.004332,0.000755,0.015055,-0.000937,-0.508902,-0.038254,-1.081224,-261.682254,1.010759,72.156159
1.5172,0.018833,0.000881,-0.037961,-0.004087,0.000789,0.015064,-0.000937,-0.508902,-0.038254,-1.081224,-261.682254,1.010759,72.156159
1.5368,0.018284,0.000795,-0.038658,-0.003901,0.000809,0.015073,-0.000699,-0.508718,-0.037386,-1.130681,-261.686236,1.068965,72.152632
1.557,0.018352,0.001044,-0.03883,-0.003747,0.000782,0.015075,-0.001014,-0.508757,-0.037834,-1.130681,-261.686236,1.068965,72.152632
1.5768,0.017295,0.000873,-0.036568,-0.003629,0.000757,0.015078,-0.001553,-0.508545,-0.038416,-1.199403,-261.689947,1.135902,72.149436
1.5976,0.018007,0.000555,-0.037128,-0.003434,0.000766,0.015075,-0.001374,-0.508764,-0.03671,-1.199403,-261.689947,1.135902,72.149436
1.6171,0.017736,0.000596,-0.035655,-0.003286,0.000768,0.015074,-0.001374,-0.508764,-0.03671,-1.199403,-261.689947,1.135902,72.149436
1.6369,0.017077,0.001273,-0.03583,-0.003173,0.000767,0.015074,-0.000591,-0.509043,-0.035038,-1.221527,-261.694098,1.165184,72.145836
1.6569,0.016906,0.000944,-0.036042,-0.003271,0.00073,0.015086,-0.000853,-0.508777,-0.035289,-1.221527,-261.694098,1.165184,72.145836
1.6769,0.016531,0.000993,-0.034666,-0.003341,0.000702,0.015096,-0.001565,-0.508699,-0.035589,-1.262779,-261.698037,1.211202,72.142443
1.6969,0.016821,0.0012,-0.035866,-0.003283,0.000695,0.015102,-0.001187,-0.508699,-0.034724,-1.262779,-261.698037,1.211202,72.142443
1.7169,0.016694,0.001043,-0.033994,-0.003239,0.000689,0.015108,-0.001187,-0.508699,-0.034724,-1.262779,-261.698037,1.211202,72.142443
1.7372,0.016255,0.001222,-0.035213,-0.003204,0.000683,0.015113,-0.000777,-0.508629,-0.033366,-1.246,-261.702212,1.196978,72.138794
1.7575,0.015836,0.00105,-0.033927,-0.003193,0.000631,0.015114,-0.001178,-0.508555,-0.034063,-1.246,-261.702212,1.196978,72.138794
1.777,0.015461,0.001362,-0.033087,-0.003184,0.000591,0.015116,-0.001564,-0.508631,-0.033451,-1.258136,-261.706337,1.212119,72.13518
1.7977,0.015235,0.00111,-0.032667,-0.00311,0.000528,0.015108,-0.001429,-0.508382,-0.033095,-1.258136,-261.706337,1.212119,72.13518
1.8172,0.015831,0.001122,-0.033681,-0.003053,0.000479,0.015104,-0.001429,-0.508382,-0.033095,-1.258136,-261.706337,1.212119,72.13518
1.8369,0.014836,0.001064,-0.032601,-0.003011,0.00044,0.015101,-0.001475,-0.50856,-0.033049,-1.257402,-261.710462,1.217799,72.131501
1.8574,0.014743,0.00139,-0.032797,-0.002914,0.000487,0.015111,-0.001618,-0.508599,-0.032793,-1.257402,-261.710462,1.217799,72.131501
1.8768,0.014481,0.001213,-0.031677,-0.002842,0.000521,0.01512,-0.002075,-0.508319,-0.032321,-1.268768,-261.714469,1.24056,72.127825
1.8975,0.014266,0.00105,-0.033106,-0.002769,0.000525,0.015121,-0.001712,-0.508511,-0.031711,-1.268768,-261.714469,1.24056,72.127825
1.9174,0.01407,0.001305,-0.032962,-0.002714,0.000526,0.015123,-0.001712,-0.508511,-0.031711,-1.268768,-261.714469,1.24056,72.127825
1.9371,0.013924,0.001326,-0.030682,-0.002673,0.000526,0.015124,-0.002854,-0.508393,-0.032334,-1.287345,-261.718506,1.255536,72.124185
1.9574,0.013806,0.001184,-0.030491,-0.002469,0.000551,0.01511,-0.002402,-0.508407,-0.031582,-1.287345,-261.718506,1.255536,72.124185
1.9768,0.013612,0.001064,-0.029478,-0.002314,0.000567,0.0151,-0.001825,-0.508559,-0.030015,-1.303532,-261.722509,1.273068,72.12058
1.9967,0.013484,0.0011,-0.030339,-0.002457,0.000588,0.015124,-0.001461,-0.508699,-0.029502,-1.303532,-261.722509,1.273068,72.12058
2.0175,0.0135,0.001352,-0.030789,-0.002562,0.000605,0.015143,-0.001461,-0.508699,-0.029502,-1.303532,-261.722509,1.273068,72.12058
2.0373,0.012887,0.001934,-0.028695,-0.002639,0.000619,0.015157,-0.002292,-0.508381,-0.030182,-1.338663,-261.726373,1.309555,72.117139
2.057,0.012711,0.001344,-0.030449,-0.002543,0.000527,0.015135,-0.002079,-0.508163,-0.029503,-1.338663,-261.726373,1.309555,72.117139
2.0765,0.012544,0.001441,-0.029694,-0.002471,0.000454,0.01512,-0.002896,-0.508398,-0.029983,-1.309685,-261.730325,1.274292,72.113647
2.0973,0.012627,0.001463,-0.029695,-0.002271,0.00049,0.015111,-0.002629,-0.508339,-0.029696,-1.309685,-261.730325,1.274292,72.113647
2.1175,0.012454,0.001523,-0.029779,-0.00212,0.000513,0.015105,-0.002629,-0.508339,-0.029696,-1.309685,-261.730325,1.274292,72.113647
2.137,0.011952,0.001241,-0.029209,-0.002005,0.000528,0.015101,-0.002833,-0.508229,-0.029147,-1.321111,-261.734288,1.296507,72.110032
2.157,0.012005,0.001695,-0.027918,-0.001861,0.000561,0.015096,-0.002888,-0.508351,-0.029101,-1.321111,-261.734288,1.296507,72.110032
2.1769,0.011651,0.00159,-0.028531,-0.001752,0.000582,0.015092,-0.002291,-0.508089,-0.027471,-1.36798,-261.737998,1.344148,72.106706
2.1971,0.011503,0.001581,-0.027903,-0.001688,0.000551,0.015083,-0.002848,-0.508192,-0.028418,-1.36798,-261.737998,1.344148,72.106706
2.217,0.011795,0.00164,-0.028126,-0.001639,0.000525,0.015077,-0.002848,-0.508192,-0.028418,-1.36798,-261.737998,1.344148,72.106706
2.2367,0.010894,0.001526,-0.026463,-0.001601,0.000503,0.015073,-0.002618,-0.508132,-0.027509,-1.393891,-261.741888,1.370626,72.103263
2.2573,0.011182,0.001441,-0.025988,-0.001628,0.000465,0.015073,-0.002619,-0.508196,-0.02701,-1.393891,-261.741888,1.370626,72.103263
2.277,0.010538,0.001607,-0.026402,-0.001647,0.000437,0.015073,-0.002121,-0.50837,-0.025509,-1.407399,-261.745791,1.388894,72.099753
2.297,0.01067,0.001468,-0.027195,-0.001606,0.000441,0.015072,-0.002856,-0.508228,-0.026298,-1.407399,-261.745791,1.388894,72.099753
2.317,0.010323,0.001485,-0.025849,-0.001575,0.000444,0.015071,-0.002856,-0.508228,-0.026298,-1.407399,-261.745791,1.388894,72.099753
2.3368,0.009876,0.002032,-0.025301,-0.001551,0.000445,0.015071,-0.002927,-0.508324,-0.025219,-1.401598,-261.749701,1.385118,72.096187
2.3567,0.009994,0.001736,-0.023831,-0.001515,0.000424,0.015064,-0.002975,-0.508109,-0.02518,-1.401598,-261.749701,1.385118,72.096187
2.3771,0.009055,0.001636,-0.023364,-0.001488,0.000407,0.01506,-0.002208,-0.508104,-0.023353,-1.411453,-261.753607,1.395571,72.092631
2.3972,0.009664,0.001719,-0.024503,-0.001502,0.000403,0.015063,-0.002806,-0.508214,-0.023339,-1.411453,-261.753607,1.395571,72.092631
2.417,0.009528,0.001454,-0.023809,-0.001512,0.0004,0.015066,-0.002806,-0.508214,-0.023339,-1.411453,-261.753607,1.395571,72.092631
2.4371,0.009197,0.001474,-0.024535,-0.001519,0.000398,0.015068,-0.002675,-0.508383,-0.023182,-1.417131,-261.75748,1.403153,72.089079
2.457,0.00899,0.002072,-0.02363,-0.001486,0.00045,0.015074,-0.002944,-0.508377,-0.023662,-1.417131,-261.75748,1.403153,72.089079
2.4768,0.008377,0.001744,-0.022819,-0.00146,0.000489,0.015079,-0.003109,-0.507772,-0.023149,-1.413845,-261.761371,1.399926,72.085502
2.4972,0.008818,0.001895,-0.023641,-0.001395,0.000471,0.015068,-0.003248,-0.508092,-0.022824,-1.413845,-261.761371,1.399926,72.085502
2.517,0.008397,0.00144,-0.023476,-0.001345,0.000456,0.01506,-0.003248,-0.508092,-0.022824,-1.413845,-261.761371,1.399926,72.085502
2.5371,0.008465,0.001565,-0.022797,-0.001307,0.000442,0.015053,-0.003635,-0.508398,-0.022846,-1.421343,-261.765285,1.404872,72.081974
2.5569,0.007951,0.001687,-0.021797,-0.001223,0.000514,0.015058,-0.003449,-0.508357,-0.022753,-1.421343,-261.765285,1.404872,72.081974
2.5765,0.007919,0.001331,-0.020771,-0.00116,0.000566,0.015061,-0.003205,-0.508177,-0.021322,-1.436,-261.769141,1.422565,72.078465
2.5969,0.00763,0.001718,-0.022165,-0.001267,0.000591,0.01508,-0.002724,-0.508524,-0.020797,-1.436,-261.769141,1.422565,72.078465
2.6176,0.007474,0.00155,-0.022011,-0.001347,0.000611,0.015094,-0.002724,-0.508524,-0.020797,-1.436,-261.769141,1.422565,72.078465
2.6368,0.007453,0.001539,-0.0192,-0.001407,0.000628,0.015104,-0.003798,-0.508302,-0.021382,-1.452536,-261.773045,1.437199,72.075007
2.6569,0.007416,0.002069,-0.019607,-0.001352,0.000627,0.015096,-0.003218,-0.508325,-0.020435,-1.452536,-261.773045,1.437199,72.075007
2.6771,0.006802,0.001556,-0.019562,-0.001311,0.000626,0.01509,-0.002626,-0.507813,-0.019135,-1.42897,-261.776943,1.408581,72.071595
2.6972,0.007123,0.001606,-0.019921,-0.001301,0.000608,0.015087,-0.003128,-0.508299,-0.019501,-1.42897,-261.776943,1.408581,72.071595
2.7167,0.007131,0.001846,-0.02068,-0.001294,0.000594,0.015085,-0.003128,-0.508299,-0.019501,-1.42897,-261.776943,1.408581,72.071595
2.737,0.006082,0.001856,-0.019889,-0.001288,0.000584,0.015083,-0.003469,-0.508017,-0.02005,-1.438352,-261.780898,1.419338,72.068134
2.7567,0.00648,0.00183,-0.017886,-0.001187,0.000561,0.015068,-0.003717,-0.508025,-0.019912,-1.438352,-261.780898,1.419338,72.068134
2.7772,0.005693,0.001651,-0.018029,-0.001108,0.00054,0.015056,-0.002682,-0.508069,-0.017406,-1.440085,-261.784855,1.422647,72.06464
2.7972,0.005579,0.001669,-0.018083,-0.001088,0.000549,0.015058,-0.003433,-0.508249,-0.017953,-1.440085,-261.784855,1.422647,72.06464
2.8172,0.005771,0.001647,-0.018327,-0.001073,0.000554,0.015059,-0.003433,-0.508249,-0.017953,-1.440085,-261.784855,1.422647,72.06464
2.8368,0.005515,0.001978,-0.019167,-0.001061,0.000558,0.01506,-0.003621,-0.508245,-0.017706,-1.457431,-261.788723,1.443422,72.061195
2.857,0.005829,0.001824,-0.017444,-0.000979,0.000567,0.015052,-0.003888,-0.508112,-0.018232,-1.457431,-261.788723,1.443422,72.061195
2.8766,0.005427,0.002117,-0.017057,-0.000915,0.000571,0.015046,-0.0031,-0.508081,-0.016964,-1.462433,-261.792644,1.448564,72.057717
2.8971,0.004898,0.002003,-0.017687,-0.001005,0.000454,0.015035,-0.003258,-0.507833,-0.017024,-1.462433,-261.792644,1.448564,72.057717
2.9167,0.004928,0.00167,-0.017937,-0.001071,0.000364,0.015028,-0.003258,-0.507833,-0.017024,-1.462433,-261.792644,1.448564,72.057717
2.9369,0.004669,0.001773,-0.017364,-0.001121,0.000297,0.015023,-0.004258,-0.508223,-0.017312,-1.477335,-261.796535,1.465037,72.054277
2.9568,0.004675,0.002107,-0.015757,-0.000964,0.000411,0.015026,-0.004233,-0.50819,-0.017261,-1.477335,-261.796535,1.465037,72.054277
2.9766,0.004392,0.002035,-0.015314,-0.000843,0.000495,0.015027,-0.003396,-0.50782,-0.015285,-1.453033,-261.80029,1.445241,72.050754
2.9972,0.004087,0.002494,-0.016811,-0.000911,0.000419,0.015015,-0.003418,-0.507897,-0.015287,-1.453033,-261.80029,1.445241,72.050754
3.0168,0.004499,0.002019,-0.017314,-0.000961,0.000362,0.015005,-0.003418,-0.507897,-0.015287,-1.453033,-261.80029,1.445241,72.050754
3.0369,0.003706,0.001955,-0.015515,-0.000998,0.000318,0.014998,-0.004365,-0.507884,-0.016703,-1.483839,-261.804065,1.473985,72.047362
3.0568,0.003888,0.001687,-0.01506,-0.000875,0.000369,0.014993,-0.004304,-0.507922,-0.016149,-1.483839,-261.804065,1.473985,72.047362
3.0768,0.003258,0.00219,-0.014228,-0.000779,0.000404,0.014988,-0.003824,-0.508245,-0.014587,-1.465904,-261.807845,1.458411,72.043834
3.0969,0.003168,0.001916,-0.014436,-0.000758,0.000377,0.014964,-0.003984,-0.507803,-0.014236,-1.465904,-261.807845,1.458411,72.043834
3.1169,0.003135,0.002221,-0.015212,-0.000741,0.000355,0.014944,-0.003984,-0.507803,-0.014236,-1.465904,-261.807845,1.458411,72.043834
3.137,0.002831,0.00217,-0.012509,-0.000727,0.000338,0.014928,-0.004654,-0.507703,-0.014597,-1.489444,-261.811617,1.481964,72.040379
3.157,0.002898,0.002292,-0.014055,-0.000682,0.000331,0.014901,-0.004205,-0.507737,-0.01367,-1.489444,-261.811617,1.481964,72.040379
3.1767,0.002541,0.002015,-0.013026,-0.000647,0.000324,0.014878,-0.004292,-0.507647,-0.01358,-1.494098,-261.81541,1.488216,72.036855
3.1971,0.00265,0.002101,-0.013934,-0.000619,0.000351,0.014849,-0.004119,-0.507916,-0.01305,-1.494098,-261.81541,1.488216,72.036855
3.217,0.002329,0.002336,-0.011573,-0.000597,0.000371,0.014824,-0.004119,-0.507916,-0.01305,-1.494098,-261.81541,1.488216,72.036855
3.237,0.002345,0.002009,-0.011283,-0.00058,0.000386,0.014803,-0.0036,-0.507616,-0.010953,-1.502143,-261.819166,1.497079,72.033356
3.2566,0.002134,0.001842,-0.012676,-0.000691,0.000319,0.014684,-0.003526,-0.507753,-0.011016,-1.502143,-261.819166,1.497079,72.033356
3.2766,0.001943,0.001647,-0.010331,-0.000775,0.000269,0.014588,-0.004349,-0.508105,-0.012204,-1.509317,-261.822945,1.503845,72.029886
3.2968,0.001937,0.001801,-0.010857,-0.000826,0.000359,0.014495,-0.003413,-0.508307,-0.010468,-1.509317,-261.822945,1.503845,72.029886
3.317,0.001437,0.002084,-0.011661,-0.000866,0.000429,0.014418,-0.003413,-0.508307,-0.010468,-1.509317,-261.822945,1.503845,72.029886
3.3372,0.001118,0.001984,-0.009572,-0.000898,0.000484,0.014355,-0.004542,-0.50787,-0.011061,-1.486599,-261.826568,1.481389,72.026474
3.3567,0.00156,0.002305,-0.009742,-0.000803,0.000502,0.014275,-0.004227,-0.507919,-0.010383,-1.486599,-261.826568,1.481389,72.026474
3.3768,0.000968,0.0026,-0.011173,-0.000729,0.000515,0.014211,-0.003437,-0.507655,-0.009289,-1.473988,-261.830256,1.462769,72.023167
3.3972,0.000688,0.001817,-0.008532,-0.000655,0.000449,0.014181,-0.004618,-0.507393,-0.010984,-1.473988,-261.830256,1.462769,72.023167
3.4173,0.001008,0.002274,-0.011673,-0.000596,0.000396,0.014157,-0.004618,-0.507393,-0.010984,-1.473988,-261.830256,1.462769,72.023167
3.4369,0.000409,0.002122,-0.008261,-0.000548,0.000351,0.014138,-0.004975,-0.50767,-0.011085,-1.491663,-261.833906,1.48174,72.019924
3.4572,0.0006,0.002069,-0.008049,-0.000499,0.000379,0.014049,-0.004497,-0.507746,-0.009856,-1.491663,-261.833906,1.48174,72.019924
3.4768,-0.000281,0.002542,-0.008441,-0.000462,0.0004,0.013979,-0.003522,-0.507903,-0.007606,-1.509938,-261.837457,1.504791,72.016649
3.4972,0.000396,0.002625,-0.009288,-0.000452,0.000369,0.01375,-0.004494,-0.50748,-0.008346,-1.509938,-261.837457,1.504791,72.016649
3.517,-0.000194,0.002239,-0.00822,-0.000445,0.000344,0.013574,-0.004494,-0.50748,-0.008346,-1.509938,-261.837457,1.504791,72.016649
3.5371,-0.000417,0.002262,-0.00852,-0.000441,0.000323,0.013438,-0.004405,-0.507727,-0.007637,-1.519109,-261.841027,1.514044,72.013397
3.557,-0.000444,0.002494,-0.008124,-0.000413,0.000361,0.013281,-0.004554,-0.507722,-0.007934,-1.519109,-261.841027,1.514044,72.013397
3.5766,-0.001007,0.002417,-0.00743,-0.000394,0.000388,0.01316,-0.004601,-0.507478,-0.007696,-1.519133,-261.844456,1.514911,72.010227
3.5972,-0.000512,0.002277,-0.006636,-0.000361,0.000399,0.012982,-0.004782,-0.507561,-0.007432,-1.519133,-261.844456,1.514911,72.010227
3.6169,-0.000307,0.00198,-0.007018,-0.000338,0.000404,0.012846,-0.004782,-0.507561,-0.007432,-1.519133,-261.844456,1.514911,72.010227
3.6369,-0.001017,0.002282,-0.004608,-0.000321,0.000407,0.01274,-0.003902,-0.507992,-0.006471,-1.524034,-261.847811,1.519295,72.007181
3.6568,-0.00069,0.002361,-0.00778,-0.000462,0.000392,0.012305,-0.003685,-0.507875,-0.005645,-1.524034,-261.847811,1.519295,72.007181
3.6765,-0.001333,0.002132,-0.005423,-0.000574,0.000381,0.011989,-0.004668,-0.50761,-0.007375,-1.531613,-261.851087,1.527293,72.00423
3.6967,-0.001471,0.002365,-0.006196,-0.000581,0.000404,0.011735,-0.004148,-0.507838,-0.005572,-1.531613,-261.851087,1.527293,72.00423
3.7168,-0.001608,0.002198,-0.006394,-0.00059,0.00042,0.011545,-0.004148,-0.507838,-0.005572,-1.531613,-261.851087,1.527293,72.00423
3.7369,-0.001502,0.002509,-0.007116,-0.0006,0.00043,0.011404,-0.004892,-0.507776,-0.005914,-1.496401,-261.854044,1.488263,72.001563
3.7572,-0.001537,0.002346,-0.005598,-0.00051,0.000465,0.011447,-0.004993,-0.507652,-0.006352,-1.496401,-261.854044,1.488263,72.001563
3.777,-0.002059,0.002226,-0.004195,-0.000439,0.000489,0.011476,-0.004411,-0.507632,-0.005236,-1.489862,-261.857001,1.479259,71.998948
3.7972,-0.002248,0.002353,-0.0047,-0.00047,0.000475,0.010976,-0.004219,-0.507756,-0.004272,-1.489862,-261.857001,1.479259,71.998948
3.8167,-0.001931,0.002208,-0.003751,-0.000499,0.000462,0.010613,-0.004219,-0.507756,-0.004272,-1.489862,-261.857001,1.479259,71.998948
3.8369,-0.002178,0.00232,-0.003726,-0.000526,0.000451,0.010348,-0.003862,-0.507768,-0.003278,-1.512272,-261.859959,1.503514,71.996375
3.857,-0.002286,0.002225,-0.003206,-0.000588,0.000416,0.009864,-0.003953,-0.507728,-0.003407,-1.512272,-261.859959,1.503514,71.996375
3.8767,-0.002646,0.002465,-0.002874,-0.000641,0.000389,0.009513,-0.003938,-0.507758,-0.002881,-1.493342,-261.862637,1.481484,71.994051
3.8974,-0.002419,0.002609,-0.003016,-0.000665,0.000345,0.009044,-0.004096,-0.507553,-0.002858,-1.493342,-261.862637,1.481484,71.994051
3.9167,-0.002615,0.002366,-0.004447,-0.000688,0.00031,0.008703,-0.004096,-0.507553,-0.002858,-1.493342,-261.862637,1.481484,71.994051
3.9371,-0.002885,0.002687,-0.002737,-0.000708,0.000282,0.008453,-0.004909,-0.507613,-0.004059,-1.46779,-261.86507,1.453135,71.991921
3.9573,-0.002885,0.002635,-0.00389,-0.000655,0.000293,0.008485,-0.004656,-0.507488,-0.003475,-1.46779,-261.86507,1.453135,71.991921
3.9766,-0.003176,0.002257,-0.003099,-0.000613,0.0003,0.008505,-0.004891,-0.507352,-0.003627,-1.441452,-261.867221,1.426681,71.989989
3.9969,-0.003274,0.002551,-0.003131,-0.000547,0.000357,0.008403,-0.004769,-0.507706,-0.003132,-1.441452,-261.867221,1.426681,71.989989
4.0166,-0.003323,0.002267,-0.003268,-0.000497,0.000399,0.008324,-0.004769,-0.507706,-0.003132,-1.441452,-261.867221,1.426681,71.989989
4.0367,-0.003049,0.002438,-0.002622,-0.00046,0.00043,0.008263,-0.005015,-0.507718,-0.002917,-1.459704,-261.869409,1.446241,71.988036
4.0567,-0.003276,0.00263,-0.001809,-0.000432,0.000442,0.008073,-0.004757,-0.507651,-0.002754,-1.459704,-261.869409,1.446241,71.988036
4.077,-0.003553,0.00249,-0.001209,-0.000413,0.000449,0.007931,-0.004212,-0.507356,-0.001553,-1.487066,-261.871554,1.471572,71.986226
4.0972,-0.003641,0.002571,-0.001434,-0.00048,0.000373,0.007135,-0.004174,-0.507495,-0.001227,-1.487066,-261.871554,1.471572,71.986226
4.1171,-0.003324,0.00295,-0.002811,-0.000538,0.000313,0.006552,-0.004174,-0.507495,-0.001227,-1.487066,-261.871554,1.471572,71.986226
4.1372,-0.003756,0.002826,-0.002269,-0.000586,0.000267,0.006125,-0.004775,-0.507029,-0.002479,-1.492971,-261.873678,1.477138,71.984459
4.1573,-0.003511,0.002401,-0.000278,-0.000573,0.000214,0.00631,-0.004833,-0.507086,-0.002355,-1.492971,-261.873678,1.477138,71.984459
4.1771,-0.003527,0.002688,-0.001462,-0.00056,0.000173,0.006443,-0.003668,-0.507591,-0.000111,-1.425627,-261.87506,1.403721,71.983257
4.1971,-0.003887,0.00296,-0.001249,-0.000608,0.00013,0.006093,-0.00422,-0.507335,-0.001335,-1.425627,-261.87506,1.403721,71.983257
4.2171,-0.003617,0.002163,-0.000603,-0.000648,9.7e-05,0.005836,-0.00422,-0.507335,-0.001335,-1.425627,-261.87506,1.403721,71.983257
4.2368,-0.004073,0.002371,-0.000527,-0.00068,7.3e-05,0.005646,-0.003948,-0.50783,-0.000336,-1.435388,-261.876709,1.423134,71.981745
4.2566,-0.004056,0.002482,-0.002939,-0.000684,0.000129,0.00505,-0.004114,-0.507746,-0.000384,-1.435388,-261.876709,1.423134,71.981745
4.277,-0.004277,0.002234,-6.7e-05,-0.000693,0.000171,0.004607,-0.005574,-0.507513,-0.002775,-1.379961,-261.878016,1.371962,71.980489
4.297,-0.004418,0.002725,-0.000574,-0.000654,0.000229,0.004233,-0.004421,-0.507744,-0.000291,-1.379961,-261.878016,1.371962,71.980489
4.3171,-0.004228,0.002731,-0.000642,-0.000627,0.000272,0.003951,-0.004421,-0.507744,-0.000291,-1.379961,-261.878016,1.371962,71.980489
4.3371,-0.004279,0.002586,5.2e-05,-0.000609,0.000303,0.003739,-0.004582,-0.507262,-0.000463,-1.342663,-261.879152,1.314339,71.979476
4.3568,-0.004497,0.00252,-0.001016,-0.000623,0.000247,0.003538,-0.00445,-0.507324,-0.000231,-1.342663,-261.879152,1.314339,71.979476
4.3766,-0.004581,0.002906,-0.000605,-0.000634,0.000203,0.003386,-0.005034,-0.507471,-0.0009,-1.339606,-261.880185,1.272485,71.978671
4.3965,-0.004557,0.002679,-0.000541,-0.0006,0.000175,0.003466,-0.004903,-0.507126,-0.000625,-1.339606,-261.880185,1.272485,71.978671
4.4166,-0.004401,0.002668,-0.001539,-0.000571,0.000152,0.00352,-0.004903,-0.507126,-0.000625,-1.339606,-261.880185,1.272485,71.978671
4.4367,-0.004448,0.002757,5e-05,-0.000548,0.000132,0.003556,-0.005212,-0.507324,-0.001404,-1.298513,-261.881091,1.242955,71.977914
4.4568,-0.005008,0.002706,0.000597,-0.00052,0.000143,0.003671,-0.004891,-0.50729,-0.000791,-1.298513,-261.881091,1.242955,71.977914
4.4765,-0.004274,0.002858,0.000992,-0.000497,0.000151,0.003754,-0.004719,-0.50729,0.0007,-1.337318,-261.881955,1.308386,71.977144
4.4969,-0.004861,0.002984,-0.000129,-0.000635,4e-05,0.003002,-0.00385,-0.507154,0.000972,-1.337318,-261.881955,1.308386,71.977144
4.5174,-0.005196,0.002482,0.000802,-0.000743,-4.2e-05,0.002442,-0.00385,-0.507154,0.000972,-1.337318,-261.881955,1.308386,71.977144
4.5369,-0.004601,0.002372,-0.000574,-0.000829,-0.000104,0.002023,-0.004807,-0.507511,0.000953,-1.370212,-261.882915,1.34283,71.976297
4.5572,-0.004498,0.002862,-0.000148,-0.000721,1.3e-05,0.001993,-0.004845,-0.507558,0.000349,-1.370212,-261.882915,1.34283,71.976297
4.5771,-0.004716,0.002639,0.000205,-0.000639,0.000102,0.001963,-0.004573,-0.507138,-0.000147,-1.295361,-261.88292,1.267979,71.976292
4.5967,-0.004821,0.002477,0.001332,-0.000627,0.000105,0.002018,-0.004608,-0.50734,0.000173,-1.295361,-261.88292,1.267979,71.976292
4.6172,-0.004748,0.002776,-0.000203,-0.000616,0.000107,0.002053,-0.004608,-0.50734,0.000173,-1.295361,-261.88292,1.267979,71.976292
4.6369,-0.004871,0.002794,0.002043,-0.000608,0.000108,0.002075,-0.004857,-0.507223,-0.00018,-1.220364,-261.883071,1.192982,71.97616
4.6571,-0.005028,0.002494,-0.000423,-0.000629,7.3e-05,0.001831,-0.004438,-0.507215,0.000731,-1.220364,-261.883071,1.192982,71.97616
4.6769,-0.005161,0.002612,-0.000309,-0.000647,4.6e-05,0.001647,-0.005259,-0.507503,-0.000371,-1.154837,-261.883541,1.11799,71.97575
4.6972,-0.004619,0.002584,0.000919,-0.000547,0.000131,0.002016,-0.005314,-0.507398,-0.000312,-1.154837,-261.883541,1.11799,71.97575
4.7173,-0.004934,0.002551,-0.001065,-0.000467,0.000197,0.002285,-0.005314,-0.507398,-0.000312,-1.154837,-261.883541,1.11799,71.97575
4.7367,-0.004805,0.002834,-0.000204,-0.000402,0.000246,0.00248,-0.00549,-0.507448,-0.001026,-1.079829,-261.88381,1.042981,71.975499
4.7568,-0.005099,0.002708,1.1e-05,-0.000365,0.000266,0.002812,-0.005255,-0.507333,-0.000687,-1.079829,-261.88381,1.042981,71.975499
4.7772,-0.00498,0.002583,0.000757,-0.000334,0.000281,0.003057,-0.005097,-0.507291,2.1e-05,-1.154832,-261.883914,1.117985,71.975422
4.7969,-0.004973,0.002625,0.000889,-0.000368,0.000254,0.002582,-0.004639,-0.507406,0.000691,-1.154832,-261.883914,1.117985,71.975422
4.8171,-0.005117,0.002386,0.002257,-0.000397,0.000234,0.002229,-0.004639,-0.507406,0.000691,-1.154832,-261.883914,1.117985,71.975422
4.8368,-0.005397,0.00246,-0.000194,-0.000421,0.000219,0.001965,-0.00397,-0.507611,0.002272,-1.229834,-261.884022,1.192986,71.975341
4.8568,-0.005093,0.002682,0.000135,-0.000427,0.000238,0.001537,-0.004598,-0.507582,0.001259,-1.229834,-261.884022,1.192986,71.975341
4.8765,-0.005035,0.002555,3e-05,-0.000436,0.000252,0.001216,-0.005037,-0.507312,0.000194,-1.282284,-261.884582,1.165311,71.974937
4.8973,-0.004762,0.002626,0.000703,-0.000413,0.000269,0.001524,-0.005022,-0.507433,4.7e-05,-1.282284,-261.884582,1.165311,71.974937
4.9168,-0.00545,0.002703,0.001022,-0.000393,0.000283,0.001748,-0.005022,-0.507433,4.7e-05,-1.282284,-261.884582,1.165311,71.974937
4.9372,-0.005131,0.002509,0.000535,-0.000376,0.000293,0.00191,-0.004931,-0.507295,0.00103,-1.207253,-261.884645,1.09028,71.974899
4.9572,-0.005475,0.002826,0.000417,-0.000373,0.000282,0.001661,-0.004901,-0.507376,0.000826,-1.207253,-261.884645,1.09028,71.974899
4.9771,-0.004809,0.002747,0.000294,-0.000372,0.000273,0.001475,-0.005272,-0.507167,0.000462,-1.282237,-261.885097,1.164448,71.974614
4.9966,-0.005317,0.002858,-0.000869,-0.000413,0.000223,0.001575,-0.004716,-0.507245,0.000311,-1.282237,-261.885097,1.164448,71.974614
5.017,-0.004813,0.002649,0.000439,-0.000443,0.000186,0.001648,-0.004716,-0.507245,0.000311,-1.282237,-261.885097,1.164448,71.974614
5.0367,-0.005348,0.002777,-0.000186,-0.000465,0.000157,0.001701,-0.004601,-0.507342,0.000487,-1.264174,-261.885474,1.089591,71.97439
5.0569,-0.005031,0.002439,0.000231,-0.000449,0.000165,0.0018,-0.004946,-0.507293,0.000218,-1.264174,-261.885474,1.089591,71.97439
5.0765,-0.004961,0.002923,-0.000119,-0.000435,0.00017,0.001871,-0.004926,-0.507556,0.000282,-1.199907,-261.885954,1.085417,71.974018
5.0975,-0.005262,0.002538,6.4e-05,-0.00043,0.00015,0.002054,-0.005014,-0.50712,-8e-05,-1.199907,-261.885954,1.085417,71.974018
5.1167,-0.005374,0.002831,0.000795,-0.000425,0.000134,0.002191,-0.005014,-0.50712,-8e-05,-1.199907,-261.885954,1.085417,71.974018
5.1368,-0.005564,0.002576,0.002417,-0.00042,0.000121,0.002294,-0.004985,-0.507162,0.000865,-1.250842,-261.88645,1.150296,71.973635
5.1567,-0.005521,0.002763,0.000884,-0.000423,0.000111,0.001673,-0.004723,-0.507267,0.0015,-1.250842,-261.88645,1.150296,71.973635
5.1766,-0.005396,0.003031,0.001244,-0.000429,0.000104,0.00121,-0.005082,-0.507233,0.000943,-1.301835,-261.88696,1.225298,71.9732
5.197,-0.00519,0.002858,0.001412,-0.000454,5.9e-05,0.000967,-0.004791,-0.506992,0.00122,-1.301835,-261.88696,1.225298,71.9732
5.2167,-0.005292,0.002401,0.000664,-0.000474,2.3e-05,0.000784,-0.004791,-0.506992,0.00122,-1.301835,-261.88696,1.225298,71.9732
5.2367,-0.005422,0.002836,-0.000967,-0.00049,-4e-06,0.000645,-0.004956,-0.507598,0.000674,-1.226839,-261.887032,1.150302,71.973142
5.2569,-0.005587,0.002457,0.000588,-0.000418,9.3e-05,0.001113,-0.005345,-0.507422,1.1e-05,-1.226839,-261.887032,1.150302,71.973142
5.2769,-0.005197,0.00264,0.001144,-0.000359,0.000169,0.001456,-0.005287,-0.507543,0.000588,-1.151841,-261.887032,1.075304,71.973142
5.2972,-0.005169,0.00255,0.000849,-0.000388,0.000163,0.001201,-0.004675,-0.507376,0.001094,-1.151841,-261.887032,1.075304,71.973142
5.3167,-0.005764,0.002701,0.001473,-0.000412,0.00016,0.001013,-0.004675,-0.507376,0.001094,-1.151841,-261.887032,1.075304,71.973142
5.3366,-0.005364,0.003082,0.00253,-0.000432,0.000158,0.000872,-0.005025,-0.507292,0.001526,-1.226841,-261.887416,1.107944,71.972865
5.3566,-0.005596,0.002431,0.001709,-0.00046,0.000109,0.000439,-0.004641,-0.507139,0.001939,-1.226841,-261.887416,1.107944,71.972865
5.3771,-0.005164,0.002401,0.001221,-0.000485,7.3e-05,0.000115,-0.004725,-0.507568,0.00171,-1.15184,-261.887428,1.032943,71.972857
5.3968,-0.005506,0.002735,0.000781,-0.000493,0.000123,0.00015,-0.004558,-0.507596,0.001265,-1.15184,-261.887428,1.032943,71.972857
5.417,-0.005404,0.002921,-0.000249,-0.0005,0.000163,0.000171,-0.004558,-0.507596,0.001265,-1.15184,-261.887428,1.032943,71.972857
5.4372,-0.005231,0.002592,-2.7e-05,-0.000506,0.000193,0.000183,-0.005531,-0.507078,-0.000249,-1.07684,-261.887428,0.957944,71.972857
5.4568,-0.005502,0.002888,0.000246,-0.000448,0.000215,0.000847,-0.005415,-0.507212,-0.000158,-1.07684,-261.887428,0.957944,71.972857
5.477,-0.00511,0.002372,-0.001286,-0.000397,0.000232,0.001337,-0.005377,-0.507112,0.000246,-1.001794,-261.887428,0.882897,71.972857
5.4969,-0.005069,0.002688,0.000313,-0.000307,0.000326,0.002164,-0.00573,-0.507581,-0.001147,-1.001794,-261.887428,0.882897,71.972857
5.5167,-0.005553,0.002523,0.001141,-0.000231,0.000402,0.002785,-0.00573,-0.507581,-0.001147,-1.001794,-261.887428,0.882897,71.972857
5.5366,-0.00501,0.002841,0.000726,-0.000168,0.000463,0.003254,-0.00498,-0.507473,0.001165,-1.076747,-261.887625,0.95785,71.972733
5.5567,-0.005529,0.002538,0.001272,-0.00021,0.000397,0.002593,-0.004843,-0.507345,0.000989,-1.076747,-261.887625,0.95785,71.972733
5.577,-0.005454,0.002598,-7.6e-05,-0.000247,0.000348,0.002102,-0.00488,-0.507462,0.001272,-1.151752,-261.887626,1.032855,71.972732
5.5972,-0.005549,0.002817,0.000855,-0.000212,0.000372,0.002186,-0.00544,-0.507407,4e-05,-1.151752,-261.887626,1.032855,71.972732
5.6172,-0.005347,0.002267,0.000215,-0.000185,0.000389,0.002247,-0.00544,-0.507407,4e-05,-1.151752,-261.887626,1.032855,71.972732
5.6367,-0.00551,0.002812,0.001587,-0.000163,0.000402,0.002291,-0.005239,-0.507732,0.000222,-1.226889,-261.887683,1.107993,71.972699
5.657,-0.005494,0.00237,0.001656,-0.000179,0.000398,0.001973,-0.005021,-0.507511,0.000776,-1.226889,-261.887683,1.107993,71.972699
5.6769,-0.005622,0.002647,0.00186,-0.000194,0.000394,0.001737,-0.00465,-0.507628,0.001662,-1.30175,-261.887742,1.182853,71.972666
5.6968,-0.005271,0.002459,0.000779,-0.000251,0.000334,0.001135,-0.004672,-0.507377,0.001843,-1.30175,-261.887742,1.182853,71.972666
5.7169,-0.005509,0.002567,0.000331,-0.000299,0.000288,0.000683,-0.004672,-0.507377,0.001843,-1.30175,-261.887742,1.182853,71.972666
5.7367,-0.005188,0.002885,0.002318,-0.000339,0.000255,0.000344,-0.005346,-0.507422,0.000376,-1.376749,-261.888107,1.257852,71.972493
5.757,-0.00522,0.002445,0.00125,-0.000369,0.000226,0.000348,-0.004799,-0.507295,0.001176,-1.376749,-261.888107,1.257852,71.972493
5.7771,-0.005527,0.002677,0.001187,-0.000391,0.000204,0.000347,-0.004583,-0.507554,0.00125,-1.301566,-261.888107,1.182669,71.972493
5.7969,-0.00583,0.002502,0.002234,-0.000392,0.000204,0.000336,-0.004891,-0.507343,0.001193,-1.301566,-261.888107,1.182669,71.972493
5.8167,-0.005524,0.002824,0.000874,-0.000393,0.000204,0.000325,-0.004891,-0.507343,0.001193,-1.301566,-261.888107,1.182669,71.972493
5.8369,-0.005303,0.002629,0.001317,-0.000394,0.000204,0.000315,-0.005078,-0.507176,0.000874,-1.22675,-261.888107,1.107853,71.972493
5.8569,-0.005501,0.002741,0.000758,-0.000402,0.000189,0.000363,-0.004896,-0.507255,0.001055,-1.22675,-261.888107,1.107853,71.972493
5.8768,-0.00567,0.002398,0.00014,-0.000408,0.000177,0.000397,-0.005115,-0.507259,0.000758,-1.151746,-261.888107,1.032849,71.972493
5.8967,-0.005382,0.002785,0.001255,-0.000323,0.000277,0.000834,-0.005557,-0.507573,0.000194,-1.151746,-261.888107,1.032849,71.972493
5.917,-0.004948,0.002725,0.001525,-0.000255,0.000355,0.001155,-0.005557,-0.507573,0.000194,-1.151746,-261.888107,1.032849,71.972493
5.9368,-0.005369,0.002691,0.000659,-0.0002,0.000414,0.001392,-0.00417,-0.507275,0.001525,-1.076629,-261.888107,0.957733,71.972493
5.9568,-0.005675,0.002564,-0.000354,-0.000298,0.000321,0.001108,-0.00452,-0.507289,0.001174,-1.076629,-261.888107,0.957733,71.972493
5.9767,-0.005207,0.002733,0.001726,-0.000374,0.000251,0.0009,-0.005857,-0.507435,-0.00035,-1.151505,-261.888154,1.032608,71.972476
5.9968,-0.005487,0.002585,0.000335,-0.000437,0.000191,0.000602,-0.004466,-0.507281,0.001537,-1.151505,-261.888154,1.032608,71.972476
6.0176,-0.005204,0.003155,0.000668,-0.000488,0.000147,0.000381,-0.004466,-0.507281,0.001537,-1.151505,-261.888154,1.032608,71.972476
6.0368,-0.005704,0.002707,0.002707,-0.000527,0.000113,0.000217,-0.004865,-0.506844,0.000673,-1.133662,-261.888197,0.957605,71.972452
6.0566,-0.005876,0.002529,0.002577,-0.000552,6e-05,0.000101,-0.004644,-0.507026,0.001503,-1.133662,-261.888197,0.957605,71.972452
6.0775,-0.005401,0.00271,0.001319,-0.000572,1.8e-05,1.4e-05,-0.004562,-0.50747,0.002577,-1.058612,-261.888197,0.882555,71.972452
6.0968,-0.005521,0.00291,0.001405,-0.000557,4.2e-05,-2e-05,-0.004712,-0.507307,0.001442,-1.058612,-261.888197,0.882555,71.972452
6.1173,-0.005633,0.002693,0.001946,-0.000546,6e-05,-4.7e-05,-0.004712,-0.507307,0.001442,-1.058612,-261.888197,0.882555,71.972452
6.1368,-0.005314,0.002811,0.001364,-0.000537,7.3e-05,-6.8e-05,-0.004641,-0.507306,0.001946,-0.983543,-261.888197,0.807486,71.972452
6.1566,-0.005687,0.00307,0.001617,-0.000543,6.8e-05,-0.000192,-0.004632,-0.507259,0.001712,-0.983543,-261.888197,0.807486,71.972452
6.1767,-0.005653,0.002829,0.00096,-0.000548,6.3e-05,-0.000285,-0.004863,-0.50693,0.001617,-0.908519,-261.888197,0.732461,71.972452
6.197,-0.00537,0.002667,0.000761,-0.000504,8.5e-05,-6.9e-05,-0.005137,-0.507149,0.001018,-0.908519,-261.888197,0.732461,71.972452
6.217,-0.005271,0.002495,0.002879,-0.000469,0.000101,8.8e-05,-0.005137,-0.507149,0.001018,-0.908519,-261.888197,0.732461,71.972452
6.2366,-0.005595,0.002902,0.001316,-0.000439,0.000112,0.000202,-0.003803,-0.507503,0.002879,-0.833574,-261.888197,0.657516,71.972452
6.257,-0.005101,0.002727,0.00108,-0.000511,7.5e-05,-0.000175,-0.004265,-0.507336,0.002235,-0.833574,-261.888197,0.657516,71.972452
6.277,-0.005411,0.002461,0.00194,-0.000568,4.8e-05,-0.000454,-0.004551,-0.507272,0.00108,-0.758562,-261.888197,0.582504,71.972452
6.297,-0.005414,0.00273,0.000721,-0.000579,7.9e-05,-0.000526,-0.004433,-0.507514,0.001864,-0.758562,-261.888197,0.582504,71.972452
6.3169,-0.005463,0.002467,0.002626,-0.000589,0.000104,-0.00058,-0.004433,-0.507514,0.001864,-0.758562,-261.888197,0.582504,71.972452
6.3367,-0.005608,0.002622,0.001564,-0.000598,0.000123,-0.000622,-0.004124,-0.507531,0.002626,-0.683624,-261.888197,0.507566,71.972452
6.3566,-0.005359,0.002669,0.001481,-0.000609,0.000126,-0.000772,-0.004405,-0.507468,0.002192,-0.683624,-261.888197,0.507566,71.972452
6.3767,-0.005116,0.002652,0.001708,-0.000619,0.000129,-0.000884,-0.004603,-0.50733,0.001481,-0.608669,-261.888197,0.432611,71.972452
6.3966,-0.005644,0.002649,0.000704,-0.000663,9.6e-05,-0.000787,-0.004277,-0.507346,0.001688,-0.608669,-261.888197,0.432611,71.972452
6.4169,-0.005592,0.002824,0.000374,-0.000697,7.2e-05,-0.000717,-0.004277,-0.507346,0.001688,-0.608669,-261.888197,0.432611,71.972452
6.4369,-0.005539,0.00273,0.002619,-0.000721,5.4e-05,-0.000666,-0.005401,-0.507176,0.000374,-0.533667,-261.888197,0.357609,71.972452
6.4569,-0.00576,0.002549,0.000498,-0.000664,7.4e-05,-0.000469,-0.004914,-0.507213,0.001287,-0.533667,-261.888197,0.357609,71.972452
6.4771,-0.005094,0.002917,0.000927,-0.000618,8.8e-05,-0.000327,-0.005506,-0.50745,0.000498,-0.458667,-261.888197,0.282609,71.972452
6.4969,-0.006037,0.002549,0.000844,-0.000621,5.9e-05,-5.3e-05,-0.004696,-0.507114,0.000891,-0.458667,-261.888197,0.282609,71.972452
6.5173,-0.005752,0.002917,0.002003,-0.000621,3.7e-05,0.00015,-0.004696,-0.507114,0.000891,-0.458667,-261.888197,0.282609,71.972452
6.5368,-0.005246,0.002328,8e-06,-0.000618,2e-05,0.000301,-0.00473,-0.507082,0.002003,-0.383519,-261.888197,0.207461,71.972452
6.557,-0.005783,0.002659,0.00117,-0.000564,6.7e-05,0.000286,-0.004939,-0.507322,0.00119,-0.383519,-261.888197,0.207461,71.972452
6.5767,-0.005887,0.002834,0.001198,-0.000522,0.000102,0.000276,-0.005204,-0.50734,0.001179,-0.317715,-261.88843,0.258739,71.972223
6.5967,-0.005366,0.002517,0.001346,-0.000461,0.000134,0.000263,-0.005271,-0.50718,0.001197,-0.317715,-261.88843,0.258739,71.972223
6.6169,-0.005514,0.002874,0.002976,-0.000413,0.000156,0.000252,-0.005271,-0.50718,0.001197,-0.317715,-261.88843,0.258739,71.972223
6.6368,-0.005741,0.002517,0.001349,-0.000376,0.000173,0.000244,-0.004008,-0.507122,0.002981,-0.392844,-261.888547,0.183609,71.972118
6.6568,-0.005578,0.002723,0.000781,-0.000438,0.000124,-0.000171,-0.00444,-0.507271,0.002309,-0.392844,-261.888547,0.183609,71.972118
6.6768,-0.005618,0.002844,0.001584,-0.000489,8.8e-05,-0.000478,-0.005181,-0.507277,0.000781,-0.467846,-261.888562,0.108608,71.972107
6.6972,-0.005215,0.00299,0.001152,-0.00049,7.9e-05,-0.000422,-0.004842,-0.507165,0.001517,-0.467846,-261.888562,0.108608,71.972107
6.7171,-0.005564,0.002784,0.002947,-0.00049,7.3e-05,-0.000382,-0.004842,-0.507165,0.001517,-0.467846,-261.888562,0.108608,71.972107
6.7368,-0.005384,0.002877,-0.000632,-0.000489,6.8e-05,-0.000355,-0.004061,-0.507214,0.002947,-0.392833,-261.888562,0.033595,71.972107
6.7568,-0.005773,0.003006,0.002298,-0.000502,5.6e-05,-0.000319,-0.004739,-0.507177,0.001473,-0.392833,-261.888562,0.033595,71.972107
6.777,-0.005484,0.002297,0.001623,-0.000511,4.7e-05,-0.000292,-0.004601,-0.506992,0.002298,-0.317859,-261.888562,-0.041379,71.972107
6.7974,-0.00544,0.002393,0.001182,-0.000494,0.00012,-0.000342,-0.004652,-0.507639,0.001683,-0.317859,-261.888562,-0.041379,71.972107
6.8173,-0.005505,0.002589,0.002169,-0.000483,0.000177,-0.000379,-0.004652,-0.507639,0.001683,-0.317859,-261.888562,-0.041379,71.972107
6.8369,-0.005588,0.002479,0.000838,-0.000475,0.000221,-0.000408,-0.004399,-0.50741,0.002169,-0.242995,-261.888562,-0.116243,71.972107
6.8573,-0.00539,0.002963,0.001903,-0.000476,0.000224,-0.00041,-0.004713,-0.507456,0.00162,-0.242995,-261.888562,-0.116243,71.972107
6.8767,-0.005429,0.002793,0.000199,-0.000476,0.000227,-0.000413,-0.004419,-0.507036,0.001903,-0.167867,-261.888562,-0.191371,71.972107
6.8966,-0.004984,0.002789,0.001144,-0.000444,0.000223,0.000137,-0.00524,-0.50719,0.000363,-0.167867,-261.888562,-0.191371,71.972107
6.9167,-0.005272,0.002812,0.001496,-0.000414,0.000221,0.000542,-0.00524,-0.50719,0.000363,-0.167867,-261.888562,-0.191371,71.972107
6.9368,-0.005311,0.002666,-0.000258,-0.000388,0.000219,0.000842,-0.004509,-0.507188,0.001496,-0.092913,-261.888562,-0.266325,71.972107
6.9567,-0.00527,0.002693,0.002431,-0.000399,0.000197,0.000865,-0.004888,-0.507247,0.000784,-0.092913,-261.888562,-0.266325,71.972107
6.9769,-0.005711,0.003081,0.001323,-0.000408,0.00018,0.000884,-0.004029,-0.507305,0.002431,-0.167814,-261.888562,-0.191424,71.972107
6.997,-0.005442,0.003266,0.002056,-0.00042,0.000125,0.000622,-0.004951,-0.506952,0.001417,-0.167814,-261.888562,-0.191424,71.972107
7.0166,-0.005613,0.0031,0.00216,-0.000431,8.2e-05,0.000429,-0.004951,-0.506952,0.001417,-0.167814,-261.888562,-0.191424,71.972107
7.0367,-0.005743,0.002592,0.001881,-0.000439,4.8e-05,0.000286,-0.004511,-0.506899,0.00216,-0.243017,-261.888562,-0.116221,71.972107
7.057,-0.005581,0.002945,0.001767,-0.000472,1.6e-05,-5.1e-05,-0.004622,-0.507106,0.002046,-0.243017,-261.888562,-0.116221,71.972107
7.0768,-0.005628,0.002622,0.000515,-0.000499,-8e-06,-0.0003,-0.004681,-0.507054,0.001767,-0.317825,-261.888568,-0.041413,71.972101
7.0969,-0.005751,0.002931,0.000654,-0.000434,7.5e-05,0.000112,-0.005307,-0.507351,0.000621,-0.317825,-261.888568,-0.041413,71.972101
7.1175,-0.005612,0.002459,0.002876,-0.000381,0.000139,0.000412,-0.005307,-0.507351,0.000621,-0.317825,-261.888568,-0.041413,71.972101
7.137,-0.006026,0.002441,2.1e-05,-0.000338,0.000188,0.000632,-0.004145,-0.507539,0.002876,-0.24269,-261.888568,-0.116548,71.972101
7.157,-0.005505,0.002685,0.001084,-0.000324,0.000231,0.000343,-0.004919,-0.507547,0.001695,-0.24269,-261.888568,-0.116548,71.972101
7.1765,-0.005262,0.002919,0.001267,-0.000315,0.000264,0.000128,-0.004952,-0.507315,0.001084,-0.317677,-261.888568,-0.041561,71.972101
7.1967,-0.005261,0.00289,0.00201,-0.000388,0.000183,0.000132,-0.004645,-0.507101,0.001251,-0.317677,-261.888568,-0.041561,71.972101
7.217,-0.005459,0.003016,0.000177,-0.000443,0.000122,0.000134,-0.004645,-0.507101,0.001251,-0.317677,-261.888568,-0.041561,71.972101
7.2368,-0.005772,0.002691,0.001415,-0.000484,7.6e-05,0.000136,-0.005369,-0.506984,0.000177,-0.392747,-261.888568,-0.116631,71.972101
7.2571,-0.005541,0.002834,0.002428,-0.000444,9.6e-05,0.000391,-0.005238,-0.507118,0.000687,-0.392747,-261.888568,-0.116631,71.972101
7.2769,-0.005814,0.002768,0.000656,-0.000412,0.00011,0.000579,-0.004313,-0.507163,0.002431,-0.317814,-261.888709,-0.041698,71.971967
7.2971,-0.005551,0.002801,0.000693,-0.00036,0.000152,0.000664,-0.00538,-0.507226,0.000808,-0.317814,-261.888709,-0.041698,71.971967
7.3171,-0.005652,0.002637,0.000588,-0.000319,0.000184,0.000725,-0.00538,-0.507226,0.000808,-0.317814,-261.888709,-0.041698,71.971967
7.3367,-0.005633,0.002649,0.001343,-0.000287,0.000208,0.000771,-0.005352,-0.507363,0.000588,-0.392847,-261.888709,0.033335,71.971967
7.357,-0.005647,0.002322,0.001627,-0.000272,0.000233,0.000768,-0.005189,-0.507358,0.000894,-0.392847,-261.888709,0.033335,71.971967
7.3764,-0.005479,0.00236,0.001623,-0.000262,0.000252,0.000767,-0.004817,-0.507678,0.001627,-0.467874,-261.888709,0.108362,71.971967
7.3966,-0.005721,0.00255,1.2e-05,-0.000293,0.000276,0.000473,-0.004665,-0.507642,0.001623,-0.467874,-261.888709,0.108362,71.971967
7.417,-0.005486,0.002608,0.001768,-0.00032,0.000295,0.000256,-0.004665,-0.507642,0.001623,-0.467874,-261.888709,0.108362,71.971967
7.4371,-0.005507,0.002408,0.002768,-0.000343,0.000311,9.5e-05,-0.004584,-0.507391,0.001768,-0.542861,-261.888709,0.183349,71.971967
7.4573,-0.005463,0.002981,0.000818,-0.000412,0.000264,-0.00023,-0.004382,-0.507473,0.00218,-0.542861,-261.888709,0.183349,71.971967
7.4772,-0.005766,0.002522,0.001495,-0.000466,0.00023,-0.000471,-0.005046,-0.507019,0.000818,-0.617822,-261.888709,0.108388,71.971967
7.4972,-0.005316,0.002725,0.000253,-0.000434,0.000253,-0.000373,-0.005007,-0.507435,0.001432,-0.617822,-261.888709,0.108388,71.971967
7.5177,-0.005586,0.002958,0.002005,-0.000409,0.000271,-0.000304,-0.005007,-0.507435,0.001432,-0.617822,-261.888709,0.108388,71.971967
7.5368,-0.005804,0.002487,0.00123,-0.000388,0.000283,-0.000257,-0.004564,-0.507041,0.002005,-0.542782,-261.888709,0.033348,71.971967
7.5568,-0.005313,0.003123,0.000261,-0.000411,0.000237,-0.000336,-0.004801,-0.507224,0.001705,-0.542782,-261.888709,0.033348,71.971967
7.577,-0.005702,0.002383,0.00038,-0.000429,0.000201,-0.000396,-0.00518,-0.506877,0.000261,-0.467943,-261.888709,-0.04149,71.971967
7.5974,-0.005635,0.002687,0.001092,-0.000353,0.000287,0.000157,-0.005483,-0.507561,0.000371,-0.467943,-261.888709,-0.04149,71.971967
7.6172,-0.005429,0.002847,0.002248,-0.00029,0.000354,0.000562,-0.005483,-0.507561,0.000371,-0.467943,-261.888709,-0.04149,71.971967
7.6368,-0.005653,0.003011,0.000722,-0.000239,0.000405,0.00086,-0.004283,-0.507152,0.002248,-0.392507,-261.888709,-0.116926,71.971967
7.6568,-0.00522,0.002936,0.001142,-0.000315,0.000294,0.000523,-0.004695,-0.507085,0.00162,-0.392507,-261.888709,-0.116926,71.971967
7.6767,-0.005239,0.002583,0.001689,-0.000375,0.00021,0.000276,-0.004637,-0.507063,0.001142,-0.467233,-261.888709,-0.042201,71.971967
7.697,-0.00603,0.002407,0.000338,-0.000443,0.000172,9.3e-05,-0.004399,-0.507387,0.001643,-0.467233,-261.888709,-0.042201,71.971967
7.7169,-0.005278,0.002869,0.000851,-0.000497,0.000145,-4.2e-05,-0.004399,-0.507387,0.001643,-0.467233,-261.888709,-0.042201,71.971967
7.7367,-0.005553,0.002623,0.000822,-0.00054,0.000125,-0.000142,-0.004847,-0.507129,0.000853,-0.542221,-261.888746,-0.109475,71.971941
7.7569,-0.005465,0.00283,0.001105,-0.000514,0.000131,0.00012,-0.004966,-0.507232,0.00084,-0.542221,-261.888746,-0.109475,71.971941
7.7767,-0.005522,0.002886,-0.000135,-0.000492,0.000136,0.000311,-0.004901,-0.507169,0.001105,-0.467269,-261.888748,-0.184428,71.971939
7.7967,-0.005751,0.002906,0.000148,-0.000427,0.000165,0.000868,-0.005534,-0.507118,-3.2e-05,-0.467269,-261.888748,-0.184428,71.971939
7.8171,-0.005408,0.002896,0.001088,-0.000371,0.000188,0.001281,-0.005534,-0.507118,-3.2e-05,-0.467269,-261.888748,-0.184428,71.971939
7.8368,-0.005476,0.002608,0.001521,-0.000325,0.000206,0.001587,-0.004858,-0.507102,0.00109,-0.542277,-261.888794,-0.109419,71.9719
7.8568,-0.005664,0.00259,0.002819,-0.000353,0.000173,0.001218,-0.004795,-0.507218,0.001263,-0.542277,-261.888794,-0.109419,71.9719
7.877,-0.005261,0.002964,0.00139,-0.000377,0.000149,0.000947,-0.004227,-0.507408,0.002819,-0.617312,-261.888794,-0.034385,71.9719
7.8972,-0.005625,0.002681,0.001538,-0.000444,7.9e-05,0.000644,-0.004525,-0.507067,0.001509,-0.617312,-261.888794,-0.034385,71.9719
7.9172,-0.005198,0.002777,0.000117,-0.000498,2.6e-05,0.00042,-0.004525,-0.507067,0.001509,-0.617312,-261.888794,-0.034385,71.9719
7.9369,-0.005517,0.002861,-0.000126,-0.000541,-1.4e-05,0.000253,-0.005138,-0.507223,0.000117,-0.692315,-261.888794,0.040619,71.9719
7.9569,-0.00549,0.002783,-0.000165,-0.000479,4.3e-05,0.000815,-0.005323,-0.507188,1.6e-05,-0.692315,-261.888794,0.040619,71.9719
7.9768,-0.005251,0.002378,0.001102,-0.000427,8.7e-05,0.001228,-0.005574,-0.507217,-0.000165,-0.617194,-261.888797,0.11574,71.971897
7.9967,-0.005396,0.002915,0.001889,-0.000415,0.00015,0.001079,-0.004762,-0.507589,0.000997,-0.617194,-261.888797,0.11574,71.971897
8.0174,-0.005854,0.00284,0.000619,-0.000407,0.000198,0.000967,-0.004762,-0.507589,0.000997,-0.617194,-261.888797,0.11574,71.971897
8.0366,-0.005982,0.002749,-0.000258,-0.000403,0.000236,0.000884,-0.005538,-0.50716,0.000619,-0.692131,-261.888797,0.190676,71.971897
8.057,-0.005384,0.002804,0.003047,-0.000322,0.000278,0.001158,-0.005774,-0.507198,0.00026,-0.692131,-261.888797,0.190676,71.971897
8.0771,-0.005244,0.002674,0.001084,-0.000257,0.00031,0.001358,-0.00383,-0.507194,0.003047,-0.767012,-261.888798,0.265558,71.971896
8.097,-0.005569,0.003088,0.000612,-0.000323,0.000255,0.001055,-0.004616,-0.507315,0.001255,-0.767012,-261.888798,0.265558,71.971896
8.1171,-0.005532,0.00247,0.001569,-0.000375,0.000213,0.000831,-0.004616,-0.507315,0.001255,-0.767012,-261.888798,0.265558,71.971896
8.1371,-0.005204,0.002711,-5.6e-05,-0.000416,0.000182,0.000666,-0.004732,-0.50753,0.001569,-0.842056,-261.888798,0.340602,71.971896
8.157,-0.005678,0.002953,0.003317,-0.0004,0.000208,0.000699,-0.004937,-0.507431,0.000903,-0.842056,-261.888798,0.340602,71.971896
8.1769,-0.005757,0.002795,0.001675,-0.000388,0.000228,0.000722,-0.003993,-0.507041,0.003328,-0.917031,-261.888958,0.415577,71.971792
8.1972,-0.005869,0.002659,0.000418,-0.000402,0.000188,0.000353,-0.004813,-0.507188,0.00184,-0.917031,-261.888958,0.415577,71.971792
8.2172,-0.005316,0.003056,0.000855,-0.000414,0.000158,7.9e-05,-0.004813,-0.507188,0.00184,-0.917031,-261.888958,0.415577,71.971792
8.2368,-0.005655,0.002975,0.001904,-0.000425,0.000134,-0.000126,-0.004891,-0.506937,0.000875,-0.992032,-261.88917,0.490578,71.97167
8.2568,-0.005487,0.002861,0.000623,-0.000459,7.9e-05,-7.6e-05,-0.004807,-0.506972,0.001303,-0.992032,-261.88917,0.490578,71.97167
8.2767,-0.005582,0.002666,0.001709,-0.000484,3.6e-05,-4e-05,-0.005169,-0.507139,0.000623,-0.91699,-261.88917,0.415535,71.97167
8.2968,-0.005818,0.002475,0.001882,-0.00048,5.7e-05,-0.000133,-0.004748,-0.507317,0.001619,-0.91699,-261.88917,0.415535,71.97167
8.3169,-0.005706,0.002741,0.00071,-0.000479,7.4e-05,-0.000203,-0.004748,-0.507317,0.001619,-0.91699,-261.88917,0.415535,71.97167
8.3366,-0.005649,0.002608,0.000346,-0.000479,8.7e-05,-0.000256,-0.005345,-0.507259,0.00071,-0.841968,-261.88917,0.340514,71.97167
8.3573,-0.005571,0.002635,0.001558,-0.000413,0.000151,0.000167,-0.005397,-0.507314,0.000559,-0.841968,-261.88917,0.340514,71.97167
8.3769,-0.00554,0.002694,0.002718,-0.000359,0.000199,0.000477,-0.004776,-0.507364,0.001558,-0.767032,-261.88917,0.265578,71.97167
8.3971,-0.005681,0.002792,0.001209,-0.000457,0.000128,-8.2e-05,-0.004207,-0.507309,0.00262,-0.767032,-261.88917,0.265578,71.97167
8.417,-0.005637,0.002478,0.001193,-0.000535,7.7e-05,-0.0005,-0.004207,-0.507309,0.00262,-0.767032,-261.88917,0.265578,71.97167
8.4372,-0.005512,0.00294,0.000405,-0.000599,3.9e-05,-0.000811,-0.005039,-0.507517,0.001204,-0.842041,-261.889321,0.251808,71.971578
8.4574,-0.005571,0.002776,0.001472,-0.000536,9.7e-05,-0.000378,-0.00515,-0.507329,0.000877,-0.842041,-261.889321,0.251808,71.971578
8.4768,-0.005581,0.002761,0.001803,-0.000483,0.000142,-6.5e-05,-0.00482,-0.507223,0.001472,-0.767029,-261.889321,0.176796,71.971578
8.4971,-0.005972,0.00277,0.001086,-0.000498,0.000118,-0.000214,-0.004674,-0.507237,0.001776,-0.767029,-261.889321,0.176796,71.971578
8.517,-0.005706,0.002702,0.001697,-0.00051,0.000101,-0.000325,-0.004674,-0.507237,0.001776,-0.767029,-261.889321,0.176796,71.971578
8.5369,-0.00547,0.002524,0.000724,-0.00052,8.7e-05,-0.000409,-0.00484,-0.507298,0.001697,-0.692008,-261.889321,0.101775,71.971578
8.5571,-0.006285,0.002501,0.00121,-0.000487,0.000125,-0.000276,-0.004948,-0.507371,0.001296,-0.692008,-261.889321,0.101775,71.971578
8.5769,-0.005752,0.002789,0.002,-0.000461,0.000154,-0.000182,-0.005668,-0.507498,0.00121,-0.616973,-261.889321,0.02674,71.971578
8.5972,-0.00542,0.002894,-0.000103,-0.00046,0.00014,-0.000364,-0.004811,-0.507235,0.001933,-0.616973,-261.889321,0.02674,71.971578
8.617,-0.005968,0.002825,0.001474,-0.000461,0.000128,-0.0005,-0.004811,-0.507235,0.001933,-0.616973,-261.889321,0.02674,71.971578
8.6369,-0.005185,0.002791,0.000772,-0.000462,0.000119,-0.000601,-0.005216,-0.507175,0.001474,-0.542012,-261.889321,-0.048221,71.971578
8.657,-0.005612,0.002617,0.001873,-0.000447,0.000124,-0.000379,-0.005042,-0.507189,0.001186,-0.542012,-261.889321,-0.048221,71.971578
8.6773,-0.006004,0.002822,0.001798,-0.000433,0.000127,-0.000218,-0.004657,-0.507382,0.001873,-0.466988,-261.889321,-0.123246,71.971578
8.6969,-0.005812,0.002895,0.001004,-0.000411,0.000132,-0.000348,-0.00505,-0.507195,0.001804,-0.466988,-261.889321,-0.123246,71.971578
8.7167,-0.005478,0.002811,0.000168,-0.000396,0.000136,-0.000444,-0.00505,-0.507195,0.001804,-0.466988,-261.889321,-0.123246,71.971578
8.737,-0.005761,0.002464,0.000721,-0.000384,0.000138,-0.000516,-0.005393,-0.507189,0.000168,-0.392041,-261.889321,-0.198192,71.971578
8.7567,-0.005394,0.002569,0.001756,-0.000342,0.000187,4.9e-05,-0.005393,-0.507332,0.000396,-0.392041,-261.889321,-0.198192,71.971578
8.7766,-0.005804,0.002565,0.00065,-0.000305,0.000227,0.000464,-0.004499,-0.507431,0.001756,-0.31704,-261.889321,-0.273193,71.971578
8.7967,-0.005267,0.002786,0.002061,-0.000264,0.000277,0.000608,-0.005391,-0.507435,0.000743,-0.31704,-261.889321,-0.273193,71.971578
8.8168,-0.005442,0.003015,0.002283,-0.00023,0.000315,0.000714,-0.005391,-0.507435,0.000743,-0.31704,-261.889321,-0.273193,71.971578
8.8367,-0.005667,0.003175,0.001316,-0.000204,0.000345,0.000793,-0.004277,-0.506983,0.002283,-0.392085,-261.889321,-0.198148,71.971578
8.8572,-0.00607,0.003085,0.001837,-0.000315,0.000207,0.000374,-0.004575,-0.506918,0.001883,-0.392085,-261.889321,-0.198148,71.971578
8.877,-0.005787,0.002903,0.000808,-0.000402,0.000102,6.5e-05,-0.005133,-0.506914,0.001837,-0.467038,-261.889321,-0.123195,71.971578
8.8975,-0.00557,0.002534,0.001781,-0.000368,0.000118,0.000245,-0.005354,-0.507081,0.000895,-0.467038,-261.889321,-0.123195,71.971578
8.9172,-0.005394,0.002965,0.000801,-0.00034,0.00013,0.000376,-0.005354,-0.507081,0.000895,-0.467038,-261.889321,-0.123195,71.971578
8.9371,-0.005579,0.002898,0.000786,-0.000317,0.000138,0.000471,-0.004998,-0.507031,0.000803,-0.392022,-261.88945,-0.153061,71.971455
8.9574,-0.005716,0.002861,0.001423,-0.000334,0.000115,0.000584,-0.005073,-0.507059,0.000797,-0.392022,-261.88945,-0.153061,71.971455
8.9773,-0.005718,0.002625,0.002201,-0.000347,9.8e-05,0.000668,-0.00499,-0.507138,0.001423,-0.466875,-261.88945,-0.078208,71.971455
8.9971,-0.00554,0.002791,0.001413,-0.000377,9.6e-05,0.000214,-0.004631,-0.507352,0.00213,-0.466875,-261.88945,-0.078208,71.971455
9.017,-0.005707,0.003002,0.001079,-0.000404,9.6e-05,-0.000124,-0.004631,-0.507352,0.00213,-0.466875,-261.88945,-0.078208,71.971455
9.0369,-0.005884,0.002733,-0.000195,-0.000427,9.8e-05,-0.000377,-0.005157,-0.506997,0.001079,-0.541882,-261.88945,-0.003201,71.971455
9.0569,-0.005811,0.002684,5.3e-05,-0.000379,0.000129,7.9e-05,-0.005492,-0.507107,0.000563,-0.541882,-261.88945,-0.003201,71.971455
9.0766,-0.005835,0.002818,-0.000211,-0.000337,0.000153,0.000411,-0.005784,-0.507316,5.3e-05,-0.466883,-261.88945,-0.078201,71.971455
9.0969,-0.005391,0.003192,0.002544,-0.000261,0.000218,0.001021,-0.005928,-0.507194,-0.000187,-0.466883,-261.88945,-0.078201,71.971455
9.1173,-0.005799,0.002858,0.001523,-0.000198,0.000268,0.001473,-0.005928,-0.507194,-0.000187,-0.466883,-261.88945,-0.078201,71.971455
9.137,-0.005872,0.002886,0.002548,-0.000145,0.000308,0.001808,-0.005023,-0.507141,0.001523,-0.541896,-261.889452,-0.003187,71.971454
9.1571,-0.005679,0.002894,0.00087,-0.000204,0.000234,0.00114,-0.004846,-0.50713,0.001926,-0.541896,-261.889452,-0.003187,71.971454
9.1768,-0.005552,0.002644,0.000266,-0.000253,0.000179,0.000642,-0.005235,-0.507105,0.00087,-0.616889,-261.889452,0.071806,71.971454
9.1971,-0.005702,0.002658,0.000679,-0.000231,0.00022,0.000959,-0.0054,-0.507334,0.00032,-0.616889,-261.889452,0.071806,71.971454
9.2169,-0.005512,0.002826,0.001368,-0.000211,0.000251,0.001191,-0.0054,-0.507334,0.00032,-0.616889,-261.889452,0.071806,71.971454
9.237,-0.005471,0.002572,0.00208,-0.000194,0.000276,0.00136,-0.004815,-0.507174,0.001368,-0.691884,-261.889452,0.146801,71.971454
9.2569,-0.005464,0.00263,0.002093,-0.000265,0.00022,0.000904,-0.004652,-0.507275,0.001654,-0.691884,-261.889452,0.146801,71.971454
9.2767,-0.005598,0.002839,0.001014,-0.000322,0.000179,0.000566,-0.004397,-0.507369,0.002093,-0.766889,-261.889452,0.221805,71.971454
9.297,-0.005968,0.002758,-6.9e-05,-0.000331,0.000165,0.000538,-0.00503,-0.507177,0.001094,-0.766889,-261.889452,0.221805,71.971454
9.3172,-0.005609,0.002697,-0.000128,-0.000338,0.000155,0.000514,-0.00503,-0.507177,0.001094,-0.766889,-261.889452,0.221805,71.971454
9.3369,-0.005606,0.002764,0.001177,-0.000344,0.000146,0.000494,-0.005676,-0.507302,-0.000126,-0.842362,-261.889482,0.297279,71.971436
9.3568,-0.005745,0.002677,0.001265,-0.000305,0.000187,0.000801,-0.005405,-0.507275,0.000402,-0.842362,-261.889482,0.297279,71.971436
9.3769,-0.005938,0.003068,0.001122,-0.000273,0.000219,0.001026,-0.005107,-0.507319,0.001276,-0.916312,-261.889642,0.371799,71.971329
9.3967,-0.005432,0.0025,0.0008,-0.000268,0.000189,0.000847,-0.005344,-0.506965,0.001136,-0.916312,-261.889642,0.371799,71.971329
9.4169,-0.005662,0.003211,0.001889,-0.000265,0.000165,0.000715,-0.005344,-0.506965,0.001136,-0.916312,-261.889642,0.371799,71.971329
9.437,-0.00569,0.002674,0.001382,-0.000262,0.000146,0.000616,-0.004699,-0.506788,0.001889,-0.991412,-261.889642,0.446898,71.971329
9.457,-0.005714,0.002661,0.001213,-0.000317,8.9e-05,0.000324,-0.004815,-0.507006,0.001683,-0.991412,-261.889642,0.446898,71.971329
9.4766,-0.005692,0.003204,0.001926,-0.000361,4.6e-05,0.000108,-0.005098,-0.507337,0.001217,-1.066334,-261.889698,0.521821,71.971296
9.4971,-0.005542,0.002938,0.001784,-0.000416,-2e-05,-0.000125,-0.004743,-0.506841,0.001867,-1.066334,-261.889698,0.521821,71.971296
9.5173,-0.006106,0.002688,0.002012,-0.00046,-7.1e-05,-0.000298,-0.004743,-0.506841,0.001867,-1.066334,-261.889698,0.521821,71.971296
9.5367,-0.005639,0.002771,-0.000903,-0.000495,-0.00011,-0.000427,-0.00508,-0.507311,0.002012,-0.991183,-261.889698,0.44667,71.971296
9.557,-0.00579,0.002636,0.000212,-0.000412,-2e-06,-8.1e-05,-0.005493,-0.507277,0.00083,-0.991183,-261.889698,0.44667,71.971296
9.5768,-0.005742,0.002621,0.00186,-0.000346,8.1e-05,0.00017,-0.005682,-0.507364,0.000212,-0.916332,-261.889698,0.371818,71.971296
9.5971,-0.005427,0.002711,0.002465,-0.000349,0.00011,-1.6e-05,-0.00487,-0.507377,0.001719,-0.916332,-261.889698,0.371818,71.971296
9.6173,-0.005908,0.002608,0.001481,-0.000354,0.000133,-0.000155,-0.00487,-0.507377,0.001719,-0.916332,-261.889698,0.371818,71.971296
9.6368,-0.005889,0.002595,0.001623,-0.000359,0.000151,-0.000258,-0.005153,-0.507392,0.001482,-0.841227,-261.8897,0.296714,71.971294
9.6571,-0.00565,0.002671,0.000898,-0.000334,0.000191,-0.000266,-0.005116,-0.507397,0.001539,-0.841227,-261.8897,0.296714,71.971294
9.677,-0.005607,0.002673,0.000323,-0.000315,0.000221,-0.000273,-0.005192,-0.507328,0.000898,-0.766354,-261.8897,0.22184,71.971294
9.6971,-0.005262,0.002836,0.00052,-0.000284,0.000253,0.00024,-0.00542,-0.507327,0.000374,-0.766354,-261.8897,0.22184,71.971294
9.7173,-0.005657,0.002793,0.002296,-0.000257,0.000279,0.000617,-0.00542,-0.507327,0.000374,-0.766354,-261.8897,0.22184,71.971294
9.7371,-0.005636,0.002278,0.001851,-0.000233,0.000299,0.000895,-0.004486,-0.507205,0.002296,-0.691265,-261.8897,0.146752,71.971294
9.757,-0.006034,0.002912,0.001055,-0.000296,0.000255,0.000388,-0.00457,-0.507414,0.002115,-0.691265,-261.8897,0.146752,71.971294
9.777,-0.005929,0.002985,0.001212,-0.000348,0.000224,1.1e-05,-0.005496,-0.507087,0.001055,-0.766271,-261.8897,0.221757,71.971294
9.7969,-0.005773,0.002725,0.001196,-0.000332,0.000202,7.2e-05,-0.005326,-0.507021,0.001198,-0.766271,-261.8897,0.221757,71.971294
9.8171,-0.005756,0.003087,0.000956,-0.000319,0.000183,0.000113,-0.005326,-0.507021,0.001198,-0.766271,-261.8897,0.221757,71.971294
9.8369,-0.005356,0.002423,-0.000249,-0.000307,0.000169,0.000142,-0.005269,-0.506913,0.000956,-0.691225,-261.8897,0.146711,71.971294
9.857,-0.005733,0.003028,0.001769,-0.00029,0.000183,0.000499,-0.005355,-0.507182,0.000467,-0.691225,-261.8897,0.146711,71.971294
9.877,-0.005788,0.002859,0.00091,-0.000274,0.000194,0.000763,-0.004831,-0.506971,0.00177,-0.692431,-261.88971,0.071851,71.971286
9.8968,-0.005767,0.003039,0.001977,-0.000267,0.000189,0.000717,-0.005282,-0.507126,0.000983,-0.692431,-261.88971,0.071851,71.971286
9.9172,-0.006126,0.002468,0.00051,-0.000262,0.000185,0.000683,-0.005282,-0.507126,0.000983,-0.692431,-261.88971,0.071851,71.971286
9.9368,-0.005952,0.002851,0.001782,-0.000257,0.000182,0.000659,-0.005866,-0.507532,0.00051,-0.76759,-261.88971,0.14701,71.971286
9.957,-0.005668,0.002524,0.000341,-0.000208,0.000244,0.00063,-0.005535,-0.507378,0.001022,-0.76759,-261.88971,0.14701,71.971286
9.9768,-0.005744,0.002728,0.000714,-0.00017,0.000292,0.000607,-0.005494,-0.507476,0.000341,-0.842594,-261.88971,0.222015,71.971286
9.9968,-0.005963,0.002689,0.00128,-0.000167,0.000299,0.000743,-0.00539,-0.50729,0.000681,-0.842594,-261.88971,0.222015,71.971286
10.0168,-0.005749,0.002494,0.001387,-0.000164,0.000305,0.000843,-0.00539,-0.50729,0.000681,-0.842594,-261.88971,0.222015,71.971286
10.0367,-0.005941,0.002679,-0.000211,-0.000161,0.000309,0.000918,-0.005042,-0.507506,0.001387,-0.917561,-261.889713,0.296981,71.971285
10.0566,-0.005711,0.002778,0.000391,-0.00014,0.000343,0.000951,-0.005453,-0.50743,0.000735,-0.917561,-261.889713,0.296981,71.971285
10.0768,-0.005394,0.002878,0.002378,-0.000124,0.000369,0.000976,-0.005511,-0.507222,0.000391,-0.992514,-261.889713,0.371935,71.971285
10.097,-0.005689,0.002192,0.000941,-0.000279,0.000233,0.000414,-0.004292,-0.507129,0.002213,-0.992514,-261.889713,0.371935,71.971285
10.1168,-0.005528,0.002889,0.000416,-0.000399,0.00013,-5e-06,-0.004292,-0.507129,0.002213,-0.992514,-261.889713,0.371935,71.971285
10.1366,-0.005723,0.002935,0.001046,-0.000493,5.3e-05,-0.000316,-0.005315,-0.507111,0.000416,-1.067634,-261.889713,0.447054,71.971285
10.1568,-0.005587,0.002805,0.000411,-0.000453,7.5e-05,7.5e-05,-0.005264,-0.507092,0.000673,-1.067634,-261.889713,0.447054,71.971285
10.1769,-0.005611,0.002824,0.000878,-0.000419,9.1e-05,0.00036,-0.005377,-0.507195,0.000411,-0.992809,-261.889713,0.37223,71.971285
10.1972,-0.005764,0.002574,0.001332,-0.000393,0.000111,0.000492,-0.005182,-0.507178,0.000838,-0.992809,-261.889713,0.37223,71.971285
10.2167,-0.005759,0.00273,0.002457,-0.000371,0.000126,0.000589,-0.005182,-0.507178,0.000838,-0.992809,-261.889713,0.37223,71.971285
10.2366,-0.005695,0.0024,0.001134,-0.000353,0.000138,0.000659,-0.004508,-0.507268,0.002459,-0.91772,-261.889737,0.297164,71.971265
10.2568,-0.006099,0.002641,0.001886,-0.000364,0.000149,0.000281,-0.004756,-0.507403,0.00192,-0.91772,-261.889737,0.297164,71.971265
10.2765,-0.005797,0.002315,0.001243,-0.000375,0.000159,-1e-06,-0.005139,-0.507357,0.001888,-0.991774,-261.889771,0.372046,71.971241
10.2966,-0.005464,0.002818,0.000319,-0.000324,0.00025,3.6e-05,-0.005161,-0.507656,0.001299,-0.991774,-261.889771,0.372046,71.971241
10.3166,-0.005739,0.002978,0.001518,-0.000286,0.00032,6e-05,-0.005161,-0.507656,0.001299,-0.991774,-261.889771,0.372046,71.971241
10.3365,-0.005582,0.002691,0.000152,-0.000257,0.000373,7.4e-05,-0.004965,-0.507022,0.001518,-0.916639,-261.889771,0.296912,71.971241
10.3571,-0.005637,0.002816,0.000855,-0.000273,0.000322,0.000216,-0.005185,-0.507139,0.000961,-0.916639,-261.889771,0.296912,71.971241
10.3766,-0.005911,0.002902,0.002404,-0.000284,0.000283,0.00032,-0.005201,-0.507183,0.000855,-0.991505,-261.889771,0.222046,71.971241
10.3967,-0.005741,0.002469,0.000211,-0.000337,0.000204,-0.000104,-0.00473,-0.507104,0.002269,-0.991505,-261.889771,0.222046,71.971241
10.4169,-0.0058,0.002796,0.001437,-0.00038,0.000144,-0.00042,-0.00473,-0.507104,0.002269,-0.991505,-261.889771,0.222046,71.971241
10.4367,-0.005922,0.002854,0.00203,-0.000416,9.8e-05,-0.000655,-0.005067,-0.507203,0.001438,-1.035124,-261.889774,0.146948,71.97124
10.457,-0.005303,0.0029,0.001291,-0.000411,0.000101,-0.000616,-0.004993,-0.507179,0.00168,-1.035124,-261.889774,0.146948,71.97124
10.4769,-0.005912,0.002856,0.00174,-0.000406,0.000103,-0.00059,-0.004645,-0.5071,0.001291,-0.960203,-261.889774,0.072027,71.97124
10.4969,-0.00536,0.002782,0.001885,-0.000406,9.7e-05,-0.000583,-0.004992,-0.507139,0.001702,-0.960203,-261.889774,0.072027,71.97124
10.5171,-0.005421,0.002689,0.001368,-0.000405,9.3e-05,-0.000579,-0.004992,-0.507139,0.001702,-0.960203,-261.889774,0.072027,71.97124
10.5366,-0.005589,0.002954,0.001646,-0.000404,8.9e-05,-0.000577,-0.004723,-0.50731,0.001368,-0.885095,-261.889774,-0.003081,71.97124
10.5571,-0.005413,0.00257,0.000333,-0.000436,7.3e-05,-0.000488,-0.004734,-0.507202,0.001482,-0.885095,-261.889774,-0.003081,71.97124
10.5768,-0.005656,0.002601,0.000889,-0.00046,6.2e-05,-0.000424,-0.005243,-0.50743,0.000333,-0.81015,-261.889774,-0.078026,71.97124
10.597,-0.00572,0.002648,0.001607,-0.00041,0.000129,-9.3e-05,-0.005207,-0.507402,0.000841,-0.81015,-261.889774,-0.078026,71.97124
10.6167,-0.00585,0.002754,0.001925,-0.00037,0.000181,0.00015,-0.005207,-0.507402,0.000841,-0.81015,-261.889774,-0.078026,71.97124
10.6367,-0.005626,0.002494,0.000886,-0.000338,0.000222,0.000328,-0.004868,-0.507245,0.001925,-0.735107,-261.889774,-0.15307,71.97124
10.6568,-0.005447,0.003024,0.001213,-0.000333,0.000226,0.000177,-0.004993,-0.507351,0.001501,-0.735107,-261.889774,-0.15307,71.97124
10.6769,-0.005789,0.002508,0.0017,-0.000331,0.00023,6.6e-05,-0.004835,-0.506972,0.001219,-0.809987,-261.889899,-0.078189,71.971162
10.697,-0.005624,0.003227,0.001041,-0.000331,0.000243,-7.4e-05,-0.004914,-0.507446,0.001658,-0.809987,-261.889899,-0.078189,71.971162
10.7172,-0.005708,0.00271,0.001837,-0.000333,0.000254,-0.000178,-0.004914,-0.507446,0.001658,-0.809987,-261.889899,-0.078189,71.971162
10.7371,-0.005822,0.002593,0.001007,-0.000335,0.000262,-0.000255,-0.004772,-0.507289,0.001837,-0.734884,-261.889904,-0.153293,71.971157
10.7569,-0.005637,0.002878,8.1e-05,-0.000338,0.000255,-0.000252,-0.004993,-0.507337,0.001494,-0.734884,-261.889904,-0.153293,71.971157
10.7773,-0.005662,0.002847,0.002683,-0.000339,0.00025,-0.00025,-0.005596,-0.507122,8.1e-05,-0.659832,-261.889904,-0.228345,71.971157
10.797,-0.005971,0.002962,0.000283,-0.000427,0.000159,-0.000589,-0.004415,-0.507149,0.00244,-0.659832,-261.889904,-0.228345,71.971157
10.8175,-0.005378,0.002501,0.000945,-0.000496,9e-05,-0.00084,-0.004415,-0.507149,0.00244,-0.659832,-261.889904,-0.228345,71.971157
10.8367,-0.005942,0.003024,0.001056,-0.00055,3.8e-05,-0.001026,-0.004896,-0.507499,0.000945,-0.584986,-261.889904,-0.30319,71.971157
10.8569,-0.00555,0.00309,0.001529,-0.000506,8.3e-05,-0.000598,-0.005104,-0.507284,0.000991,-0.584986,-261.889904,-0.30319,71.971157
10.8769,-0.005638,0.002514,0.001858,-0.000468,0.000117,-0.000287,-0.00477,-0.506909,0.001529,-0.509889,-261.889904,-0.378287,71.971157
10.897,-0.005455,0.002916,0.00079,-0.000468,0.000137,-0.0004,-0.004698,-0.507436,0.001829,-0.509889,-261.889904,-0.378287,71.971157
10.9172,-0.005914,0.002851,0.001111,-0.000469,0.000153,-0.000484,-0.004698,-0.507436,0.001829,-0.509889,-261.889904,-0.378287,71.971157
10.9369,-0.005603,0.002769,0.000744,-0.000472,0.000165,-0.000546,-0.005347,-0.507149,0.001111,-0.434844,-261.889905,-0.453333,71.971157
10.957,-0.005556,0.002869,-0.000972,-0.000428,0.000181,-0.000241,-0.005297,-0.507182,0.000962,-0.434844,-261.889905,-0.453333,71.971157
10.9765,-0.005827,0.002761,0.000142,-0.000391,0.000193,-1.8e-05,-0.006052,-0.507131,-0.000972,-0.359992,-261.889905,-0.528185,71.971157
10.9967,-0.005657,0.002504,-0.000215,-0.000318,0.000245,0.000582,-0.00578,-0.50723,4.7e-05,-0.359992,-261.889905,-0.528185,71.971157
11.0169,-0.005521,0.002893,0.002524,-0.000256,0.000285,0.001026,-0.00578,-0.50723,4.7e-05,-0.359992,-261.889905,-0.528185,71.971157
11.0368,-0.005878,0.002554,0.000934,-0.000204,0.000317,0.001355,-0.004248,-0.507098,0.002523,-0.433987,-261.890057,-0.479951,71.971001
11.0566,-0.005697,0.002717,0.001665,-0.000264,0.000251,0.00081,-0.004719,-0.507239,0.001876,-0.433987,-261.890057,-0.479951,71.971001
11.0765,-0.005534,0.002641,0.002235,-0.000314,0.000201,0.000406,-0.004848,-0.507283,0.001665,-0.50883,-261.890057,-0.405108,71.971001
11.0968,-0.00561,0.00306,0.001185,-0.000386,0.000159,4e-06,-0.004434,-0.507351,0.002185,-0.50883,-261.890057,-0.405108,71.971001
11.1174,-0.005698,0.00269,0.001965,-0.000444,0.000128,-0.000296,-0.004434,-0.507351,0.002185,-0.50883,-261.890057,-0.405108,71.971001
11.1367,-0.005862,0.002897,0.001557,-0.000491,0.000105,-0.00052,-0.004696,-0.507309,0.001965,-0.583935,-261.890057,-0.330003,71.971001
11.1569,-0.005913,0.002855,0.001583,-0.000483,0.000104,-0.000554,-0.004848,-0.507225,0.001799,-0.583935,-261.890057,-0.330003,71.971001
11.1768,-0.006002,0.002924,0.001354,-0.000478,0.000102,-0.000582,-0.005105,-0.507144,0.001583,-0.509015,-261.890057,-0.404924,71.971001
11.1972,-0.005986,0.002635,0.002597,-0.000435,0.000116,-0.000441,-0.005293,-0.507082,0.001375,-0.509015,-261.890057,-0.404924,71.971001
11.2173,-0.005708,0.002804,0.002023,-0.0004,0.000125,-0.000342,-0.005293,-0.507082,0.001375,-0.509015,-261.890057,-0.404924,71.971001
11.2372,-0.005438,0.002908,0.001833,-0.000372,0.000132,-0.000271,-0.004676,-0.507195,0.002023,-0.434033,-261.890057,-0.479905,71.971001
11.2568,-0.005593,0.00289,0.001565,-0.000426,8.6e-05,-0.000439,-0.004605,-0.507152,0.001945,-0.434033,-261.890057,-0.479905,71.971001
11.2771,-0.005504,0.003002,0.000656,-0.000469,5.1e-05,-0.000562,-0.004795,-0.507109,0.001565,-0.358936,-261.890057,-0.555002,71.971
11.2968,-0.005366,0.002646,0.001443,-0.000456,4.7e-05,-0.00015,-0.005138,-0.507008,0.000733,-0.358936,-261.890057,-0.555002,71.971
11.3169,-0.00598,0.002776,0.001904,-0.000443,4.3e-05,0.000151,-0.005138,-0.507008,0.000733,-0.358936,-261.890057,-0.555002,71.971
11.337,-0.005596,0.003077,0.000474,-0.000431,4.1e-05,0.000373,-0.005009,-0.507223,0.001904,-0.283906,-261.890057,-0.630033,71.971
11.357,-0.005327,0.00273,0.000693,-0.000404,5.7e-05,0.000285,-0.005152,-0.507098,0.00131,-0.283906,-261.890057,-0.630033,71.971
11.3766,-0.005638,0.002765,0.001633,-0.000384,6.9e-05,0.000221,-0.004974,-0.50727,0.000693,-0.358993,-261.890057,-0.554945,71.971
11.3969,-0.005497,0.0029,0.001065,-0.000398,7.2e-05,7.9e-05,-0.004819,-0.507238,0.001552,-0.358993,-261.890057,-0.554945,71.971
11.417,-0.005557,0.002752,0.000838,-0.00041,7.5e-05,-2.6e-05,-0.004819,-0.507238,0.001552,-0.358993,-261.890057,-0.554945,71.971
11.4369,-0.005563,0.002826,0.001502,-0.00042,7.8e-05,-0.000103,-0.005129,-0.507248,0.000838,-0.433863,-261.890057,-0.480075,71.971
11.4572,-0.005839,0.002572,0.000545,-0.000413,9.1e-05,2.2e-05,-0.004992,-0.507217,0.001112,-0.433863,-261.890057,-0.480075,71.971
11.4769,-0.005507,0.002736,0.00025,-0.000406,0.000102,0.000114,-0.005561,-0.507427,0.000545,-0.358838,-261.890066,-0.40505,71.970991
11.4968,-0.005949,0.00253,0.001329,-0.000359,0.000152,0.000573,-0.005395,-0.507278,0.000275,-0.358838,-261.890066,-0.40505,71.970991
11.5167,-0.005761,0.002857,0.000904,-0.000318,0.000191,0.000911,-0.005395,-0.507278,0.000275,-0.358838,-261.890066,-0.40505,71.970991
11.5371,-0.005651,0.002624,0.000441,-0.000285,0.000222,0.001162,-0.005303,-0.507142,0.000904,-0.39837,-261.890097,-0.330072,71.970963
11.5573,-0.00575,0.00291,0.001859,-0.000261,0.000236,0.001138,-0.005354,-0.507238,0.000714,-0.39837,-261.890097,-0.330072,71.970963
11.5771,-0.005654,0.002687,0.0008,-0.000242,0.000247,0.001121,-0.004801,-0.507089,0.001859,-0.473384,-261.890097,-0.255058,71.970963
11.5974,-0.005669,0.002963,0.000574,-0.000237,0.000253,0.001029,-0.005207,-0.507294,0.000891,-0.473384,-261.890097,-0.255058,71.970963
11.617,-0.005723,0.002727,0.001922,-0.000235,0.000257,0.000962,-0.005207,-0.507294,0.000891,-0.473384,-261.890097,-0.255058,71.970963
11.6368,-0.005773,0.00265,0.002684,-0.000233,0.000261,0.000913,-0.004743,-0.507272,0.001922,-0.548393,-261.890097,-0.180048,71.970963
11.657,-0.005607,0.002846,0.002964,-0.000297,0.000209,0.000366,-0.004604,-0.507303,0.002235,-0.548393,-261.890097,-0.180048,71.970963
11.6767,-0.005468,0.002935,0.000731,-0.000349,0.00017,-4.2e-05,-0.004095,-0.507152,0.002964,-0.623397,-261.890097,-0.105045,71.970963
11.697,-0.005831,0.002496,0.000905,-0.00037,0.000138,0.000155,-0.005004,-0.507073,0.000933,-0.623397,-261.890097,-0.105045,71.970963
11.7172,-0.005908,0.002866,0.001598,-0.000385,0.000113,0.000297,-0.005004,-0.507073,0.000933,-0.623397,-261.890097,-0.105045,71.970963
11.7367,-0.005939,0.003081,0.002134,-0.000394,9.4e-05,0.0004,-0.005093,-0.507134,0.001598,-0.548501,-261.890101,-0.179941,71.970958
11.7568,-0.005508,0.002931,0.001059,-0.000392,7.4e-05,0.000116,-0.004995,-0.507046,0.001815,-0.548501,-261.890101,-0.179941,71.970958
11.7769,-0.005662,0.002995,0.002216,-0.000393,6e-05,-9.6e-05,-0.004968,-0.507068,0.001059,-0.623496,-261.890102,-0.104946,71.970958
11.7969,-0.005572,0.003025,0.001422,-0.000453,2e-06,-0.000359,-0.004573,-0.50701,0.002108,-0.623496,-261.890102,-0.104946,71.970958
11.8171,-0.005727,0.00249,0.000247,-0.0005,-4.1e-05,-0.000555,-0.004573,-0.50701,0.002108,-0.623496,-261.890102,-0.104946,71.970958
11.8367,-0.005779,0.002568,0.000562,-0.000539,-7.4e-05,-0.000701,-0.0056,-0.50751,0.000247,-0.548496,-261.890102,-0.179946,71.970957
11.857,-0.005801,0.002819,0.001136,-0.000436,6.4e-05,-6.2e-05,-0.005556,-0.507478,0.000376,-0.548496,-261.890102,-0.179946,71.970957
11.8769,-0.005631,0.002509,0.001497,-0.000352,0.000171,0.000404,-0.005221,-0.507181,0.001136,-0.47353,-261.890102,-0.254912,71.970957
11.8969,-0.00566,0.002615,0.001301,-0.000348,0.000199,0.000259,-0.004899,-0.507463,0.001465,-0.47353,-261.890102,-0.254912,71.970957
11.9171,-0.005758,0.002949,0.002248,-0.000346,0.000221,0.000151,-0.004899,-0.507463,0.001465,-0.47353,-261.890102,-0.254912,71.970957
11.9369,-0.005834,0.002764,0.001156,-0.000346,0.000238,7e-05,-0.004612,-0.50705,0.002248,-0.548572,-261.890102,-0.179869,71.970957
11.9573,-0.005504,0.002997,0.002016,-0.000372,0.000189,-0.00013,-0.00487,-0.507126,0.001802,-0.548572,-261.890102,-0.179869,71.970957
11.9768,-0.005807,0.00304,0.000639,-0.000392,0.000151,-0.000278,-0.004477,-0.507001,0.002017,-0.62353,-261.890124,-0.254827,71.970938
11.997,-0.005655,0.002713,0.000772,-0.00037,0.00014,4.7e-05,-0.005392,-0.506963,0.000762,-0.62353,-261.890124,-0.254827,71.970938
12.0172,-0.005797,0.002704,0.001219,-0.000349,0.00013,0.000284,-0.005392,-0.506963,0.000762,-0.62353,-261.890124,-0.254827,71.970938
12.0367,-0.005703,0.002913,-8e-05,-0.000331,0.000123,0.000458,-0.005175,-0.507296,0.001219,-0.54849,-261.890124,-0.329866,71.970938
12.0566,-0.005752,0.00293,0.00125,-0.000296,0.000158,0.000628,-0.005409,-0.50721,0.000684,-0.54849,-261.890124,-0.329866,71.970938
12.0767,-0.005653,0.002968,0.001604,-0.000268,0.000185,0.000754,-0.005114,-0.50707,0.00125,-0.623567,-261.890124,-0.254789,71.970938
12.0969,-0.005598,0.003224,0.002642,-0.000314,0.000129,0.000463,-0.004859,-0.507035,0.001573,-0.623567,-261.890124,-0.254789,71.970938
12.1169,-0.005936,0.002952,0.001805,-0.000352,8.6e-05,0.000249,-0.004859,-0.507035,0.001573,-0.623567,-261.890124,-0.254789,71.970938
12.1368,-0.005648,0.002822,-0.000434,-0.000382,5.3e-05,9.1e-05,-0.005015,-0.507047,0.001805,-0.698611,-261.890124,-0.179745,71.970938
12.1572,-0.005741,0.002509,0.001018,-0.000348,8.3e-05,0.000267,-0.005366,-0.507101,0.000887,-0.698611,-261.890124,-0.179745,71.970938
12.1769,-0.005818,0.002606,0.002402,-0.00032,0.000106,0.000395,-0.005223,-0.507491,0.001018,-0.62365,-261.890129,-0.104785,71.970933
12.1967,-0.005604,0.003006,0.000168,-0.00035,0.000113,-3.8e-05,-0.004651,-0.507401,0.002274,-0.62365,-261.890129,-0.104785,71.970933
12.2172,-0.005654,0.003071,0.002372,-0.000377,0.000119,-0.000361,-0.004651,-0.507401,0.002274,-0.62365,-261.890129,-0.104785,71.970933
12.2374,-0.005906,0.003127,0.001847,-0.000401,0.000125,-0.000601,-0.004444,-0.506927,0.002372,-0.698551,-261.89013,-0.029883,71.970932
12.2569,-0.005819,0.002617,0.0016,-0.000461,4.4e-05,-0.000758,-0.004652,-0.506905,0.002163,-0.698551,-261.89013,-0.029883,71.970932
12.2771,-0.005801,0.002884,0.001334,-0.000507,-1.8e-05,-0.000874,-0.005003,-0.507383,0.0016,-0.623554,-261.89013,-0.10488,71.970932
12.297,-0.005612,0.002661,0.001028,-0.000475,1.4e-05,-0.000647,-0.005111,-0.507139,0.001357,-0.623554,-261.89013,-0.10488,71.970932
12.3172,-0.006043,0.00292,0.001061,-0.000448,3.9e-05,-0.000484,-0.005111,-0.507139,0.001357,-0.623554,-261.89013,-0.10488,71.970932
12.337,-0.005919,0.002827,0.001954,-0.000426,5.8e-05,-0.000367,-0.005502,-0.507079,0.001061,-0.54847,-261.89013,-0.179965,71.970932
12.3573,-0.005734,0.00257,0.000932,-0.000391,8.3e-05,-0.00031,-0.005267,-0.507117,0.001424,-0.54847,-261.89013,-0.179965,71.970932
12.3772,-0.005675,0.00303,0.001538,-0.000363,0.000101,-0.00027,-0.005258,-0.50743,0.000932,-0.473563,-261.89013,-0.254872,71.970932
12.397,-0.005903,0.003116,7.3e-05,-0.00039,6.7e-05,-0.000268,-0.004924,-0.507012,0.001482,-0.473563,-261.89013,-0.254872,71.970932
12.4174,-0.006008,0.002746,-0.000208,-0.00041,4e-05,-0.000266,-0.004924,-0.507012,0.001482,-0.473563,-261.89013,-0.254872,71.970932
12.4371,-0.006101,0.002948,-0.000635,-0.000425,2e-05,-0.000265,-0.006114,-0.507254,-0.000208,-0.39857,-261.89013,-0.329864,71.970932
12.4572,-0.005725,0.003082,0.002315,-0.000313,0.00013,0.000608,-0.006242,-0.507171,-0.000383,-0.39857,-261.89013,-0.329864,71.970932
12.477,-0.00539,0.002685,0.00194,-0.000218,0.000218,0.001256,-0.004545,-0.506916,0.002315,-0.323477,-261.89013,-0.404134,71.970932
12.4971,-0.006081,0.002692,0.001401,-0.000318,0.000153,0.000705,-0.004413,-0.507279,0.001973,-0.323477,-261.89013,-0.404134,71.970932
12.5173,-0.005471,0.003041,0.001647,-0.000398,0.000106,0.000297,-0.004413,-0.507279,0.001973,-0.323477,-261.89013,-0.404134,71.970932
12.5372,-0.005331,0.002545,0.001178,-0.000461,7.1e-05,-7e-06,-0.004631,-0.506959,0.001647,-0.398487,-261.89013,-0.329124,71.970932
12.5569,-0.006114,0.002829,0.001477,-0.000489,4.8e-05,-4.4e-05,-0.00467,-0.507154,0.001462,-0.398487,-261.89013,-0.329124,71.970932
12.5769,-0.006129,0.00267,-0.00063,-0.00051,3e-05,-7.4e-05,-0.005364,-0.50717,0.001477,-0.323425,-261.890172,-0.254063,71.97089
12.597,-0.005956,0.002829,0.000557,-0.000364,0.000171,0.000794,-0.006356,-0.507316,-0.000448,-0.323425,-261.890172,-0.254063,71.97089
12.6171,-0.005813,0.002931,0.000258,-0.000243,0.000284,0.001436,-0.006356,-0.507316,-0.000448,-0.323425,-261.890172,-0.254063,71.97089
12.637,-0.005448,0.002881,0.001524,-0.000142,0.000372,0.001911,-0.005684,-0.507069,0.000259,-0.248459,-261.890194,-0.179097,71.970868
12.6572,-0.005682,0.002924,-0.000188,-0.000166,0.000318,0.001666,-0.005269,-0.507089,0.000777,-0.248459,-261.890194,-0.179097,71.970868
12.677,-0.006004,0.003046,0.000689,-0.000185,0.000278,0.001486,-0.005778,-0.507076,-0.000188,-0.323456,-261.890194,-0.1041,71.970868
12.697,-0.005864,0.003053,0.000866,-0.000169,0.00026,0.001429,-0.005663,-0.506965,0.000611,-0.323456,-261.890194,-0.1041,71.970868
12.7168,-0.005696,0.002565,0.000472,-0.000156,0.000245,0.001386,-0.005663,-0.506965,0.000611,-0.323456,-261.890194,-0.1041,71.970868
12.7371,-0.005384,0.002427,0.002495,-0.000145,0.000234,0.001354,-0.005455,-0.507435,0.000472,-0.398345,-261.890194,-0.02921,71.970868
12.7571,-0.005637,0.002846,-0.000619,-0.000179,0.000249,0.001038,-0.0049,-0.507491,0.001308,-0.398345,-261.890194,-0.02921,71.970868
12.7767,-0.005811,0.00301,0.002239,-0.000208,0.000263,0.000804,-0.005952,-0.507154,-0.000619,-0.473479,-261.890194,0.045924,71.970868
12.7969,-0.0057,0.00305,0.000818,-0.000277,0.000175,0.000365,-0.004785,-0.507003,0.001981,-0.473479,-261.890194,0.045924,71.970868
12.8173,-0.005337,0.002599,0.002485,-0.000332,0.000109,3.7e-05,-0.004785,-0.507003,0.001981,-0.473479,-261.890194,0.045924,71.970868
12.8367,-0.005612,0.002883,0.000678,-0.000376,5.8e-05,-0.000208,-0.00407,-0.5074,0.002485,-0.548388,-261.890194,0.120833,71.970868
12.8569,-0.005836,0.00294,0.001258,-0.000428,4.8e-05,-0.000308,-0.004542,-0.507288,0.001771,-0.548388,-261.890194,0.120833,71.970868
12.8771,-0.005586,0.002774,0.000622,-0.000469,4.1e-05,-0.000385,-0.005194,-0.50706,0.001258,-0.473435,-261.890194,0.04588,71.970868
12.8969,-0.005724,0.003107,0.000533,-0.000426,8.4e-05,1.8e-05,-0.005261,-0.50721,0.000683,-0.473435,-261.890194,0.04588,71.970868
12.917,-0.005619,0.003045,0.001179,-0.00039,0.000117,0.000312,-0.005261,-0.50721,0.000683,-0.473435,-261.890194,0.04588,71.970868
12.9368,-0.005881,0.003016,0.002614,-0.00036,0.000143,0.000526,-0.005017,-0.506955,0.001179,-0.39831,-261.890194,-0.029245,71.970868
12.9571,-0.005843,0.002844,0.001001,-0.000395,8.3e-05,0.000224,-0.004826,-0.506966,0.001764,-0.39831,-261.890194,-0.029245,71.970868
12.9768,-0.005928,0.002713,0.002164,-0.000423,3.7e-05,-0.0,-0.005332,-0.507156,0.001001,-0.473187,-261.890194,0.045631,71.970868
12.9969,-0.00568,0.00281,0.000383,-0.000413,5.9e-05,-0.000264,-0.00487,-0.507274,0.002059,-0.473187,-261.890194,0.045631,71.970868
13.0167,-0.005705,0.003014,0.000359,-0.000408,7.6e-05,-0.000461,-0.00487,-0.507274,0.002059,-0.473187,-261.890194,0.045631,71.970868
13.0367,-0.005929,0.002647,0.00096,-0.000407,8.9e-05,-0.000608,-0.005523,-0.506986,0.000359,-0.398166,-261.890206,-0.029389,71.970856
13.0567,-0.005693,0.002779,0.001229,-0.000362,0.000126,-0.000114,-0.005489,-0.507135,0.000603,-0.398166,-261.890206,-0.029389,71.970856
13.0772,-0.005731,0.003149,0.001468,-0.000322,0.000154,0.000245,-0.005067,-0.507221,0.001229,-0.323174,-261.890206,-0.104381,71.970856
13.0973,-0.005977,0.002937,0.00135,-0.000357,9.3e-05,0.000131,-0.00499,-0.506884,0.001446,-0.323174,-261.890206,-0.104381,71.970856
13.1171,-0.005703,0.002821,0.001498,-0.000383,4.6e-05,4.6e-05,-0.00499,-0.506884,0.001446,-0.323174,-261.890206,-0.104381,71.970856
13.1369,-0.005829,0.0032,0.000418,-0.000404,1e-05,-1.6e-05,-0.00494,-0.507178,0.001498,-0.398182,-261.890213,-0.029373,71.970851
13.1573,-0.005627,0.002711,0.002224,-0.000386,2.4e-05,0.000106,-0.005216,-0.507024,0.001058,-0.398182,-261.890213,-0.029373,71.970851
13.1771,-0.005678,0.002536,0.00209,-0.000371,3.4e-05,0.000195,-0.004494,-0.507288,0.002224,-0.323188,-261.890224,-0.048344,71.970839
13.1972,-0.005697,0.002854,0.001092,-0.000395,6.3e-05,-0.000133,-0.004602,-0.507448,0.002102,-0.323188,-261.890224,-0.048344,71.970839
13.2171,-0.005911,0.002703,0.001835,-0.000418,8.7e-05,-0.000376,-0.004602,-0.507448,0.002102,-0.323188,-261.890224,-0.048344,71.970839
13.2372,-0.006124,0.002698,0.002588,-0.000438,0.000106,-0.000557,-0.004979,-0.507295,0.001836,-0.39291,-261.890269,0.026834,71.970798
13.2571,-0.00571,0.002977,0.00226,-0.000424,0.000121,-0.00071,-0.004909,-0.507297,0.002142,-0.39291,-261.890269,0.026834,71.970798
13.2766,-0.005608,0.002805,0.003399,-0.000414,0.000132,-0.000825,-0.004557,-0.507022,0.00226,-0.318111,-261.890269,-0.047965,71.970798
13.2974,-0.006001,0.002911,0.002387,-0.000561,2.9e-05,-0.001255,-0.003934,-0.507177,0.003299,-0.318111,-261.890269,-0.047965,71.970798
13.3167,-0.005449,0.002499,0.001758,-0.000676,-4.9e-05,-0.001576,-0.003934,-0.507177,0.003299,-0.318111,-261.890269,-0.047965,71.970798
13.3369,-0.005851,0.002535,0.000504,-0.000765,-0.000107,-0.001815,-0.004552,-0.5075,0.001758,-0.243007,-261.890269,-0.12307,71.970798
13.357,-0.006042,0.002858,0.001782,-0.000679,-2e-06,-0.001272,-0.004975,-0.507486,0.001249,-0.243007,-261.890269,-0.12307,71.970798
13.3769,-0.005775,0.002648,0.000616,-0.000609,8e-05,-0.000883,-0.005133,-0.507141,0.001782,-0.168111,-261.890269,-0.197966,71.970798
13.397,-0.00558,0.0027,0.000909,-0.000517,0.000152,-0.000369,-0.005431,-0.507333,0.00072,-0.168111,-261.890269,-0.197966,71.970798
13.4168,-0.00596,0.002833,0.001166,-0.000441,0.000207,5e-06,-0.005431,-0.507333,0.00072,-0.168111,-261.890269,-0.197966,71.970798
13.437,-0.006266,0.002525,0.001925,-0.000379,0.000249,0.000278,-0.005366,-0.507167,0.001166,-0.093111,-261.890269,-0.272966,71.970798
13.457,-0.005725,0.002869,-2.8e-05,-0.000333,0.000268,0.00015,-0.005333,-0.507292,0.001474,-0.093111,-261.890269,-0.272966,71.970798
13.4769,-0.00571,0.002781,0.001744,-0.000298,0.000282,5.5e-05,-0.005739,-0.507131,-2.8e-05,-0.168115,-261.890269,-0.207459,71.970798
13.4969,-0.005793,0.002542,0.001993,-0.000328,0.000239,-6.5e-05,-0.0049,-0.507211,0.001592,-0.168115,-261.890269,-0.207459,71.970798
13.5168,-0.0058,0.002644,0.000717,-0.000351,0.000206,-0.000153,-0.0049,-0.507211,0.001592,-0.168115,-261.890269,-0.207459,71.970798
13.5367,-0.005729,0.003257,0.001677,-0.000369,0.000181,-0.000217,-0.005434,-0.507356,0.000717,-0.243235,-261.890269,-0.282579,71.970798
13.5568,-0.005397,0.002705,7.8e-05,-0.000359,0.00017,-6.7e-05,-0.005205,-0.507105,0.00111,-0.243235,-261.890269,-0.282579,71.970798
13.5769,-0.005869,0.002742,0.001329,-0.000349,0.000161,4.2e-05,-0.005358,-0.507295,7.8e-05,-0.168238,-261.890275,-0.357575,71.970789
13.5969,-0.005804,0.002665,0.002777,-0.000327,0.000181,7.8e-05,-0.005206,-0.50726,0.001221,-0.168238,-261.890275,-0.357575,71.970789
13.6167,-0.005559,0.002683,0.001329,-0.00031,0.000197,0.000104,-0.005206,-0.50726,0.001221,-0.168238,-261.890275,-0.357575,71.970789
13.6371,-0.005935,0.002997,0.000777,-0.000297,0.000208,0.000123,-0.004884,-0.507315,0.001328,-0.24326,-261.890304,-0.37035,71.970762
13.657,-0.005936,0.00263,0.001599,-0.000299,0.000199,0.000187,-0.005153,-0.507187,0.001102,-0.24326,-261.890304,-0.37035,71.970762
13.6769,-0.005665,0.002413,5.6e-05,-0.0003,0.000192,0.000234,-0.00512,-0.507369,0.001599,-0.318283,-261.890306,-0.422101,71.97076
13.697,-0.005732,0.002757,0.000399,-0.000235,0.000287,0.000706,-0.005591,-0.507567,0.000191,-0.318283,-261.890306,-0.422101,71.97076
13.7168,-0.005366,0.002476,0.000503,-0.000182,0.000361,0.001055,-0.005591,-0.507567,0.000191,-0.318283,-261.890306,-0.422101,71.97076
13.7369,-0.005863,0.003181,0.000969,-0.00014,0.000418,0.001313,-0.00511,-0.507524,0.000503,-0.393246,-261.890306,-0.347139,71.97076
13.7569,-0.005648,0.003002,0.002676,-0.000165,0.000374,0.001255,-0.005216,-0.507235,0.000694,-0.393246,-261.890306,-0.347139,71.97076
13.7771,-0.005621,0.002936,-6.7e-05,-0.000184,0.00034,0.001215,-0.004283,-0.506996,0.002676,-0.468258,-261.890306,-0.272127,71.97076
13.797,-0.005639,0.003062,6e-06,-0.000182,0.000311,0.001435,-0.005536,-0.507058,0.000171,-0.468258,-261.890306,-0.272127,71.97076
13.8167,-0.005832,0.002953,1.8e-05,-0.000177,0.000288,0.001599,-0.005536,-0.507058,0.000171,-0.468258,-261.890306,-0.272127,71.97076
13.8368,-0.006068,0.002721,-5.5e-05,-0.000172,0.000271,0.001722,-0.005823,-0.507047,1.8e-05,-0.543256,-261.890306,-0.197129,71.97076
13.857,-0.005891,0.00303,0.002127,-0.000123,0.000304,0.001908,-0.005935,-0.507143,-1.2e-05,-0.543256,-261.890306,-0.197129,71.97076
13.8772,-0.00601,0.002384,0.000788,-8.4e-05,0.000328,0.002047,-0.004807,-0.506969,0.002127,-0.618282,-261.890306,-0.122103,71.97076
13.8967,-0.005301,0.002983,-0.000382,-5.1e-05,0.000389,0.001725,-0.005538,-0.507559,0.000905,-0.618282,-261.890306,-0.122103,71.97076
13.9169,-0.00559,0.002703,0.000298,-2.9e-05,0.000436,0.001486,-0.005538,-0.507559,0.000905,-0.618282,-261.890306,-0.122103,71.97076
13.9367,-0.005936,0.002896,0.002131,-1.4e-05,0.000471,0.001308,-0.005438,-0.507297,0.000298,-0.693217,-261.890306,-0.197038,71.97076
13.9568,-0.005884,0.00309,0.000657,-6.6e-05,0.000409,0.001105,-0.005198,-0.507218,0.001046,-0.693217,-261.890306,-0.197038,71.97076
13.977,-0.005734,0.003077,0.000118,-0.000107,0.000362,0.000955,-0.005549,-0.50691,0.000657,-0.768224,-261.890306,-0.272045,71.97076
13.9968,-0.005971,0.002765,0.002161,-0.000119,0.000316,0.00125,-0.005663,-0.506922,0.000164,-0.768224,-261.890306,-0.272045,71.97076
14.0172,-0.005599,0.002797,0.001768,-0.000125,0.00028,0.001468,-0.005663,-0.506922,0.000164,-0.768224,-261.890306,-0.272045,71.97076
14.0369,-0.00534,0.002839,0.001027,-0.000128,0.000252,0.00163,-0.004697,-0.507203,0.001768,-0.843257,-261.890306,-0.197012,71.97076
14.0572,-0.005924,0.003004,0.000992,-0.000205,0.000192,0.001174,-0.004746,-0.507185,0.001466,-0.843257,-261.890306,-0.197012,71.97076
14.0769,-0.005826,0.002753,0.001724,-0.000268,0.000149,0.000837,-0.005418,-0.506996,0.000992,-0.918217,-261.890306,-0.271972,71.97076
14.0968,-0.005741,0.002471,0.000761,-0.00028,0.000145,0.000514,-0.004989,-0.507224,0.001659,-0.918217,-261.890306,-0.271972,71.97076
14.117,-0.005891,0.002704,-0.000183,-0.000291,0.000142,0.000272,-0.004989,-0.507224,0.001659,-0.918217,-261.890306,-0.271972,71.97076
14.1369,-0.005779,0.003032,0.001372,-0.000303,0.00014,9e-05,-0.005984,-0.507296,-0.000183,-0.993239,-261.890306,-0.19695,71.97076
14.1573,-0.005385,0.002664,0.000402,-0.00026,0.00018,0.000484,-0.00562,-0.507163,0.000443,-0.993239,-261.890306,-0.19695,71.97076
14.177,-0.005818,0.002419,0.001215,-0.000224,0.000211,0.000771,-0.00518,-0.507335,0.000402,-0.918363,-261.890313,-0.271827,71.970754
14.1975,-0.005539,0.002705,-0.000149,-0.000204,0.000271,0.000671,-0.005196,-0.507559,0.001142,-0.918363,-261.890313,-0.271827,71.970754
14.2167,-0.00558,0.00281,0.000575,-0.000191,0.000318,0.000595,-0.005196,-0.507559,0.001142,-0.918363,-261.890313,-0.271827,71.970754
14.237,-0.005493,0.002727,0.000568,-0.000182,0.000353,0.000538,-0.005287,-0.507189,0.000575,-0.993364,-261.890313,-0.196825,71.970754
14.2567,-0.005811,0.002815,0.000538,-0.000199,0.000324,0.000745,-0.005253,-0.507223,0.000572,-0.993364,-261.890313,-0.196825,71.970754
14.2767,-0.005984,0.002765,0.001961,-0.000211,0.000301,0.000897,-0.005538,-0.507183,0.000541,-1.068503,-261.890365,-0.135862,71.97074
14.2967,-0.005831,0.003026,0.002554,-0.00023,0.000267,0.000484,-0.005034,-0.50723,0.001834,-1.068503,-261.890365,-0.135862,71.97074
14.3169,-0.005805,0.003118,0.002225,-0.000247,0.00024,0.000176,-0.005034,-0.50723,0.001834,-1.068503,-261.890365,-0.135862,71.97074
14.3367,-0.005549,0.002508,0.002832,-0.000262,0.000221,-5.3e-05,-0.00467,-0.506881,0.002225,-1.143359,-261.890365,-0.061006,71.97074
14.3568,-0.006023,0.002905,0.000769,-0.000362,0.000132,-0.000441,-0.00444,-0.507129,0.002472,-1.143359,-261.890365,-0.061006,71.97074
14.3768,-0.005798,0.002842,0.000622,-0.00044,6.6e-05,-0.00073,-0.005631,-0.507095,0.000769,-1.068358,-261.890365,-0.136007,71.97074
14.397,-0.005716,0.002617,0.001595,-0.000387,0.000111,-0.000212,-0.005494,-0.507152,0.000635,-1.068358,-261.890365,-0.136007,71.97074
14.4172,-0.005907,0.00271,0.001292,-0.000341,0.000146,0.000164,-0.005494,-0.507152,0.000635,-1.068358,-261.890365,-0.136007,71.97074
14.4373,-0.005836,0.002872,0.000744,-0.000302,0.000174,0.000438,-0.005248,-0.507289,0.001292,-0.993352,-261.890365,-0.211013,71.97074
14.4569,-0.005697,0.003142,0.000563,-0.000277,0.000194,0.000442,-0.005332,-0.507224,0.001071,-0.993352,-261.890365,-0.211013,71.97074
14.4766,-0.005802,0.00313,0.001519,-0.000258,0.00021,0.000443,-0.005411,-0.506858,0.000563,-0.970361,-261.890368,-0.136017,71.970739
14.4967,-0.005611,0.002749,0.000813,-0.000298,0.000139,0.000283,-0.005061,-0.506868,0.001434,-0.970361,-261.890368,-0.136017,71.970739
14.5172,-0.005469,0.002577,0.001624,-0.000329,8.5e-05,0.000165,-0.005061,-0.506868,0.001434,-0.970361,-261.890368,-0.136017,71.970739
14.5369,-0.005719,0.002961,0.002269,-0.000353,4.3e-05,7.8e-05,-0.004642,-0.507421,0.001626,-1.045409,-261.890387,-0.060969,71.970729
14.5571,-0.005885,0.002751,0.000921,-0.000397,3.8e-05,-0.000146,-0.00461,-0.50727,0.001879,-1.045409,-261.890387,-0.060969,71.970729
14.5768,-0.005807,0.003197,0.000982,-0.000433,3.5e-05,-0.000312,-0.005416,-0.507248,0.000921,-0.970415,-261.890387,0.013137,71.970729
14.5967,-0.005751,0.002659,0.000637,-0.000415,2.4e-05,-7.7e-05,-0.005316,-0.506843,0.000977,-0.970415,-261.890387,0.013137,71.970729
14.6167,-0.005572,0.003094,0.001089,-0.000398,1.5e-05,9.4e-05,-0.005316,-0.506843,0.000977,-0.970415,-261.890387,0.013137,71.970729
14.6367,-0.005715,0.002869,-0.000417,-0.000384,8e-06,0.000219,-0.005017,-0.506905,0.001089,-0.895416,-261.890387,-0.061862,71.970729
14.6567,-0.00537,0.002638,0.001358,-0.000356,3.1e-05,0.000549,-0.00539,-0.506998,0.000472,-0.895416,-261.890387,-0.061862,71.970729
14.6766,-0.005775,0.002793,0.000342,-0.000333,4.9e-05,0.000792,-0.004678,-0.507362,0.001358,-0.820413,-261.890388,0.013141,71.970729
14.6971,-0.005881,0.002755,0.0008,-0.000283,0.000111,0.000998,-0.005519,-0.507221,0.000433,-0.820413,-261.890388,0.013141,71.970729
14.717,-0.005814,0.002859,0.001396,-0.000244,0.000159,0.001149,-0.005519,-0.507221,0.000433,-0.820413,-261.890388,0.013141,71.970729
14.7366,-0.005751,0.002709,0.001218,-0.000213,0.000196,0.001263,-0.005103,-0.50714,0.001396,-0.895372,-261.890388,0.0881,71.970729
14.7569,-0.005826,0.002815,0.001896,-0.000225,0.000187,0.00095,-0.005114,-0.507202,0.001323,-0.895372,-261.890388,0.0881,71.970729
14.7769,-0.006145,0.002851,0.000199,-0.000236,0.000181,0.000719,-0.004859,-0.507184,0.001896,-0.970419,-261.890388,0.163147,71.970729
14.797,-0.00563,0.003041,0.000865,-0.000175,0.000236,0.000988,-0.00594,-0.507152,0.000347,-0.970419,-261.890388,0.163147,71.970729
14.8174,-0.005622,0.003282,0.001283,-0.000126,0.000278,0.001186,-0.00594,-0.507152,0.000347,-0.970419,-261.890388,0.163147,71.970729
14.8368,-0.00565,0.002887,0.000965,-8.6e-05,0.000309,0.001332,-0.004967,-0.506718,0.001283,-1.045473,-261.890388,0.238201,71.970729
14.8566,-0.00615,0.002887,8.5e-05,-0.000163,0.000213,0.001062,-0.005044,-0.506877,0.001155,-1.045473,-261.890388,0.238201,71.970729
14.8764,-0.005792,0.002864,0.000611,-0.000223,0.00014,0.000864,-0.006107,-0.507113,8.5e-05,-1.120469,-261.890388,0.313197,71.970729
14.8967,-0.006166,0.002414,-0.000241,-0.000201,0.000167,0.000991,-0.005533,-0.507134,0.000567,-1.120469,-261.890388,0.313197,71.970729
14.9168,-0.005501,0.002927,-0.000166,-0.000183,0.000188,0.001084,-0.005533,-0.507134,0.000567,-1.120469,-261.890388,0.313197,71.970729
