mach0312/omni-docking-bench/src/icros_test_setup/results/MPPI_sample/timeseries/trial_140.csv
t,x,y,yaw,vx,vy,wz,bl_x,bl_y,bl_yaw,front_steering_joint,front_wheel_joint,rear_steering_joint,rear_wheel_joint
0.0,-0.008876,-0.021259,0.051135,0.0,0.0,0.0,0.016321,-0.530661,0.050902,0.133365,-257.898461,-0.492868,67.1063
0.0004,-0.008842,-0.021272,0.050598,0.0,0.0,0.0,0.01638,-0.530781,0.051043,0.133365,-257.898461,-0.492868,67.1063
0.0007,-0.009093,-0.021648,0.051241,0.0,0.0,0.0,0.01638,-0.530781,0.051043,0.133365,-257.898461,-0.492868,67.1063
0.001,-0.009058,-0.02127,0.050759,0.0,0.0,0.0,0.016367,-0.530787,0.050774,0.133365,-257.898461,-0.492868,67.1063
0.0012,-0.009099,-0.021588,0.051155,0.0,0.0,0.0,0.016448,-0.531011,0.049835,0.133365,-257.898461,-0.492868,67.1063
0.0014,-0.008739,-0.021623,0.050211,0.0,0.0,0.0,0.016448,-0.531011,0.049835,0.133365,-257.898461,-0.492868,67.1063
0.0017,-0.009139,-0.021946,0.050638,0.0,0.0,0.0,0.016448,-0.531011,0.049835,0.133365,-257.898461,-0.492868,67.1063
0.0164,-0.008794,-0.021621,0.050755,0.0,0.0,0.0,0.016867,-0.530975,0.050287,0.133365,-257.898461,-0.492868,67.1063
0.0363,-0.008926,-0.021722,0.051023,0.0,0.0,0.0,0.01708,-0.530964,0.050755,0.133365,-257.898461,-0.492868,67.1063
0.0565,-0.009047,-0.021648,0.04981,0.0,0.0,0.0,0.017082,-0.531002,0.050865,0.133365,-257.898461,-0.492868,67.1063
0.0763,-0.008978,-0.021529,0.050519,0.0,0.0,0.0,0.016346,-0.531015,0.04981,0.133365,-257.898461,-0.492868,67.1063
0.0962,-0.009213,-0.02161,0.051606,0.0,0.0,0.0,0.016739,-0.53089,0.050458,0.133365,-257.898461,-0.492868,67.1063
0.1163,-0.009379,-0.0216,0.050272,-0.000807,0.004797,-0.002541,0.016739,-0.53089,0.050458,0.133365,-257.898461,-0.492868,67.1063
0.1363,-0.008698,-0.021369,0.05151,-0.000892,0.005242,-0.002751,0.016249,-0.530956,0.050272,0.133365,-257.898461,-0.492868,67.1063
0.1561,-0.009388,-0.021698,0.05005,-0.000968,0.005623,-0.002936,0.016784,-0.530849,0.050777,0.133365,-257.898461,-0.492868,67.1063
0.176,-0.009175,-0.021211,0.049245,-0.001033,0.00595,-0.00309,0.016126,-0.531059,0.05005,0.0585,-257.898461,-0.567733,67.1063
0.196,-0.008852,-0.021774,0.050526,-0.001077,0.006242,-0.003242,0.015947,-0.530634,0.049317,0.0585,-257.898461,-0.567733,67.1063
0.2163,-0.009255,-0.02175,0.051572,-0.001115,0.006493,-0.003368,0.015947,-0.530634,0.049317,0.0585,-257.898461,-0.567733,67.1063
0.2364,-0.009398,-0.021842,0.049776,-0.001149,0.006709,-0.003472,0.017035,-0.531072,0.051572,-0.016515,-257.898461,-0.642749,67.1063
0.2563,-0.008984,-0.021527,0.050647,-0.001181,0.006892,-0.00356,0.016602,-0.531129,0.050836,-0.016515,-257.898461,-0.642749,67.1063
0.2762,-0.009081,-0.021707,0.052554,-0.00121,0.00705,-0.003632,0.016835,-0.530873,0.050647,-0.091638,-257.898461,-0.717871,67.1063
0.296,-0.009056,-0.021555,0.051483,-0.001258,0.007168,-0.003693,0.017633,-0.530992,0.052389,-0.091638,-257.898461,-0.717871,67.1063
0.3166,-0.009176,-0.02157,0.051995,-0.0013,0.007269,-0.003744,0.017633,-0.530992,0.052389,-0.091638,-257.898461,-0.717871,67.1063
0.336,-0.009263,-0.021267,0.051162,-0.001336,0.007357,-0.003786,0.01733,-0.530881,0.051995,-0.166604,-257.898461,-0.792837,67.1063
0.3562,-0.008984,-0.021606,0.051371,-0.001361,0.007438,-0.00382,0.017121,-0.530766,0.051654,-0.166604,-257.898461,-0.792837,67.1063
0.3759,-0.009246,-0.021673,0.052029,-0.001383,0.007508,-0.003849,0.017204,-0.530933,0.051371,-0.241635,-257.898461,-0.867868,67.1063
0.3959,-0.008868,-0.021741,0.048785,-0.001402,0.007569,-0.003873,0.017271,-0.530979,0.051973,-0.241635,-257.898461,-0.867868,67.1063
0.4159,-0.009284,-0.02185,0.050574,-0.001418,0.007621,-0.003894,0.017271,-0.530979,0.051973,-0.241635,-257.898461,-0.867868,67.1063
0.4361,-0.008901,-0.021645,0.050986,-0.001433,0.007667,-0.003911,0.016498,-0.531198,0.050574,-0.316624,-257.898461,-0.942858,67.1063
0.4567,-0.009236,-0.021385,0.049587,-0.001433,0.007716,-0.003925,0.016742,-0.531109,0.050744,-0.316624,-257.898461,-0.942858,67.1063
0.4763,-0.008958,-0.02124,0.049743,-0.001434,0.007758,-0.003937,0.016043,-0.530758,0.049587,-0.391623,-257.898461,-1.017857,67.1063
0.496,-0.009432,-0.021589,0.050783,-0.001436,0.007793,-0.003947,0.016369,-0.530622,0.04973,-0.391623,-257.898461,-1.017857,67.1063
0.5164,-0.009181,-0.02127,0.048746,-0.001438,0.007823,-0.003955,0.016369,-0.530622,0.04973,-0.391623,-257.898461,-1.017857,67.1063
0.5359,-0.009247,-0.02162,0.05105,-0.00144,0.007849,-0.003962,0.01567,-0.530664,0.048746,-0.466606,-257.898461,-1.092839,67.1063
0.5565,-0.009298,-0.021706,0.052996,-0.001434,0.007878,-0.003968,0.01612,-0.530783,0.049683,-0.466606,-257.898461,-1.092839,67.1063
0.5761,-0.009084,-0.021249,0.05233,-0.001429,0.007902,-0.003973,0.017718,-0.53099,0.052996,-0.541507,-257.898461,-1.167741,67.1063
0.5961,-0.008852,-0.021979,0.050939,-0.001458,0.007896,-0.003978,0.017603,-0.53059,0.05239,-0.541507,-257.898461,-1.167741,67.1063
0.6164,-0.009209,-0.021334,0.05033,-0.001482,0.007891,-0.003983,0.017603,-0.53059,0.05239,-0.541507,-257.898461,-1.167741,67.1063
0.636,-0.008795,-0.021177,0.051757,-0.001503,0.007887,-0.003987,0.016448,-0.530688,0.05033,-0.616518,-257.898461,-1.242751,67.1063
0.656,-0.009537,-0.021641,0.049727,-0.001507,0.007896,-0.00399,0.016907,-0.53061,0.050904,-0.616518,-257.898461,-1.242751,67.1063
0.6761,-0.008639,-0.021397,0.050886,-0.00151,0.007903,-0.003993,0.015813,-0.53101,0.049727,-0.691568,-257.898462,-1.317802,67.106299
0.6967,-0.009177,-0.02158,0.051618,-0.001517,0.007907,-0.003995,0.017171,-0.530761,0.050785,-0.691568,-257.898462,-1.317802,67.106299
0.7166,-0.008827,-0.021545,0.051562,-0.001522,0.007911,-0.003997,0.017171,-0.530761,0.050785,-0.691568,-257.898462,-1.317802,67.106299
0.736,-0.009319,-0.021434,0.050097,-0.001526,0.007914,-0.003999,0.017458,-0.530867,0.051562,-0.766608,-257.898465,-1.392841,67.106293
0.7563,-0.008965,-0.021673,0.051918,-0.001524,0.007921,-0.004,0.016957,-0.530837,0.050969,-0.766608,-257.898465,-1.392841,67.106293
0.7762,-0.009108,-0.02158,0.050446,-0.001522,0.007928,-0.004001,0.017501,-0.530984,0.051917,-0.841515,-257.898484,-1.424474,67.106257
0.7959,-0.009193,-0.021598,0.051601,-0.001514,0.007939,-0.004002,0.016688,-0.530935,0.050577,-0.841515,-257.898484,-1.424474,67.106257
0.8159,-0.009212,-0.021502,0.05089,-0.001507,0.007949,-0.004003,0.016688,-0.530935,0.050577,-0.841515,-257.898484,-1.424474,67.106257
0.8362,-0.009208,-0.021752,0.052018,-0.001501,0.007957,-0.004004,0.016726,-0.530833,0.050884,-0.916549,-257.898554,-1.425056,67.106129
0.8561,-0.00936,-0.021555,0.050753,-0.001501,0.00796,-0.004004,0.016963,-0.530925,0.051345,-0.916549,-257.898554,-1.425056,67.106129
0.8762,-0.009007,-0.021583,0.048222,-0.001501,0.007962,-0.004005,0.016506,-0.530878,0.05074,-0.991505,-257.898746,-1.427535,67.105776
0.8966,-0.009289,-0.021695,0.051107,-0.001474,0.007985,-0.004005,0.015657,-0.53098,0.048439,-0.991505,-257.898746,-1.427535,67.105776
0.9163,-0.008843,-0.021285,0.050089,-0.001451,0.008005,-0.004004,0.015657,-0.53098,0.048439,-0.991505,-257.898746,-1.427535,67.105776
0.9363,-0.008952,-0.021427,0.05065,-0.001431,0.008022,-0.004004,0.01667,-0.530581,0.050051,-1.066559,-257.899207,-1.427535,67.104927
0.9564,-0.008969,-0.021288,0.050839,-0.001444,0.008013,-0.004005,0.016749,-0.530652,0.050291,-1.066559,-257.899207,-1.427535,67.104927
0.9762,-0.008916,-0.021465,0.049659,-0.001454,0.008006,-0.004005,0.016922,-0.530542,0.050791,-1.141568,-257.900024,-1.434894,67.103428
0.9964,-0.009135,-0.021634,0.049977,-0.001454,0.008007,-0.004005,0.016444,-0.530806,0.049756,-1.141568,-257.900024,-1.434894,67.103428
1.0163,-0.009206,-0.021382,0.049426,-0.001454,0.008008,-0.004006,0.016444,-0.530806,0.049756,-1.141568,-257.900024,-1.434894,67.103428
1.0369,-0.008647,-0.02146,0.051085,-0.001453,0.008009,-0.004006,0.015936,-0.530558,0.04932,-1.216545,-257.901444,-1.432564,67.10082
1.0569,-0.009129,-0.021275,0.048037,-0.001459,0.008005,-0.004006,0.016536,-0.530633,0.05004,-1.216545,-257.901444,-1.432564,67.10082
1.0763,-0.009349,-0.020618,0.05145,-0.001464,0.008001,-0.004006,0.015309,-0.530471,0.047927,-1.291677,-257.903407,-1.432668,67.097216
1.0961,-0.009177,-0.020594,0.0494,-0.001484,0.007985,-0.004007,0.016734,-0.52998,0.051126,-1.291677,-257.903407,-1.432668,67.097216
1.1161,-0.008912,-0.020704,0.049999,-0.001501,0.007971,-0.004007,0.016734,-0.52998,0.051126,-1.291677,-257.903407,-1.432668,67.097216
1.1364,-0.009441,-0.020428,0.049606,-0.001515,0.00796,-0.004008,0.0165,-0.529737,0.049833,-1.313128,-257.905688,-1.431606,67.093027
1.1564,-0.00885,-0.020503,0.048953,-0.001523,0.007954,-0.004034,0.016226,-0.529725,0.049721,-1.313128,-257.905688,-1.431606,67.093027
1.1762,-0.009114,-0.01987,0.049099,-0.001529,0.007949,-0.004055,0.016045,-0.529642,0.048825,-1.302568,-257.907978,-1.426244,67.088814
1.1965,-0.008996,-0.01973,0.050458,-0.001538,0.007942,-0.004081,0.015925,-0.529275,0.049071,-1.302568,-257.907978,-1.426244,67.088814
1.2164,-0.008858,-0.01977,0.049131,-0.001545,0.007937,-0.004102,0.015925,-0.529275,0.049071,-1.302568,-257.907978,-1.426244,67.088814
1.2366,-0.008862,-0.019874,0.050981,-0.001551,0.007932,-0.00412,0.016108,-0.528827,0.048962,-1.298334,-257.910241,-1.425178,67.084616
1.2568,-0.009125,-0.019662,0.049343,-0.001576,0.007911,-0.004143,0.016514,-0.528946,0.049765,-1.298334,-257.910241,-1.425178,67.084616
1.2764,-0.009,-0.019501,0.04874,-0.001597,0.007894,-0.004163,0.015968,-0.528791,0.049212,-1.291874,-257.912497,-1.423419,67.080387
1.2965,-0.009037,-0.019263,0.048795,-0.001603,0.007889,-0.004186,0.015855,-0.528874,0.048774,-1.291874,-257.912497,-1.423419,67.080387
1.3166,-0.009081,-0.019123,0.048068,-0.001608,0.007886,-0.004205,0.015855,-0.528874,0.048774,-1.291874,-257.912497,-1.423419,67.080387
1.3363,-0.008955,-0.019007,0.049098,-0.001612,0.007883,-0.004222,0.015342,-0.528208,0.047894,-1.280847,-257.914722,-1.418986,67.07618
1.3562,-0.009179,-0.018263,0.050947,-0.001623,0.007874,-0.004243,0.01563,-0.528246,0.048364,-1.280847,-257.914722,-1.418986,67.07618
1.3758,-0.009282,-0.018518,0.049943,-0.001632,0.007866,-0.004261,0.016729,-0.527353,0.050813,-1.275736,-257.916943,-1.417888,67.071939
1.3964,-0.009063,-0.018483,0.048846,-0.001661,0.00784,-0.004284,0.016221,-0.527825,0.05001,-1.275736,-257.916943,-1.417888,67.071939
1.4161,-0.009103,-0.018148,0.048965,-0.001686,0.007819,-0.004304,0.016221,-0.527825,0.05001,-1.275736,-257.916943,-1.417888,67.071939
1.4362,-0.009268,-0.017806,0.047841,-0.001706,0.007801,-0.004321,0.015775,-0.527213,0.048787,-1.270078,-257.919142,-1.4161,67.067713
1.456,-0.009095,-0.01816,0.047738,-0.001723,0.007787,-0.004341,0.015498,-0.527179,0.048379,-1.270078,-257.919142,-1.4161,67.067713
1.4763,-0.009028,-0.017609,0.049717,-0.001737,0.007775,-0.004357,0.015176,-0.527335,0.047602,-1.251631,-257.921308,-1.408816,67.063499
1.496,-0.009231,-0.017759,0.04853,-0.001768,0.007746,-0.004378,0.016218,-0.526997,0.049533,-1.251631,-257.921308,-1.408816,67.063499
1.5162,-0.009056,-0.017893,0.047835,-0.001794,0.007723,-0.004395,0.016218,-0.526997,0.049533,-1.251631,-257.921308,-1.408816,67.063499
1.536,-0.008874,-0.017343,0.04869,-0.001816,0.007703,-0.004409,0.015243,-0.526989,0.047653,-1.243383,-257.923461,-1.405885,67.059281
1.556,-0.008955,-0.017067,0.047506,-0.001824,0.007697,-0.004424,0.015521,-0.52685,0.048056,-1.243383,-257.923461,-1.405885,67.059281
1.576,-0.009345,-0.016672,0.047514,-0.001831,0.007692,-0.004436,0.015195,-0.526251,0.047367,-1.223062,-257.92558,-1.39786,67.055085
1.5961,-0.008701,-0.016472,0.048219,-0.00184,0.007685,-0.004448,0.014902,-0.526098,0.047495,-1.223062,-257.92558,-1.39786,67.055085
1.6164,-0.009107,-0.016799,0.048516,-0.001847,0.007679,-0.004458,0.014902,-0.526098,0.047495,-1.223062,-257.92558,-1.39786,67.055085
1.6363,-0.008995,-0.016008,0.048134,-0.001854,0.007674,-0.004466,0.015534,-0.525882,0.04833,-1.218678,-257.927702,-1.396568,67.050863
1.656,-0.009279,-0.016383,0.047321,-0.001882,0.007645,-0.004475,0.015528,-0.525657,0.048229,-1.218678,-257.927702,-1.396568,67.050863
1.6759,-0.009222,-0.015943,0.047349,-0.001907,0.007622,-0.004482,0.014775,-0.525571,0.047179,-1.212212,-257.929814,-1.394426,67.046639
1.6961,-0.008967,-0.015858,0.046586,-0.00192,0.007609,-0.004488,0.014902,-0.525377,0.047328,-1.212212,-257.929814,-1.394426,67.046639
1.7161,-0.009114,-0.015955,0.048443,-0.001932,0.007599,-0.004493,0.014902,-0.525377,0.047328,-1.212212,-257.929814,-1.394426,67.046639
1.7362,-0.008779,-0.016057,0.046306,-0.001942,0.00759,-0.004498,0.015488,-0.525043,0.048257,-1.198619,-257.931911,-1.388769,67.042427
1.7571,-0.009124,-0.015719,0.0479,-0.001961,0.007572,-0.004503,0.015201,-0.525202,0.047418,-1.198619,-257.931911,-1.388769,67.042427
1.7761,-0.008864,-0.015172,0.048707,-0.001977,0.007557,-0.004507,0.015222,-0.524895,0.047756,-1.189469,-257.933988,-1.385106,67.038238
1.7965,-0.00934,-0.014909,0.047818,-0.002018,0.007512,-0.004513,0.015898,-0.524584,0.048617,-1.189469,-257.933988,-1.385106,67.038238
1.8161,-0.00909,-0.014981,0.046332,-0.002053,0.007476,-0.004517,0.015898,-0.524584,0.048617,-1.189469,-257.933988,-1.385106,67.038238
1.8362,-0.009323,-0.01482,0.046719,-0.002083,0.007445,-0.004521,0.014433,-0.524122,0.046144,-1.180427,-257.936063,-1.381345,67.034047
1.8561,-0.009024,-0.014768,0.04616,-0.002089,0.007441,-0.004523,0.014447,-0.524144,0.046357,-1.180427,-257.936063,-1.381345,67.034047
1.8761,-0.009052,-0.014065,0.045447,-0.002094,0.007438,-0.004524,0.014433,-0.523995,0.046019,-1.152465,-257.938082,-1.369515,67.029943
1.8963,-0.008792,-0.014857,0.046787,-0.002106,0.007426,-0.004526,0.014142,-0.523567,0.04549,-1.152465,-257.938082,-1.369515,67.029943
1.9162,-0.008962,-0.014864,0.046339,-0.002117,0.007415,-0.004528,0.014142,-0.523567,0.04549,-1.152465,-257.938082,-1.369515,67.029943
1.936,-0.008868,-0.014311,0.046141,-0.002126,0.007407,-0.004529,0.01456,-0.524009,0.046149,-1.149661,-257.940128,-1.368348,67.025783
1.956,-0.00929,-0.013706,0.04638,-0.002135,0.007398,-0.004531,0.014587,-0.523877,0.046124,-1.149661,-257.940128,-1.368348,67.025783
1.9758,-0.00908,-0.013907,0.047527,-0.002143,0.007391,-0.004533,0.014276,-0.522925,0.046235,-1.141243,-257.942171,-1.364792,67.021625
1.9964,-0.0087,-0.013602,0.045945,-0.002174,0.007356,-0.004536,0.015071,-0.523285,0.047409,-1.141243,-257.942171,-1.364792,67.021625
2.0163,-0.009115,-0.013723,0.04607,-0.002199,0.007328,-0.004538,0.015071,-0.523285,0.047409,-1.141243,-257.942171,-1.364792,67.021625
2.0364,-0.009197,-0.013363,0.045715,-0.002221,0.007304,-0.00454,0.014268,-0.522875,0.04588,-1.13669,-257.944205,-1.362902,67.01748
2.0564,-0.008945,-0.013255,0.045893,-0.002234,0.007291,-0.004541,0.014194,-0.522823,0.045793,-1.13669,-257.944205,-1.362902,67.01748
2.076,-0.009136,-0.012813,0.045222,-0.002244,0.00728,-0.004542,0.014371,-0.522491,0.045749,-1.114991,-257.946205,-1.35383,67.01339
2.0963,-0.009316,-0.0129,0.044452,-0.002262,0.00726,-0.004543,0.013956,-0.522298,0.045262,-1.114991,-257.946205,-1.35383,67.01339
2.1164,-0.009225,-0.012711,0.046771,-0.002277,0.007243,-0.004543,0.013956,-0.522298,0.045262,-1.114991,-257.946205,-1.35383,67.01339
2.1369,-0.009116,-0.012863,0.044568,-0.00229,0.007229,-0.004544,0.014512,-0.521852,0.046581,-1.108703,-257.948217,-1.351166,67.009272
2.1566,-0.008826,-0.012456,0.046121,-0.002311,0.007204,-0.004545,0.014134,-0.522021,0.045748,-1.108703,-257.948217,-1.351166,67.009272
2.176,-0.009266,-0.012328,0.046135,-0.00233,0.007183,-0.004546,0.014604,-0.521687,0.045976,-1.095914,-257.950214,-1.345782,67.005179
2.1964,-0.009415,-0.012218,0.043868,-0.002354,0.007153,-0.004547,0.014283,-0.521764,0.046113,-1.095914,-257.950214,-1.345782,67.005179
2.2166,-0.009297,-0.012355,0.045591,-0.002375,0.007128,-0.004548,0.014283,-0.521764,0.046113,-1.095914,-257.950214,-1.345782,67.005179
2.2361,-0.009437,-0.011573,0.044516,-0.002393,0.007107,-0.004549,0.013835,-0.521526,0.045399,-1.084479,-257.952203,-1.341019,67.001098
2.2562,-0.009411,-0.011897,0.04552,-0.002407,0.007092,-0.004549,0.013598,-0.521315,0.045034,-1.084479,-257.952203,-1.341019,67.001098
2.2761,-0.00946,-0.01149,0.04529,-0.002418,0.007079,-0.004548,0.013711,-0.521147,0.045376,-1.06581,-257.954172,-1.333274,66.997051
2.2963,-0.009448,-0.011925,0.046898,-0.002437,0.007055,-0.004549,0.013632,-0.520972,0.04529,-1.06581,-257.954172,-1.333274,66.997051
2.3164,-0.009243,-0.011506,0.044712,-0.002454,0.007035,-0.004549,0.013632,-0.520972,0.04529,-1.06581,-257.954172,-1.333274,66.997051
2.3365,-0.009279,-0.011112,0.044344,-0.002468,0.007018,-0.004549,0.013438,-0.520704,0.044521,-1.058681,-257.956141,-1.330255,66.993
2.3563,-0.009077,-0.011191,0.04389,-0.002484,0.006997,-0.004549,0.013381,-0.520633,0.044428,-1.058681,-257.956141,-1.330255,66.993
2.3769,-0.009275,-0.011065,0.043603,-0.002498,0.00698,-0.004549,0.013212,-0.52048,0.043746,-1.043669,-257.958099,-1.324018,66.988969
2.3965,-0.009544,-0.010799,0.044324,-0.002503,0.006975,-0.004548,0.012974,-0.520561,0.043608,-1.043669,-257.958099,-1.324018,66.988969
2.4168,-0.009153,-0.010692,0.043634,-0.002508,0.00697,-0.004548,0.012974,-0.520561,0.043608,-1.043669,-257.958099,-1.324018,66.988969
2.4361,-0.009102,-0.010487,0.042528,-0.002512,0.006966,-0.004547,0.012976,-0.519919,0.043443,-1.034448,-257.960047,-1.320189,66.984953
2.4565,-0.009178,-0.010628,0.04408,-0.00253,0.006941,-0.004547,0.012803,-0.51993,0.043052,-1.034448,-257.960047,-1.320189,66.984953
2.4758,-0.009161,-0.009894,0.044117,-0.002546,0.00692,-0.004547,0.013206,-0.519914,0.043935,-1.030655,-257.962001,-1.318485,66.98093
2.4962,-0.009343,-0.010447,0.043093,-0.002583,0.006866,-0.004549,0.013316,-0.519433,0.044093,-1.030655,-257.962001,-1.318485,66.98093
2.5163,-0.009145,-0.010212,0.043673,-0.002614,0.006822,-0.00455,0.013316,-0.519433,0.044093,-1.030655,-257.962001,-1.318485,66.98093
2.5364,-0.00937,-0.009864,0.044947,-0.00264,0.006786,-0.00455,0.013002,-0.519439,0.043482,-1.019837,-257.963942,-1.314075,66.976928
2.5567,-0.009161,-0.00946,0.043753,-0.002662,0.006756,-0.00455,0.013204,-0.519371,0.044041,-1.019837,-257.963942,-1.314075,66.976928
2.5762,-0.009261,-0.00926,0.042504,-0.00268,0.006732,-0.00455,0.013054,-0.518763,0.04361,-0.988153,-257.965829,-1.301463,66.973025
2.5966,-0.009339,-0.009539,0.043798,-0.002699,0.006705,-0.00455,0.012461,-0.518786,0.042593,-0.988153,-257.965829,-1.301463,66.973025
2.6164,-0.009559,-0.009583,0.044161,-0.002715,0.006683,-0.004549,0.012461,-0.518786,0.042593,-0.988153,-257.965829,-1.301463,66.973025
2.6365,-0.009083,-0.009099,0.042979,-0.002728,0.006665,-0.004548,0.012832,-0.51881,0.043971,-0.974958,-257.967733,-1.296116,66.969086
2.656,-0.009186,-0.009372,0.044177,-0.002748,0.006636,-0.004548,0.012817,-0.518704,0.043546,-0.974958,-257.967733,-1.296116,66.969086
2.6762,-0.009012,-0.009208,0.04277,-0.002765,0.006613,-0.004548,0.013242,-0.518668,0.044034,-0.958851,-257.96962,-1.289531,66.965179
2.6964,-0.009457,-0.009121,0.042533,-0.00278,0.006593,-0.004548,0.012828,-0.518725,0.042874,-0.958851,-257.96962,-1.289531,66.965179
2.7163,-0.009414,-0.00898,0.044112,-0.002792,0.006578,-0.004548,0.012828,-0.518725,0.042874,-0.958851,-257.96962,-1.289531,66.965179
2.7365,-0.009339,-0.008274,0.043252,-0.002802,0.006564,-0.004548,0.012948,-0.518213,0.043923,-0.946025,-257.971506,-1.284403,66.961276
2.7565,-0.009245,-0.008544,0.042443,-0.002831,0.006517,-0.004548,0.012838,-0.518014,0.043629,-0.946025,-257.971506,-1.284403,66.961276
2.7763,-0.009391,-0.008375,0.042302,-0.002855,0.006478,-0.004549,0.012296,-0.51788,0.042298,-0.933848,-257.973385,-1.279423,66.957386
2.796,-0.009405,-0.007923,0.044302,-0.002868,0.006459,-0.004548,0.012182,-0.517905,0.042294,-0.933848,-257.973385,-1.279423,66.957386
2.8168,-0.009499,-0.008326,0.043609,-0.002878,0.006444,-0.004547,0.012182,-0.517905,0.042294,-0.933848,-257.973385,-1.279423,66.957386
2.8362,-0.009258,-0.00825,0.042394,-0.002887,0.006432,-0.004546,0.012603,-0.517576,0.043419,-0.913548,-257.97524,-1.271597,66.95354
2.8562,-0.009416,-0.00766,0.041956,-0.002908,0.006397,-0.004546,0.01249,-0.517633,0.042988,-0.913548,-257.97524,-1.271597,66.95354
2.8759,-0.009286,-0.007606,0.042417,-0.002926,0.006369,-0.004547,0.011874,-0.517011,0.041811,-0.902233,-257.977099,-1.266955,66.949689
2.8959,-0.009845,-0.007735,0.043618,-0.002952,0.006321,-0.004547,0.012293,-0.517125,0.042355,-0.902233,-257.977099,-1.266955,66.949689
2.9164,-0.009734,-0.007609,0.041619,-0.002975,0.006283,-0.004547,0.012293,-0.517125,0.042355,-0.902233,-257.977099,-1.266955,66.949689
2.936,-0.009142,-0.007254,0.043062,-0.002994,0.006251,-0.004547,0.011352,-0.516907,0.041429,-0.887279,-257.978944,-1.261179,66.945864
2.9559,-0.009321,-0.007357,0.041703,-0.003013,0.006218,-0.004547,0.01193,-0.516826,0.042071,-0.887279,-257.978944,-1.261179,66.945864
2.976,-0.009873,-0.00745,0.041726,-0.003028,0.006191,-0.004547,0.01184,-0.516721,0.04156,-0.85946,-257.980753,-1.250607,66.942113
2.9961,-0.009673,-0.007141,0.042405,-0.003028,0.006194,-0.004545,0.011435,-0.516971,0.041704,-0.85946,-257.980753,-1.250607,66.942113
3.0159,-0.009509,-0.007066,0.042088,-0.003028,0.006196,-0.004543,0.011435,-0.516971,0.041704,-0.85946,-257.980753,-1.250607,66.942113
3.036,-0.009536,-0.00685,0.042432,-0.003028,0.006198,-0.004542,0.011813,-0.516361,0.041899,-0.845133,-257.982574,-1.245117,66.938335
3.0563,-0.009485,-0.006766,0.041729,-0.003056,0.006144,-0.004543,0.011915,-0.516344,0.042097,-0.845133,-257.982574,-1.245117,66.938335
3.0759,-0.009881,-0.005947,0.042083,-0.003079,0.0061,-0.004544,0.011687,-0.516129,0.041585,-0.846699,-257.984399,-1.245285,66.934554
3.0962,-0.009698,-0.006277,0.040792,-0.003116,0.006018,-0.004547,0.01158,-0.515543,0.04203,-0.846699,-257.984399,-1.245285,66.934554
3.1161,-0.009638,-0.006448,0.041346,-0.003148,0.005951,-0.004548,0.01158,-0.515543,0.04203,-0.846699,-257.984399,-1.245285,66.934554
3.1363,-0.009841,-0.005712,0.040488,-0.003174,0.005897,-0.004549,0.011305,-0.515765,0.041157,-0.82379,-257.986195,-1.23691,66.930832
3.1563,-0.009416,-0.00606,0.040825,-0.003189,0.005867,-0.004549,0.011084,-0.515544,0.040862,-0.82379,-257.986195,-1.23691,66.930832
3.176,-0.01,-0.005972,0.041311,-0.003202,0.005843,-0.004548,0.011294,-0.515459,0.040686,-0.776527,-257.987904,-1.220037,66.927283
3.1961,-0.009694,-0.005689,0.040115,-0.003213,0.005823,-0.004548,0.011079,-0.515521,0.041247,-0.776527,-257.987904,-1.220037,66.927283
3.2166,-0.009699,-0.005874,0.040204,-0.003223,0.005806,-0.004547,0.011079,-0.515521,0.041247,-0.776527,-257.987904,-1.220037,66.927283
3.2363,-0.009738,-0.005215,0.041261,-0.003231,0.005793,-0.004547,0.010655,-0.515222,0.040013,-0.763553,-257.989672,-1.215152,66.923615
3.2565,-0.009709,-0.005773,0.041705,-0.00325,0.005748,-0.004547,0.010894,-0.515021,0.040485,-0.763553,-257.989672,-1.215152,66.923615
3.276,-0.009864,-0.005211,0.040729,-0.003266,0.005712,-0.004548,0.011444,-0.51515,0.041561,-0.751016,-257.991438,-1.210275,66.919956
3.2963,-0.010153,-0.004964,0.03964,-0.003287,0.005665,-0.004549,0.010943,-0.51481,0.040793,-0.751016,-257.991438,-1.210275,66.919956
3.3162,-0.009848,-0.005205,0.040192,-0.003304,0.005626,-0.00455,0.010943,-0.51481,0.040793,-0.751016,-257.991438,-1.210275,66.919956
3.3361,-0.00988,-0.004781,0.039467,-0.003318,0.005595,-0.00455,0.0105,-0.514561,0.040003,-0.731911,-257.993182,-1.203502,66.916342
3.356,-0.00961,-0.005062,0.040402,-0.003333,0.005557,-0.004551,0.010377,-0.514461,0.03976,-0.731911,-257.993182,-1.203502,66.916342
3.3759,-0.009824,-0.004733,0.040029,-0.003345,0.005526,-0.004551,0.010878,-0.514475,0.04026,-0.703768,-257.994898,-1.193586,66.91279
3.396,-0.009765,-0.004509,0.041316,-0.003362,0.005483,-0.004552,0.010605,-0.514329,0.040042,-0.703768,-257.994898,-1.193586,66.91279
3.4163,-0.010233,-0.004573,0.039867,-0.003376,0.005449,-0.004553,0.010605,-0.514329,0.040042,-0.703768,-257.994898,-1.193586,66.91279
3.4363,-0.010082,-0.004554,0.038843,-0.003388,0.00542,-0.004553,0.009945,-0.513944,0.039678,-0.687487,-257.996621,-1.187929,66.909226
3.4563,-0.010365,-0.004368,0.038946,-0.003397,0.005392,-0.004553,0.009837,-0.51401,0.039314,-0.687487,-257.996621,-1.187929,66.909226
3.4758,-0.009892,-0.004075,0.039037,-0.003405,0.005368,-0.004552,0.009379,-0.513815,0.038803,-0.661827,-257.998317,-1.179017,66.905723
3.496,-0.010218,-0.004221,0.039564,-0.003423,0.005315,-0.004553,0.00995,-0.513689,0.039009,-0.661827,-257.998317,-1.179017,66.905723
3.5161,-0.009742,-0.003997,0.039687,-0.003437,0.005273,-0.004554,0.00995,-0.513689,0.039009,-0.661827,-257.998317,-1.179017,66.905723
3.536,-0.01015,-0.00381,0.039456,-0.003449,0.005238,-0.004555,0.010342,-0.513377,0.039497,-0.649931,-258.000023,-1.174969,66.9022
3.5562,-0.010229,-0.003579,0.040174,-0.00347,0.005173,-0.004557,0.010172,-0.513367,0.039459,-0.649931,-258.000023,-1.174969,66.9022
3.5761,-0.01027,-0.003419,0.039081,-0.003488,0.005121,-0.004559,0.01014,-0.513007,0.040032,-0.618802,-258.001691,-1.164636,66.898761
3.5962,-0.010364,-0.003498,0.038748,-0.003506,0.005056,-0.004561,0.009692,-0.51302,0.039155,-0.618802,-258.001691,-1.164636,66.898761
3.616,-0.010367,-0.003578,0.038563,-0.003522,0.005004,-0.004562,0.009692,-0.51302,0.039155,-0.618802,-258.001691,-1.164636,66.898761
3.6363,-0.010544,-0.003335,0.039919,-0.003535,0.004962,-0.004563,0.009143,-0.512993,0.038375,-0.590254,-258.003346,-1.1553,66.895355
3.6562,-0.010176,-0.003304,0.039805,-0.003544,0.004928,-0.004562,0.009397,-0.512943,0.038983,-0.590254,-258.003346,-1.1553,66.895355
3.6762,-0.010249,-0.003181,0.039338,-0.003552,0.004901,-0.004562,0.010004,-0.51275,0.039664,-0.551741,-258.004963,-1.142832,66.892036
3.6963,-0.010362,-0.002959,0.03797,-0.003567,0.004851,-0.004564,0.009819,-0.512776,0.039359,-0.551741,-258.004963,-1.142832,66.892036
3.7162,-0.010231,-0.003365,0.039255,-0.003579,0.004811,-0.004566,0.009819,-0.512776,0.039359,-0.551741,-258.004963,-1.142832,66.892036
3.7359,-0.010451,-0.002824,0.037548,-0.00359,0.004779,-0.004567,0.009628,-0.512775,0.039066,-0.536964,-258.006608,-1.137972,66.888667
3.7563,-0.010759,-0.002903,0.03935,-0.003596,0.00475,-0.004567,0.009228,-0.512625,0.038423,-0.536964,-258.006608,-1.137972,66.888667
3.7759,-0.010571,-0.002568,0.039237,-0.003602,0.004727,-0.004566,0.009186,-0.512363,0.039207,-0.506175,-258.008225,-1.127901,66.885366
3.7963,-0.010167,-0.00286,0.037654,-0.003618,0.004656,-0.004569,0.009408,-0.512184,0.039227,-0.506175,-258.008225,-1.127901,66.885366
3.8167,-0.010752,-0.002776,0.037644,-0.003631,0.004598,-0.00457,0.009408,-0.512184,0.039227,-0.506175,-258.008225,-1.127901,66.885366
3.8366,-0.010435,-0.002461,0.038499,-0.003642,0.004552,-0.004571,0.008284,-0.512223,0.037453,-0.493748,-258.009856,-1.123933,66.882042
3.8566,-0.01033,-0.00238,0.036828,-0.003645,0.004526,-0.00457,0.008637,-0.512144,0.037858,-0.493748,-258.009856,-1.123933,66.882042
3.876,-0.010765,-0.001876,0.039293,-0.003647,0.004505,-0.004569,0.008331,-0.511898,0.036688,-0.450246,-258.011422,-1.11045,66.878868
3.8963,-0.010503,-0.002179,0.038134,-0.003665,0.004402,-0.004573,0.009185,-0.51151,0.039069,-0.450246,-258.011422,-1.11045,66.878868
3.9163,-0.010669,-0.002683,0.038639,-0.003681,0.004319,-0.004576,0.009185,-0.51151,0.039069,-0.450246,-258.011422,-1.11045,66.878868
3.9363,-0.010897,-0.001832,0.037805,-0.003694,0.004253,-0.004578,0.008874,-0.51212,0.038449,-0.439499,-258.013034,-1.107256,66.875608
3.9562,-0.011009,-0.001913,0.037501,-0.003694,0.004248,-0.004576,0.008649,-0.511827,0.038159,-0.439499,-258.013034,-1.107256,66.875608
3.9761,-0.010724,-0.001544,0.037396,-0.003694,0.004244,-0.004574,0.007998,-0.511433,0.037366,-0.375765,-258.014509,-1.088142,66.87265
3.9961,-0.01071,-0.001322,0.037595,-0.003702,0.004163,-0.004575,0.008308,-0.511203,0.037387,-0.375765,-258.014509,-1.088142,66.87265
4.0164,-0.010996,-0.001545,0.036626,-0.003709,0.004099,-0.004575,0.008308,-0.511203,0.037387,-0.375765,-258.014509,-1.088142,66.87265
4.0362,-0.010758,-0.0011,0.036077,-0.003715,0.004047,-0.004574,0.007518,-0.511031,0.036435,-0.374127,-258.016097,-1.087405,66.869471
4.0564,-0.011157,-0.001716,0.036961,-0.003714,0.00397,-0.004573,0.007548,-0.510904,0.036267,-0.374127,-258.016097,-1.087405,66.869471
4.0761,-0.010906,-0.001209,0.037226,-0.003714,0.003909,-0.004571,0.007571,-0.511248,0.036822,-0.325491,-258.017602,-1.073365,66.866481
4.0963,-0.01113,-0.001211,0.036966,-0.00372,0.003856,-0.004571,0.008026,-0.510884,0.037185,-0.325491,-258.017602,-1.073365,66.866481
4.1167,-0.011199,-0.001412,0.037167,-0.003724,0.003814,-0.004571,0.008026,-0.510884,0.037185,-0.325491,-258.017602,-1.073365,66.866481
4.1365,-0.011262,-0.001516,0.0379,-0.003728,0.00378,-0.004571,0.007594,-0.510906,0.03698,-0.292311,-258.019125,-1.064683,66.863474
4.1565,-0.011187,-0.001282,0.037301,-0.003727,0.003772,-0.004568,0.007769,-0.510988,0.037338,-0.292311,-258.019125,-1.064683,66.863474
4.1762,-0.011291,-0.000812,0.035795,-0.003726,0.003766,-0.004567,0.007712,-0.510814,0.037158,-0.259154,-258.020638,-1.054773,66.860509
4.1966,-0.011003,-0.000965,0.036327,-0.003719,0.003689,-0.004565,0.007019,-0.510508,0.035904,-0.259154,-258.020638,-1.054773,66.860509
4.2167,-0.011123,-0.000877,0.036423,-0.003713,0.003628,-0.004563,0.007019,-0.510508,0.035904,-0.259154,-258.020638,-1.054773,66.860509
4.2363,-0.011326,-0.00083,0.036911,-0.003708,0.003581,-0.004561,0.007287,-0.510388,0.036232,-0.256449,-258.022179,-1.053953,66.857494
4.256,-0.011123,-0.000598,0.037159,-0.00371,0.003528,-0.004561,0.007354,-0.510409,0.036489,-0.256449,-258.022179,-1.053953,66.857494
4.2758,-0.011329,-0.000265,0.035742,-0.003711,0.003486,-0.004561,0.007707,-0.510141,0.037019,-0.211326,-258.023642,-1.043399,66.854651
4.2965,-0.01177,-0.000449,0.035323,-0.003707,0.003376,-0.004564,0.006962,-0.509952,0.035849,-0.211326,-258.023642,-1.043399,66.854651
4.3166,-0.011559,-0.000575,0.035966,-0.003703,0.003289,-0.004565,0.006962,-0.509952,0.035849,-0.211326,-258.023642,-1.043399,66.854651
4.3361,-0.011076,-0.00036,0.034857,-0.0037,0.003221,-0.004565,0.006621,-0.510107,0.035777,-0.186561,-258.025137,-1.036501,66.851766
4.356,-0.011057,-0.00057,0.03407,-0.003691,0.003185,-0.004562,0.006634,-0.510068,0.035382,-0.186561,-258.025137,-1.036501,66.851766
4.3764,-0.011307,-0.00019,0.034612,-0.003683,0.003157,-0.004559,0.006204,-0.510183,0.033936,-0.116407,-258.026507,-1.018888,66.849171
4.3965,-0.011503,-4.5e-05,0.036055,-0.003669,0.003103,-0.004555,0.006322,-0.509908,0.034542,-0.116407,-258.026507,-1.018888,66.849171
4.4167,-0.011405,-0.000368,0.035767,-0.003657,0.003061,-0.004552,0.006322,-0.509908,0.034542,-0.116407,-258.026507,-1.018888,66.849171
4.4365,-0.011886,-5.8e-05,0.034952,-0.003647,0.003028,-0.004549,0.006674,-0.509916,0.035576,-0.100945,-258.027984,-1.015844,66.846382
4.4563,-0.011792,-4.3e-05,0.033384,-0.00364,0.002991,-0.004547,0.006355,-0.509832,0.0353,-0.100945,-258.027984,-1.015844,66.846382
4.4765,-0.011673,9.1e-05,0.035587,-0.003634,0.002962,-0.004546,0.005114,-0.509668,0.033241,-0.068454,-258.029422,-1.00996,66.843685
4.4966,-0.011471,0.000355,0.035057,-0.003627,0.002894,-0.004548,0.006351,-0.509589,0.03538,-0.068454,-258.029422,-1.00996,66.843685
4.5161,-0.011756,-0.00031,0.035447,-0.003622,0.002841,-0.004549,0.006351,-0.509589,0.03538,-0.068454,-258.029422,-1.00996,66.843685
4.536,-0.011645,-7.6e-05,0.034101,-0.003617,0.0028,-0.004549,0.006162,-0.509872,0.035257,-0.050956,-258.030867,-1.00626,66.840987
4.5567,-0.011633,0.000189,0.034601,-0.003603,0.002807,-0.004544,0.005976,-0.509821,0.034771,-0.050956,-258.030867,-1.00626,66.840987
4.5763,-0.011721,5.8e-05,0.03569,-0.003592,0.002813,-0.004539,0.005895,-0.509423,0.03446,-0.005894,-258.032264,-0.995533,66.83842
4.5968,-0.011568,0.00042,0.034502,-0.003595,0.002783,-0.004541,0.006416,-0.509595,0.035567,-0.005894,-258.032264,-0.995533,66.83842
4.6163,-0.011604,0.000303,0.035607,-0.003597,0.002759,-0.004542,0.006416,-0.509595,0.035567,-0.005894,-258.032264,-0.995533,66.83842
4.6363,-0.011566,0.000335,0.034656,-0.003599,0.00274,-0.004544,0.006398,-0.509262,0.035417,-0.011486,-258.033701,-0.999263,66.835763
4.6565,-0.011733,0.000425,0.033781,-0.003593,0.002665,-0.004548,0.00626,-0.509289,0.035084,-0.011486,-258.033701,-0.999263,66.835763
4.6764,-0.011696,0.000553,0.033337,-0.003588,0.002607,-0.004552,0.005375,-0.509202,0.033637,0.00987,-258.035129,-0.992624,66.83315
4.6964,-0.011748,0.000943,0.035735,-0.003541,0.002507,-0.004546,0.005303,-0.509163,0.033357,0.00987,-258.035129,-0.992624,66.83315
4.7166,-0.011942,0.00085,0.033747,-0.003503,0.002429,-0.00454,0.005303,-0.509163,0.033357,0.00987,-258.035129,-0.992624,66.83315
4.7363,-0.011664,0.000605,0.034096,-0.003472,0.00237,-0.004536,0.005115,-0.508758,0.033561,0.048153,-258.03653,-0.98322,66.830625
4.7566,-0.011959,0.000968,0.033094,-0.003442,0.002269,-0.004536,0.005346,-0.508886,0.033759,0.048153,-258.03653,-0.98322,66.830625
4.7761,-0.012117,0.000695,0.035167,-0.003418,0.002191,-0.004535,0.00481,-0.508686,0.032959,0.114769,-258.037834,-0.97667,66.828312
4.7964,-0.012064,0.000979,0.034739,-0.00342,0.002162,-0.004537,0.005724,-0.508961,0.034972,0.114769,-258.037834,-0.97667,66.828312
4.8166,-0.012113,0.000689,0.034183,-0.003421,0.00214,-0.004539,0.005724,-0.508961,0.034972,0.114769,-258.037834,-0.97667,66.828312
4.8364,-0.012385,0.001,0.032593,-0.003422,0.002122,-0.00454,0.005177,-0.50893,0.034001,0.16782,-258.039158,-0.967423,66.826012
4.8564,-0.012028,0.000675,0.03465,-0.003366,0.002045,-0.004529,0.004776,-0.508838,0.033405,0.16782,-258.039158,-0.967423,66.826012
4.8763,-0.012437,0.000689,0.034465,-0.003321,0.001987,-0.00452,0.00553,-0.508956,0.034507,0.187845,-258.040539,-0.960671,66.823643
4.8963,-0.012277,0.00133,0.034458,-0.003313,0.001995,-0.004517,0.005166,-0.509,0.034461,0.187845,-258.040539,-0.960671,66.823643
4.9168,-0.012195,0.000981,0.032305,-0.003308,0.002001,-0.004514,0.005166,-0.509,0.034461,0.187845,-258.040539,-0.960671,66.823643
4.9367,-0.012206,0.000829,0.034897,-0.003303,0.002006,-0.004512,0.00414,-0.508677,0.03212,0.228887,-258.041867,-0.960426,66.821388
4.9562,-0.012079,0.001139,0.033278,-0.003261,0.001934,-0.004506,0.004711,-0.508742,0.033225,0.228887,-258.041867,-0.960426,66.821388
4.9762,-0.012245,0.001264,0.033838,-0.003228,0.001879,-0.004501,0.004782,-0.508518,0.033134,0.22324,-258.04322,-0.964379,66.819071
4.9962,-0.012294,0.000814,0.033443,-0.003209,0.001789,-0.004506,0.004983,-0.508448,0.033767,0.22324,-258.04322,-0.964379,66.819071
5.0169,-0.01212,0.001161,0.033317,-0.003194,0.001719,-0.004509,0.004983,-0.508448,0.033767,0.22324,-258.04322,-0.964379,66.819071
5.0362,-0.012284,0.001448,0.033017,-0.003182,0.001665,-0.004512,0.004735,-0.508483,0.033133,0.263207,-258.044523,-0.961844,66.816871
5.0565,-0.01246,0.001614,0.031306,-0.003147,0.001594,-0.004508,0.004646,-0.508391,0.033065,0.263207,-258.044523,-0.961844,66.816871
5.0763,-0.012151,0.0012,0.032554,-0.003119,0.00154,-0.004505,0.003408,-0.50809,0.031172,0.33002,-258.045774,-0.946863,66.814847
5.0966,-0.012368,0.001554,0.031395,-0.003077,0.001505,-0.004495,0.004355,-0.50849,0.032428,0.33002,-258.045774,-0.946863,66.814847
5.1168,-0.012276,0.001281,0.031677,-0.003042,0.001479,-0.004487,0.004355,-0.50849,0.032428,0.33002,-258.045774,-0.946863,66.814847
5.1361,-0.012397,0.001296,0.032928,-0.003014,0.001459,-0.00448,0.003748,-0.508404,0.031494,0.37053,-258.047075,-0.942305,66.812784
5.1563,-0.012397,0.001642,0.032656,-0.002954,0.001407,-0.004467,0.003997,-0.508407,0.032059,0.37053,-258.047075,-0.942305,66.812784
5.1763,-0.01253,0.00134,0.031918,-0.002906,0.001367,-0.004457,0.004159,-0.508043,0.032515,0.400632,-258.048365,-0.947795,66.810748
5.1961,-0.012063,0.001261,0.031559,-0.002841,0.001316,-0.004444,0.003777,-0.508366,0.031964,0.400632,-258.048365,-0.947795,66.810748
5.2164,-0.01229,0.001199,0.030189,-0.00279,0.001277,-0.004433,0.003777,-0.508366,0.031964,0.400632,-258.048365,-0.947795,66.810748
5.2373,-0.012584,0.001626,0.030951,-0.002748,0.001248,-0.004425,0.002983,-0.508516,0.030007,0.436448,-258.049621,-0.95296,66.808783
5.2565,-0.012275,0.001642,0.03374,-0.002618,0.001177,-0.004398,0.003055,-0.508355,0.030363,0.436448,-258.049621,-0.95296,66.808783
5.2766,-0.012338,0.001674,0.031338,-0.002514,0.001125,-0.004377,0.004844,-0.508033,0.033605,0.486701,-258.050813,-0.963023,66.806938
5.2965,-0.012598,0.001766,0.031267,-0.002507,0.001066,-0.004382,0.003748,-0.50807,0.031538,0.486701,-258.050813,-0.963023,66.806938
5.3163,-0.012464,0.001751,0.03179,-0.002503,0.00102,-0.004386,0.003748,-0.50807,0.031538,0.486701,-258.050813,-0.963023,66.806938
5.3363,-0.012554,0.00128,0.029871,-0.002499,0.000986,-0.00439,0.003648,-0.507951,0.03162,0.552087,-258.051908,-0.986079,66.805248
5.3563,-0.012357,0.001747,0.031056,-0.002439,0.000949,-0.004377,0.003239,-0.508168,0.030885,0.552087,-258.051908,-0.986079,66.805248
5.3765,-0.012804,0.001972,0.031296,-0.00239,0.000921,-0.004367,0.003402,-0.507979,0.030921,0.596117,-258.053074,-0.972572,66.803535
5.3966,-0.012317,0.001547,0.031229,-0.00232,0.000809,-0.004358,0.003173,-0.507795,0.031255,0.596117,-258.053074,-0.972572,66.803535
5.4166,-0.012666,0.001537,0.031326,-0.002265,0.000724,-0.004352,0.003173,-0.507795,0.031255,0.596117,-258.053074,-0.972572,66.803535
5.4366,-0.012406,0.001598,0.032461,-0.002221,0.00066,-0.004347,0.003209,-0.508178,0.031147,0.630908,-258.054233,-0.983139,66.801847
5.4566,-0.012252,0.001509,0.031603,-0.002261,0.000726,-0.004353,0.00358,-0.508156,0.031663,0.630908,-258.054233,-0.983139,66.801847
5.4762,-0.012259,0.001644,0.030422,-0.002293,0.000776,-0.004357,0.003801,-0.50822,0.031486,0.705897,-258.055248,-0.980379,66.800491
5.4964,-0.012288,0.001262,0.030216,-0.002283,0.00079,-0.004352,0.0033,-0.508128,0.030512,0.705897,-258.055248,-0.980379,66.800491
5.5166,-0.012806,0.001915,0.030674,-0.002275,0.000801,-0.004348,0.0033,-0.508128,0.030512,0.705897,-258.055248,-0.980379,66.800491
5.5363,-0.012564,0.001616,0.029755,-0.002268,0.000809,-0.004344,0.002738,-0.507815,0.030491,0.68809,-258.05643,-0.982488,66.798845
5.556,-0.012389,0.001732,0.031628,-0.002156,0.000726,-0.004323,0.002676,-0.507949,0.030177,0.68809,-258.05643,-0.982488,66.798845
5.5758,-0.012793,0.002073,0.029058,-0.002069,0.000664,-0.004308,0.003666,-0.507989,0.03149,0.682835,-258.057598,-0.99091,66.797192
5.5961,-0.012535,0.001831,0.031783,-0.001887,0.000526,-0.00428,0.002161,-0.507734,0.029259,0.682835,-258.057598,-0.99091,66.797192
5.6161,-0.012754,0.001694,0.030169,-0.001746,0.000424,-0.00426,0.002161,-0.507734,0.029259,0.682835,-258.057598,-0.99091,66.797192
5.6361,-0.012764,0.001815,0.028265,-0.001635,0.000348,-0.004245,0.002551,-0.508051,0.030006,0.757865,-258.058628,-1.010235,66.795788
5.657,-0.01261,0.001916,0.030405,-0.001575,0.000382,-0.004233,0.002178,-0.508021,0.029285,0.757865,-258.058628,-1.010235,66.795788
5.6762,-0.013158,0.001934,0.030481,-0.001526,0.000407,-0.004225,0.002862,-0.507841,0.030331,0.832744,-258.059249,-1.063362,66.795035
5.6963,-0.012778,0.002102,0.03109,-0.001515,0.00039,-0.00422,0.00238,-0.507819,0.03036,0.832744,-258.059249,-1.063362,66.795035
5.7161,-0.012652,0.001893,0.029011,-0.001507,0.000378,-0.004217,0.00238,-0.507819,0.03036,0.832744,-258.059249,-1.063362,66.795035
5.7367,-0.012543,0.001802,0.030306,-0.001499,0.000368,-0.004214,0.002091,-0.50788,0.028879,0.908095,-258.060053,-1.09845,66.79402
5.7564,-0.012617,0.001921,0.029193,-0.001507,0.000387,-0.004211,0.002417,-0.507912,0.029442,0.908095,-258.060053,-1.09845,66.79402
5.7762,-0.012176,0.001972,0.029607,-0.001513,0.000401,-0.004208,0.002224,-0.507852,0.029067,0.973741,-258.061049,-1.09947,66.792787
5.7966,-0.012733,0.001774,0.03032,-0.001582,0.000419,-0.004219,0.002856,-0.507808,0.029551,0.973741,-258.061049,-1.09947,66.792787
5.8167,-0.012851,0.001884,0.030293,-0.001637,0.000432,-0.004227,0.002856,-0.507808,0.029551,0.973741,-258.061049,-1.09947,66.792787
5.8361,-0.01234,0.002148,0.029401,-0.001682,0.00044,-0.004232,0.002532,-0.507867,0.030117,0.961836,-258.062104,-1.099849,66.791457
5.8566,-0.012719,0.002366,0.029227,-0.001671,0.000416,-0.004228,0.002574,-0.50777,0.029806,0.961836,-258.062104,-1.099849,66.791457
5.8766,-0.01233,0.00224,0.029895,-0.001662,0.000398,-0.004225,0.002135,-0.507404,0.029101,0.905715,-258.063119,-1.06342,66.790168
5.8964,-0.012592,0.001983,0.029577,-0.001682,0.000347,-0.004231,0.002838,-0.507519,0.029813,0.905715,-258.063119,-1.06342,66.790168
5.917,-0.012311,0.001919,0.028599,-0.001699,0.000309,-0.004236,0.002838,-0.507519,0.029813,0.905715,-258.063119,-1.06342,66.790168
5.9361,-0.012759,0.002209,0.026623,-0.001712,0.000279,-0.004239,0.002201,-0.507857,0.028421,0.91987,-258.064212,-1.061688,66.788808
5.9562,-0.012317,0.002116,0.02836,-0.001506,0.00022,-0.004205,0.001648,-0.507758,0.027692,0.91987,-258.064212,-1.061688,66.788808
5.9762,-0.012252,0.00228,0.028705,-0.001346,0.000178,-0.00418,0.002091,-0.507672,0.028227,0.932968,-258.065344,-1.032471,66.787494
5.9962,-0.012793,0.001903,0.029992,-0.001352,0.000146,-0.004184,0.002357,-0.507524,0.028656,0.932968,-258.065344,-1.032471,66.787494
6.0169,-0.01207,0.002056,0.029793,-0.001358,0.000122,-0.004188,0.002357,-0.507524,0.028656,0.932968,-258.065344,-1.032471,66.787494
6.0368,-0.012136,0.001779,0.029693,-0.001362,0.000103,-0.004191,0.00308,-0.507713,0.02967,1.007976,-258.066118,-1.10748,66.78663
6.0568,-0.012454,0.001941,0.028444,-0.001493,0.000212,-0.00421,0.003045,-0.507826,0.029665,1.007976,-258.066118,-1.10748,66.78663
6.0761,-0.012465,0.001972,0.030567,-0.001597,0.000294,-0.004224,0.00201,-0.507851,0.028317,1.064584,-258.067184,-1.097875,66.785496
6.0962,-0.012205,0.002294,0.02824,-0.001676,0.000347,-0.004233,0.00302,-0.507795,0.030359,1.064584,-258.067184,-1.097875,66.785496
6.117,-0.012245,0.002275,0.028817,-0.00174,0.000386,-0.00424,0.00302,-0.507795,0.030359,1.064584,-258.067184,-1.097875,66.785496
6.1364,-0.012151,0.001933,0.027049,-0.001791,0.000415,-0.004245,0.002394,-0.507505,0.028668,0.989581,-258.068106,-1.063588,66.784409
6.1564,-0.012211,0.002059,0.029725,-0.001663,0.000329,-0.004219,0.002097,-0.50765,0.028024,0.989581,-258.068106,-1.063588,66.784409
6.1759,-0.01254,0.001896,0.027654,-0.001563,0.000265,-0.0042,0.0029,-0.507707,0.029612,0.914583,-258.069032,-1.033731,66.783259
6.1961,-0.012585,0.001815,0.027066,-0.001407,0.000249,-0.004175,0.001674,-0.507891,0.027816,0.914583,-258.069032,-1.033731,66.783259
6.2162,-0.012203,0.002146,0.028885,-0.001285,0.000238,-0.004156,0.001674,-0.507891,0.027816,0.914583,-258.069032,-1.033731,66.783259
6.2362,-0.012465,0.00208,0.028103,-0.001189,0.000231,-0.004143,0.002465,-0.507633,0.028722,0.973755,-258.070066,-1.066176,66.782057
6.2561,-0.011945,0.001828,0.028085,-0.001212,0.000211,-0.004151,0.002213,-0.507667,0.02845,0.973755,-258.070066,-1.066176,66.782057
6.276,-0.011977,0.002335,0.02586,-0.001229,0.000195,-0.004158,0.002349,-0.507966,0.027996,1.048719,-258.070771,-1.141141,66.781238
6.2964,-0.012075,0.002167,0.028642,-0.001035,8.5e-05,-0.004133,0.001307,-0.507534,0.026039,1.048719,-258.070771,-1.141141,66.781238
6.3164,-0.01216,0.002166,0.028409,-0.000883,3e-06,-0.004115,0.001307,-0.507534,0.026039,1.048719,-258.070771,-1.141141,66.781238
6.3363,-0.012383,0.002184,0.027764,-0.000765,-5.7e-05,-0.004103,0.002277,-0.507622,0.02824,1.08781,-258.071802,-1.148378,66.78007
6.3565,-0.012165,0.001806,0.027081,-0.000845,-2.4e-05,-0.004118,0.002067,-0.50762,0.028027,1.08781,-258.071802,-1.148378,66.78007
6.3759,-0.011794,0.001887,0.026479,-0.000908,-1e-06,-0.004129,0.001631,-0.508007,0.027025,1.162705,-258.07227,-1.223273,66.77962
6.3961,-0.011963,0.001856,0.028871,-0.000902,7e-05,-0.004121,0.001702,-0.507941,0.026523,1.162705,-258.07227,-1.223273,66.77962
6.4163,-0.012244,0.002427,0.028407,-0.000897,0.000123,-0.004114,0.001702,-0.507941,0.026523,1.162705,-258.07227,-1.223273,66.77962
6.4361,-0.011966,0.002091,0.027683,-0.000893,0.000163,-0.004108,0.002206,-0.507369,0.028245,1.225286,-258.073276,-1.225091,66.778616
6.4562,-0.011815,0.002163,0.027222,-0.000958,0.000124,-0.004119,0.002179,-0.507509,0.027999,1.225286,-258.073276,-1.225091,66.778616
6.4763,-0.01233,0.002094,0.027285,-0.00101,9.2e-05,-0.004127,0.002038,-0.507644,0.027093,1.207217,-258.074266,-1.248391,66.777505
6.4963,-0.011435,0.002327,0.027889,-0.000952,7.3e-05,-0.004114,0.001623,-0.507709,0.027261,1.207217,-258.074266,-1.248391,66.777505
6.5166,-0.011708,0.002256,0.028142,-0.000906,5.9e-05,-0.004105,0.001623,-0.507709,0.027261,1.207217,-258.074266,-1.248391,66.777505
6.5361,-0.012384,0.002308,0.027609,-0.00087,5e-05,-0.004097,0.002602,-0.50754,0.027978,1.176543,-258.075267,-1.201872,66.776438
6.5561,-0.012037,0.00203,0.02617,-0.000951,4.5e-05,-0.004114,0.002231,-0.507523,0.02781,1.176543,-258.075267,-1.201872,66.776438
6.5762,-0.012273,0.002603,0.027038,-0.001017,3.9e-05,-0.004126,0.001283,-0.507795,0.026048,1.230088,-258.076235,-1.242361,66.775435
6.596,-0.011591,0.002232,0.024187,-0.000901,-7.9e-05,-0.004112,0.001493,-0.507263,0.026942,1.230088,-258.076235,-1.242361,66.775435
6.6163,-0.011876,0.002092,0.0254,-0.00081,-0.000168,-0.004102,0.001493,-0.507263,0.026942,1.230088,-258.076235,-1.242361,66.775435
6.636,-0.011551,0.002216,0.026424,-0.00074,-0.000235,-0.004095,0.001037,-0.507743,0.02524,1.181796,-258.077228,-1.192665,66.774415
6.656,-0.01151,0.00216,0.026285,-0.000698,-0.000188,-0.004089,0.001393,-0.507687,0.025703,1.181796,-258.077228,-1.192665,66.774415
6.676,-0.011732,0.002235,0.026721,-0.000664,-0.000154,-0.004085,0.001875,-0.507669,0.02619,1.256796,-258.078058,-1.255194,66.773717
6.6962,-0.012025,0.002213,0.02719,-0.00074,-0.000114,-0.004097,0.001892,-0.507591,0.026667,1.256796,-258.078058,-1.255194,66.773717
6.7163,-0.012073,0.002195,0.026007,-0.000799,-8.6e-05,-0.004106,0.001892,-0.507591,0.026667,1.256796,-258.078058,-1.255194,66.773717
6.7362,-0.011696,0.001961,0.026765,-0.000846,-6.5e-05,-0.004112,0.001164,-0.507639,0.025853,1.325017,-258.079047,-1.294295,66.772835
6.7561,-0.011532,0.002165,0.026609,-0.000803,-4.6e-05,-0.004102,0.001482,-0.507728,0.026206,1.325017,-258.079047,-1.294295,66.772835
6.7759,-0.01169,0.002045,0.026503,-0.000769,-3.2e-05,-0.004095,0.002014,-0.507657,0.026494,1.253464,-258.079996,-1.237802,66.771929
6.7961,-0.011702,0.002197,0.025679,-0.000822,1.5e-05,-0.004102,0.001841,-0.507765,0.026496,1.253464,-258.079996,-1.237802,66.771929
6.8162,-0.011641,0.002159,0.026835,-0.000864,5e-05,-0.004107,0.001841,-0.507765,0.026496,1.253464,-258.079996,-1.237802,66.771929
6.8362,-0.011704,0.002072,0.025275,-0.000897,7.5e-05,-0.004111,0.002012,-0.507659,0.026667,1.276114,-258.08103,-1.26895,66.770919
6.8562,-0.01148,0.001842,0.026391,-0.000884,6.6e-05,-0.004108,0.001675,-0.507702,0.026087,1.276114,-258.08103,-1.26895,66.770919
6.8759,-0.011524,0.001959,0.025288,-0.000874,5.9e-05,-0.004106,0.001951,-0.507979,0.026269,1.217754,-258.081997,-1.236776,66.769899
6.896,-0.011776,0.002132,0.024136,-0.000818,8.3e-05,-0.004101,0.001422,-0.507887,0.02537,1.217754,-258.081997,-1.236776,66.769899
6.9162,-0.011962,0.001983,0.025705,-0.000775,0.000102,-0.004097,0.001422,-0.507887,0.02537,1.217754,-258.081997,-1.236776,66.769899
6.9362,-0.011316,0.002031,0.025968,-0.000741,0.000117,-0.004095,0.00111,-0.507847,0.025533,1.228152,-258.083035,-1.242716,66.768817
6.9561,-0.011384,0.002427,0.025766,-0.000714,0.000113,-0.004094,0.001435,-0.507827,0.025689,1.228152,-258.083035,-1.242716,66.768817
6.9764,-0.011517,0.001856,0.027171,-0.000692,0.000111,-0.004094,0.001733,-0.507401,0.025644,1.269525,-258.083965,-1.294991,66.767804
6.9964,-0.011156,0.002352,0.027551,-0.00085,0.000193,-0.004121,0.002284,-0.507907,0.02703,1.269525,-258.083965,-1.294991,66.767804
7.0161,-0.01176,0.001761,0.024937,-0.000976,0.000253,-0.00414,0.002284,-0.507907,0.02703,1.269525,-258.083965,-1.294991,66.767804
7.0364,-0.011203,0.002164,0.024012,-0.001076,0.000297,-0.004154,0.000927,-0.508076,0.024767,1.288919,-258.08495,-1.31176,66.766735
7.0563,-0.011269,0.001996,0.025211,-0.000857,0.00024,-0.004125,0.000971,-0.507918,0.02444,1.288919,-258.08495,-1.31176,66.766735
7.0762,-0.01121,0.002538,0.025845,-0.000687,0.0002,-0.004105,0.001571,-0.507837,0.025138,1.213976,-258.085487,-1.236818,66.766079
7.096,-0.011105,0.002386,0.025572,-0.000744,0.000101,-0.004118,0.001936,-0.507337,0.025782,1.213976,-258.085487,-1.236818,66.766079
7.1162,-0.011522,0.002125,0.023769,-0.00079,2.4e-05,-0.004127,0.001936,-0.507337,0.025782,1.213976,-258.085487,-1.236818,66.766079
7.1361,-0.01139,0.001847,0.023862,-0.000827,-3.5e-05,-0.004134,0.000574,-0.507724,0.023628,1.281364,-258.086284,-1.311985,66.765155
7.1562,-0.011817,0.002117,0.024115,-0.000569,-4.1e-05,-0.004103,0.000656,-0.50784,0.023708,1.281364,-258.086284,-1.311985,66.765155
7.1763,-0.010878,0.002152,0.024944,-0.000371,-4.4e-05,-0.004079,0.000456,-0.507736,0.023992,1.2583,-258.087285,-1.250078,66.764178
7.1968,-0.011183,0.001941,0.023798,-0.000474,-1.6e-05,-0.004094,0.001715,-0.507694,0.024851,1.2583,-258.087285,-1.250078,66.764178
7.216,-0.01145,0.002221,0.024348,-0.000555,3e-06,-0.004105,0.001715,-0.507694,0.024851,1.2583,-258.087285,-1.250078,66.764178
7.2363,-0.011442,0.00254,0.02574,-0.000619,1.7e-05,-0.004113,0.000956,-0.507629,0.024281,1.333177,-258.087696,-1.324955,66.763782
7.2562,-0.011032,0.002036,0.024445,-0.000553,-5.5e-05,-0.004099,0.001252,-0.507491,0.024869,1.333177,-258.087696,-1.324955,66.763782
7.276,-0.011253,0.002093,0.023956,-0.000501,-0.000109,-0.004089,0.001414,-0.507811,0.024314,1.327464,-258.088725,-1.330554,66.76274
7.296,-0.011086,0.002226,0.024674,-0.000412,-9.8e-05,-0.004075,0.001002,-0.507765,0.023981,1.327464,-258.088725,-1.330554,66.76274
7.3163,-0.011574,0.001925,0.023093,-0.000342,-8.9e-05,-0.004065,0.001002,-0.507765,0.023981,1.327464,-258.088725,-1.330554,66.76274
7.3362,-0.010906,0.002294,0.022979,-0.000287,-8.2e-05,-0.004057,0.000182,-0.507944,0.022933,1.380896,-258.08972,-1.364013,66.761824
7.3563,-0.011056,0.002008,0.023693,-8.5e-05,-9.5e-05,-0.004038,0.000439,-0.507791,0.022933,1.380896,-258.08972,-1.364013,66.761824
7.3761,-0.010925,0.001828,0.024054,7.1e-05,-0.000104,-0.004023,0.001019,-0.507851,0.02359,1.45585,-258.090547,-1.438967,66.76105
7.3961,-0.011048,0.002272,0.023427,-5.4e-05,-3e-06,-0.004036,0.001313,-0.508009,0.024008,1.45585,-258.090547,-1.438967,66.76105
7.4168,-0.011034,0.002029,0.024176,-0.00015,7.1e-05,-0.004045,0.001313,-0.508009,0.024008,1.45585,-258.090547,-1.438967,66.76105
7.436,-0.010822,0.002201,0.023115,-0.000226,0.000124,-0.00405,0.001292,-0.507824,0.024095,1.530846,-258.091031,-1.513962,66.760605
7.4564,-0.010973,0.001976,0.024176,-0.000233,8.8e-05,-0.004045,0.001163,-0.507761,0.023699,1.530846,-258.091031,-1.513962,66.760605
7.4761,-0.010842,0.002025,0.024753,-0.000239,6.1e-05,-0.004041,0.001349,-0.507871,0.024055,1.475042,-258.091918,-1.484152,66.759625
7.4963,-0.01094,0.002115,0.023343,-0.000379,9.7e-05,-0.004056,0.001743,-0.507823,0.024686,1.475042,-258.091918,-1.484152,66.759625
7.5162,-0.010917,0.002092,0.024341,-0.000489,0.000123,-0.004066,0.001743,-0.507823,0.024686,1.475042,-258.091918,-1.484152,66.759625
7.5364,-0.01047,0.002214,0.023242,-0.000577,0.000141,-0.004072,0.001485,-0.507754,0.024172,1.471906,-258.092885,-1.476615,66.75861
7.5568,-0.010845,0.002238,0.023012,-0.000573,0.000102,-0.004066,0.001441,-0.50771,0.023769,1.471906,-258.092885,-1.476615,66.75861
7.5763,-0.010892,0.002346,0.024782,-0.00057,7.3e-05,-0.004061,0.000883,-0.507625,0.022938,1.396867,-258.093434,-1.401577,66.757999
7.5965,-0.010445,0.002347,0.022758,-0.000606,2.1e-05,-0.004065,0.001668,-0.507509,0.024613,1.396867,-258.093434,-1.401577,66.757999
7.6162,-0.010535,0.002063,0.022079,-0.000636,-2e-05,-0.004068,0.001668,-0.507509,0.024613,1.396867,-258.093434,-1.401577,66.757999
7.6362,-0.010427,0.002113,0.024253,-0.00066,-5.2e-05,-0.00407,0.000703,-0.50781,0.021925,1.338135,-258.094332,-1.351082,66.757048
7.656,-0.01076,0.002195,0.024223,-0.000586,-4.2e-05,-0.004057,0.001203,-0.50778,0.022852,1.338135,-258.094332,-1.351082,66.757048
7.6758,-0.010593,0.002398,0.021783,-0.000529,-3.4e-05,-0.004047,0.001572,-0.507657,0.024098,1.316454,-258.09534,-1.306167,66.756079
7.6962,-0.010707,0.001956,0.022408,-0.000313,-0.000127,-0.004024,0.000609,-0.507497,0.021984,1.316454,-258.09534,-1.306167,66.756079
7.7162,-0.010637,0.00246,0.023941,-0.000145,-0.000196,-0.004008,0.000609,-0.507497,0.021984,1.316454,-258.09534,-1.306167,66.756079
7.7365,-0.010358,0.002241,0.022921,-1.5e-05,-0.000246,-0.003996,0.001551,-0.507395,0.023784,1.362553,-258.09629,-1.356977,66.755153
7.756,-0.010541,0.002419,0.022827,-0.000124,-0.000233,-0.00402,0.00146,-0.507488,0.023418,1.362553,-258.09629,-1.356977,66.755153
7.7762,-0.010577,0.00184,0.024311,-0.00021,-0.000226,-0.004037,0.001098,-0.50745,0.022795,1.437552,-258.096568,-1.431976,66.754926
7.7965,-0.010546,0.002101,0.023373,-0.00037,-8.2e-05,-0.004052,0.001755,-0.507959,0.024173,1.437552,-258.096568,-1.431976,66.754926
7.8162,-0.010403,0.002112,0.021535,-0.000495,2.5e-05,-0.004061,0.001755,-0.507959,0.024173,1.437552,-258.096568,-1.431976,66.754926
7.836,-0.010404,0.002212,0.023759,-0.000594,0.000104,-0.004067,0.000572,-0.507779,0.02138,1.492981,-258.097563,-1.477338,66.754097
7.8559,-0.010309,0.002566,0.021134,-0.000485,5.1e-05,-0.004048,0.00103,-0.507725,0.022321,1.492981,-258.097563,-1.477338,66.754097
7.876,-0.010505,0.002448,0.023463,-0.000401,1.3e-05,-0.004034,0.000463,-0.507319,0.021071,1.417989,-258.098038,-1.402346,66.753583
7.8961,-0.010422,0.002273,0.021454,-0.000401,-6.9e-05,-0.004033,0.001373,-0.507404,0.023254,1.417989,-258.098038,-1.402346,66.753583
7.9162,-0.010321,0.00231,0.022623,-0.000403,-0.000131,-0.004031,0.001373,-0.507404,0.023254,1.417989,-258.098038,-1.402346,66.753583
7.9361,-0.010551,0.002416,0.022184,-0.000404,-0.000178,-0.00403,0.001198,-0.50756,0.022454,1.408653,-258.099028,-1.410308,66.752584
7.9563,-0.010377,0.002143,0.023069,-0.000326,-0.00021,-0.004022,0.00102,-0.507518,0.022326,1.408653,-258.099028,-1.410308,66.752584
7.976,-0.009757,0.002019,0.021453,-0.000266,-0.000234,-0.004017,0.001374,-0.507727,0.022941,1.418834,-258.10009,-1.395596,66.751661
7.9964,-0.010276,0.002038,0.022282,-0.000281,-0.000156,-0.00402,0.0012,-0.507852,0.021581,1.418834,-258.10009,-1.395596,66.751661
8.0161,-0.0104,0.002422,0.021975,-0.000293,-9.8e-05,-0.004021,0.0012,-0.507852,0.021581,1.418834,-258.10009,-1.395596,66.751661
8.0359,-0.009886,0.001773,0.023752,-0.000302,-5.6e-05,-0.004022,0.000797,-0.507464,0.021823,1.472212,-258.101073,-1.451645,66.750847
8.0562,-0.009697,0.001922,0.022683,-0.000346,-4.4e-05,-0.004028,0.001386,-0.507721,0.022602,1.472212,-258.101073,-1.451645,66.750847
8.0759,-0.009852,0.002043,0.020805,-0.00038,-3.7e-05,-0.004032,0.001861,-0.507948,0.022556,1.451294,-258.102076,-1.445822,66.749888
8.0962,-0.009986,0.002245,0.022234,-0.000279,-2.9e-05,-0.004022,0.000859,-0.507856,0.020959,1.451294,-258.102076,-1.445822,66.749888
8.1162,-0.009803,0.002069,0.021568,-0.0002,-2.3e-05,-0.004015,0.000859,-0.507856,0.020959,1.451294,-258.102076,-1.445822,66.749888
8.1362,-0.010192,0.002453,0.022043,-0.000138,-1.7e-05,-0.004011,0.001181,-0.507814,0.021404,1.419754,-258.103056,-1.415252,66.748936
8.1562,-0.009999,0.002133,0.020594,-0.00015,-4.8e-05,-0.004016,0.001126,-0.507655,0.021645,1.419754,-258.103056,-1.415252,66.748936
8.1758,-0.010122,0.002227,0.022323,-0.000159,-7.1e-05,-0.004021,0.000498,-0.50776,0.020499,1.494788,-258.103789,-1.490287,66.748213
8.196,-0.010167,0.002148,0.019699,-0.000184,-8.3e-05,-0.004024,0.001196,-0.507656,0.022162,1.494788,-258.103789,-1.490287,66.748213
8.2162,-0.009658,0.00208,0.021702,-0.000203,-9.3e-05,-0.004027,0.001196,-0.507656,0.022162,1.494788,-258.103789,-1.490287,66.748213
8.2361,-0.010104,0.001809,0.021004,-0.000218,-0.000101,-0.004029,0.001403,-0.507803,0.021534,1.507978,-258.104794,-1.504266,66.747264
8.256,-0.009639,0.001998,0.020546,-0.000216,-4.8e-05,-0.004028,0.001083,-0.507914,0.021303,1.507978,-258.104794,-1.504266,66.747264
8.276,-0.00942,0.00219,0.019923,-0.000213,-9e-06,-0.004026,0.000832,-0.507897,0.02042,1.485839,-258.105804,-1.478593,66.746334
8.2959,-0.009816,0.002224,0.022416,-0.000111,-4.6e-05,-0.004021,0.000748,-0.507726,0.019962,1.485839,-258.105804,-1.478593,66.746334
8.3158,-0.009246,0.00204,0.023248,-3.2e-05,-7.4e-05,-0.004018,0.000748,-0.507726,0.019962,1.485839,-258.105804,-1.478593,66.746334
8.3359,-0.009468,0.002463,0.021262,3e-05,-9.3e-05,-0.004016,0.002601,-0.507823,0.02308,1.484641,-258.106794,-1.484033,66.74535
8.356,-0.009472,0.001878,0.020421,-0.000218,-3.1e-05,-0.004061,0.002099,-0.507659,0.022318,1.484641,-258.106794,-1.484033,66.74535
8.3758,-0.009566,0.002062,0.019451,-0.000416,1.2e-05,-0.004094,0.000942,-0.508018,0.020327,1.559633,-258.10754,-1.559025,66.744659
8.3959,-0.009654,0.00237,0.020593,-0.000169,-1.1e-05,-0.004071,0.000404,-0.507857,0.019522,1.559633,-258.10754,-1.559025,66.744659
8.416,-0.009607,0.00227,0.021292,2.1e-05,-2.6e-05,-0.004054,0.000404,-0.507857,0.019522,1.559633,-258.10754,-1.559025,66.744659
8.4361,-0.009506,0.002227,0.019903,0.000167,-3.6e-05,-0.004041,0.001247,-0.507614,0.02121,1.484503,-258.108014,-1.483894,66.74418
8.4563,-0.009432,0.001873,0.020176,0.000125,-6.9e-05,-0.004045,0.000999,-0.507638,0.020664,1.484503,-258.108014,-1.483894,66.74418
8.4763,-0.00941,0.002282,0.019277,9.2e-05,-9.5e-05,-0.004047,0.000857,-0.508023,0.020116,1.559552,-258.108482,-1.558943,66.743726
8.4962,-0.009661,0.002341,0.02079,0.000212,-0.000136,-0.004028,0.00046,-0.507659,0.019349,1.559552,-258.108482,-1.558943,66.743726
8.5164,-0.009339,0.00261,0.019224,0.000305,-0.000166,-0.004015,0.00046,-0.507659,0.019349,1.559552,-258.108482,-1.558943,66.743726
8.537,-0.009718,0.002262,0.018589,0.000377,-0.000187,-0.004004,0.000468,-0.507299,0.019067,1.606512,-258.109434,-1.60936,66.742844
8.5563,-0.009106,0.001995,0.021694,0.000518,-0.000263,-0.00399,0.000183,-0.507442,0.018855,1.606512,-258.109434,-1.60936,66.742844
8.5761,-0.009506,0.002093,0.019549,0.000628,-0.000318,-0.003979,0.001962,-0.507889,0.021611,1.681545,-258.110119,-1.684392,66.742255
8.5963,-0.009441,0.002116,0.020101,0.000579,-0.00025,-0.003981,0.000612,-0.507817,0.019749,1.681545,-258.110119,-1.684392,66.742255
8.6162,-0.009634,0.002458,0.019947,0.000543,-0.000201,-0.003982,0.000612,-0.507817,0.019749,1.681545,-258.110119,-1.684392,66.742255
8.6364,-0.009466,0.002375,0.019391,0.000515,-0.000164,-0.003981,0.000538,-0.50744,0.019947,1.606541,-258.110119,-1.609389,66.742255
8.6565,-0.00919,0.002087,0.018315,0.00054,-0.000226,-0.003969,0.000491,-0.507476,0.019722,1.606541,-258.110119,-1.609389,66.742255
8.6761,-0.009112,0.002289,0.020134,0.00056,-0.000273,-0.003959,0.00015,-0.507827,0.018315,1.531568,-258.110119,-1.534416,66.742255
8.6963,-0.009339,0.001988,0.020296,0.00042,-0.000241,-0.003963,0.001065,-0.507627,0.01997,1.531568,-258.110119,-1.534416,66.742255
8.7167,-0.009205,0.002215,0.02086,0.00031,-0.00022,-0.003964,0.001065,-0.507627,0.01997,1.531568,-258.110119,-1.534416,66.742255
8.7362,-0.009178,0.002085,0.020448,0.000224,-0.000206,-0.003964,0.001433,-0.507674,0.02086,1.456574,-258.110119,-1.459422,66.742255
8.756,-0.009234,0.002664,0.019622,8.1e-05,-0.000152,-0.003964,0.00136,-0.507727,0.020696,1.456574,-258.110119,-1.459422,66.742255
8.776,-0.009041,0.002544,0.020056,-3.2e-05,-0.000114,-0.003961,0.000772,-0.507239,0.019589,1.531608,-258.110388,-1.534456,66.742028
8.7965,-0.009446,0.002186,0.020072,-4.9e-05,-0.000191,-0.003946,0.00115,-0.507344,0.020012,1.531608,-258.110388,-1.534456,66.742028
8.8163,-0.009298,0.002201,0.019672,-6.3e-05,-0.00025,-0.003933,0.00115,-0.507344,0.020012,1.531608,-258.110388,-1.534456,66.742028
8.836,-0.008767,0.002252,0.0205,-7.5e-05,-0.000295,-0.003922,0.000733,-0.507705,0.019509,1.558106,-258.111382,-1.556851,66.741123
8.8563,-0.009163,0.002085,0.020358,-9.8e-05,-0.000251,-0.003912,0.001122,-0.507679,0.019895,1.558106,-258.111382,-1.556851,66.741123
8.876,-0.008991,0.002046,0.019578,-0.000116,-0.000219,-0.003903,0.001216,-0.507818,0.020234,1.542824,-258.112448,-1.534978,66.740291
8.8961,-0.009153,0.002455,0.018967,-0.000111,-0.000157,-0.003894,0.001013,-0.507854,0.01963,1.542824,-258.112448,-1.534978,66.740291
8.9163,-0.008647,0.001802,0.019043,-0.000108,-0.00011,-0.003887,0.001013,-0.507854,0.01963,1.542824,-258.112448,-1.534978,66.740291
8.9359,-0.009265,0.001842,0.018761,-0.000105,-7.5e-05,-0.00388,0.00106,-0.508114,0.018881,1.526215,-258.113479,-1.517213,66.739433
8.9563,-0.008899,0.001797,0.018316,-4.1e-05,4e-06,-0.003872,0.000753,-0.508097,0.018814,1.526215,-258.113479,-1.517213,66.739433
8.9761,-0.008882,0.002493,0.018502,8e-06,6.4e-05,-0.003866,0.000439,-0.50812,0.018193,1.528045,-258.114457,-1.525242,66.738515
8.9962,-0.00855,0.002162,0.018114,0.00013,-5.7e-05,-0.003857,0.000543,-0.507483,0.018468,1.528045,-258.114457,-1.525242,66.738515
9.0162,-0.008972,0.002577,0.017957,0.000224,-0.000147,-0.003852,0.000543,-0.507483,0.018468,1.528045,-258.114457,-1.525242,66.738515
9.036,-0.008457,0.002061,0.018303,0.000298,-0.000214,-0.003849,0.000186,-0.507338,0.017807,1.574432,-258.115311,-1.574241,66.737613
9.0565,-0.008474,0.002187,0.018032,0.000373,-0.000252,-0.003844,0.000468,-0.507548,0.017992,1.574432,-258.115311,-1.574241,66.737613
9.0759,-0.008762,0.002149,0.018509,0.000432,-0.000279,-0.003842,0.000726,-0.507734,0.017957,1.649417,-258.115942,-1.649226,66.737086
9.0961,-0.008681,0.00209,0.018178,0.00041,-0.000237,-0.003847,0.000682,-0.507762,0.018456,1.649417,-258.115942,-1.649226,66.737086
9.1159,-0.008748,0.002262,0.017526,0.000393,-0.000206,-0.003851,0.000682,-0.507762,0.018456,1.649417,-258.115942,-1.649226,66.737086
9.1363,-0.008505,0.002718,0.018135,0.000381,-0.000183,-0.003853,0.00019,-0.50766,0.017526,1.72441,-258.115942,-1.574232,66.737086
9.1564,-0.008764,0.002023,0.017777,0.000457,-0.000248,-0.003847,0.000416,-0.507472,0.017775,1.72441,-258.115942,-1.574232,66.737086
9.1762,-0.008658,0.00202,0.016757,0.000516,-0.000296,-0.003842,0.000308,-0.507899,0.017699,1.719925,-258.116586,-1.649233,66.736534
9.1962,-0.008668,0.001949,0.018069,0.000701,-0.000233,-0.003835,-7.6e-05,-0.507907,0.016834,1.719925,-258.116586,-1.649233,66.736534
9.2161,-0.008536,0.002256,0.018001,0.000844,-0.000184,-0.00383,-7.6e-05,-0.507907,0.016834,1.719925,-258.116586,-1.649233,66.736534
9.2359,-0.008877,0.002193,0.01836,0.000955,-0.000147,-0.003826,0.000644,-0.507661,0.018001,1.644825,-258.116586,-1.574133,66.736534
9.2563,-0.008533,0.002084,0.018221,0.000854,-0.000154,-0.003841,0.000578,-0.507686,0.01815,1.644825,-258.116586,-1.574133,66.736534
9.2761,-0.008736,0.002179,0.018524,0.000777,-0.000162,-0.003851,0.000759,-0.507831,0.018221,1.569735,-258.116586,-1.499043,66.736534
9.296,-0.008901,0.002231,0.019544,0.000677,-0.000148,-0.003862,0.000715,-0.507742,0.018499,1.569735,-258.116586,-1.499043,66.736534
9.3167,-0.008548,0.001915,0.018856,0.000599,-0.000139,-0.003869,0.000715,-0.507742,0.018499,1.569735,-258.116586,-1.499043,66.736534
9.3364,-0.008842,0.002358,0.020304,0.000538,-0.000134,-0.003874,0.001068,-0.507995,0.018856,1.494779,-258.116586,-1.424087,66.736534
9.3563,-0.008573,0.002036,0.01928,0.000352,-8.2e-05,-0.003887,0.00125,-0.507808,0.019448,1.494779,-258.116586,-1.424087,66.736534
9.376,-0.008772,0.002329,0.018513,0.000206,-4.5e-05,-0.003895,0.00126,-0.507869,0.01928,1.419837,-258.116586,-1.349145,66.736534
9.3964,-0.008646,0.001974,0.017927,0.000236,-0.000101,-0.003876,0.000718,-0.507608,0.018578,1.419837,-258.116586,-1.349145,66.736534
9.4167,-0.008558,0.002419,0.019769,0.000259,-0.000143,-0.00386,0.000718,-0.507608,0.018578,1.419837,-258.116586,-1.349145,66.736534
9.4361,-0.008615,0.002146,0.019016,0.000276,-0.000174,-0.003848,0.001522,-0.507482,0.019755,1.494895,-258.116669,-1.424203,66.736453
9.4562,-0.008652,0.00204,0.016782,0.000135,-0.000162,-0.003852,0.001343,-0.507596,0.019452,1.494895,-258.116669,-1.424203,66.736453
9.4758,-0.008777,0.002204,0.01872,2.4e-05,-0.000156,-0.003853,-9.4e-05,-0.507889,0.01676,1.569834,-258.116844,-1.499142,66.736302
9.4964,-0.008987,0.002082,0.020542,9.3e-05,-0.00016,-0.003807,0.000695,-0.507722,0.01855,1.569834,-258.116844,-1.499142,66.736302
9.516,-0.008362,0.002067,0.018831,0.000147,-0.000162,-0.00377,0.000695,-0.507722,0.01855,1.569834,-258.116844,-1.499142,66.736302
9.5363,-0.008789,0.002195,0.017747,0.000188,-0.000163,-0.00374,0.001242,-0.507849,0.018687,1.580199,-258.117742,-1.574155,66.735516
9.5566,-0.008517,0.00193,0.018028,0.000176,-0.000137,-0.00372,0.000843,-0.507799,0.018288,1.580199,-258.117742,-1.574155,66.735516
9.5761,-0.008175,0.002304,0.01895,0.000167,-0.000118,-0.003703,0.000682,-0.507991,0.017929,1.647318,-258.118557,-1.649051,66.734809
9.5965,-0.008322,0.002261,0.018344,2.7e-05,-0.000107,-0.003707,0.00142,-0.507638,0.018858,1.647318,-258.118557,-1.649051,66.734809
9.6163,-0.008174,0.002026,0.019982,-8.2e-05,-0.000102,-0.003709,0.00142,-0.507638,0.018858,1.647318,-258.118557,-1.649051,66.734809
9.6362,-0.00837,0.002095,0.018065,-0.000169,-9.9e-05,-0.003708,0.002023,-0.507877,0.019827,1.640672,-258.119509,-1.648314,66.73395
9.6562,-0.00827,0.002393,0.016966,-0.00028,-3.4e-05,-0.003736,0.001545,-0.507855,0.019095,1.640672,-258.119509,-1.648314,66.73395
9.6763,-0.008095,0.001889,0.017247,-0.000368,1.3e-05,-0.003758,0.000382,-0.507536,0.016907,1.565769,-258.119975,-1.573412,66.733523
9.696,-0.008328,0.001836,0.016465,-0.000215,3.2e-05,-0.003749,0.000672,-0.507991,0.017214,1.565769,-258.119975,-1.573412,66.733523
9.7164,-0.00824,0.002086,0.018591,-9.7e-05,4.8e-05,-0.003742,0.000672,-0.507991,0.017214,1.565769,-258.119975,-1.573412,66.733523
9.7363,-0.008052,0.001985,0.019532,-7e-06,6.1e-05,-0.003738,0.001238,-0.507826,0.018519,1.490771,-258.120391,-1.498414,66.733103
9.7559,-0.008272,0.002305,0.018276,-0.000145,8.8e-05,-0.003765,0.001512,-0.507864,0.018925,1.490771,-258.120391,-1.498414,66.733103
9.7761,-0.007987,0.002044,0.017739,-0.000254,0.000107,-0.003786,0.001048,-0.507608,0.018176,1.565776,-258.121139,-1.567876,66.732314
9.7963,-0.008412,0.002372,0.019547,-0.000229,8.6e-05,-0.003792,0.001058,-0.507851,0.017773,1.565776,-258.121139,-1.567876,66.732314
9.8162,-0.007859,0.002275,0.018121,-0.00021,7.1e-05,-0.003798,0.001058,-0.507851,0.017773,1.565776,-258.121139,-1.567876,66.732314
9.8362,-0.008112,0.002157,0.01818,-0.000195,5.9e-05,-0.003803,0.001377,-0.507639,0.01801,1.490782,-258.12176,-1.492883,66.731633
9.8561,-0.007721,0.00238,0.018473,-0.000232,2.4e-05,-0.00382,0.001288,-0.507687,0.018066,1.490782,-258.12176,-1.492883,66.731633
9.8761,-0.008051,0.002172,0.017307,-0.000261,-3e-06,-0.003833,0.001694,-0.507531,0.018352,1.48473,-258.122668,-1.489002,66.730678
9.8963,-0.008252,0.00193,0.017487,-0.000176,-3.8e-05,-0.003837,0.000857,-0.507732,0.017394,1.48473,-258.122668,-1.489002,66.730678
9.9164,-0.00823,0.001896,0.018238,-0.000111,-6.4e-05,-0.003842,0.000857,-0.507732,0.017394,1.48473,-258.122668,-1.489002,66.730678
9.9363,-0.007922,0.001802,0.016062,-6e-05,-8.3e-05,-0.003847,0.00106,-0.50802,0.018081,1.460024,-258.12359,-1.459764,66.729758
9.9563,-0.008101,0.002442,0.018333,-2e-06,-1.2e-05,-0.003857,0.000738,-0.508065,0.017243,1.460024,-258.12359,-1.459764,66.729758
9.976,-0.008432,0.002226,0.016967,4.4e-05,4.1e-05,-0.003865,0.001246,-0.507475,0.018236,1.535007,-258.12436,-1.534747,66.72904
9.9965,-0.007863,0.001897,0.018114,0.000217,-3.7e-05,-0.003865,0.000313,-0.50768,0.017076,1.535007,-258.12436,-1.534747,66.72904
10.0164,-0.00789,0.001983,0.018438,0.000351,-9.4e-05,-0.003866,0.000313,-0.50768,0.017076,1.535007,-258.12436,-1.534747,66.72904
10.0364,-0.007607,0.001991,0.016823,0.000455,-0.000135,-0.00387,0.001515,-0.507928,0.018291,1.589623,-258.125204,-1.588986,66.728167
10.0567,-0.007838,0.002403,0.017317,0.000264,-4.9e-05,-0.003904,0.001293,-0.507932,0.017675,1.589623,-258.125204,-1.588986,66.728167
10.0761,-0.007764,0.002048,0.016081,0.000116,1.3e-05,-0.003929,0.000993,-0.507521,0.017317,1.514623,-258.125204,-1.513985,66.728167
10.0963,-0.007767,0.002201,0.017861,0.000219,-8e-06,-0.003915,0.000487,-0.507853,0.016192,1.514623,-258.125204,-1.513985,66.728167
10.1164,-0.007876,0.002233,0.015314,0.000299,-2.2e-05,-0.003904,0.000487,-0.507853,0.016192,1.514623,-258.125204,-1.513985,66.728167
10.1368,-0.007458,0.002129,0.016933,0.000362,-3.2e-05,-0.003896,-6.5e-05,-0.507706,0.015196,1.589624,-258.125877,-1.588987,66.727487
10.1565,-0.007325,0.001982,0.016793,0.000432,-7e-05,-0.003885,0.000425,-0.507743,0.015868,1.589624,-258.125877,-1.588987,66.727487
10.1764,-0.007573,0.002212,0.016274,0.000486,-9.7e-05,-0.003877,0.001244,-0.507946,0.016722,1.664637,-258.126433,-1.663999,66.726945
10.1966,-0.008142,0.00229,0.016425,0.000432,-0.000102,-0.003883,0.000772,-0.50774,0.01631,1.664637,-258.126433,-1.663999,66.726945
10.2163,-0.007763,0.002689,0.017073,0.00039,-0.000107,-0.003888,0.000772,-0.50774,0.01631,1.664637,-258.126433,-1.663999,66.726945
10.2364,-0.008046,0.001956,0.016302,0.000358,-0.000112,-0.003891,0.000944,-0.507237,0.017073,1.589628,-258.126433,-1.588991,66.726945
10.2564,-0.007686,0.001979,0.017342,0.000369,-0.000169,-0.003887,0.000668,-0.507539,0.016758,1.589628,-258.126433,-1.588991,66.726945
10.2762,-0.007567,0.002084,0.01834,0.000378,-0.000213,-0.003885,0.001162,-0.507947,0.01727,1.664628,-258.12701,-1.663991,66.726419
10.2963,-0.007523,0.002296,0.017268,0.000119,-0.000103,-0.003917,0.001729,-0.507841,0.018239,1.664628,-258.12701,-1.663991,66.726419
10.3164,-0.007546,0.002004,0.018035,-8.6e-05,-2.3e-05,-0.00394,0.001729,-0.507841,0.018239,1.664628,-258.12701,-1.663991,66.726419
10.3362,-0.007554,0.002171,0.017211,-0.000248,3.4e-05,-0.003956,0.001665,-0.507921,0.017894,1.71601,-258.127914,-1.73899,66.72566
10.3563,-0.007299,0.002126,0.015994,-0.000326,6.1e-05,-0.003959,0.001486,-0.507853,0.017599,1.71601,-258.127914,-1.73899,66.72566
10.3763,-0.007446,0.001998,0.017855,-0.000388,8e-05,-0.003961,0.000858,-0.507809,0.015979,1.641013,-258.128022,-1.663993,66.725548
10.3966,-0.007403,0.002332,0.015426,-0.000463,0.000116,-0.003958,0.001587,-0.50791,0.017685,1.641013,-258.128022,-1.663993,66.725548
10.4162,-0.007637,0.002371,0.016054,-0.000523,0.000142,-0.003955,0.001587,-0.50791,0.017685,1.641013,-258.128022,-1.663993,66.725548
10.4365,-0.007444,0.001914,0.016005,-0.000571,0.000161,-0.003951,0.00055,-0.507563,0.016028,1.566021,-258.128168,-1.589002,66.725394
10.4563,-0.00688,0.002249,0.016018,-0.000348,7.6e-05,-0.003911,0.000618,-0.507747,0.016016,1.566021,-258.128168,-1.589002,66.725394
10.4763,-0.007411,0.002604,0.01537,-0.000177,1.5e-05,-0.003881,0.001288,-0.507685,0.015998,1.491031,-258.128312,-1.514012,66.72523
10.4967,-0.007532,0.002284,0.016028,-0.0,-0.000123,-0.003848,0.000505,-0.507367,0.015426,1.491031,-258.128312,-1.514012,66.72523
10.5172,-0.007449,0.002344,0.016647,0.000136,-0.000225,-0.003822,0.000505,-0.507367,0.015426,1.491031,-258.128312,-1.514012,66.72523
10.5366,-0.00747,0.002043,0.015935,0.000242,-0.000302,-0.003803,0.001033,-0.507585,0.016483,1.495963,-258.129252,-1.49689,66.724278
10.5562,-0.006994,0.002064,0.015141,0.000208,-0.000261,-0.003803,0.000888,-0.507703,0.016256,1.495963,-258.129252,-1.49689,66.724278
10.5765,-0.007373,0.002082,0.016379,0.000182,-0.000231,-0.003803,0.000728,-0.507881,0.015099,1.570957,-258.129621,-1.571883,66.723993
10.5964,-0.007498,0.001908,0.016088,0.000136,-0.000167,-0.003807,0.000958,-0.507853,0.016265,1.570957,-258.129621,-1.571883,66.723993
10.6165,-0.007423,0.002492,0.017502,0.000101,-0.00012,-0.003809,0.000958,-0.507853,0.016265,1.570957,-258.129621,-1.571883,66.723993
10.6359,-0.007198,0.002206,0.016851,7.4e-05,-8.6e-05,-0.003811,0.001509,-0.507438,0.017371,1.641791,-258.130462,-1.64699,66.723303
10.656,-0.007155,0.001875,0.01559,-5e-05,-0.000102,-0.003831,0.001463,-0.507555,0.017143,1.641791,-258.130462,-1.64699,66.723303
10.6763,-0.00693,0.002389,0.016026,-0.000148,-0.000116,-0.003845,0.000798,-0.508065,0.015475,1.601285,-258.131374,-1.60362,66.722456
10.6959,-0.0069,0.002152,0.015615,-0.000168,-0.000137,-0.003846,0.001204,-0.507591,0.015973,1.601285,-258.131374,-1.60362,66.722456
10.716,-0.006926,0.00231,0.015602,-0.000184,-0.000154,-0.003847,0.001204,-0.507591,0.015973,1.601285,-258.131374,-1.60362,66.722456
10.7359,-0.006795,0.001971,0.015346,-0.000197,-0.000167,-0.003847,0.001028,-0.507632,0.015481,1.526338,-258.132113,-1.528672,66.721786
10.756,-0.006767,0.002137,0.016225,-0.000174,-0.000143,-0.003845,0.001029,-0.507769,0.015412,1.526338,-258.132113,-1.528672,66.721786
10.7761,-0.007137,0.001886,0.016663,-0.000156,-0.000125,-0.003843,0.001501,-0.507801,0.016109,1.492632,-258.13307,-1.480736,66.720955
10.7959,-0.007042,0.002278,0.015314,-0.000242,-2.2e-05,-0.00386,0.001373,-0.508021,0.016606,1.492632,-258.13307,-1.480736,66.720955
10.8159,-0.006895,0.001951,0.015256,-0.000309,5.5e-05,-0.003872,0.001373,-0.508021,0.016606,1.492632,-258.13307,-1.480736,66.720955
10.8359,-0.006748,0.002026,0.015534,-0.000361,0.000111,-0.003881,0.000879,-0.507995,0.015097,1.507979,-258.134051,-1.500915,66.720073
10.856,-0.006912,0.002134,0.016424,-0.000303,0.000113,-0.003872,0.000999,-0.507962,0.015258,1.507979,-258.134051,-1.500915,66.720073
10.8758,-0.006577,0.002312,0.016826,-0.000259,0.000115,-0.003866,0.001455,-0.507795,0.016326,1.432997,-258.134772,-1.426187,66.719283
10.8964,-0.00645,0.00244,0.014429,-0.000418,0.0001,-0.003903,0.001953,-0.507632,0.016775,1.432997,-258.134772,-1.426187,66.719283
10.9162,-0.00682,0.002277,0.014418,-0.000545,8.6e-05,-0.003932,0.001953,-0.507632,0.016775,1.432997,-258.134772,-1.426187,66.719283
10.9359,-0.006876,0.001974,0.014333,-0.000646,7.4e-05,-0.003953,0.000522,-0.507666,0.014261,1.456132,-258.135646,-1.466694,66.718321
10.9564,-0.006479,0.002128,0.016249,-0.000369,1.6e-05,-0.003918,0.000485,-0.50779,0.014272,1.456132,-258.135646,-1.466694,66.718321
10.9766,-0.006866,0.002208,0.014793,-0.000157,-2.5e-05,-0.003893,0.001801,-0.507804,0.016188,1.381121,-258.136107,-1.391682,66.717833
10.9964,-0.006864,0.002028,0.016571,-8e-05,-5.4e-05,-0.003891,0.000793,-0.507743,0.014932,1.381121,-258.136107,-1.391682,66.717833
11.0162,-0.006589,0.002736,0.013546,-2e-05,-7.5e-05,-0.00389,0.000793,-0.507743,0.014932,1.381121,-258.136107,-1.391682,66.717833
11.036,-0.006492,0.002531,0.014829,2.7e-05,-9.1e-05,-0.00389,0.000312,-0.507218,0.013442,1.456119,-258.13672,-1.46668,66.717233
11.0562,-0.006773,0.002414,0.015094,0.000129,-0.000213,-0.003874,0.000619,-0.507297,0.013994,1.456119,-258.13672,-1.46668,66.717233
11.0763,-0.006289,0.002295,0.015089,0.000208,-0.000305,-0.003861,0.000923,-0.507529,0.015017,1.531123,-258.137337,-1.541684,66.716661
11.0966,-0.006633,0.002063,0.014648,6.9e-05,-0.000253,-0.003888,0.001363,-0.507637,0.015078,1.531123,-258.137337,-1.541684,66.716661
11.1163,-0.006777,0.002204,0.014914,-4e-05,-0.000216,-0.003909,0.001363,-0.507637,0.015078,1.531123,-258.137337,-1.541684,66.716661
11.1364,-0.006248,0.002035,0.014588,-0.000126,-0.000191,-0.003923,0.000832,-0.507747,0.014815,1.606135,-258.137988,-1.616697,66.716158
11.1565,-0.006071,0.002494,0.013815,-0.000108,-0.000151,-0.003918,0.000979,-0.507815,0.014711,1.606135,-258.137988,-1.616697,66.716158
11.1761,-0.006327,0.002172,0.014616,-9.4e-05,-0.000121,-0.003913,0.000972,-0.507462,0.01372,1.531162,-258.138769,-1.541723,66.715492
11.1965,-0.006604,0.001808,0.014476,-0.000114,-0.000109,-0.00391,0.001113,-0.507746,0.014531,1.531162,-258.138769,-1.541723,66.715492
11.2162,-0.006466,0.002319,0.015203,-0.00013,-0.0001,-0.003907,0.001113,-0.507746,0.014531,1.531162,-258.138769,-1.541723,66.715492
11.236,-0.006204,0.001481,0.01501,-0.000142,-9.4e-05,-0.003905,0.001283,-0.507627,0.01504,1.533239,-258.139772,-1.529225,66.714586
11.2564,-0.006199,0.001818,0.014163,-0.000224,-1.5e-05,-0.003916,0.001352,-0.507969,0.015009,1.533239,-258.139772,-1.529225,66.714586
11.2762,-0.006453,0.001945,0.013502,-0.000287,4.3e-05,-0.003925,0.001019,-0.508134,0.01404,1.513437,-258.140752,-1.508733,66.71368
11.2962,-0.006136,0.002216,0.012237,-9.9e-05,5.5e-05,-0.003892,0.000485,-0.50802,0.013544,1.513437,-258.140752,-1.508733,66.71368
11.3161,-0.005802,0.00186,0.014217,4.5e-05,6.6e-05,-0.003866,0.000485,-0.50802,0.013544,1.513437,-258.140752,-1.508733,66.71368
11.3366,-0.00641,0.001961,0.013329,0.000156,7.5e-05,-0.003846,0.001438,-0.508087,0.014071,1.449499,-258.141599,-1.453689,66.712803
11.3564,-0.006305,0.002024,0.014358,9.2e-05,0.000115,-0.003847,0.001007,-0.508049,0.01375,1.449499,-258.141599,-1.453689,66.712803
11.3758,-0.006014,0.001929,0.01341,4.3e-05,0.000144,-0.003847,0.001016,-0.507923,0.014318,1.524485,-258.1419,-1.528675,66.712482
11.3962,-0.006074,0.00224,0.013634,5.2e-05,0.000147,-0.003833,0.000841,-0.508016,0.013486,1.524485,-258.1419,-1.528675,66.712482
11.4164,-0.006007,0.002025,0.012434,5.8e-05,0.000149,-0.003822,0.000841,-0.508016,0.013486,1.524485,-258.1419,-1.528675,66.712482
11.4364,-0.006239,0.002321,0.013763,6.3e-05,0.00015,-0.003813,0.000336,-0.507931,0.012293,1.590463,-258.142677,-1.588189,66.711603
11.4565,-0.006003,0.002246,0.012515,0.000167,8.1e-05,-0.003786,0.00052,-0.507806,0.012886,1.590463,-258.142677,-1.588189,66.711603
11.4761,-0.006094,0.002169,0.012509,0.000247,3e-05,-0.003765,0.000382,-0.50771,0.012395,1.599759,-258.143546,-1.596257,66.710615
11.4965,-0.006196,0.002209,0.015444,0.000377,-2e-05,-0.003739,0.000294,-0.507783,0.012493,1.599759,-258.143546,-1.596257,66.710615
11.516,-0.006101,0.002399,0.014158,0.000476,-5.7e-05,-0.00372,0.000294,-0.507783,0.012493,1.599759,-258.143546,-1.596257,66.710615
11.5362,-0.005523,0.002221,0.012787,0.000554,-8.4e-05,-0.003704,0.001127,-0.507548,0.014029,1.67461,-258.144289,-1.671108,66.709852
11.5567,-0.005912,0.002654,0.013593,0.000411,-0.000107,-0.003735,0.001077,-0.507624,0.013515,1.67461,-258.144289,-1.671108,66.709852
11.5761,-0.005858,0.002035,0.013751,0.000299,-0.000126,-0.003759,0.001021,-0.507299,0.013593,1.599608,-258.144289,-1.596106,66.709852
11.5962,-0.005825,0.002278,0.012918,0.00018,-7.8e-05,-0.003776,0.001143,-0.507864,0.013737,1.599608,-258.144289,-1.596106,66.709852
11.6164,-0.006087,0.002062,0.01308,8.8e-05,-4.3e-05,-0.003788,0.001143,-0.507864,0.013737,1.599608,-258.144289,-1.596106,66.709852
11.6364,-0.005839,0.002028,0.012942,1.5e-05,-1.9e-05,-0.003797,0.000591,-0.507898,0.012969,1.674741,-258.144983,-1.671239,66.70923
11.6562,-0.00578,0.002149,0.012985,8.6e-05,-1.4e-05,-0.003778,0.000662,-0.507911,0.012945,1.674741,-258.144983,-1.671239,66.70923
11.6761,-0.0059,0.002088,0.011318,0.00014,-1e-05,-0.003763,0.000843,-0.507809,0.012895,1.599769,-258.14568,-1.596267,66.708544
11.6963,-0.00611,0.002193,0.012932,0.000397,-3.3e-05,-0.0037,-3.7e-05,-0.507873,0.011461,1.599769,-258.14568,-1.596267,66.708544
11.7167,-0.00584,0.002337,0.013105,0.000594,-4.9e-05,-0.00365,-3.7e-05,-0.507873,0.011461,1.599769,-258.14568,-1.596267,66.708544
11.7362,-0.005598,0.002101,0.012387,0.000746,-5.9e-05,-0.003611,0.000849,-0.50762,0.012953,1.631333,-258.146572,-1.631866,66.70766
11.7565,-0.005662,0.001828,0.012613,0.000627,-7.9e-05,-0.003634,0.000796,-0.507717,0.012705,1.631333,-258.146572,-1.631866,66.70766
11.7762,-0.005465,0.001815,0.012524,0.000534,-9.7e-05,-0.00365,0.000771,-0.508132,0.012613,1.556309,-258.146572,-1.556842,66.70766
11.7964,-0.005646,0.002013,0.013372,0.000409,9e-06,-0.003655,0.000908,-0.508144,0.012532,1.556309,-258.146572,-1.556842,66.70766
11.8164,-0.005705,0.001733,0.013151,0.000313,8.6e-05,-0.003657,0.000908,-0.508144,0.012532,1.556309,-258.146572,-1.556842,66.70766
11.8364,-0.005573,0.002013,0.012533,0.000238,0.000142,-0.003657,0.001001,-0.508223,0.013151,1.481302,-258.146572,-1.481835,66.70766
11.8562,-0.00587,0.002035,0.011582,0.000176,0.000174,-0.003656,0.000927,-0.50811,0.012898,1.481302,-258.146572,-1.481835,66.70766
11.8761,-0.005616,0.002343,0.010658,0.000127,0.000197,-0.003655,3.7e-05,-0.507929,0.011548,1.556292,-258.146817,-1.556824,66.707381
11.8961,-0.005363,0.001846,0.012176,0.000429,6.8e-05,-0.003563,-0.000161,-0.507655,0.010734,1.556292,-258.146817,-1.556824,66.707381
11.9165,-0.005791,0.002255,0.011664,0.00066,-2.7e-05,-0.003491,-0.000161,-0.507655,0.010734,1.556292,-258.146817,-1.556824,66.707381
11.9361,-0.005487,0.002206,0.011952,0.000838,-9.7e-05,-0.003435,0.000162,-0.507703,0.011534,1.631363,-258.147507,-1.623205,66.706558
11.9564,-0.005587,0.002011,0.012788,0.000821,-0.000126,-0.003439,0.000344,-0.507724,0.011689,1.631363,-258.147507,-1.623205,66.706558
11.9762,-0.005848,0.002167,0.013087,0.000809,-0.000148,-0.003441,0.000935,-0.507947,0.012788,1.556439,-258.147507,-1.54828,66.706558
11.9963,-0.005544,0.002167,0.010609,0.00066,-0.000124,-0.003479,0.000836,-0.507804,0.01306,1.556439,-258.147507,-1.54828,66.706558
12.0162,-0.005696,0.002079,0.012523,0.000544,-0.000108,-0.003507,0.000836,-0.507804,0.01306,1.556439,-258.147507,-1.54828,66.706558
12.0361,-0.005527,0.002429,0.012901,0.000454,-9.8e-05,-0.003529,0.000691,-0.507881,0.012523,1.481439,-258.147507,-1.473281,66.706558
12.0563,-0.005329,0.002202,0.013735,0.000386,-0.000109,-0.003534,0.000839,-0.507737,0.012678,1.481439,-258.147507,-1.473281,66.706558
12.0761,-0.005166,0.001903,0.012146,0.000333,-0.000118,-0.003537,0.001676,-0.50775,0.013735,1.406458,-258.147507,-1.398299,66.706558
12.0964,-0.005635,0.001962,0.013168,0.000212,-3.4e-05,-0.003539,0.001085,-0.508032,0.012287,1.406458,-258.147507,-1.398299,66.706558
12.116,-0.005659,0.002202,0.012795,0.000118,2.8e-05,-0.003538,0.001085,-0.508032,0.012287,1.406458,-258.147507,-1.398299,66.706558
12.1362,-0.005521,0.002286,0.014574,4.3e-05,7.2e-05,-0.003536,0.000866,-0.507757,0.01279,1.481486,-258.147539,-1.473327,66.70653
12.1561,-0.005483,0.001767,0.011662,-4.8e-05,3.6e-05,-0.003557,0.001296,-0.507717,0.013524,1.481486,-258.147539,-1.473327,66.70653
12.1769,-0.005242,0.001923,0.013446,-0.00012,8e-06,-0.003573,0.000463,-0.508196,0.011588,1.556606,-258.148091,-1.548447,66.705939
12.1965,-0.005739,0.002127,0.012187,-0.000249,8.6e-05,-0.003587,0.001516,-0.508045,0.013283,1.556606,-258.148091,-1.548447,66.705939
12.2164,-0.005847,0.001824,0.011932,-0.00035,0.000144,-0.003597,0.001516,-0.508045,0.013283,1.556606,-258.148091,-1.548447,66.705939
12.2364,-0.004793,0.002656,0.010775,-0.00043,0.000186,-0.003604,0.000234,-0.50814,0.011789,1.515651,-258.148923,-1.516054,66.705101
12.2564,-0.00545,0.002289,0.010977,-0.000185,9.9e-05,-0.003535,0.000425,-0.507802,0.011358,1.515651,-258.148923,-1.516054,66.705101
12.2761,-0.005416,0.002197,0.009886,2e-06,3.4e-05,-0.003482,0.000143,-0.507678,0.010915,1.440748,-258.149362,-1.441152,66.704584
12.2966,-0.005235,0.002067,0.011118,0.000387,-2.1e-05,-0.003367,-0.000328,-0.507769,0.009975,1.440748,-258.149362,-1.441152,66.704584
12.3168,-0.005472,0.001844,0.012446,0.000681,-6.1e-05,-0.003277,-0.000328,-0.507769,0.009975,1.440748,-258.149362,-1.441152,66.704584
12.3362,-0.004918,0.002295,0.012346,0.000907,-9e-05,-0.003207,0.000872,-0.508116,0.012362,1.515722,-258.149845,-1.516125,66.704086
12.3563,-0.005358,0.002143,0.011624,0.000667,-3.1e-05,-0.00328,0.001076,-0.507934,0.012346,1.515722,-258.149845,-1.516125,66.704086
12.376,-0.005033,0.002456,0.011519,0.000479,9e-06,-0.003336,0.00057,-0.507822,0.011624,1.440726,-258.149845,-1.441129,66.704086
12.3962,-0.005196,0.002333,0.011256,0.000421,-7.6e-05,-0.003349,0.000817,-0.507538,0.011528,1.440726,-258.149845,-1.441129,66.704086
12.4164,-0.005039,0.002332,0.011847,0.000375,-0.000143,-0.003359,0.000817,-0.507538,0.011528,1.440726,-258.149845,-1.441129,66.704086
12.436,-0.00504,0.002049,0.010312,0.000338,-0.000194,-0.003366,0.001003,-0.507632,0.011847,1.365734,-258.149845,-1.366137,66.704086
12.4559,-0.004891,0.00214,0.012818,0.000335,-0.000187,-0.003336,0.000686,-0.50775,0.011226,1.365734,-258.149845,-1.366137,66.704086
12.476,-0.005378,0.002355,0.011323,0.000331,-0.000183,-0.00331,0.001646,-0.507818,0.012818,1.440801,-258.149845,-1.29107,66.704086
12.4962,-0.005376,0.002047,0.011337,0.000382,-0.000218,-0.003291,0.000508,-0.50763,0.011457,1.440801,-258.149845,-1.29107,66.704086
12.516,-0.005172,0.002148,0.011544,0.000422,-0.000244,-0.003276,0.000508,-0.50763,0.011457,1.440801,-258.149845,-1.29107,66.704086
12.536,-0.005182,0.00215,0.011499,0.000452,-0.000263,-0.003264,0.000715,-0.507818,0.011544,1.515737,-258.149845,-1.216135,66.704086
12.5563,-0.005601,0.001855,0.013499,0.000414,-0.000222,-0.003262,0.000702,-0.507817,0.011526,1.515737,-258.149845,-1.216135,66.704086
12.5763,-0.005017,0.001816,0.011909,0.000384,-0.000192,-0.003259,0.001284,-0.508098,0.013499,1.440732,-258.149845,-1.141131,66.704086
12.5961,-0.005091,0.002012,0.01269,0.000244,-6.1e-05,-0.003281,0.001075,-0.508144,0.01204,1.440732,-258.149845,-1.141131,66.704086
12.6159,-0.005571,0.002274,0.010712,0.000135,3.5e-05,-0.003296,0.001075,-0.508144,0.01204,1.440732,-258.149845,-1.141131,66.704086
12.6362,-0.005418,0.002056,0.012426,5.1e-05,0.000105,-0.003307,-0.000108,-0.507697,0.010712,1.516232,-258.149845,-1.065631,66.704086
12.6564,-0.004938,0.002126,0.012441,0.000218,2.7e-05,-0.003277,0.000314,-0.507782,0.011417,1.516232,-258.149845,-1.065631,66.704086
12.6764,-0.005261,0.002111,0.012481,0.000346,-3e-05,-0.003255,0.001407,-0.507835,0.01244,1.590877,-258.149851,-1.140276,66.704079
12.6963,-0.00513,0.002013,0.011972,0.000218,-1.7e-05,-0.003287,0.001131,-0.507848,0.012477,1.590877,-258.149851,-1.140276,66.704079
12.7165,-0.005115,0.002258,0.011216,0.000117,-9e-06,-0.003311,0.001131,-0.507848,0.012477,1.590877,-258.149851,-1.140276,66.704079
12.7361,-0.005254,0.001914,0.011748,3.9e-05,-5e-06,-0.00333,0.000605,-0.50771,0.011216,1.66573,-258.149851,-1.065424,66.704079
12.7564,-0.00546,0.001907,0.010262,0.000105,-2.6e-05,-0.003305,0.000658,-0.507848,0.011432,1.66573,-258.149851,-1.065424,66.704079
12.7761,-0.005083,0.00202,0.01158,0.000156,-4.2e-05,-0.003286,-0.000226,-0.508067,0.010261,1.590732,-258.149858,-1.140422,66.704071
12.7968,-0.004699,0.002155,0.011139,0.000168,-2.1e-05,-0.003274,0.000734,-0.507956,0.011469,1.590732,-258.149858,-1.140422,66.704071
12.8161,-0.005196,0.002268,0.013049,0.000178,-6e-06,-0.003265,0.000734,-0.507956,0.011469,1.590732,-258.149858,-1.140422,66.704071
12.8364,-0.005471,0.002121,0.011452,0.000186,5e-06,-0.003257,0.001458,-0.507688,0.013047,1.646717,-258.149869,-1.215609,66.704062
12.8563,-0.005419,0.001998,0.012276,0.000128,-2.5e-05,-0.003281,0.001006,-0.507754,0.012385,1.646717,-258.149869,-1.215609,66.704062
12.8763,-0.005195,0.001857,0.011725,8.3e-05,-4.9e-05,-0.003299,0.000841,-0.507964,0.012273,1.664141,-258.149897,-1.29062,66.704033
12.8964,-0.004904,0.00216,0.009301,9e-05,1.3e-05,-0.003294,0.000789,-0.508096,0.011771,1.664141,-258.149897,-1.29062,66.704033
12.9166,-0.005165,0.002167,0.012649,0.0,0.0,0.0,0.000789,-0.508096,0.011771,1.664141,-258.149897,-1.29062,66.704033
12.9363,-0.005336,0.001932,0.010755,0.0,0.0,0.0,0.001285,-0.507792,0.012625,1.611049,-258.150042,-1.365538,66.703895
12.9561,-0.005518,0.001916,0.011966,0.0,0.0,0.0,0.000823,-0.507892,0.011861,1.611049,-258.150042,-1.365538,66.703895
12.9761,-0.005385,0.001985,0.011502,0.0,0.0,0.0,0.000585,-0.508048,0.011966,1.611049,-258.150042,-1.365538,66.703895
12.9964,-0.004809,0.002037,0.012175,0.0,0.0,0.0,0.00049,-0.507987,0.011541,1.611049,-258.150042,-1.365538,66.703895
13.0165,-0.005286,0.002274,0.012258,0.0,0.0,0.0,0.00049,-0.507987,0.011541,1.611049,-258.150042,-1.365538,66.703895
13.0364,-0.005399,0.002537,0.011412,0.0,0.0,0.0,0.000966,-0.507688,0.012258,1.611049,-258.150042,-1.365538,66.703895
13.056,-0.005096,0.001718,0.012247,0.0,0.0,0.0,0.000741,-0.507581,0.011909,1.611049,-258.150042,-1.365538,66.703895
13.0762,-0.005388,0.001759,0.011994,0.0,0.0,0.0,0.00115,-0.508244,0.012247,1.611049,-258.150042,-1.365538,66.703895
13.0968,-0.005309,0.002436,0.013269,0.0,0.0,0.0,0.000767,-0.508208,0.012017,1.611049,-258.150042,-1.365538,66.703895
13.1168,-0.005381,0.00206,0.011639,0.0,0.0,0.0,0.000767,-0.508208,0.012017,1.611049,-258.150042,-1.365538,66.703895
13.1361,-0.005351,0.002264,0.011931,0.0,0.0,0.0,0.000554,-0.507906,0.011639,1.611049,-258.150042,-1.365538,66.703895
13.1562,-0.005402,0.001713,0.011597,0.0,0.0,0.0,0.000626,-0.507824,0.011755,1.611049,-258.150042,-1.365538,66.703895
13.1761,-0.00556,0.002011,0.012726,0.0,0.0,0.0,0.000512,-0.508252,0.011597,1.611049,-258.150042,-1.365538,66.703895
13.1965,-0.005124,0.002275,0.011969,0.0,0.0,0.0,0.000895,-0.507973,0.012632,1.611049,-258.150042,-1.365538,66.703895
13.2167,-0.005257,0.00194,0.012857,0.0,0.0,0.0,0.000895,-0.507973,0.012632,1.611049,-258.150042,-1.365538,66.703895
13.2362,-0.005191,0.00225,0.010955,0.0,0.0,0.0,0.0013,-0.508018,0.012857,1.611049,-258.150042,-1.365538,66.703895
13.2563,-0.00524,0.002001,0.013144,0.0,0.0,0.0,0.00093,-0.507896,0.012077,1.611049,-258.150042,-1.365538,66.703895
13.2762,-0.005224,0.001937,0.012883,0.0,0.0,0.0,0.001463,-0.507955,0.013144,1.611049,-258.150042,-1.365538,66.703895
13.2965,-0.005237,0.002053,0.01227,0.0,0.0,0.0,0.001356,-0.508015,0.012905,1.611049,-258.150042,-1.365538,66.703895
13.3166,-0.005275,0.001771,0.009994,0.0,0.0,0.0,0.001356,-0.508015,0.012905,1.611049,-258.150042,-1.365538,66.703895
13.3365,-0.005125,0.00242,0.010451,0.0,0.0,0.0,-0.000178,-0.508204,0.009994,1.611049,-258.150042,-1.365538,66.703895
13.3564,-0.005441,0.001887,0.012244,0.0,0.0,0.0,-2.2e-05,-0.507938,0.01018,1.611049,-258.150042,-1.365538,66.703895
13.3763,-0.00529,0.0021,0.011726,0.0,0.0,0.0,0.000804,-0.508075,0.012244,1.611049,-258.150042,-1.365538,66.703895
13.3962,-0.005378,0.001918,0.011588,0.0,0.0,0.0,0.0007,-0.507883,0.01177,1.611049,-258.150042,-1.365538,66.703895
13.4161,-0.005431,0.002199,0.01313,0.0,0.0,0.0,0.0007,-0.507883,0.01177,1.611049,-258.150042,-1.365538,66.703895
13.4361,-0.005335,0.002389,0.014009,0.0,0.0,0.0,0.001264,-0.507757,0.01313,1.611049,-258.150042,-1.365538,66.703895
13.4561,-0.005191,0.002179,0.012134,0.0,0.0,0.0,0.001485,-0.507678,0.013486,1.611049,-258.150042,-1.365538,66.703895
13.4768,-0.005173,0.002131,0.011078,0.0,0.0,0.0,0.000997,-0.507783,0.012134,1.611049,-258.150042,-1.365538,66.703895
13.4965,-0.005036,0.002066,0.01137,0.0,0.0,0.0,0.00052,-0.507833,0.011167,1.611049,-258.150042,-1.365538,66.703895
13.5169,-0.004993,0.00229,0.011987,0.0,0.0,0.0,0.00052,-0.507833,0.011167,1.611049,-258.150042,-1.365538,66.703895
13.5362,-0.00542,0.001709,0.009937,0.0,0.0,0.0,0.00112,-0.507674,0.011987,1.611049,-258.150042,-1.365538,66.703895
13.5565,-0.005168,0.001756,0.012941,0.0,0.0,0.0,0.000512,-0.507918,0.01114,1.611049,-258.150042,-1.365538,66.703895
13.5763,-0.005157,0.002011,0.012338,0.0,0.0,0.0,0.001432,-0.508202,0.012941,1.611049,-258.150042,-1.365538,66.703895
13.5964,-0.005155,0.00208,0.011689,0.0,0.0,0.0,0.001159,-0.507971,0.012387,1.611049,-258.150042,-1.365538,66.703895
13.6168,-0.005187,0.001772,0.012099,0.0,0.0,0.0,0.001159,-0.507971,0.012387,1.611049,-258.150042,-1.365538,66.703895
13.6362,-0.00529,0.002156,0.01073,0.0,0.0,0.0,0.000983,-0.508191,0.012099,1.611049,-258.150042,-1.365538,66.703895
13.6564,-0.005523,0.002225,0.011477,0.0,0.0,0.0,0.000653,-0.508036,0.011535,1.611049,-258.150042,-1.365538,66.703895
13.6762,-0.005459,0.001881,0.010813,0.0,0.0,0.0,0.000331,-0.507741,0.011477,1.611049,-258.150042,-1.365538,66.703895
13.696,-0.00542,0.002396,0.010563,0.0,0.0,0.0,7.8e-05,-0.50806,0.010869,1.611049,-258.150042,-1.365538,66.703895
13.7166,-0.005071,0.002442,0.012193,0.0,0.0,0.0,7.8e-05,-0.50806,0.010869,1.611049,-258.150042,-1.365538,66.703895
13.7363,-0.004935,0.002058,0.013135,0.0,0.0,0.0,0.001147,-0.50752,0.012193,1.611049,-258.150042,-1.365538,66.703895
13.7563,-0.005088,0.002029,0.011849,0.0,0.0,0.0,0.001402,-0.507676,0.012583,1.611049,-258.150042,-1.365538,66.703895
13.7762,-0.00527,0.00147,0.010873,0.0,0.0,0.0,0.000955,-0.507935,0.011849,1.611049,-258.150042,-1.365538,66.703895
13.796,-0.005214,0.001993,0.012734,0.0,0.0,0.0,0.000335,-0.508451,0.010958,1.611049,-258.150042,-1.365538,66.703895
13.816,-0.00511,0.002099,0.012782,0.0,0.0,0.0,0.000335,-0.508451,0.010958,1.611049,-258.150042,-1.365538,66.703895
13.8363,-0.005258,0.002097,0.011218,0.0,0.0,0.0,0.001408,-0.507859,0.012782,1.611049,-258.150042,-1.365538,66.703895
13.8564,-0.005458,0.002112,0.012841,0.0,0.0,0.0,0.001021,-0.507864,0.012141,1.611049,-258.150042,-1.365538,66.703895
13.8761,-0.005322,0.002496,0.01162,0.0,0.0,0.0,0.001091,-0.507846,0.012841,1.611049,-258.150042,-1.365538,66.703895
13.8964,-0.005663,0.002244,0.010885,0.0,0.0,0.0,0.000645,-0.507501,0.011724,1.611049,-258.150042,-1.365538,66.703895
13.9165,-0.005419,0.001869,0.012626,0.0,0.0,0.0,0.000645,-0.507501,0.011724,1.611049,-258.150042,-1.365538,66.703895
13.936,-0.005197,0.002266,0.011876,0.0,0.0,0.0,0.00102,-0.50809,0.012626,1.611049,-258.150042,-1.365538,66.703895
13.9561,-0.005448,0.002271,0.012291,0.0,0.0,0.0,0.000954,-0.507929,0.012317,1.611049,-258.150042,-1.365538,66.703895
13.9761,-0.004793,0.002108,0.012301,0.0,0.0,0.0,0.00082,-0.50769,0.012291,1.611049,-258.150042,-1.365538,66.703895
13.996,-0.005352,0.002171,0.012055,0.0,0.0,0.0,0.001428,-0.50784,0.0123,1.611049,-258.150042,-1.365538,66.703895
14.0164,-0.005713,0.00224,0.011896,0.0,0.0,0.0,0.001428,-0.50784,0.0123,1.611049,-258.150042,-1.365538,66.703895
14.0363,-0.005174,0.001915,0.013134,0.0,0.0,0.0,0.000353,-0.507724,0.011896,1.611049,-258.150042,-1.365538,66.703895
14.056,-0.005437,0.002659,0.013524,0.0,0.0,0.0,0.00083,-0.507853,0.0124,1.611049,-258.150042,-1.365538,66.703895
14.0761,-0.005198,0.001857,0.011505,0.0,0.0,0.0,0.00146,-0.507294,0.013524,1.611049,-258.150042,-1.365538,66.703895
14.0969,-0.005199,0.001776,0.013113,0.0,0.0,0.0,0.000736,-0.50804,0.011676,1.611049,-258.150042,-1.365538,66.703895
14.1169,-0.005355,0.0023,0.011501,0.0,0.0,0.0,0.000736,-0.50804,0.011676,1.611049,-258.150042,-1.365538,66.703895
14.1363,-0.005064,0.002267,0.013052,0.0,0.0,0.0,0.00051,-0.507666,0.011501,1.611049,-258.150042,-1.365538,66.703895
14.1561,-0.005206,0.002395,0.010956,0.0,0.0,0.0,0.000938,-0.507675,0.012115,1.611049,-258.150042,-1.365538,66.703895
14.176,-0.005406,0.002119,0.011191,0.0,0.0,0.0,0.000382,-0.507575,0.010956,1.611049,-258.150042,-1.365538,66.703895
14.1963,-0.005128,0.001674,0.011648,0.0,0.0,0.0,0.000309,-0.507824,0.01117,1.611049,-258.150042,-1.365538,66.703895
14.2165,-0.005344,0.002084,0.011078,0.0,0.0,0.0,0.000309,-0.507824,0.01117,1.611049,-258.150042,-1.365538,66.703895
14.2359,-0.005199,0.001871,0.011782,0.0,0.0,0.0,0.000306,-0.507884,0.011078,1.611049,-258.150042,-1.365538,66.703895
14.2559,-0.00522,0.001874,0.011189,0.0,0.0,0.0,0.000516,-0.507972,0.011372,1.611049,-258.150042,-1.365538,66.703895
14.2762,-0.005059,0.002061,0.012714,0.0,0.0,0.0,0.000486,-0.508094,0.011189,1.611049,-258.150042,-1.365538,66.703895
14.2965,-0.005123,0.002116,0.011574,0.0,0.0,0.0,0.001344,-0.507914,0.012583,1.611049,-258.150042,-1.365538,66.703895
14.3164,-0.005593,0.001955,0.011099,0.0,0.0,0.0,0.001344,-0.507914,0.012583,1.611049,-258.150042,-1.365538,66.703895
14.3359,-0.0051,0.002217,0.010987,0.0,0.0,0.0,6.7e-05,-0.508014,0.011099,1.611049,-258.150042,-1.365538,66.703895
14.3559,-0.00511,0.002372,0.011905,0.0,0.0,0.0,0.000244,-0.507908,0.011054,1.611049,-258.150042,-1.365538,66.703895
14.3758,-0.00539,0.002082,0.011352,0.0,0.0,0.0,0.000962,-0.507592,0.011905,1.611049,-258.150042,-1.365538,66.703895
14.3959,-0.00536,0.002104,0.012483,0.0,0.0,0.0,0.000446,-0.507861,0.011398,1.611049,-258.150042,-1.365538,66.703895
14.416,-0.005407,0.002289,0.012453,0.0,0.0,0.0,0.000446,-0.507861,0.011398,1.611049,-258.150042,-1.365538,66.703895
14.4364,-0.0053,0.002199,0.01145,0.0,0.0,0.0,0.000944,-0.507671,0.012453,1.611049,-258.150042,-1.365538,66.703895
14.4562,-0.005063,0.002408,0.013008,0.0,0.0,0.0,0.000777,-0.507711,0.01204,1.611049,-258.150042,-1.365538,66.703895
14.4758,-0.004996,0.001665,0.011761,0.0,0.0,0.0,0.001571,-0.507549,0.013008,1.611049,-258.150042,-1.365538,66.703895
14.4964,-0.005211,0.001961,0.010528,0.0,0.0,0.0,0.00105,-0.508237,0.011866,1.611049,-258.150042,-1.365538,66.703895
14.5163,-0.00526,0.002553,0.009976,0.0,0.0,0.0,0.00105,-0.508237,0.011866,1.611049,-258.150042,-1.365538,66.703895
14.5362,-0.00529,0.001853,0.011359,0.0,0.0,0.0,-0.000173,-0.507422,0.009976,1.611049,-258.150042,-1.365538,66.703895
14.5563,-0.005267,0.002007,0.012112,0.0,0.0,0.0,9.5e-05,-0.507696,0.010524,1.611049,-258.150042,-1.365538,66.703895
14.5758,-0.004984,0.002099,0.012465,0.0,0.0,0.0,0.00091,-0.507956,0.012112,1.611049,-258.150042,-1.365538,66.703895
14.5963,-0.005335,0.002489,0.011841,0.0,0.0,0.0,0.001335,-0.507869,0.012436,1.611049,-258.150042,-1.365538,66.703895
14.6161,-0.004898,0.001818,0.013168,0.0,0.0,0.0,0.001335,-0.507869,0.012436,1.611049,-258.150042,-1.365538,66.703895
14.6364,-0.005171,0.002171,0.011364,0.0,0.0,0.0,0.001817,-0.508137,0.013168,1.611049,-258.150042,-1.365538,66.703895
14.6561,-0.005437,0.002161,0.009792,0.0,0.0,0.0,0.001319,-0.507995,0.012414,1.611049,-258.150042,-1.365538,66.703895
14.6761,-0.005055,0.002252,0.01235,0.0,0.0,0.0,-0.000443,-0.507814,0.009792,1.611049,-258.150042,-1.365538,66.703895
14.6962,-0.005522,0.00201,0.012341,0.0,0.0,0.0,0.001101,-0.507718,0.012134,1.611049,-258.150042,-1.365538,66.703895
14.7159,-0.005335,0.001864,0.012489,0.0,0.0,0.0,0.001101,-0.507718,0.012134,1.611049,-258.150042,-1.365538,66.703895
14.7364,-0.005066,0.001941,0.013997,0.0,0.0,0.0,0.001034,-0.508097,0.012489,1.611049,-258.150042,-1.365538,66.703895
14.7565,-0.00538,0.00209,0.012129,0.0,0.0,0.0,0.001463,-0.50806,0.013111,1.611049,-258.150042,-1.365538,66.703895
14.7761,-0.005708,0.002047,0.011334,0.0,0.0,0.0,0.000806,-0.507873,0.012129,1.611049,-258.150042,-1.365538,66.703895
14.7964,-0.005215,0.001928,0.012299,0.0,0.0,0.0,0.000134,-0.507916,0.011401,1.611049,-258.150042,-1.365538,66.703895
14.8163,-0.00534,0.00227,0.013212,0.0,0.0,0.0,0.000134,-0.507916,0.011401,1.611049,-258.150042,-1.365538,66.703895
14.8363,-0.005045,0.002278,0.01176,0.0,0.0,0.0,0.001398,-0.507686,0.013212,1.611049,-258.150042,-1.365538,66.703895
14.8561,-0.005359,0.002357,0.011595,0.0,0.0,0.0,0.001216,-0.507686,0.01262,1.611049,-258.150042,-1.365538,66.703895
14.8762,-0.005253,0.002524,0.011979,0.0,0.0,0.0,0.000555,-0.507609,0.011595,1.611049,-258.150042,-1.365538,66.703895
14.8963,-0.005167,0.00218,0.011152,0.0,0.0,0.0,0.00083,-0.507454,0.011946,1.611049,-258.150042,-1.365538,66.703895
14.9163,-0.005623,0.002624,0.012136,0.0,0.0,0.0,0.00083,-0.507454,0.011946,1.611049,-258.150042,-1.365538,66.703895
14.9371,-0.005102,0.00204,0.01247,0.0,0.0,0.0,0.000566,-0.507339,0.012136,1.611049,-258.150042,-1.365538,66.703895
14.9565,-0.005069,0.002408,0.011535,0.0,0.0,0.0,0.000843,-0.507571,0.012269,1.611049,-258.150042,-1.365538,66.703895
14.9764,-0.005002,0.001913,0.011504,0.0,0.0,0.0,0.000814,-0.507558,0.011535,1.611049,-258.150042,-1.365538,66.703895
14.9964,-0.005445,0.00185,0.010984,0.0,0.0,0.0,0.00086,-0.508009,0.011506,1.611049,-258.150042,-1.365538,66.703895
15.0162,-0.005392,0.001912,0.012341,0.0,0.0,0.0,0.00086,-0.508009,0.011506,1.611049,-258.150042,-1.365538,66.703895
15.0362,-0.005055,0.00211,0.011396,0.0,0.0,0.0,0.000902,-0.508049,0.012341,1.611049,-258.150042,-1.365538,66.703895
15.0563,-0.005143,0.002039,0.01372,0.0,0.0,0.0,0.000842,-0.50797,0.011952,1.611049,-258.150042,-1.365538,66.703895
15.076,-0.00506,0.002033,0.011987,0.0,0.0,0.0,0.001854,-0.507913,0.01372,1.611049,-258.150042,-1.365538,66.703895
15.0964,-0.005323,0.002168,0.012176,0.0,0.0,0.0,0.001126,-0.507929,0.012143,1.611049,-258.150042,-1.365538,66.703895
15.1166,-0.005042,0.002485,0.011101,0.0,0.0,0.0,0.001126,-0.507929,0.012143,1.611049,-258.150042,-1.365538,66.703895
15.136,-0.005486,0.002108,0.011162,0.0,0.0,0.0,0.00062,-0.507483,0.011101,1.611049,-258.150042,-1.365538,66.703895
15.1562,-0.005021,0.002164,0.012252,0.0,0.0,0.0,0.000449,-0.507639,0.011126,1.611049,-258.150042,-1.365538,66.703895
15.1758,-0.005078,0.002331,0.012617,0.0,0.0,0.0,0.001227,-0.507798,0.012252,1.611049,-258.150042,-1.365538,66.703895
15.196,-0.005088,0.001989,0.01082,0.0,0.0,0.0,0.001345,-0.507644,0.012584,1.611049,-258.150042,-1.365538,66.703895
15.2163,-0.005757,0.002296,0.012387,0.0,0.0,0.0,0.001345,-0.507644,0.012584,1.611049,-258.150042,-1.365538,66.703895
15.2363,-0.005242,0.002186,0.012775,0.0,0.0,0.0,0.000561,-0.507665,0.012387,1.611049,-258.150042,-1.365538,66.703895
15.2567,-0.005131,0.002164,0.01099,0.0,0.0,0.0,0.000848,-0.507708,0.012544,1.611049,-258.150042,-1.365538,66.703895
15.2761,-0.005184,0.002135,0.013667,0.0,0.0,0.0,0.000474,-0.507805,0.01099,1.611049,-258.150042,-1.365538,66.703895
15.2963,-0.005211,0.002321,0.013287,0.0,0.0,0.0,0.001676,-0.507817,0.013443,1.611049,-258.150042,-1.365538,66.703895
