mach0312/omni-docking-bench/src/icros_test_setup/results/MPPI_sample/timeseries/trial_048.csv
t,x,y,yaw,vx,vy,wz,bl_x,bl_y,bl_yaw,front_steering_joint,front_wheel_joint,rear_steering_joint,rear_wheel_joint
0.0,-0.040847,-0.019512,0.036665,-0.000699,-0.011123,0.006063,-0.023257,-0.527984,0.034626,1.476896,-261.940289,1.523695,71.610991
0.0005,-0.041198,-0.019729,0.036041,-0.000259,-0.004116,0.002243,-0.023257,-0.527984,0.034626,1.476896,-261.943269,1.523695,71.605057
0.0009,-0.041407,-0.02029,0.036369,-0.000177,-0.002817,0.001536,-0.022502,-0.528389,0.035319,1.476896,-261.945806,1.523695,71.600003
0.0012,-0.040989,-0.020143,0.036354,-9.1e-05,-0.001444,0.000787,-0.022502,-0.528389,0.035319,1.476896,-261.947543,1.523695,71.596544
0.0015,-0.041233,-0.020214,0.03669,-0.0,-1e-06,0.0,-0.022502,-0.528389,0.035319,1.476896,-261.948647,1.523695,71.594345
0.0018,-0.040711,-0.020609,0.03502,0.0,0.0,0.0,-0.022163,-0.528746,0.036384,1.476896,-261.948648,1.523695,71.594345
0.0021,-0.041155,-0.019834,0.035317,0.0,0.0,0.0,-0.022343,-0.528821,0.036215,1.476896,-261.948648,1.523695,71.594345
0.0024,-0.040839,-0.020475,0.034747,0.0,0.0,0.0,-0.022343,-0.528821,0.036215,1.476896,-261.948648,1.523695,71.594345
0.0026,-0.041,-0.020438,0.034563,0.0,0.0,0.0,-0.02345,-0.529098,0.034868,1.476896,-261.948648,1.523695,71.594345
0.0029,-0.041029,-0.020021,0.036306,0.0,0.0,0.0,-0.02345,-0.529098,0.034868,1.476896,-261.948648,1.523695,71.594345
0.0169,-0.040965,-0.020522,0.036867,0.0,0.0,0.0,-0.022595,-0.529726,0.036148,1.476896,-261.948648,1.523695,71.594345
0.0369,-0.041252,-0.020032,0.037277,0.0,0.0,0.0,-0.022595,-0.529726,0.036148,1.476896,-261.948648,1.523695,71.594345
0.0572,-0.041007,-0.019999,0.035377,0.0,0.0,0.0,-0.022245,-0.529677,0.037277,1.476896,-261.948648,1.523695,71.594345
0.0775,-0.040681,-0.020053,0.036164,0.0,0.0,0.0,-0.022544,-0.529679,0.036492,1.476896,-261.948648,1.523695,71.594345
0.0972,-0.04103,-0.020349,0.035887,0.0,0.0,0.0,-0.022242,-0.529719,0.036164,1.476896,-261.948648,1.523695,71.594345
0.1173,-0.040995,-0.020077,0.036332,0.002895,0.003934,-0.002261,-0.022687,-0.529993,0.035912,1.476896,-261.948648,1.523695,71.594345
0.1375,-0.04118,-0.019721,0.036664,0.003144,0.004282,-0.002493,-0.022687,-0.529993,0.035912,1.476896,-261.948648,1.523695,71.594345
0.1573,-0.040997,-0.020267,0.034985,0.003352,0.004576,-0.00269,-0.022485,-0.529378,0.036664,1.476896,-261.948648,1.523695,71.594345
0.1773,-0.041032,-0.020109,0.035177,0.003535,0.004814,-0.002884,-0.022758,-0.529612,0.035984,1.476896,-261.948648,1.523695,71.594345
0.1972,-0.041173,-0.020058,0.037277,0.003689,0.005016,-0.003046,-0.023095,-0.529794,0.035177,1.401875,-261.948648,1.448674,71.594345
0.2172,-0.041154,-0.020312,0.03641,0.003812,0.005195,-0.003204,-0.022247,-0.529711,0.037095,1.401875,-261.948648,1.448674,71.594345
0.2371,-0.041364,-0.020171,0.0358,0.003917,0.005347,-0.003337,-0.022247,-0.529711,0.037095,1.401875,-261.948648,1.448674,71.594345
0.2573,-0.041214,-0.02002,0.035047,0.004005,0.005475,-0.003448,-0.02311,-0.529844,0.0358,1.326781,-261.948648,1.37358,71.594345
0.2774,-0.040825,-0.020458,0.036714,0.004091,0.005569,-0.003562,-0.023206,-0.529788,0.035492,1.326781,-261.948648,1.37358,71.594345
0.2974,-0.040929,-0.020367,0.036352,0.004164,0.005648,-0.003656,-0.022105,-0.530115,0.036714,1.251779,-261.948647,1.298577,71.594346
0.3173,-0.041069,-0.020121,0.034683,0.004212,0.005734,-0.003766,-0.022369,-0.530037,0.036383,1.251779,-261.948647,1.298577,71.594346
0.3374,-0.041296,-0.020173,0.036601,0.004252,0.005806,-0.003857,-0.022369,-0.530037,0.036383,1.251779,-261.948647,1.298577,71.594346
0.3571,-0.040842,-0.020283,0.037037,0.004285,0.005867,-0.003933,-0.022634,-0.529831,0.0366,1.17675,-261.948642,1.223548,71.594354
0.3774,-0.041304,-0.020255,0.035195,0.004318,0.005915,-0.003996,-0.02236,-0.529872,0.036777,1.17675,-261.948642,1.223548,71.594354
0.397,-0.041053,-0.020254,0.037693,0.004345,0.005956,-0.004049,-0.023357,-0.529936,0.035194,1.101876,-261.948615,1.148675,71.5944
0.4169,-0.040869,-0.019833,0.035192,0.004363,0.005997,-0.004092,-0.021971,-0.529896,0.037469,1.101876,-261.948615,1.148675,71.5944
0.4371,-0.041096,-0.020207,0.035864,0.004378,0.006032,-0.004127,-0.021971,-0.529896,0.037469,1.101876,-261.948615,1.148675,71.5944
0.4571,-0.04116,-0.019985,0.035767,0.004391,0.006062,-0.004157,-0.022802,-0.529866,0.035858,1.026879,-261.948509,1.094805,71.594581
0.477,-0.041043,-0.020098,0.035983,0.004416,0.006071,-0.004184,-0.02285,-0.52978,0.035821,1.026879,-261.948509,1.094805,71.594581
0.4972,-0.041065,-0.020077,0.036875,0.004436,0.006079,-0.004206,-0.022681,-0.529739,0.035969,0.95188,-261.948207,1.09877,71.595098
0.5173,-0.040838,-0.019693,0.036217,0.004447,0.006094,-0.004223,-0.0223,-0.52973,0.036793,0.95188,-261.948207,1.09877,71.595098
0.5376,-0.041385,-0.020289,0.036538,0.004457,0.006107,-0.004238,-0.0223,-0.52973,0.036793,0.95188,-261.948207,1.09877,71.595098
0.5571,-0.0405,-0.020272,0.037097,0.004465,0.006118,-0.00425,-0.022711,-0.529873,0.036497,0.876879,-261.947587,1.096835,71.596164
0.5775,-0.040921,-0.020128,0.036619,0.004469,0.006131,-0.00426,-0.022245,-0.529884,0.036738,0.876879,-261.947587,1.096835,71.596164
0.5968,-0.040958,-0.019936,0.037046,0.004472,0.006142,-0.004268,-0.022187,-0.529683,0.036559,0.801879,-261.946457,1.09726,71.598109
0.6178,-0.040789,-0.019809,0.037167,0.004477,0.006149,-0.004275,-0.022076,-0.529589,0.037004,0.801879,-261.946457,1.09726,71.598109
0.6371,-0.040482,-0.019927,0.03584,0.004481,0.006154,-0.004281,-0.022076,-0.529589,0.037004,0.801879,-261.946457,1.09726,71.598109
0.6571,-0.040656,-0.019836,0.03568,0.004485,0.006159,-0.004286,-0.022077,-0.529398,0.035713,0.72654,-261.944747,1.098272,71.601056
0.6771,-0.040912,-0.019527,0.035911,0.004493,0.006157,-0.004291,-0.022219,-0.529421,0.035685,0.72654,-261.944747,1.098272,71.601056
0.697,-0.040284,-0.019331,0.036815,0.0045,0.006156,-0.004295,-0.022473,-0.529007,0.035782,0.668355,-261.942582,1.098364,71.604791
0.717,-0.040233,-0.019199,0.03494,0.004504,0.006157,-0.00433,-0.021592,-0.528977,0.036716,0.668355,-261.942582,1.098364,71.604791
0.7375,-0.040263,-0.01935,0.036078,0.004508,0.006157,-0.004358,-0.021592,-0.528977,0.036716,0.668355,-261.942582,1.098364,71.604791
0.7576,-0.040299,-0.018785,0.035676,0.004511,0.006158,-0.004382,-0.021688,-0.528754,0.035898,0.665564,-261.940294,1.097124,71.608736
0.7775,-0.039943,-0.019298,0.036364,0.004523,0.006147,-0.004415,-0.021837,-0.528605,0.035788,0.665564,-261.940294,1.097124,71.608736
0.7968,-0.039839,-0.018737,0.036426,0.004533,0.006138,-0.004442,-0.021265,-0.528759,0.036224,0.657362,-261.938003,1.09871,71.612724
0.8174,-0.039429,-0.018828,0.034934,0.004537,0.006137,-0.004475,-0.02126,-0.528416,0.036405,0.657362,-261.938003,1.09871,71.612724
0.8374,-0.039909,-0.018689,0.034929,0.004541,0.006135,-0.004502,-0.02126,-0.528416,0.036405,0.657362,-261.938003,1.09871,71.612724
0.8577,-0.039457,-0.018206,0.032769,0.004544,0.006134,-0.004525,-0.02192,-0.528117,0.034745,0.647097,-261.935748,1.097467,71.61667
0.8773,-0.039549,-0.018628,0.035414,0.004566,0.006109,-0.004557,-0.022235,-0.528011,0.033921,0.647097,-261.935748,1.097467,71.61667
0.8972,-0.039236,-0.018012,0.035243,0.004584,0.006087,-0.004584,-0.021354,-0.528108,0.03527,0.638313,-261.933488,1.098659,71.620662
0.9171,-0.038778,-0.01813,0.035731,0.004592,0.00608,-0.004615,-0.021267,-0.527723,0.035238,0.638313,-261.933488,1.098659,71.620662
0.9369,-0.038989,-0.017923,0.035363,0.004599,0.006074,-0.00464,-0.021267,-0.527723,0.035238,0.638313,-261.933488,1.098659,71.620662
0.957,-0.038918,-0.017966,0.033809,0.004605,0.006068,-0.004662,-0.020775,-0.527344,0.035172,0.622196,-261.931241,1.09454,71.624644
0.9775,-0.038639,-0.017517,0.034402,0.004613,0.006061,-0.00469,-0.021124,-0.527449,0.034591,0.622196,-261.931241,1.09454,71.624644
0.9972,-0.038392,-0.017107,0.034184,0.004619,0.006054,-0.004713,-0.020958,-0.527018,0.034254,0.610373,-261.928998,1.093994,71.628649
1.0171,-0.038517,-0.017199,0.035126,0.004633,0.006038,-0.004743,-0.020953,-0.526818,0.034183,0.610373,-261.928998,1.093994,71.628649
1.0369,-0.038226,-0.017547,0.032844,0.004645,0.006024,-0.004767,-0.020953,-0.526818,0.034183,0.610373,-261.928998,1.093994,71.628649
1.0569,-0.037995,-0.017025,0.034217,0.004655,0.006013,-0.004787,-0.021294,-0.527013,0.032647,0.602345,-261.926758,1.093542,71.632668
1.077,-0.037797,-0.017272,0.035545,0.004663,0.006005,-0.004812,-0.020966,-0.526865,0.033271,0.602345,-261.926758,1.093542,71.632668
1.0969,-0.037606,-0.016711,0.034396,0.00467,0.005998,-0.004832,-0.019533,-0.526754,0.035393,0.585826,-261.924533,1.090533,71.63668
1.1172,-0.037741,-0.016888,0.033278,0.004669,0.006,-0.004854,-0.02001,-0.526432,0.034481,0.585826,-261.924533,1.090533,71.63668
1.1374,-0.037586,-0.016747,0.03276,0.00467,0.006001,-0.004873,-0.02001,-0.526432,0.034481,0.585826,-261.924533,1.090533,71.63668
1.1575,-0.037163,-0.016393,0.033601,0.00467,0.006002,-0.004888,-0.020694,-0.526216,0.032557,0.57809,-261.922292,1.089872,71.640737
1.1771,-0.037214,-0.016613,0.032751,0.00468,0.005989,-0.004906,-0.020397,-0.52614,0.032967,0.57809,-261.922292,1.089872,71.640737
1.1971,-0.037375,-0.016547,0.032717,0.004689,0.005979,-0.004921,-0.020373,-0.526145,0.032597,0.573564,-261.920082,1.091617,71.644763
1.2171,-0.036777,-0.01629,0.03226,0.004698,0.005968,-0.004936,-0.020655,-0.526252,0.032698,0.573564,-261.920082,1.091617,71.644763
1.2374,-0.037081,-0.016075,0.033021,0.004706,0.005959,-0.004947,-0.020655,-0.526252,0.032698,0.573564,-261.920082,1.091617,71.644763
1.2572,-0.036566,-0.015867,0.033128,0.004713,0.005951,-0.004957,-0.020055,-0.52554,0.032815,0.565051,-261.917864,1.089757,71.648812
1.2773,-0.036653,-0.015572,0.03269,0.004721,0.005942,-0.004966,-0.01988,-0.525529,0.032917,0.565051,-261.917864,1.089757,71.648812
1.2969,-0.035814,-0.015523,0.034019,0.004727,0.005934,-0.004974,-0.01984,-0.525105,0.032532,0.555238,-261.915645,1.087407,71.652869
1.3172,-0.035921,-0.015564,0.032426,0.004719,0.005946,-0.004979,-0.018579,-0.525208,0.033882,0.555238,-261.915645,1.087407,71.652869
1.3371,-0.035927,-0.015596,0.032857,0.004712,0.005956,-0.004984,-0.018579,-0.525208,0.033882,0.555238,-261.915645,1.087407,71.652869
1.3574,-0.036118,-0.015435,0.033298,0.004706,0.005964,-0.004988,-0.018984,-0.525067,0.032649,0.549728,-261.913432,1.085888,71.656917
1.3774,-0.036003,-0.015755,0.032532,0.00471,0.005959,-0.004994,-0.019026,-0.525072,0.032889,0.549728,-261.913432,1.085888,71.656917
1.3968,-0.03542,-0.014803,0.031789,0.004714,0.005954,-0.004999,-0.019271,-0.52529,0.032373,0.555076,-261.91122,1.089519,71.660979
1.4174,-0.035432,-0.014914,0.031637,0.004729,0.005934,-0.005006,-0.019208,-0.524603,0.031834,0.555076,-261.91122,1.089519,71.660979
1.4375,-0.035494,-0.014978,0.03153,0.004741,0.005918,-0.005011,-0.019208,-0.524603,0.031834,0.555076,-261.91122,1.089519,71.660979
1.4571,-0.035159,-0.014454,0.031992,0.004752,0.005905,-0.005015,-0.019226,-0.524468,0.03132,0.551651,-261.909006,1.088616,71.665045
1.4774,-0.035356,-0.014773,0.032668,0.004763,0.00589,-0.00502,-0.019053,-0.524329,0.031565,0.551651,-261.909006,1.088616,71.665045
1.4973,-0.034833,-0.014195,0.030903,0.004773,0.005877,-0.005024,-0.018553,-0.524307,0.032508,0.538973,-261.906798,1.083556,71.669093
1.5172,-0.034632,-0.014513,0.03086,0.004787,0.005857,-0.005028,-0.01902,-0.523974,0.03104,0.538973,-261.906798,1.083556,71.669093
1.5378,-0.034907,-0.01407,0.031245,0.0048,0.005841,-0.005032,-0.01902,-0.523974,0.03104,0.538973,-261.906798,1.083556,71.669093
1.5569,-0.03455,-0.013864,0.031474,0.00481,0.005828,-0.005034,-0.018782,-0.523569,0.031035,0.531892,-261.90457,1.080641,71.673172
1.5777,-0.03427,-0.013724,0.031015,0.004821,0.005813,-0.005037,-0.018641,-0.523558,0.031195,0.531892,-261.90457,1.080641,71.673172
1.5974,-0.034151,-0.013816,0.031221,0.004831,0.0058,-0.005039,-0.018309,-0.523291,0.030856,0.519886,-261.90237,1.075447,71.677188
1.6175,-0.033854,-0.013541,0.029751,0.004833,0.005798,-0.00504,-0.01823,-0.523534,0.031182,0.519886,-261.90237,1.075447,71.677188
1.6374,-0.033946,-0.013831,0.030796,0.004834,0.005796,-0.005041,-0.01823,-0.523534,0.031182,0.519886,-261.90237,1.075447,71.677188
1.6574,-0.033756,-0.013528,0.032184,0.004836,0.005795,-0.005042,-0.018048,-0.523341,0.030585,0.513161,-261.900158,1.072472,71.68122
1.6773,-0.033769,-0.013278,0.030376,0.004835,0.005797,-0.005043,-0.017741,-0.523281,0.031207,0.513161,-261.900158,1.072472,71.68122
1.6971,-0.033633,-0.01289,0.030703,0.004834,0.005799,-0.005043,-0.018131,-0.522853,0.030215,0.511611,-261.89794,1.07184,71.685262
1.7172,-0.03343,-0.013321,0.030349,0.004849,0.005776,-0.005047,-0.017983,-0.522658,0.03065,0.511611,-261.89794,1.07184,71.685262
1.7373,-0.033477,-0.013085,0.029384,0.004863,0.005757,-0.005049,-0.017983,-0.522658,0.03065,0.511611,-261.89794,1.07184,71.685262
1.7571,-0.03317,-0.012675,0.031908,0.004874,0.005741,-0.005051,-0.018298,-0.522616,0.029172,0.512384,-261.895721,1.072279,71.689306
1.7775,-0.033007,-0.01271,0.029871,0.004882,0.00573,-0.005053,-0.017707,-0.522506,0.03026,0.512384,-261.895721,1.072279,71.689306
1.7975,-0.032728,-0.012857,0.029679,0.004889,0.00572,-0.005054,-0.017626,-0.522296,0.029711,0.498941,-261.893505,1.066258,71.693332
1.8175,-0.03279,-0.01257,0.029571,0.00489,0.005719,-0.005054,-0.01759,-0.522595,0.029674,0.498941,-261.893505,1.066258,71.693332
1.8373,-0.03269,-0.012411,0.028745,0.004892,0.005717,-0.005053,-0.01759,-0.522595,0.029674,0.498941,-261.893505,1.066258,71.693332
1.8574,-0.032351,-0.012311,0.030293,0.004893,0.005716,-0.005053,-0.017835,-0.521955,0.028533,0.494183,-261.891285,1.064038,71.697359
1.8772,-0.032174,-0.012473,0.029853,0.004904,0.005699,-0.005055,-0.017432,-0.521977,0.029228,0.494183,-261.891285,1.064038,71.697359
1.8972,-0.03191,-0.011816,0.02931,0.004914,0.005684,-0.005057,-0.016801,-0.522059,0.029692,0.493172,-261.889067,1.06348,71.70138
1.9176,-0.031764,-0.011769,0.029327,0.004922,0.005672,-0.005058,-0.016942,-0.521629,0.029336,0.493172,-261.889067,1.06348,71.70138
1.9375,-0.031928,-0.01202,0.029824,0.004929,0.005662,-0.005059,-0.016942,-0.521629,0.029336,0.493172,-261.889067,1.06348,71.70138
1.9573,-0.031449,-0.011552,0.02959,0.004935,0.005654,-0.005059,-0.016521,-0.521549,0.029613,0.486014,-261.886843,1.060193,71.705404
1.9777,-0.03187,-0.011824,0.029649,0.004936,0.005653,-0.005058,-0.016433,-0.521431,0.029579,0.486014,-261.886843,1.060193,71.705404
1.9968,-0.031143,-0.011433,0.029699,0.004937,0.005652,-0.005058,-0.0166,-0.521415,0.029488,0.479234,-261.884623,1.056965,71.709412
2.0173,-0.03101,-0.011724,0.028534,0.004936,0.005653,-0.005058,-0.016045,-0.521218,0.029672,0.479234,-261.884623,1.056965,71.709412
2.0374,-0.031184,-0.011351,0.029754,0.004935,0.005654,-0.005057,-0.016045,-0.521218,0.029672,0.479234,-261.884623,1.056965,71.709412
2.0577,-0.030683,-0.010798,0.028166,0.004935,0.005655,-0.005057,-0.015812,-0.520881,0.029542,0.47875,-261.882395,1.056647,71.713433
2.0776,-0.030866,-0.011092,0.028114,0.004945,0.00564,-0.005059,-0.015994,-0.520738,0.028961,0.47875,-261.882395,1.056647,71.713433
2.0969,-0.03085,-0.010726,0.029138,0.004953,0.005627,-0.00506,-0.016377,-0.520706,0.027953,0.479539,-261.88017,1.05695,71.717448
2.1175,-0.030606,-0.011038,0.028537,0.004965,0.005608,-0.005062,-0.016018,-0.520517,0.029027,0.479539,-261.88017,1.05695,71.717448
2.1377,-0.030309,-0.011005,0.027516,0.004976,0.005591,-0.005063,-0.016018,-0.520517,0.029027,0.479539,-261.88017,1.05695,71.717448
2.1574,-0.030007,-0.010496,0.031212,0.004985,0.005578,-0.005064,-0.016077,-0.520571,0.027305,0.47335,-261.877946,1.054126,71.721455
2.1774,-0.030314,-0.010582,0.026921,0.004981,0.005584,-0.005062,-0.01524,-0.520411,0.028882,0.47335,-261.877946,1.054126,71.721455
2.1972,-0.030133,-0.010157,0.027629,0.004978,0.005589,-0.005061,-0.016433,-0.520216,0.026761,0.462538,-261.875726,1.049064,71.725442
2.2176,-0.029748,-0.010381,0.02822,0.004999,0.005554,-0.005065,-0.016072,-0.519976,0.027542,0.462538,-261.875726,1.049064,71.725442
2.2375,-0.030205,-0.010144,0.028119,0.005017,0.005526,-0.005067,-0.016072,-0.519976,0.027542,0.462538,-261.875726,1.049064,71.725442
2.2577,-0.029544,-0.009956,0.027476,0.005032,0.005502,-0.005069,-0.015664,-0.519703,0.027907,0.465066,-261.873496,1.050085,71.729449
2.2773,-0.029497,-0.009733,0.026881,0.005044,0.005484,-0.005069,-0.015588,-0.519699,0.027708,0.465066,-261.873496,1.050085,71.729449
2.2971,-0.029003,-0.009829,0.027525,0.005054,0.005469,-0.00507,-0.015635,-0.519371,0.026721,0.446115,-261.871283,1.041288,71.733401
2.3176,-0.028926,-0.009692,0.02813,0.005055,0.005469,-0.005068,-0.01502,-0.519602,0.027444,0.446115,-261.871283,1.041288,71.733401
2.3377,-0.029357,-0.009462,0.027592,0.005055,0.005468,-0.005067,-0.01502,-0.519602,0.027444,0.446115,-261.871283,1.041288,71.733401
2.3572,-0.028737,-0.009311,0.025909,0.005056,0.005467,-0.005066,-0.015081,-0.519033,0.02738,0.438996,-261.869049,1.037774,71.73738
2.3775,-0.028735,-0.009536,0.027479,0.005074,0.005437,-0.005069,-0.015239,-0.519049,0.026755,0.438996,-261.869049,1.037774,71.73738
2.3975,-0.028368,-0.009329,0.026268,0.005089,0.005413,-0.00507,-0.014566,-0.519166,0.027318,0.438875,-261.866817,1.037346,71.741354
2.4176,-0.028396,-0.009173,0.028607,0.005093,0.005405,-0.00507,-0.014928,-0.519145,0.026353,0.438875,-261.866817,1.037346,71.741354
2.4371,-0.028483,-0.00884,0.028276,0.005097,0.005399,-0.005069,-0.014928,-0.519145,0.026353,0.438875,-261.866817,1.037346,71.741354
2.4573,-0.027882,-0.008418,0.028221,0.005101,0.005395,-0.005068,-0.013858,-0.518404,0.028065,0.427096,-261.864588,1.031842,71.745307
2.4773,-0.027967,-0.008767,0.025712,0.005105,0.005386,-0.005068,-0.013686,-0.518301,0.028104,0.427096,-261.864588,1.031842,71.745307
2.497,-0.027562,-0.008653,0.02794,0.005109,0.005379,-0.005068,-0.014698,-0.518423,0.025551,0.42346,-261.86235,1.029797,71.749268
2.5173,-0.027034,-0.008855,0.027653,0.005103,0.005388,-0.005066,-0.01343,-0.518443,0.027718,0.42346,-261.86235,1.029797,71.749268
2.5374,-0.027482,-0.008282,0.027275,0.005098,0.005396,-0.005064,-0.01343,-0.518443,0.027718,0.42346,-261.86235,1.029797,71.749268
2.5576,-0.027431,-0.00822,0.027223,0.005094,0.005402,-0.005063,-0.013366,-0.517862,0.027063,0.42032,-261.860112,1.028244,71.753225
2.5774,-0.027214,-0.008284,0.027432,0.005105,0.005381,-0.005065,-0.013417,-0.517905,0.027104,0.42032,-261.860112,1.028244,71.753225
2.5971,-0.026776,-0.008102,0.025499,0.005115,0.005364,-0.005067,-0.013068,-0.517916,0.027271,0.425708,-261.857876,1.0306,71.757185
2.6171,-0.027043,-0.007945,0.027569,0.005127,0.005344,-0.005069,-0.013702,-0.517925,0.025649,0.425708,-261.857876,1.0306,71.757185
2.6374,-0.026676,-0.007853,0.027151,0.005136,0.005327,-0.00507,-0.013702,-0.517925,0.025649,0.425708,-261.857876,1.0306,71.757185
2.6576,-0.026274,-0.007603,0.025439,0.005145,0.005313,-0.00507,-0.012622,-0.517435,0.026939,0.4176,-261.855641,1.026932,71.761134
2.6778,-0.026394,-0.007643,0.026307,0.005151,0.0053,-0.005071,-0.012872,-0.51741,0.026311,0.4176,-261.855641,1.026932,71.761134
2.6973,-0.02594,-0.007462,0.027349,0.005157,0.00529,-0.005071,-0.012819,-0.517292,0.026144,0.406822,-261.853402,1.021816,71.765075
2.7174,-0.025844,-0.007326,0.024717,0.00515,0.0053,-0.005069,-0.012057,-0.517264,0.027237,0.406822,-261.853402,1.021816,71.765075
2.737,-0.026025,-0.007345,0.025864,0.005145,0.005308,-0.005067,-0.012057,-0.517264,0.027237,0.406822,-261.853402,1.021816,71.765075
2.757,-0.025543,-0.007209,0.026317,0.00514,0.005314,-0.005066,-0.012626,-0.516948,0.025652,0.402003,-261.851165,1.019496,71.769005
2.7776,-0.025657,-0.007023,0.025721,0.005152,0.005292,-0.005068,-0.012398,-0.516956,0.025897,0.402003,-261.851165,1.019496,71.769005
2.7971,-0.024997,-0.00713,0.025924,0.005162,0.005273,-0.00507,-0.012381,-0.51668,0.025559,0.407782,-261.848927,1.022104,71.772944
2.8171,-0.024948,-0.006921,0.025889,0.00516,0.005276,-0.005069,-0.011825,-0.516924,0.025882,0.407782,-261.848927,1.022104,71.772944
2.8372,-0.025346,-0.00671,0.026841,0.005158,0.005278,-0.005068,-0.011825,-0.516924,0.025882,0.407782,-261.848927,1.022104,71.772944
2.8571,-0.024923,-0.00671,0.025244,0.005156,0.00528,-0.005068,-0.011449,-0.516301,0.026629,0.398966,-261.846689,1.018111,71.776872
2.8775,-0.024742,-0.006445,0.023945,0.00517,0.005253,-0.005071,-0.011671,-0.516376,0.026039,0.398966,-261.846689,1.018111,71.776872
2.8974,-0.024301,-0.006321,0.02455,0.005181,0.005231,-0.005073,-0.012371,-0.516126,0.023783,0.400758,-261.844449,1.018904,71.780806
2.9172,-0.024661,-0.006322,0.022724,0.0052,0.005195,-0.005077,-0.011827,-0.516155,0.024473,0.400758,-261.844449,1.018904,71.780806
2.9369,-0.024403,-0.006314,0.023741,0.005216,0.005166,-0.005079,-0.011827,-0.516155,0.024473,0.400758,-261.844449,1.018904,71.780806
2.9575,-0.024165,-0.005749,0.023598,0.005229,0.005142,-0.00508,-0.012085,-0.515946,0.023529,0.390494,-261.842213,1.014311,71.784721
2.9769,-0.023962,-0.005771,0.02375,0.005255,0.00509,-0.005085,-0.01208,-0.515783,0.023532,0.390494,-261.842213,1.014311,71.784721
2.9973,-0.023825,-0.005687,0.024823,0.005277,0.005048,-0.005088,-0.011689,-0.51546,0.023589,0.371816,-261.839983,1.005607,71.7886
3.0175,-0.023775,-0.005363,0.024504,0.005288,0.005024,-0.005088,-0.011206,-0.515515,0.024704,0.371816,-261.839983,1.005607,71.7886
3.0375,-0.024023,-0.005735,0.023083,0.005298,0.005004,-0.005088,-0.011206,-0.515515,0.024704,0.371816,-261.839983,1.005607,71.7886
3.0577,-0.023572,-0.005478,0.023361,0.005306,0.004988,-0.005087,-0.012037,-0.515384,0.022872,0.352358,-261.83775,0.996509,71.792457
3.0776,-0.02331,-0.005558,0.024489,0.005329,0.004942,-0.005091,-0.011859,-0.515341,0.023046,0.352358,-261.83775,0.996509,71.792457
3.0971,-0.022791,-0.00511,0.022522,0.005347,0.004904,-0.005092,-0.010658,-0.515243,0.024328,0.340696,-261.835501,0.990606,71.796323
3.1175,-0.022965,-0.005392,0.024394,0.005363,0.004869,-0.005094,-0.011243,-0.514995,0.022668,0.340696,-261.835501,0.990606,71.796323
3.1376,-0.02292,-0.004995,0.024328,0.005377,0.004841,-0.005094,-0.011243,-0.514995,0.022668,0.340696,-261.835501,0.990606,71.796323
3.1574,-0.022555,-0.005266,0.022482,0.005388,0.004817,-0.005093,-0.010296,-0.514634,0.024115,0.323652,-261.833257,0.982383,71.800156
3.1777,-0.022496,-0.004783,0.023953,0.005391,0.004807,-0.005092,-0.010591,-0.514813,0.023433,0.323652,-261.833257,0.982383,71.800156
3.1971,-0.0225,-0.005033,0.023981,0.005394,0.004798,-0.00509,-0.010114,-0.51448,0.023791,0.306715,-261.83101,0.973898,71.803968
3.2177,-0.02223,-0.00494,0.023147,0.005389,0.004807,-0.005086,-0.010249,-0.514843,0.023956,0.306715,-261.83101,0.973898,71.803968
3.2379,-0.021845,-0.004934,0.02239,0.005385,0.004813,-0.005083,-0.010249,-0.514843,0.023956,0.306715,-261.83101,0.973898,71.803968
3.2574,-0.021797,-0.004466,0.023085,0.005381,0.004818,-0.005081,-0.010206,-0.5146,0.022177,0.303577,-261.82875,0.972092,71.807796
3.2775,-0.022024,-0.004294,0.023119,0.005388,0.004798,-0.005083,-0.010106,-0.514466,0.022524,0.303577,-261.82875,0.972092,71.807796
3.2974,-0.021369,-0.004296,0.023554,0.005393,0.004782,-0.005083,-0.010067,-0.514001,0.022958,0.308538,-261.826495,0.974112,71.811619
3.3175,-0.021469,-0.004207,0.022973,0.005395,0.004767,-0.005085,-0.009411,-0.514133,0.023493,0.308538,-261.826495,0.974112,71.811619
3.3373,-0.021601,-0.004225,0.021561,0.005397,0.004755,-0.005085,-0.009411,-0.514133,0.023493,0.308538,-261.826495,0.974112,71.811619
3.3573,-0.021059,-0.0042,0.021729,0.005399,0.004745,-0.005085,-0.010384,-0.513901,0.021348,0.301557,-261.824235,0.971019,71.815443
3.3777,-0.021097,-0.004112,0.022848,0.005421,0.004691,-0.005091,-0.010193,-0.51395,0.021479,0.301557,-261.824235,0.971019,71.815443
3.3968,-0.020778,-0.003648,0.022763,0.005439,0.004648,-0.005094,-0.009278,-0.513825,0.022686,0.294701,-261.821983,0.968378,71.819245
3.4174,-0.020615,-0.004045,0.02064,0.00545,0.004612,-0.005097,-0.009171,-0.513535,0.022748,0.294701,-261.821983,0.968378,71.819245
3.4375,-0.02078,-0.003746,0.019521,0.005458,0.004582,-0.005098,-0.009171,-0.513535,0.022748,0.294701,-261.821983,0.968378,71.819245
3.4571,-0.020358,-0.003615,0.022137,0.005465,0.004558,-0.005099,-0.010602,-0.513451,0.01931,0.275395,-261.819735,0.959426,71.823014
3.4773,-0.020462,-0.003752,0.022402,0.005487,0.004503,-0.005103,-0.009951,-0.513444,0.020437,0.275395,-261.819735,0.959426,71.823014
3.4971,-0.019825,-0.003143,0.022187,0.005506,0.004458,-0.005104,-0.008868,-0.513476,0.02224,0.258338,-261.817487,0.951849,71.826761
3.5176,-0.019916,-0.003165,0.022121,0.005508,0.004434,-0.005105,-0.008533,-0.51305,0.022184,0.258338,-261.817487,0.951849,71.826761
3.5378,-0.019501,-0.003008,0.021548,0.005509,0.004414,-0.005105,-0.008533,-0.51305,0.022184,0.258338,-261.817487,0.951849,71.826761
3.5569,-0.019471,-0.002882,0.020389,0.00551,0.004397,-0.005104,-0.008288,-0.5127,0.021337,0.238809,-261.81524,0.942306,71.830473
3.5773,-0.019226,-0.002825,0.022828,0.005523,0.004344,-0.005108,-0.008584,-0.512709,0.020924,0.238809,-261.81524,0.942306,71.830473
3.5974,-0.019338,-0.00286,0.020585,0.005534,0.004301,-0.00511,-0.007413,-0.512549,0.022666,0.228274,-261.812982,0.938087,71.834192
3.6172,-0.018785,-0.003016,0.021718,0.005545,0.004264,-0.00511,-0.008703,-0.512726,0.020763,0.228274,-261.812982,0.938087,71.834192
3.6373,-0.019036,-0.002778,0.021331,0.005554,0.004234,-0.00511,-0.008703,-0.512726,0.020763,0.228274,-261.812982,0.938087,71.834192
3.6578,-0.018518,-0.002612,0.020272,0.005561,0.00421,-0.005108,-0.007932,-0.512478,0.021119,0.210136,-261.810733,0.930061,71.837872
3.6775,-0.018864,-0.00248,0.021596,0.00556,0.004187,-0.005108,-0.008007,-0.512469,0.020748,0.210136,-261.810733,0.930061,71.837872
3.6976,-0.018173,-0.002258,0.020582,0.005559,0.004168,-0.005107,-0.007678,-0.512224,0.021434,0.19353,-261.808476,0.921769,71.841538
3.7177,-0.018299,-0.002097,0.020068,0.005559,0.004124,-0.005109,-0.007668,-0.512149,0.020649,0.19353,-261.808476,0.921769,71.841538
3.7376,-0.018322,-0.002542,0.019965,0.00556,0.004089,-0.005109,-0.007668,-0.512149,0.020649,0.19353,-261.808476,0.921769,71.841538
3.7574,-0.018004,-0.002164,0.020546,0.00556,0.00406,-0.005109,-0.007912,-0.512261,0.019752,0.186535,-261.806214,0.919133,71.845202
3.7775,-0.017833,-0.001827,0.020015,0.005561,0.004037,-0.005107,-0.007727,-0.512156,0.020055,0.186535,-261.806214,0.919133,71.845202
3.7976,-0.017359,-0.002402,0.019209,0.005562,0.004018,-0.005105,-0.007453,-0.511594,0.019854,0.167561,-261.803974,0.911936,71.848809
3.8178,-0.017456,-0.002048,0.019821,0.005555,0.004023,-0.0051,-0.007545,-0.512241,0.019256,0.167561,-261.803974,0.911936,71.848809
3.8376,-0.017383,-0.001996,0.021271,0.005548,0.004026,-0.005095,-0.007545,-0.512241,0.019256,0.167561,-261.803974,0.911936,71.848809
3.8575,-0.017074,-0.002028,0.021278,0.005543,0.004028,-0.005092,-0.006307,-0.511708,0.021058,0.160443,-261.801726,0.908721,71.852419
3.8776,-0.016778,-0.001549,0.01954,0.005499,0.004014,-0.005092,-0.006247,-0.511772,0.021123,0.160443,-261.801726,0.908721,71.852419
3.8975,-0.01659,-0.001703,0.020393,0.005463,0.004001,-0.005091,-0.00664,-0.511321,0.019378,0.164213,-261.799479,0.910503,71.856034
3.9177,-0.01616,-0.001156,0.02016,0.005438,0.003957,-0.005094,-0.006221,-0.511566,0.020295,0.164213,-261.799479,0.910503,71.856034
3.9375,-0.016428,-0.001486,0.020775,0.005417,0.003922,-0.005094,-0.006221,-0.511566,0.020295,0.164213,-261.799479,0.910503,71.856034
3.957,-0.0164,-0.001522,0.018917,0.0054,0.003894,-0.005093,-0.005608,-0.511204,0.020562,0.161808,-261.797263,0.915683,71.859623
3.9771,-0.016021,-0.001427,0.018753,0.005382,0.003827,-0.005097,-0.00605,-0.511277,0.019865,0.161808,-261.797263,0.915683,71.859623
3.9977,-0.01574,-0.000935,0.017959,0.005368,0.003773,-0.005099,-0.006288,-0.511211,0.018592,0.144104,-261.795095,0.914069,71.863138
4.0176,-0.015558,-0.001138,0.016978,0.005389,0.003647,-0.005105,-0.006546,-0.510878,0.018008,0.144104,-261.795095,0.914069,71.863138
4.0374,-0.015726,-0.001224,0.019943,0.005407,0.003547,-0.005108,-0.006546,-0.510878,0.018008,0.144104,-261.795095,0.914069,71.863138
4.0573,-0.015431,-0.001234,0.018997,0.005422,0.003468,-0.005106,-0.005337,-0.510962,0.019732,0.122243,-261.792949,0.908748,71.866603
4.0774,-0.015477,-0.000894,0.01739,0.005363,0.003464,-0.005099,-0.005478,-0.511017,0.019406,0.122243,-261.792949,0.908748,71.866603
4.0972,-0.015363,-0.000737,0.017999,0.005315,0.00346,-0.005092,-0.006448,-0.51071,0.017238,0.064387,-261.790912,0.882116,71.869801
4.1172,-0.015086,-0.000945,0.019695,0.00533,0.003367,-0.005093,-0.0062,-0.510654,0.017924,0.064387,-261.790912,0.882116,71.869801
4.1377,-0.014969,-0.000852,0.018214,0.005343,0.003293,-0.005091,-0.0062,-0.510654,0.017924,0.064387,-261.790912,0.882116,71.869801
4.1571,-0.014845,-0.000389,0.0186,0.005353,0.003236,-0.005087,-0.005461,-0.510619,0.018001,0.065793,-261.788784,0.890636,71.873177
4.1774,-0.014626,-0.000768,0.018715,0.005305,0.003171,-0.005086,-0.005394,-0.510472,0.01822,0.065793,-261.788784,0.890636,71.873177
4.1974,-0.014008,-0.000321,0.017519,0.005267,0.003121,-0.005083,-0.004919,-0.510576,0.018558,0.024048,-261.786716,0.869764,71.876382
4.2174,-0.014064,-0.000541,0.018679,0.005203,0.003043,-0.005082,-0.005051,-0.510268,0.017605,0.024048,-261.786716,0.869764,71.876382
4.2375,-0.014168,-0.000241,0.016151,0.005151,0.002982,-0.005078,-0.005051,-0.510268,0.017605,0.024048,-261.786716,0.869764,71.876382
4.2574,-0.014062,-0.000202,0.019613,0.005111,0.002934,-0.005072,-0.005714,-0.510041,0.015939,0.003136,-261.78461,0.86859,71.879642
4.2771,-0.013893,-0.000484,0.016931,0.00507,0.002849,-0.005071,-0.004996,-0.510052,0.017454,0.003136,-261.78461,0.86859,71.879642
4.2968,-0.01309,-7.1e-05,0.015251,0.005038,0.002783,-0.005067,-0.005103,-0.510318,0.016774,-0.031968,-261.782618,0.867875,71.882723
4.317,-0.013171,-0.000126,0.016718,0.005044,0.002726,-0.005052,-0.005285,-0.510035,0.015382,-0.031968,-261.782618,0.867875,71.882723
4.3374,-0.013725,-0.000124,0.016806,0.005049,0.002682,-0.005038,-0.005285,-0.510035,0.015382,-0.031968,-261.782618,0.867875,71.882723
4.3574,-0.013141,2.2e-05,0.018744,0.005053,0.002647,-0.005025,-0.004948,-0.509934,0.016597,-0.061824,-261.780628,0.862072,71.885774
4.3775,-0.013282,-0.000181,0.017359,0.004946,0.002594,-0.005031,-0.004373,-0.509902,0.017439,-0.061824,-261.780628,0.862072,71.885774
4.3971,-0.012778,9.7e-05,0.016371,0.004862,0.002553,-0.005032,-0.004271,-0.510018,0.017201,-0.083345,-261.778622,0.846905,71.888792
4.4171,-0.012602,0.000109,0.018258,0.004802,0.002509,-0.005029,-0.004406,-0.509847,0.016438,-0.083345,-261.778622,0.846905,71.888792
4.4371,-0.012581,0.000225,0.016651,0.004754,0.002474,-0.005023,-0.004406,-0.509847,0.016438,-0.083345,-261.778622,0.846905,71.888792
4.4575,-0.012672,3.6e-05,0.017481,0.004717,0.002446,-0.005016,-0.00389,-0.509595,0.016442,-0.106673,-261.776687,0.85811,71.891735
4.4769,-0.012263,0.000465,0.018148,0.004592,0.002388,-0.005025,-0.003813,-0.5097,0.016837,-0.106673,-261.776687,0.85811,71.891735
4.4971,-0.011791,0.000494,0.016585,0.004495,0.002343,-0.005027,-0.002861,-0.509371,0.01799,-0.130211,-261.774802,0.862768,71.894609
4.5175,-0.011841,0.000474,0.0146,0.004309,0.002228,-0.005049,-0.003283,-0.509426,0.016703,-0.130211,-261.774802,0.862768,71.894609
4.5373,-0.012029,0.000102,0.016399,0.004167,0.00214,-0.00506,-0.003283,-0.509426,0.016703,-0.130211,-261.774802,0.862768,71.894609
4.5574,-0.011514,0.000427,0.016637,0.004059,0.002072,-0.005064,-0.003483,-0.50973,0.016192,-0.160543,-261.773014,0.877849,71.897372
4.5775,-0.011761,0.00052,0.01627,0.003984,0.00208,-0.005052,-0.003278,-0.509626,0.016349,-0.160543,-261.773014,0.877849,71.897372
4.597,-0.011603,0.000949,0.015606,0.003926,0.002084,-0.005042,-0.003351,-0.509352,0.016129,-0.235532,-261.77154,0.904706,71.899685
4.617,-0.011384,0.000782,0.017,0.003919,0.001927,-0.005048,-0.003614,-0.509017,0.015644,-0.235532,-261.77154,0.904706,71.899685
4.6368,-0.01123,0.000954,0.016612,0.003915,0.001806,-0.005048,-0.003614,-0.509017,0.015644,-0.235532,-261.77154,0.904706,71.899685
4.657,-0.011284,0.001035,0.016776,0.003913,0.001712,-0.005045,-0.002597,-0.508887,0.016403,-0.248301,-261.769931,0.920737,71.902263
4.6772,-0.011338,0.000457,0.016247,0.003697,0.001574,-0.005068,-0.002632,-0.508879,0.016533,-0.248301,-261.769931,0.920737,71.902263
4.6972,-0.010586,0.000822,0.015182,0.003534,0.00147,-0.005081,-0.002945,-0.509426,0.016109,-0.323315,-261.768497,0.886233,71.904403
4.7173,-0.010294,0.001006,0.013672,0.003478,0.001476,-0.005063,-0.002847,-0.509144,0.015259,-0.323315,-261.768497,0.886233,71.904403
4.7376,-0.010845,0.001013,0.016747,0.003435,0.001479,-0.005047,-0.002847,-0.509144,0.015259,-0.323315,-261.768497,0.886233,71.904403
4.7573,-0.010426,0.001274,0.016025,0.003402,0.00148,-0.005034,-0.002183,-0.508861,0.016575,-0.398167,-261.767227,0.912855,71.906288
4.7774,-0.010638,0.000423,0.016427,0.003196,0.001353,-0.005053,-0.002198,-0.508775,0.016336,-0.398167,-261.767227,0.912855,71.906288
4.7968,-0.010277,0.001115,0.014597,0.00304,0.001257,-0.005063,-0.002156,-0.509461,0.016272,-0.438414,-261.765759,0.92929,71.908509
4.8172,-0.010335,0.001369,0.014928,0.003074,0.001233,-0.005038,-0.00278,-0.508874,0.01471,-0.438414,-261.765759,0.92929,71.908509
4.8375,-0.010329,0.00083,0.014903,0.0031,0.001214,-0.005018,-0.00278,-0.508874,0.01471,-0.438414,-261.765759,0.92929,71.908509
4.8574,-0.009691,0.001066,0.015139,0.00312,0.001199,-0.005001,-0.002624,-0.509067,0.014733,-0.513932,-261.764595,0.960706,71.910249
4.8775,-0.010091,0.001272,0.0163,0.00304,0.001208,-0.004993,-0.002345,-0.508983,0.014879,-0.513932,-261.764595,0.960706,71.910249
4.897,-0.009636,0.001193,0.015759,0.002979,0.001213,-0.004985,-0.001682,-0.508621,0.016144,-0.536577,-261.763164,0.937891,71.912328
4.9173,-0.009555,0.001309,0.015081,0.002709,0.001121,-0.005009,-0.001601,-0.508731,0.015784,-0.536577,-261.763164,0.937891,71.912328
4.9373,-0.009625,0.000918,0.014017,0.002505,0.001049,-0.005023,-0.001601,-0.508731,0.015784,-0.536577,-261.763164,0.937891,71.912328
4.957,-0.009311,0.001337,0.014001,0.002351,0.000992,-0.00503,-0.002354,-0.508981,0.013811,-0.551156,-261.761782,0.960342,71.914382
4.9772,-0.009085,0.001343,0.014203,0.002429,0.000999,-0.004989,-0.002264,-0.508823,0.013866,-0.551156,-261.761782,0.960342,71.914382
4.9971,-0.009268,0.000989,0.015073,0.002487,0.001002,-0.004957,-0.001799,-0.508586,0.014119,-0.626162,-261.761095,1.035348,71.91541
5.0173,-0.009005,0.000887,0.014737,0.002354,0.001017,-0.004958,-0.001598,-0.508919,0.014983,-0.626162,-261.761095,1.035348,71.91541
5.0371,-0.009381,0.001222,0.013496,0.002253,0.001026,-0.004957,-0.001598,-0.508919,0.014983,-0.626162,-261.761095,1.035348,71.91541
5.057,-0.00916,0.001505,0.015662,0.002176,0.001031,-0.004955,-0.002401,-0.508691,0.0133,-0.683297,-261.759881,1.017748,71.917201
5.077,-0.009038,0.001373,0.014032,0.002183,0.000943,-0.004947,-0.001882,-0.508579,0.014253,-0.683297,-261.759881,1.017748,71.917201
5.0971,-0.009208,0.001247,0.014697,0.002189,0.000876,-0.004938,-0.00182,-0.508546,0.013892,-0.742074,-261.758823,1.078598,71.918851
5.1176,-0.009258,0.001471,0.014214,0.002155,0.000852,-0.004934,-0.001718,-0.508685,0.014632,-0.742074,-261.758823,1.078598,71.918851
5.1374,-0.008641,0.001862,0.012965,0.002129,0.000833,-0.00493,-0.001718,-0.508685,0.014632,-0.742074,-261.758823,1.078598,71.918851
5.1573,-0.008829,0.001291,0.014729,0.002109,0.000818,-0.004926,-0.00194,-0.508058,0.012764,-0.774013,-261.757634,1.058541,71.920586
5.1778,-0.00864,0.001076,0.0141,0.002065,0.000695,-0.004912,-0.001677,-0.508296,0.013539,-0.774013,-261.757634,1.058541,71.920586
5.1972,-0.008577,0.001004,0.013021,0.002031,0.000601,-0.004897,-0.001383,-0.508846,0.013946,-0.804351,-261.756437,1.067145,71.922306
5.2174,-0.008381,0.001195,0.013869,0.002105,0.000728,-0.004842,-0.001883,-0.508941,0.013096,-0.804351,-261.756437,1.067145,71.922306
5.2372,-0.008308,0.001353,0.014146,0.002161,0.000822,-0.004803,-0.001883,-0.508941,0.013096,-0.804351,-261.756437,1.067145,71.922306
5.2571,-0.008062,0.001503,0.014281,0.002202,0.000893,-0.004774,-0.001014,-0.508571,0.013953,-0.866308,-261.75526,1.056147,71.923855
5.2772,-0.00822,0.001316,0.014892,0.001907,0.000808,-0.00482,-0.00091,-0.508517,0.014064,-0.866308,-261.75526,1.056147,71.923855
5.297,-0.00805,0.001516,0.012488,0.001684,0.000742,-0.004851,-0.000572,-0.508606,0.01477,-0.791319,-261.754324,1.046597,71.925233
5.3175,-0.007983,0.002035,0.012949,0.001731,0.000692,-0.004812,-0.001577,-0.508458,0.01269,-0.791319,-261.754324,1.046597,71.925233
5.3374,-0.007681,0.00159,0.012448,0.001766,0.000654,-0.004781,-0.001577,-0.508458,0.01269,-0.791319,-261.754324,1.046597,71.925233
5.3573,-0.008028,0.001662,0.01321,0.001793,0.000624,-0.004756,-0.001284,-0.508349,0.012318,-0.866321,-261.753595,1.121599,71.926297
5.3777,-0.008027,0.002033,0.012933,0.001719,0.000553,-0.004744,-0.001281,-0.508324,0.012669,-0.866321,-261.753595,1.121599,71.926297
5.3968,-0.007674,0.001661,0.012022,0.001663,0.000499,-0.004731,-0.001376,-0.507904,0.012786,-0.904491,-261.752467,1.100668,71.927836
5.4175,-0.007789,0.001301,0.013112,0.001695,0.000451,-0.004688,-0.001526,-0.508268,0.012078,-0.904491,-261.752467,1.100668,71.927836
5.4376,-0.007839,0.001302,0.012943,0.001718,0.000414,-0.004654,-0.001526,-0.508268,0.012078,-0.904491,-261.752467,1.100668,71.927836
5.4574,-0.007493,0.001347,0.010478,0.001736,0.000386,-0.004626,-0.001173,-0.508635,0.012757,-0.962993,-261.751367,1.114546,71.929262
5.4778,-0.007491,0.00132,0.011554,0.001787,0.00047,-0.004575,-0.001571,-0.508628,0.01179,-0.962993,-261.751367,1.114546,71.929262
5.497,-0.007491,0.00141,0.013461,0.001825,0.000533,-0.004536,-0.001545,-0.508633,0.011411,-0.952292,-261.750202,1.075103,71.930681
5.5176,-0.006816,0.001553,0.012551,0.001558,0.000537,-0.004601,-0.000702,-0.508551,0.013281,-0.952292,-261.750202,1.075103,71.930681
5.5375,-0.007014,0.001191,0.014236,0.001355,0.000538,-0.004649,-0.000702,-0.508551,0.013281,-0.952292,-261.750202,1.075103,71.930681
5.5576,-0.007166,0.001549,0.012043,0.001201,0.000538,-0.004686,0.000317,-0.508735,0.01406,-0.886574,-261.749126,1.066083,71.932089
5.5774,-0.00703,0.001813,0.012043,0.000915,0.000553,-0.004723,-0.000222,-0.508601,0.013216,-0.886574,-261.749126,1.066083,71.932089
5.597,-0.007188,0.001441,0.011489,0.000696,0.000562,-0.00475,-0.000872,-0.508144,0.011998,-0.961571,-261.748789,1.14108,71.932553
5.6174,-0.007209,0.001524,0.011342,0.000895,0.000551,-0.004658,-0.001287,-0.508491,0.011532,-0.961571,-261.748789,1.14108,71.932553
5.6376,-0.006944,0.001842,0.012449,0.001046,0.000542,-0.004588,-0.001287,-0.508491,0.011532,-0.961571,-261.748789,1.14108,71.932553
5.657,-0.007054,0.001519,0.011239,0.001162,0.000534,-0.004535,-0.000591,-0.508117,0.012434,-1.036407,-261.748711,1.215916,71.932665
5.6769,-0.007231,0.00166,0.010602,0.001114,0.000449,-0.004526,-0.000893,-0.508254,0.011938,-1.036407,-261.748711,1.215916,71.932665
5.697,-0.006896,0.001846,0.012628,0.001078,0.000385,-0.004515,-0.001789,-0.508294,0.010465,-1.091544,-261.747756,1.232687,71.933994
5.7175,-0.006975,0.001836,0.013874,0.000938,0.000296,-0.004539,-0.000568,-0.508128,0.012437,-1.091544,-261.747756,1.232687,71.933994
5.7373,-0.006908,0.001614,0.012113,0.000831,0.000228,-0.004554,-0.000568,-0.508128,0.012437,-1.091544,-261.747756,1.232687,71.933994
5.7569,-0.006624,0.001596,0.010729,0.000749,0.000176,-0.004562,-0.000688,-0.508332,0.011932,-1.144429,-261.74676,1.240334,71.935262
5.7782,-0.006486,0.0016,0.011343,0.000804,0.000204,-0.004498,-0.000874,-0.508348,0.011417,-1.144429,-261.74676,1.240334,71.935262
5.797,-0.006265,0.001437,0.011844,0.000845,0.000224,-0.004449,-0.000683,-0.508363,0.011251,-1.219425,-261.746073,1.315331,71.936036
5.8175,-0.00646,0.001641,0.011576,0.000669,0.000281,-0.004447,-0.000266,-0.508512,0.011784,-1.219425,-261.746073,1.315331,71.936036
5.8375,-0.006585,0.001895,0.012562,0.000535,0.000323,-0.004443,-0.000266,-0.508512,0.011784,-1.219425,-261.746073,1.315331,71.936036
5.8577,-0.006473,0.001796,0.011201,0.000432,0.000352,-0.004438,-0.000143,-0.508055,0.012379,-1.244147,-261.745038,1.291083,71.937239
5.8775,-0.006533,0.001557,0.010321,0.000384,0.000256,-0.004447,-0.000386,-0.508101,0.011888,-1.244147,-261.745038,1.291083,71.937239
5.8969,-0.006386,0.001773,0.011042,0.000347,0.000183,-0.004451,-0.001259,-0.50841,0.010249,-1.319245,-261.74454,1.366181,71.937881
5.9172,-0.006514,0.001455,0.011547,0.000483,0.000167,-0.004375,-0.000802,-0.508215,0.010964,-1.319245,-261.74454,1.366181,71.937881
5.9374,-0.006528,0.002034,0.011453,0.000585,0.000155,-0.004316,-0.000802,-0.508215,0.010964,-1.319245,-261.74454,1.366181,71.937881
5.9569,-0.006571,0.001912,0.012015,0.000663,0.000145,-0.004271,-0.000675,-0.507927,0.01132,-1.394168,-261.743805,1.441104,71.93872
5.9772,-0.006233,0.001779,0.00926,0.000637,6.8e-05,-0.004287,-0.000579,-0.507977,0.011587,-1.394168,-261.743805,1.441104,71.93872
5.9974,-0.006207,0.001868,0.00997,0.000617,1.1e-05,-0.004297,-0.001496,-0.508195,0.009159,-1.319169,-261.74305,1.366105,71.939558
6.0175,-0.00584,0.002029,0.009632,0.000797,1.9e-05,-0.004149,-0.001155,-0.508114,0.009892,-1.319169,-261.74305,1.366105,71.939558
6.0372,-0.005878,0.002077,0.009392,0.000934,2.5e-05,-0.004038,-0.001155,-0.508114,0.009892,-1.319169,-261.74305,1.366105,71.939558
6.0571,-0.006127,0.001744,0.010034,0.001038,3e-05,-0.003955,-0.001063,-0.5079,0.009215,-1.338825,-261.741994,1.34062,71.940623
6.0773,-0.006457,0.00166,0.010391,0.00108,7e-06,-0.003858,-0.001039,-0.508034,0.009527,-1.338825,-261.741994,1.34062,71.940623
6.0971,-0.006049,0.001537,0.011881,0.001112,-9e-06,-0.003786,-0.001148,-0.508312,0.010342,-1.263829,-261.741605,1.265624,71.94102
6.1171,-0.006248,0.001537,0.010594,0.000818,7.8e-05,-0.003915,-9.4e-05,-0.508416,0.011739,-1.263829,-261.741605,1.265624,71.94102
6.1374,-0.005922,0.001553,0.010872,0.000596,0.000141,-0.004016,-9.4e-05,-0.508416,0.011739,-1.263829,-261.741605,1.265624,71.94102
6.1571,-0.006023,0.001869,0.00985,0.000427,0.000187,-0.004095,-0.000357,-0.508417,0.010786,-1.188829,-261.741068,1.190623,71.941554
6.1773,-0.005869,0.001942,0.012056,0.000483,0.000186,-0.004055,-0.000616,-0.50829,0.010395,-1.188829,-261.741068,1.190623,71.941554
6.1971,-0.006198,0.00161,0.009987,0.000525,0.000184,-0.004025,0.000286,-0.50802,0.012026,-1.263885,-261.740845,1.26568,71.941811
6.217,-0.005985,0.001704,0.010412,0.000678,0.000204,-0.003967,-0.000979,-0.508334,0.010169,-1.263885,-261.740845,1.26568,71.941811
6.2375,-0.005967,0.001578,0.010301,0.000794,0.000219,-0.003924,-0.000979,-0.508334,0.010169,-1.263885,-261.740845,1.26568,71.941811
6.2573,-0.005662,0.001722,0.009984,0.000882,0.000231,-0.003892,-0.000695,-0.508389,0.010176,-1.338829,-261.740148,1.340623,71.942616
6.2775,-0.00585,0.002028,0.009225,0.00084,0.000232,-0.003869,-0.000642,-0.508333,0.010083,-1.338829,-261.740148,1.340623,71.942616
6.2971,-0.005378,0.002173,0.009617,0.000808,0.000232,-0.00385,-0.001131,-0.507946,0.009153,-1.26383,-261.739612,1.265624,71.943251
6.3177,-0.005893,0.001321,0.011094,0.000732,9.2e-05,-0.003799,-0.000532,-0.507816,0.009572,-1.26383,-261.739612,1.265624,71.943251
6.3375,-0.005686,0.00147,0.010265,0.000674,-1.4e-05,-0.003757,-0.000532,-0.507816,0.009572,-1.26383,-261.739612,1.265624,71.943251
6.3574,-0.005466,0.001723,0.008751,0.00063,-9.4e-05,-0.003723,-0.000419,-0.508494,0.010112,-1.206426,-261.738752,1.267597,71.944278
6.3772,-0.005829,0.001866,0.008746,0.000655,7e-06,-0.003674,-0.000648,-0.508399,0.009551,-1.206426,-261.738752,1.267597,71.944278
6.3968,-0.005399,0.001688,0.009531,0.000673,8.2e-05,-0.003638,-0.001351,-0.508116,0.008647,-1.281418,-261.737934,1.289502,71.945036
6.4169,-0.005414,0.00146,0.010004,0.000668,0.000101,-0.003607,-0.000607,-0.508274,0.00945,-1.281418,-261.737934,1.289502,71.945036
6.4378,-0.005256,0.001813,0.009602,0.000663,0.000115,-0.003584,-0.000607,-0.508274,0.00945,-1.281418,-261.737934,1.289502,71.945036
6.4572,-0.004844,0.001787,0.008619,0.000659,0.000125,-0.003566,-0.000331,-0.50816,0.009449,-1.26605,-261.737041,1.286431,71.945991
6.4772,-0.005549,0.001722,0.009361,0.000575,0.000102,-0.003524,-0.000374,-0.508173,0.009105,-1.26605,-261.737041,1.286431,71.945991
6.4972,-0.005328,0.001892,0.009777,0.000511,8.4e-05,-0.003492,-0.000754,-0.508252,0.009248,-1.260351,-261.736178,1.29228,71.94695
6.5178,-0.00491,0.002025,0.009155,0.000455,5e-05,-0.003535,-0.000376,-0.508097,0.009727,-1.260351,-261.736178,1.29228,71.94695
6.5373,-0.005399,0.001261,0.009199,0.000413,2.4e-05,-0.003568,-0.000376,-0.508097,0.009727,-1.260351,-261.736178,1.29228,71.94695
6.5573,-0.005279,0.001712,0.008943,0.00038,4e-06,-0.003592,-0.000688,-0.508714,0.009069,-1.326411,-261.735425,1.344329,71.947761
6.5774,-0.005279,0.001557,0.00918,0.000485,0.000118,-0.003508,-0.000698,-0.508531,0.009002,-1.326411,-261.735425,1.344329,71.947761
6.597,-0.004916,0.001918,0.008966,0.000564,0.000203,-0.003447,-0.000587,-0.508422,0.00908,-1.398822,-261.734647,1.3994,71.948542
6.6171,-0.004589,0.001456,0.007996,0.000494,0.000137,-0.003422,-0.000364,-0.508093,0.008971,-1.398822,-261.734647,1.3994,71.948542
6.6372,-0.004784,0.001744,0.008102,0.00044,8.8e-05,-0.003403,-0.000364,-0.508093,0.008971,-1.398822,-261.734647,1.3994,71.948542
6.6569,-0.005006,0.001979,0.007878,0.000399,5.1e-05,-0.003387,-0.000636,-0.508233,0.007994,-1.323771,-261.734053,1.331236,71.949253
6.6776,-0.005198,0.001881,0.007098,0.000513,4.2e-05,-0.003214,-0.000778,-0.508139,0.007934,-1.323771,-261.734053,1.331236,71.949253
6.6973,-0.0047,0.001752,0.008662,0.000598,3.5e-05,-0.003087,-0.001567,-0.508105,0.006999,-1.375606,-261.7333,1.384703,71.950042
6.7172,-0.004643,0.001694,0.008468,0.000534,4.7e-05,-0.003092,-0.000398,-0.508218,0.008507,-1.375606,-261.7333,1.384703,71.950042
6.737,-0.00482,0.001777,0.009806,0.000484,5.5e-05,-0.003096,-0.000398,-0.508218,0.008507,-1.375606,-261.7333,1.384703,71.950042
6.7572,-0.004465,0.0018,0.008026,0.000445,6.1e-05,-0.003099,0.000195,-0.508197,0.009722,-1.300606,-261.732798,1.309703,71.950562
6.7771,-0.005343,0.001566,0.007857,0.000286,5.9e-05,-0.003176,-3.5e-05,-0.508191,0.009018,-1.300606,-261.732798,1.309703,71.950562
6.7971,-0.004618,0.001907,0.010851,0.000165,5.7e-05,-0.003233,-0.001322,-0.508416,0.007762,-1.332475,-261.732072,1.346825,71.951333
6.817,-0.004816,0.001544,0.008116,-0.000179,5.3e-05,-0.003428,0.000714,-0.508095,0.010566,-1.332475,-261.732072,1.346825,71.951333
6.8374,-0.004828,0.001793,0.010287,-0.000443,4.8e-05,-0.003578,0.000714,-0.508095,0.010566,-1.332475,-261.732072,1.346825,71.951333
6.857,-0.004547,0.001836,0.010072,-0.000645,4.2e-05,-0.003693,0.000424,-0.508179,0.01022,-1.407416,-261.731689,1.421766,71.951738
6.8778,-0.004585,0.001443,0.008458,-0.000729,4.5e-05,-0.003741,0.000494,-0.508162,0.010151,-1.407416,-261.731689,1.421766,71.951738
6.8975,-0.00493,0.00198,0.008942,-0.000793,4.6e-05,-0.003777,-0.000271,-0.508538,0.008458,-1.332294,-261.731689,1.346644,71.951738
6.9176,-0.004481,0.002033,0.009358,-0.00055,7e-06,-0.003645,-0.000361,-0.508048,0.008898,-1.332294,-261.731689,1.346644,71.951738
6.9376,-0.004499,0.001683,0.007333,-0.000366,-2.3e-05,-0.003545,-0.000361,-0.508048,0.008898,-1.332294,-261.731689,1.346644,71.951738
6.9575,-0.004423,0.001666,0.011095,-0.000226,-4.7e-05,-0.003471,-0.000759,-0.508303,0.007333,-1.257415,-261.731689,1.271765,71.951738
6.9773,-0.004658,0.002152,0.008456,-0.000255,6e-06,-0.003413,5e-05,-0.508303,0.008859,-1.257415,-261.731689,1.271765,71.951738
6.9969,-0.004902,0.002123,0.008471,-0.000279,4.5e-05,-0.003369,-0.000345,-0.50783,0.008456,-1.332413,-261.731686,1.346763,71.951742
7.0176,-0.004723,0.002,0.008538,-0.000103,-4.3e-05,-0.003271,-0.000561,-0.507857,0.008469,-1.332413,-261.731686,1.346763,71.951742
7.0374,-0.004913,0.001538,0.007196,3.2e-05,-0.00011,-0.003198,-0.000561,-0.507857,0.008469,-1.332413,-261.731686,1.346763,71.951742
7.0572,-0.004599,0.001602,0.007358,0.000135,-0.00016,-0.003142,-0.001243,-0.508449,0.007194,-1.407477,-261.731676,1.421828,71.951752
7.0774,-0.004491,0.001997,0.008542,0.000416,-3.2e-05,-0.002871,-0.001078,-0.508422,0.007262,-1.407477,-261.731676,1.421828,71.951752
7.0975,-0.00481,0.001877,0.007792,0.000627,6.5e-05,-0.002677,-0.000131,-0.507989,0.008463,-1.482758,-261.731021,1.493917,71.952307
7.1174,-0.00449,0.001407,0.007593,0.000669,3.9e-05,-0.002652,-0.000776,-0.508097,0.007845,-1.482758,-261.731021,1.493917,71.952307
7.1376,-0.004404,0.001835,0.007418,0.000702,2.1e-05,-0.002635,-0.000776,-0.508097,0.007845,-1.482758,-261.731021,1.493917,71.952307
7.1575,-0.004643,0.001506,0.009243,0.000728,8e-06,-0.002622,-0.00062,-0.508151,0.007409,-1.407962,-261.730971,1.419121,71.952359
7.1776,-0.004647,0.00201,0.009195,0.000606,4.4e-05,-0.002664,-0.000339,-0.508281,0.008152,-1.407962,-261.730971,1.419121,71.952359
7.1973,-0.004687,0.00167,0.007272,0.000513,7.1e-05,-0.002695,4.3e-05,-0.507968,0.009187,-1.333107,-261.730905,1.344266,71.952427
7.2172,-0.004192,0.001986,0.006796,0.0,0.0,0.0,-0.00089,-0.508286,0.007438,-1.333107,-261.730905,1.344266,71.952427
7.2369,-0.004289,0.001979,0.00748,0.0,0.0,0.0,-0.00089,-0.508286,0.007438,-1.333107,-261.730905,1.344266,71.952427
7.2569,-0.004308,0.001975,0.008415,0.0,0.0,0.0,-0.000456,-0.508004,0.007385,-1.258005,-261.730341,1.28039,71.953036
7.2769,-0.004571,0.001815,0.008346,0.0,0.0,0.0,-0.000274,-0.508005,0.007796,-1.258005,-261.730341,1.28039,71.953036
7.2973,-0.004827,0.002225,0.008437,0.0,0.0,0.0,-0.000314,-0.508168,0.008346,-1.258005,-261.730341,1.28039,71.953036
7.3173,-0.004496,0.001572,0.008762,0.0,0.0,0.0,-0.000505,-0.507793,0.008429,-1.258005,-261.730341,1.28039,71.953036
7.3374,-0.004703,0.001752,0.007622,0.0,0.0,0.0,-0.000505,-0.507793,0.008429,-1.258005,-261.730341,1.28039,71.953036
7.3569,-0.004779,0.001831,0.009191,0.0,0.0,0.0,-0.000815,-0.508233,0.007622,-1.258005,-261.730341,1.28039,71.953036
7.3771,-0.004762,0.00187,0.007168,0.0,0.0,0.0,-0.000519,-0.508198,0.008264,-1.258005,-261.730341,1.28039,71.953036
7.3973,-0.004429,0.001776,0.006787,0.0,0.0,0.0,-0.001107,-0.508117,0.007168,-1.258005,-261.730341,1.28039,71.953036
7.4172,-0.004405,0.001858,0.007228,0.0,0.0,0.0,-0.000981,-0.508204,0.006822,-1.258005,-261.730341,1.28039,71.953036
7.4371,-0.004565,0.001746,0.008061,0.0,0.0,0.0,-0.000981,-0.508204,0.006822,-1.258005,-261.730341,1.28039,71.953036
7.4575,-0.004552,0.001728,0.007499,0.0,0.0,0.0,-0.000454,-0.508237,0.008061,-1.258005,-261.730341,1.28039,71.953036
7.4773,-0.004604,0.001921,0.007116,0.0,0.0,0.0,-0.000566,-0.508245,0.007831,-1.258005,-261.730341,1.28039,71.953036
7.4973,-0.004677,0.00154,0.006471,0.0,0.0,0.0,-0.000975,-0.508066,0.007116,-1.258005,-261.730341,1.28039,71.953036
7.5175,-0.004306,0.002045,0.007598,0.0,0.0,0.0,-0.00134,-0.508415,0.006529,-1.258005,-261.730341,1.28039,71.953036
7.5376,-0.004362,0.001795,0.010105,0.0,0.0,0.0,-0.00134,-0.508415,0.006529,-1.258005,-261.730341,1.28039,71.953036
7.5573,-0.004525,0.001559,0.00954,0.0,0.0,0.0,0.000792,-0.508179,0.010105,-1.258005,-261.730341,1.28039,71.953036
7.577,-0.004438,0.00168,0.007793,0.0,0.0,0.0,0.000608,-0.508276,0.009876,-1.258005,-261.730341,1.28039,71.953036
7.5974,-0.004408,0.001997,0.00985,0.0,0.0,0.0,-0.000464,-0.508305,0.007793,-1.258005,-261.730341,1.28039,71.953036
7.6173,-0.004473,0.001723,0.009005,0.0,0.0,0.0,0.000518,-0.508008,0.009664,-1.258005,-261.730341,1.28039,71.953036
7.6374,-0.00459,0.00171,0.007498,0.0,0.0,0.0,0.000518,-0.508008,0.009664,-1.258005,-261.730341,1.28039,71.953036
7.6568,-0.004218,0.002067,0.007165,0.0,0.0,0.0,-0.000766,-0.508276,0.007498,-1.258005,-261.730341,1.28039,71.953036
7.6769,-0.0045,0.001864,0.006131,0.0,0.0,0.0,-0.000684,-0.508132,0.007363,-1.258005,-261.730341,1.28039,71.953036
7.6968,-0.0047,0.001772,0.008267,0.0,0.0,0.0,-0.001373,-0.508126,0.006131,-1.258005,-261.730341,1.28039,71.953036
7.7171,-0.004255,0.001933,0.008536,0.0,0.0,0.0,-0.000564,-0.508203,0.008076,-1.258005,-261.730341,1.28039,71.953036
7.7372,-0.004308,0.00221,0.009238,0.0,0.0,0.0,-0.000564,-0.508203,0.008076,-1.258005,-261.730341,1.28039,71.953036
7.7574,-0.004567,0.001386,0.008353,0.0,0.0,0.0,0.000403,-0.507769,0.009238,-1.258005,-261.730341,1.28039,71.953036
7.7773,-0.004327,0.002147,0.007904,0.0,0.0,0.0,0.000111,-0.508109,0.008873,-1.258005,-261.730341,1.28039,71.953036
7.7968,-0.004819,0.001972,0.006763,0.0,0.0,0.0,-0.000296,-0.507837,0.007904,-1.258005,-261.730341,1.28039,71.953036
7.8172,-0.004584,0.001578,0.00946,0.0,0.0,0.0,-0.001278,-0.508001,0.006861,-1.258005,-261.730341,1.28039,71.953036
7.8371,-0.004731,0.001632,0.008947,0.0,0.0,0.0,-0.001278,-0.508001,0.006861,-1.258005,-261.730341,1.28039,71.953036
7.8571,-0.004532,0.001589,0.007673,0.0,0.0,0.0,-0.000168,-0.508347,0.008947,-1.258005,-261.730341,1.28039,71.953036
7.8773,-0.004459,0.001663,0.007643,0.0,0.0,0.0,-0.000353,-0.508367,0.008425,-1.258005,-261.730341,1.28039,71.953036
7.8971,-0.004544,0.001963,0.009278,0.0,0.0,0.0,-0.000562,-0.508322,0.007643,-1.258005,-261.730341,1.28039,71.953036
7.9174,-0.004627,0.002018,0.008599,0.0,0.0,0.0,0.000122,-0.508042,0.009134,-1.258005,-261.730341,1.28039,71.953036
7.9372,-0.004484,0.001541,0.007675,0.0,0.0,0.0,0.000122,-0.508042,0.009134,-1.258005,-261.730341,1.28039,71.953036
7.9573,-0.004346,0.001864,0.009002,0.0,0.0,0.0,-0.00057,-0.508444,0.007675,-1.258005,-261.730341,1.28039,71.953036
7.9774,-0.004594,0.002131,0.007854,0.0,0.0,0.0,-0.000236,-0.508309,0.008219,-1.258005,-261.730341,1.28039,71.953036
7.9975,-0.004255,0.001537,0.007529,0.0,0.0,0.0,-0.000589,-0.507854,0.007854,-1.258005,-261.730341,1.28039,71.953036
8.0174,-0.004221,0.001852,0.00743,0.0,0.0,0.0,-0.00043,-0.508398,0.007556,-1.258005,-261.730341,1.28039,71.953036
8.0374,-0.00442,0.001932,0.00804,0.0,0.0,0.0,-0.00043,-0.508398,0.007556,-1.258005,-261.730341,1.28039,71.953036
8.0577,-0.004576,0.001745,0.009729,0.0,0.0,0.0,-0.00032,-0.508052,0.00804,-1.258005,-261.730341,1.28039,71.953036
8.0776,-0.004271,0.001968,0.009472,0.0,0.0,0.0,-3.4e-05,-0.508124,0.008723,-1.258005,-261.730341,1.28039,71.953036
8.097,-0.004548,0.00099,0.009433,0.0,0.0,0.0,0.000559,-0.508009,0.009472,-1.258005,-261.730341,1.28039,71.953036
8.1175,-0.00454,0.001766,0.007874,0.0,0.0,0.0,0.00029,-0.508899,0.009437,-1.258005,-261.730341,1.28039,71.953036
8.1371,-0.00424,0.001526,0.008774,0.0,0.0,0.0,0.00029,-0.508899,0.009437,-1.258005,-261.730341,1.28039,71.953036
8.1576,-0.004624,0.001826,0.009293,0.0,0.0,0.0,0.000235,-0.508454,0.008774,-1.258005,-261.730341,1.28039,71.953036
8.1773,-0.004297,0.002071,0.009139,0.0,0.0,0.0,0.000186,-0.508331,0.008987,-1.258005,-261.730341,1.28039,71.953036
8.1968,-0.004485,0.001756,0.008323,0.0,0.0,0.0,0.000364,-0.507908,0.009139,-1.258005,-261.730341,1.28039,71.953036
8.2171,-0.00407,0.001695,0.006466,0.0,0.0,0.0,-0.000187,-0.508198,0.008395,-1.258005,-261.730341,1.28039,71.953036
8.237,-0.004064,0.002274,0.008313,0.0,0.0,0.0,-0.000187,-0.508198,0.008395,-1.258005,-261.730341,1.28039,71.953036
8.257,-0.004807,0.001538,0.009497,0.0,0.0,0.0,0.000175,-0.507708,0.008313,-1.258005,-261.730341,1.28039,71.953036
8.2771,-0.00463,0.001774,0.007656,0.0,0.0,0.0,0.000118,-0.508009,0.008799,-1.258005,-261.730341,1.28039,71.953036
8.297,-0.0048,0.001731,0.006675,0.0,0.0,0.0,-0.000725,-0.508211,0.007656,-1.258005,-261.730341,1.28039,71.953036
8.3169,-0.004491,0.001932,0.007901,0.0,0.0,0.0,-0.001336,-0.508253,0.006763,-1.258005,-261.730341,1.28039,71.953036
8.337,-0.004667,0.001873,0.007053,0.0,0.0,0.0,-0.001336,-0.508253,0.006763,-1.258005,-261.730341,1.28039,71.953036
8.357,-0.004092,0.001954,0.007307,0.0,0.0,0.0,-0.00107,-0.508114,0.007053,-1.258005,-261.730341,1.28039,71.953036
8.3771,-0.004555,0.001488,0.007691,0.0,0.0,0.0,-0.000781,-0.508081,0.007157,-1.258005,-261.730341,1.28039,71.953036
8.3969,-0.004125,0.001627,0.008971,0.0,0.0,0.0,-0.000633,-0.508497,0.007691,-1.258005,-261.730341,1.28039,71.953036
8.4171,-0.004506,0.001488,0.008109,0.0,0.0,0.0,0.000355,-0.508365,0.008858,-1.258005,-261.730341,1.28039,71.953036
8.437,-0.004585,0.002075,0.008439,0.0,0.0,0.0,0.000355,-0.508365,0.008858,-1.258005,-261.730341,1.28039,71.953036
8.4569,-0.004166,0.001371,0.007858,0.0,0.0,0.0,-0.000281,-0.507907,0.008439,-1.258005,-261.730341,1.28039,71.953036
8.4773,-0.004555,0.001627,0.008909,0.0,0.0,0.0,-0.00023,-0.508197,0.008201,-1.258005,-261.730341,1.28039,71.953036
8.497,-0.004288,0.001493,0.009316,0.0,0.0,0.0,-1.2e-05,-0.508353,0.008909,-1.258005,-261.730341,1.28039,71.953036
8.5172,-0.004187,0.002259,0.007298,0.0,0.0,0.0,0.000421,-0.508474,0.00928,-1.258005,-261.730341,1.28039,71.953036
8.5373,-0.004308,0.00182,0.010026,0.0,0.0,0.0,0.000421,-0.508474,0.00928,-1.258005,-261.730341,1.28039,71.953036
8.557,-0.004463,0.001674,0.007816,0.0,0.0,0.0,0.000805,-0.508154,0.010026,-1.258005,-261.730341,1.28039,71.953036
8.5771,-0.004482,0.001661,0.007096,0.0,0.0,0.0,0.000287,-0.508217,0.009132,-1.258005,-261.730341,1.28039,71.953036
8.5973,-0.004379,0.00165,0.00844,0.0,0.0,0.0,-0.000864,-0.508326,0.007096,-1.258005,-261.730341,1.28039,71.953036
8.6172,-0.004009,0.001769,0.007579,0.0,0.0,0.0,-0.000142,-0.508331,0.008325,-1.258005,-261.730341,1.28039,71.953036
8.6372,-0.004468,0.001787,0.008001,0.0,0.0,0.0,-0.000142,-0.508331,0.008325,-1.258005,-261.730341,1.28039,71.953036
8.6571,-0.004673,0.001844,0.007149,0.0,0.0,0.0,-0.000387,-0.508196,0.008001,-1.258005,-261.730341,1.28039,71.953036
8.6774,-0.004561,0.00148,0.01013,0.0,0.0,0.0,-0.000648,-0.508175,0.007654,-1.258005,-261.730341,1.28039,71.953036
8.697,-0.00488,0.00172,0.006437,0.0,0.0,0.0,0.000605,-0.508494,0.01013,-1.258005,-261.730341,1.28039,71.953036
8.7173,-0.004276,0.00187,0.008016,0.0,0.0,0.0,-0.0014,-0.50829,0.006769,-1.258005,-261.730341,1.28039,71.953036
8.7373,-0.004423,0.002002,0.007249,0.0,0.0,0.0,-0.0014,-0.50829,0.006769,-1.258005,-261.730341,1.28039,71.953036
8.7569,-0.004181,0.001778,0.008468,0.0,0.0,0.0,-0.000726,-0.507985,0.007249,-1.258005,-261.730341,1.28039,71.953036
8.7771,-0.004077,0.001722,0.010258,0.0,0.0,0.0,-0.000377,-0.508073,0.007742,-1.258005,-261.730341,1.28039,71.953036
8.7971,-0.004225,0.002092,0.007982,0.0,0.0,0.0,0.001154,-0.508251,0.010258,-1.258005,-261.730341,1.28039,71.953036
8.8176,-0.004515,0.001569,0.008477,0.0,0.0,0.0,-3.6e-05,-0.507924,0.008187,-1.258005,-261.730341,1.28039,71.953036
8.8376,-0.004367,0.001791,0.008513,0.0,0.0,0.0,-3.6e-05,-0.507924,0.008187,-1.258005,-261.730341,1.28039,71.953036
8.8574,-0.004395,0.001933,0.006621,0.0,0.0,0.0,-2.5e-05,-0.508191,0.008513,-1.258005,-261.730341,1.28039,71.953036
8.8773,-0.004454,0.001673,0.009034,0.0,0.0,0.0,-0.000427,-0.508136,0.007748,-1.258005,-261.730341,1.28039,71.953036
8.8968,-0.00464,0.001963,0.007762,0.0,0.0,0.0,0.000153,-0.508307,0.009034,-1.258005,-261.730341,1.28039,71.953036
8.9171,-0.00424,0.001751,0.007606,0.0,0.0,0.0,-0.000607,-0.508047,0.007875,-1.258005,-261.730341,1.28039,71.953036
8.937,-0.004319,0.00179,0.006659,0.0,0.0,0.0,-0.000607,-0.508047,0.007875,-1.258005,-261.730341,1.28039,71.953036
8.9571,-0.00447,0.002039,0.00874,0.0,0.0,0.0,-0.000923,-0.508199,0.006659,-1.258005,-261.730341,1.28039,71.953036
8.9772,-0.004332,0.001747,0.007239,0.0,0.0,0.0,-0.000553,-0.508094,0.007504,-1.258005,-261.730341,1.28039,71.953036
8.9969,-0.004822,0.001784,0.006941,0.0,0.0,0.0,-0.000641,-0.50824,0.007239,-1.258005,-261.730341,1.28039,71.953036
9.0171,-0.004734,0.00177,0.009187,0.0,0.0,0.0,-0.001225,-0.508207,0.006968,-1.258005,-261.730341,1.28039,71.953036
9.0376,-0.004454,0.001855,0.008538,0.0,0.0,0.0,-0.001225,-0.508207,0.006968,-1.258005,-261.730341,1.28039,71.953036
9.0574,-0.004216,0.001598,0.008388,0.0,0.0,0.0,-9.9e-05,-0.508127,0.008538,-1.258005,-261.730341,1.28039,71.953036
9.0775,-0.004284,0.00144,0.006467,0.0,0.0,0.0,-3.3e-05,-0.508232,0.008477,-1.258005,-261.730341,1.28039,71.953036
9.097,-0.004844,0.001912,0.00696,0.0,0.0,0.0,-0.000986,-0.508549,0.006467,-1.258005,-261.730341,1.28039,71.953036
9.1171,-0.004576,0.001764,0.007786,0.0,0.0,0.0,-0.001266,-0.508118,0.006916,-1.258005,-261.730341,1.28039,71.953036
9.1372,-0.004257,0.001826,0.007684,0.0,0.0,0.0,-0.001266,-0.508118,0.006916,-1.258005,-261.730341,1.28039,71.953036
9.1576,-0.004137,0.00185,0.00853,0.0,0.0,0.0,-0.000338,-0.508159,0.007684,-1.258005,-261.730341,1.28039,71.953036
9.1774,-0.004397,0.001841,0.007964,0.0,0.0,0.0,-0.000114,-0.508148,0.008028,-1.258005,-261.730341,1.28039,71.953036
9.1973,-0.00429,0.002117,0.00857,0.0,0.0,0.0,-0.000335,-0.508143,0.007964,-1.258005,-261.730341,1.28039,71.953036
9.2174,-0.004195,0.001883,0.007007,0.0,0.0,0.0,4.3e-05,-0.507889,0.008515,-1.258005,-261.730341,1.28039,71.953036
9.2375,-0.004515,0.001789,0.008749,0.0,0.0,0.0,4.3e-05,-0.507889,0.008515,-1.258005,-261.730341,1.28039,71.953036
9.2572,-0.004266,0.00191,0.007451,0.0,0.0,0.0,-5.3e-05,-0.508191,0.008749,-1.258005,-261.730341,1.28039,71.953036
9.2773,-0.004309,0.001761,0.007844,0.0,0.0,0.0,-0.000221,-0.508144,0.008221,-1.258005,-261.730341,1.28039,71.953036
9.2972,-0.0043,0.001618,0.009093,0.0,0.0,0.0,-0.000309,-0.508223,0.007844,-1.258005,-261.730341,1.28039,71.953036
9.3175,-0.004633,0.001815,0.00797,0.0,0.0,0.0,0.000282,-0.508349,0.008986,-1.258005,-261.730341,1.28039,71.953036
9.3373,-0.004853,0.001683,0.00858,0.0,0.0,0.0,0.000282,-0.508349,0.008986,-1.258005,-261.730341,1.28039,71.953036
9.3573,-0.004664,0.001824,0.008096,0.0,0.0,0.0,-0.000477,-0.508298,0.00858,-1.258005,-261.730341,1.28039,71.953036
9.3774,-0.004201,0.001786,0.008781,0.0,0.0,0.0,-0.000501,-0.508241,0.008382,-1.258005,-261.730341,1.28039,71.953036
9.3972,-0.004828,0.001777,0.007984,0.0,0.0,0.0,0.000277,-0.508194,0.008781,-1.258005,-261.730341,1.28039,71.953036
9.417,-0.004688,0.001395,0.008916,0.0,0.0,0.0,-0.000668,-0.508205,0.008052,-1.258005,-261.730341,1.28039,71.953036
9.4375,-0.004279,0.001738,0.008919,0.0,0.0,0.0,-0.000668,-0.508205,0.008052,-1.258005,-261.730341,1.28039,71.953036
9.4573,-0.004419,0.001836,0.007319,0.0,0.0,0.0,0.00027,-0.508242,0.008919,-1.258005,-261.730341,1.28039,71.953036
9.4772,-0.004161,0.002015,0.008148,0.0,0.0,0.0,-0.000116,-0.508205,0.008273,-1.258005,-261.730341,1.28039,71.953036
9.4969,-0.00418,0.001931,0.007912,0.0,0.0,0.0,-6e-06,-0.507968,0.008148,-1.258005,-261.730341,1.28039,71.953036
9.5176,-0.004722,0.001904,0.007991,0.0,0.0,0.0,-0.000133,-0.508045,0.007932,-1.258005,-261.730341,1.28039,71.953036
9.5376,-0.004191,0.001706,0.008787,0.0,0.0,0.0,-0.000133,-0.508045,0.007932,-1.258005,-261.730341,1.28039,71.953036
9.5572,-0.004531,0.001659,0.009187,0.0,0.0,0.0,0.00029,-0.508274,0.008787,-1.258005,-261.730341,1.28039,71.953036
9.5774,-0.004289,0.001677,0.006449,0.0,0.0,0.0,0.000235,-0.508292,0.00895,-1.258005,-261.730341,1.28039,71.953036
9.597,-0.004611,0.002117,0.008959,0.0,0.0,0.0,-0.000999,-0.508313,0.006449,-1.258005,-261.730341,1.28039,71.953036
9.6171,-0.004397,0.002115,0.007328,0.0,0.0,0.0,-0.000126,-0.507902,0.008739,-1.258005,-261.730341,1.28039,71.953036
9.6372,-0.004877,0.001888,0.008951,0.0,0.0,0.0,-0.000126,-0.507902,0.008739,-1.258005,-261.730341,1.28039,71.953036
9.6572,-0.004382,0.001262,0.006761,0.0,0.0,0.0,-0.000312,-0.508091,0.008951,-1.258005,-261.730341,1.28039,71.953036
9.6771,-0.004331,0.001532,0.008797,0.0,0.0,0.0,-0.000564,-0.508349,0.008062,-1.258005,-261.730341,1.28039,71.953036
9.6973,-0.004657,0.001945,0.007292,0.0,0.0,0.0,0.000155,-0.508448,0.008797,-1.258005,-261.730341,1.28039,71.953036
9.7172,-0.004657,0.001834,0.008624,0.0,0.0,0.0,-0.00084,-0.508078,0.007427,-1.258005,-261.730341,1.28039,71.953036
9.7374,-0.004851,0.001824,0.007687,0.0,0.0,0.0,-0.00084,-0.508078,0.007427,-1.258005,-261.730341,1.28039,71.953036
9.757,-0.004222,0.002119,0.007637,0.0,0.0,0.0,-0.00093,-0.508161,0.007687,-1.258005,-261.730341,1.28039,71.953036
9.7772,-0.00461,0.001609,0.007564,0.0,0.0,0.0,-0.000687,-0.508042,0.007667,-1.258005,-261.730341,1.28039,71.953036
9.797,-0.004164,0.001702,0.007074,0.0,0.0,0.0,-0.000753,-0.508376,0.007564,-1.258005,-261.730341,1.28039,71.953036
9.8172,-0.004252,0.001872,0.007563,0.0,0.0,0.0,-0.000575,-0.508293,0.007118,-1.258005,-261.730341,1.28039,71.953036
9.8373,-0.004251,0.001675,0.008946,0.0,0.0,0.0,-0.000575,-0.508293,0.007118,-1.258005,-261.730341,1.28039,71.953036
9.8574,-0.004239,0.001564,0.007766,0.0,0.0,0.0,0.000311,-0.508304,0.008946,-1.258005,-261.730341,1.28039,71.953036
9.8773,-0.004596,0.001586,0.007584,0.0,0.0,0.0,7.2e-05,-0.508352,0.008467,-1.258005,-261.730341,1.28039,71.953036
9.897,-0.004657,0.001601,0.008935,0.0,0.0,0.0,-0.000728,-0.5084,0.007584,-1.258005,-261.730341,1.28039,71.953036
9.9173,-0.004569,0.001935,0.009069,0.0,0.0,0.0,-0.000155,-0.50838,0.008818,-1.258005,-261.730341,1.28039,71.953036
9.9372,-0.004035,0.001676,0.008248,0.0,0.0,0.0,-0.000155,-0.50838,0.008818,-1.258005,-261.730341,1.28039,71.953036
9.9571,-0.00481,0.001786,0.009092,0.0,0.0,0.0,0.000171,-0.508306,0.008248,-1.258005,-261.730341,1.28039,71.953036
9.9777,-0.004357,0.002002,0.008199,0.0,0.0,0.0,3.1e-05,-0.508261,0.00859,-1.258005,-261.730341,1.28039,71.953036
9.997,-0.004484,0.001865,0.008314,0.0,0.0,0.0,-0.000176,-0.507981,0.008199,-1.258005,-261.730341,1.28039,71.953036
10.017,-0.004282,0.001715,0.007567,0.0,0.0,0.0,-0.000238,-0.508105,0.008303,-1.258005,-261.730341,1.28039,71.953036
10.0377,-0.004596,0.001782,0.00685,0.0,0.0,0.0,-0.000238,-0.508105,0.008303,-1.258005,-261.730341,1.28039,71.953036
10.0574,-0.004446,0.001876,0.008713,0.0,0.0,0.0,-0.001103,-0.508206,0.00685,-1.258005,-261.730341,1.28039,71.953036
10.0775,-0.004715,0.002213,0.00769,0.0,0.0,0.0,-0.000658,-0.508165,0.007604,-1.258005,-261.730341,1.28039,71.953036
10.0968,-0.00467,0.001763,0.009126,0.0,0.0,0.0,-0.000793,-0.507772,0.00769,-1.258005,-261.730341,1.28039,71.953036
10.1171,-0.004455,0.001516,0.008901,0.0,0.0,0.0,-8.5e-05,-0.508176,0.008999,-1.258005,-261.730341,1.28039,71.953036
10.1373,-0.004581,0.001661,0.007499,0.0,0.0,0.0,-8.5e-05,-0.508176,0.008999,-1.258005,-261.730341,1.28039,71.953036
10.1578,-0.004416,0.00162,0.008408,0.0,0.0,0.0,-0.000757,-0.508325,0.007499,-1.258005,-261.730341,1.28039,71.953036
10.1771,-0.004691,0.00195,0.009388,0.0,0.0,0.0,-0.000505,-0.50834,0.007863,-1.258005,-261.730341,1.28039,71.953036
10.1976,-0.004462,0.00207,0.008359,0.0,0.0,0.0,9.7e-05,-0.508027,0.009388,-1.258005,-261.730341,1.28039,71.953036
10.2175,-0.004361,0.00194,0.00596,0.0,0.0,0.0,-0.000172,-0.507922,0.008453,-1.258005,-261.730341,1.28039,71.953036
10.2372,-0.004696,0.001674,0.008879,0.0,0.0,0.0,-0.000172,-0.507922,0.008453,-1.258005,-261.730341,1.28039,71.953036
10.2573,-0.004428,0.001902,0.008743,0.0,0.0,0.0,-0.000167,-0.508305,0.008879,-1.258005,-261.730341,1.28039,71.953036
10.2774,-0.004557,0.001639,0.007375,0.0,0.0,0.0,-8.7e-05,-0.508213,0.008824,-1.258005,-261.730341,1.28039,71.953036
10.2969,-0.004511,0.001725,0.008988,0.0,0.0,0.0,-0.000796,-0.508347,0.007375,-1.258005,-261.730341,1.28039,71.953036
10.3173,-0.004516,0.001981,0.008133,0.0,0.0,0.0,-5e-06,-0.508262,0.008844,-1.258005,-261.730341,1.28039,71.953036
10.3371,-0.004932,0.001754,0.008797,0.0,0.0,0.0,-5e-06,-0.508262,0.008844,-1.258005,-261.730341,1.28039,71.953036
10.3574,-0.004742,0.001438,0.008328,0.0,0.0,0.0,-0.000446,-0.508227,0.008797,-1.258005,-261.730341,1.28039,71.953036
10.3776,-0.004361,0.001784,0.00829,0.0,0.0,0.0,-0.000466,-0.508356,0.008607,-1.258005,-261.730341,1.28039,71.953036
10.397,-0.004349,0.00201,0.008464,0.0,0.0,0.0,-0.000134,-0.508198,0.00829,-1.258005,-261.730341,1.28039,71.953036
10.4173,-0.00464,0.001566,0.008076,0.0,0.0,0.0,-4.1e-05,-0.507992,0.008449,-1.258005,-261.730341,1.28039,71.953036
10.4373,-0.004334,0.001687,0.008539,0.0,0.0,0.0,-4.1e-05,-0.507992,0.008449,-1.258005,-261.730341,1.28039,71.953036
10.4571,-0.004397,0.001843,0.008169,0.0,0.0,0.0,2e-05,-0.508294,0.008539,-1.258005,-261.730341,1.28039,71.953036
10.4773,-0.004292,0.002026,0.006381,0.0,0.0,0.0,-8.1e-05,-0.508231,0.008389,-1.258005,-261.730341,1.28039,71.953036
10.4969,-0.004744,0.001877,0.007615,0.0,0.0,0.0,-0.001038,-0.507963,0.006381,-1.258005,-261.730341,1.28039,71.953036
10.5171,-0.004298,0.001864,0.007995,0.0,0.0,0.0,-0.000877,-0.508095,0.007504,-1.258005,-261.730341,1.28039,71.953036
10.5369,-0.004778,0.002057,0.009087,0.0,0.0,0.0,-0.000877,-0.508095,0.007504,-1.258005,-261.730341,1.28039,71.953036
10.557,-0.004654,0.001748,0.008957,0.0,0.0,0.0,-0.000144,-0.507922,0.009087,-1.258005,-261.730341,1.28039,71.953036
10.5774,-0.004372,0.001717,0.00787,0.0,0.0,0.0,-0.00012,-0.508049,0.009034,-1.258005,-261.730341,1.28039,71.953036
10.5973,-0.00441,0.001862,0.007343,0.0,0.0,0.0,-0.000359,-0.508267,0.00787,-1.258005,-261.730341,1.28039,71.953036
10.6175,-0.004439,0.00194,0.008388,0.0,0.0,0.0,-0.000639,-0.508136,0.007388,-1.258005,-261.730341,1.28039,71.953036
10.6374,-0.00461,0.001761,0.007511,0.0,0.0,0.0,-0.000639,-0.508136,0.007388,-1.258005,-261.730341,1.28039,71.953036
10.6572,-0.004502,0.001469,0.007692,0.0,0.0,0.0,-0.00078,-0.508224,0.007511,-1.258005,-261.730341,1.28039,71.953036
10.6772,-0.004406,0.001757,0.00764,0.0,0.0,0.0,-0.000695,-0.508348,0.007587,-1.258005,-261.730341,1.28039,71.953036
10.6972,-0.004153,0.002054,0.007539,0.0,0.0,0.0,-0.000509,-0.508229,0.00764,-1.258005,-261.730341,1.28039,71.953036
10.7177,-0.004612,0.001604,0.007676,0.0,0.0,0.0,-0.000326,-0.507957,0.007548,-1.258005,-261.730341,1.28039,71.953036
10.7378,-0.004562,0.001682,0.006772,0.0,0.0,0.0,-0.000326,-0.507957,0.007548,-1.258005,-261.730341,1.28039,71.953036
10.7571,-0.004485,0.001699,0.007254,0.0,0.0,0.0,-0.001108,-0.508306,0.006772,-1.258005,-261.730341,1.28039,71.953036
10.7772,-0.00449,0.00178,0.007885,0.0,0.0,0.0,-0.000977,-0.508299,0.006968,-1.258005,-261.730341,1.28039,71.953036
10.7971,-0.004524,0.001303,0.009467,0.0,0.0,0.0,-0.000469,-0.508205,0.007885,-1.258005,-261.730341,1.28039,71.953036
10.8173,-0.004264,0.001665,0.007323,0.0,0.0,0.0,0.000234,-0.508632,0.009323,-1.258005,-261.730341,1.28039,71.953036
10.8371,-0.004259,0.001696,0.007998,0.0,0.0,0.0,0.000234,-0.508632,0.009323,-1.258005,-261.730341,1.28039,71.953036
10.8573,-0.004351,0.001276,0.00809,0.0,0.0,0.0,-0.00018,-0.508287,0.007998,-1.258005,-261.730341,1.28039,71.953036
10.8773,-0.004646,0.001963,0.008511,0.0,0.0,0.0,-0.000199,-0.50846,0.008036,-1.258005,-261.730341,1.28039,71.953036
10.8969,-0.004577,0.001579,0.007001,0.0,0.0,0.0,-0.000305,-0.508019,0.008511,-1.258005,-261.730341,1.28039,71.953036
10.9172,-0.004367,0.001851,0.008688,0.0,0.0,0.0,-0.000944,-0.508374,0.007136,-1.258005,-261.730341,1.28039,71.953036
10.9374,-0.004178,0.001754,0.009572,0.0,0.0,0.0,-0.000944,-0.508374,0.007136,-1.258005,-261.730341,1.28039,71.953036
10.957,-0.004444,0.001668,0.008961,0.0,0.0,0.0,0.000704,-0.508222,0.009572,-1.258005,-261.730341,1.28039,71.953036
10.9772,-0.004415,0.001859,0.007124,0.0,0.0,0.0,0.000467,-0.508259,0.009322,-1.258005,-261.730341,1.28039,71.953036
10.997,-0.004823,0.001765,0.00888,0.0,0.0,0.0,-0.000782,-0.508128,0.007124,-1.258005,-261.730341,1.28039,71.953036
11.0172,-0.004615,0.001644,0.009068,0.0,0.0,0.0,-0.000338,-0.508207,0.008723,-1.258005,-261.730341,1.28039,71.953036
11.0374,-0.004497,0.001758,0.006602,0.0,0.0,0.0,-0.000338,-0.508207,0.008723,-1.258005,-261.730341,1.28039,71.953036
11.0573,-0.004592,0.001493,0.007466,0.0,0.0,0.0,-0.00113,-0.508231,0.006602,-1.258005,-261.730341,1.28039,71.953036
11.0771,-0.004308,0.001849,0.007008,0.0,0.0,0.0,-0.000981,-0.508344,0.006976,-1.258005,-261.730341,1.28039,71.953036
11.097,-0.004504,0.001837,0.009273,0.0,0.0,0.0,-0.000734,-0.508139,0.007008,-1.258005,-261.730341,1.28039,71.953036
11.1174,-0.004751,0.00158,0.008577,0.0,0.0,0.0,0.000141,-0.50814,0.009076,-1.258005,-261.730341,1.28039,71.953036
11.1372,-0.004593,0.001689,0.009143,0.0,0.0,0.0,0.000141,-0.50814,0.009076,-1.258005,-261.730341,1.28039,71.953036
11.1573,-0.00474,0.001563,0.006536,0.0,0.0,0.0,7e-05,-0.50829,0.009143,-1.258005,-261.730341,1.28039,71.953036
11.1773,-0.004212,0.001811,0.007317,0.0,0.0,0.0,-0.000537,-0.508346,0.008071,-1.258005,-261.730341,1.28039,71.953036
11.1973,-0.004534,0.001764,0.009025,0.0,0.0,0.0,-0.00048,-0.508175,0.007317,-1.258005,-261.730341,1.28039,71.953036
11.2171,-0.00435,0.001508,0.007678,0.0,0.0,0.0,2.1e-05,-0.508211,0.008876,-1.258005,-261.730341,1.28039,71.953036
11.2375,-0.004137,0.001733,0.009571,0.0,0.0,0.0,2.1e-05,-0.508211,0.008876,-1.258005,-261.730341,1.28039,71.953036
11.2575,-0.004399,0.001902,0.008456,0.0,0.0,0.0,0.000744,-0.508244,0.009571,-1.258005,-261.730341,1.28039,71.953036
11.2775,-0.004798,0.001642,0.007935,0.0,0.0,0.0,0.000405,-0.508177,0.009115,-1.258005,-261.730341,1.28039,71.953036
11.2968,-0.004401,0.001668,0.007579,0.0,0.0,0.0,-0.000751,-0.508342,0.007935,-1.258005,-261.730341,1.28039,71.953036
11.3174,-0.004553,0.001548,0.008629,0.0,0.0,0.0,-0.000555,-0.50832,0.00761,-1.258005,-261.730341,1.28039,71.953036
11.3373,-0.004453,0.001714,0.008995,0.0,0.0,0.0,-0.000555,-0.50832,0.00761,-1.258005,-261.730341,1.28039,71.953036
11.3573,-0.004303,0.001552,0.009555,0.0,0.0,0.0,0.000134,-0.508265,0.008995,-1.258005,-261.730341,1.28039,71.953036
11.3771,-0.004259,0.001788,0.009022,0.0,0.0,0.0,0.000314,-0.508331,0.009227,-1.258005,-261.730341,1.28039,71.953036
11.3971,-0.004754,0.002082,0.008909,0.0,0.0,0.0,0.000342,-0.508191,0.009022,-1.258005,-261.730341,1.28039,71.953036
11.417,-0.004581,0.001757,0.007785,0.0,0.0,0.0,-0.000163,-0.507923,0.008919,-1.258005,-261.730341,1.28039,71.953036
11.4374,-0.004264,0.002057,0.008081,0.0,0.0,0.0,-0.000163,-0.507923,0.008919,-1.258005,-261.730341,1.28039,71.953036
11.4571,-0.004563,0.002087,0.007741,0.0,0.0,0.0,-0.000143,-0.507926,0.008081,-1.258005,-261.730341,1.28039,71.953036
11.4769,-0.004261,0.001749,0.008395,0.0,0.0,0.0,-0.000338,-0.507915,0.007941,-1.258005,-261.730341,1.28039,71.953036
11.4972,-0.004451,0.001675,0.008406,0.0,0.0,0.0,2.1e-05,-0.508233,0.008395,-1.258005,-261.730341,1.28039,71.953036
11.517,-0.004406,0.002097,0.008603,0.0,0.0,0.0,-0.000146,-0.5083,0.008405,-1.258005,-261.730341,1.28039,71.953036
11.5369,-0.004178,0.001804,0.008241,0.0,0.0,0.0,-0.000146,-0.5083,0.008405,-1.258005,-261.730341,1.28039,71.953036
11.5576,-0.004488,0.001897,0.008566,0.0,0.0,0.0,2.5e-05,-0.508179,0.008241,-1.258005,-261.730341,1.28039,71.953036
11.5771,-0.004643,0.00183,0.008766,0.0,0.0,0.0,-3.3e-05,-0.50814,0.008373,-1.258005,-261.730341,1.28039,71.953036
11.5968,-0.004569,0.002051,0.008331,0.0,0.0,0.0,-0.000172,-0.50815,0.008766,-1.258005,-261.730341,1.28039,71.953036
11.6174,-0.004562,0.001936,0.009844,0.0,0.0,0.0,-0.000307,-0.507951,0.00837,-1.258005,-261.730341,1.28039,71.953036
11.6377,-0.004449,0.002177,0.008629,0.0,0.0,0.0,-0.000307,-0.507951,0.00837,-1.258005,-261.730341,1.28039,71.953036
11.6568,-0.004651,0.00195,0.009324,0.0,0.0,0.0,-4.9e-05,-0.507804,0.008629,-1.258005,-261.730341,1.28039,71.953036
11.6769,-0.004477,0.00224,0.006841,0.0,0.0,0.0,1.4e-05,-0.507896,0.008914,-1.258005,-261.730341,1.28039,71.953036
11.6969,-0.004797,0.001526,0.009139,0.0,0.0,0.0,-0.000989,-0.507748,0.006841,-1.258005,-261.730341,1.28039,71.953036
11.7177,-0.004591,0.001712,0.007904,0.0,0.0,0.0,-0.000212,-0.50839,0.008933,-1.258005,-261.730341,1.28039,71.953036
11.7384,-0.004819,0.001622,0.007382,0.0,0.0,0.0,-0.000212,-0.50839,0.008933,-1.258005,-261.730341,1.28039,71.953036
11.7575,-0.004416,0.001627,0.009053,0.0,0.0,0.0,-0.001054,-0.508364,0.007382,-1.258005,-261.730341,1.28039,71.953036
11.7772,-0.004693,0.001716,0.008821,0.0,0.0,0.0,-0.000564,-0.508359,0.008035,-1.258005,-261.730341,1.28039,71.953036
11.7974,-0.004532,0.001707,0.009019,0.0,0.0,0.0,-0.000194,-0.508264,0.008821,-1.258005,-261.730341,1.28039,71.953036
11.8175,-0.004327,0.002026,0.008908,0.0,0.0,0.0,4.5e-05,-0.508271,0.009001,-1.258005,-261.730341,1.28039,71.953036
11.8373,-0.004304,0.001749,0.008487,0.0,0.0,0.0,4.5e-05,-0.508271,0.009001,-1.258005,-261.730341,1.28039,71.953036
11.8573,-0.004367,0.001626,0.008647,0.0,0.0,0.0,2.4e-05,-0.508233,0.008487,-1.258005,-261.730341,1.28039,71.953036
11.8775,-0.004562,0.001926,0.008052,0.0,0.0,0.0,3.2e-05,-0.508283,0.008553,-1.258005,-261.730341,1.28039,71.953036
11.897,-0.004669,0.001634,0.008436,0.0,0.0,0.0,-0.000456,-0.508058,0.008052,-1.258005,-261.730341,1.28039,71.953036
11.9171,-0.004577,0.001695,0.008011,0.0,0.0,0.0,-0.000374,-0.508323,0.008403,-1.258005,-261.730341,1.28039,71.953036
11.9377,-0.004486,0.001688,0.008337,0.0,0.0,0.0,-0.000374,-0.508323,0.008403,-1.258005,-261.730341,1.28039,71.953036
11.9573,-0.004556,0.001862,0.007399,0.0,0.0,0.0,-0.000234,-0.508294,0.008337,-1.258005,-261.730341,1.28039,71.953036
11.9774,-0.004942,0.001684,0.008168,0.0,0.0,0.0,-0.000453,-0.508226,0.007962,-1.258005,-261.730341,1.28039,71.953036
11.9971,-0.004487,0.002172,0.009488,0.0,0.0,0.0,-0.000776,-0.508299,0.008168,-1.258005,-261.730341,1.28039,71.953036
12.017,-0.004486,0.00146,0.010152,0.0,0.0,0.0,0.000249,-0.507851,0.009367,-1.258005,-261.730341,1.28039,71.953036
12.037,-0.004572,0.0021,0.007903,0.0,0.0,0.0,0.000249,-0.507851,0.009367,-1.258005,-261.730341,1.28039,71.953036
12.0577,-0.004353,0.001913,0.007925,0.0,0.0,0.0,-0.000542,-0.507884,0.007903,-1.258005,-261.730341,1.28039,71.953036
12.0773,-0.004373,0.001996,0.007982,0.0,0.0,0.0,-0.000447,-0.507961,0.007912,-1.258005,-261.730341,1.28039,71.953036
12.0972,-0.00452,0.001808,0.006993,0.0,0.0,0.0,-0.000302,-0.507988,0.007982,-1.258005,-261.730341,1.28039,71.953036
12.1171,-0.004353,0.001992,0.008248,0.0,0.0,0.0,-0.000898,-0.508163,0.007078,-1.258005,-261.730341,1.28039,71.953036
12.1371,-0.00463,0.001633,0.008477,0.0,0.0,0.0,-0.000898,-0.508163,0.007078,-1.258005,-261.730341,1.28039,71.953036
12.1572,-0.004473,0.001986,0.007024,0.0,0.0,0.0,-0.000306,-0.508349,0.008477,-1.258005,-261.730341,1.28039,71.953036
12.1772,-0.004602,0.001743,0.008138,0.0,0.0,0.0,-0.000545,-0.508207,0.007884,-1.258005,-261.730341,1.28039,71.953036
12.197,-0.004597,0.001747,0.007097,0.0,0.0,0.0,-0.000452,-0.50824,0.008138,-1.258005,-261.730341,1.28039,71.953036
12.2172,-0.004306,0.001664,0.007732,0.0,0.0,0.0,-0.00093,-0.50824,0.007191,-1.258005,-261.730341,1.28039,71.953036
