mach0312/omni-docking-bench/src/icros_test_setup/results/MPPI_sample/timeseries/trial_088.csv
t,x,y,yaw,vx,vy,wz,bl_x,bl_y,bl_yaw,front_steering_joint,front_wheel_joint,rear_steering_joint,rear_wheel_joint
0.0,-0.017349,0.019577,0.068462,0.00613,-2.5e-05,0.003006,0.016888,-0.489619,0.068243,0.287234,-261.353068,-0.294733,66.055659
0.0003,-0.017341,0.019176,0.069063,0.00554,-2.3e-05,0.002717,0.016995,-0.489451,0.068148,0.287234,-261.349878,-0.294733,66.058856
0.0006,-0.017262,0.019367,0.067531,0.004896,-2e-05,0.002401,0.016995,-0.489451,0.068148,0.287234,-261.347089,-0.294733,66.061652
0.0009,-0.017498,0.019386,0.069276,0.004197,-1.7e-05,0.002058,0.01676,-0.489394,0.068101,0.287234,-261.345049,-0.294733,66.063696
0.0013,-0.017132,0.019337,0.069076,0.003456,-1.4e-05,0.001694,0.01676,-0.489394,0.068101,0.287234,-261.343608,-0.294733,66.06514
0.0015,-0.017167,0.019298,0.069392,0.002649,-1.1e-05,0.001299,0.017886,-0.488996,0.069467,0.287234,-261.343608,-0.294733,66.06514
0.0018,-0.017025,0.018875,0.068887,0.001819,-7e-06,0.000892,0.017886,-0.488996,0.069467,0.287234,-261.343608,-0.294733,66.06514
0.002,-0.016792,0.019526,0.070351,0.000934,-4e-06,0.000458,0.017886,-0.488996,0.069467,0.287234,-261.343608,-0.294733,66.06514
0.0165,-0.01696,0.019463,0.069084,0.0,0.0,0.0,0.018105,-0.489874,0.06894,0.287234,-261.343608,-0.294733,66.06514
0.0363,-0.016828,0.019135,0.070201,0.0,0.0,0.0,0.018284,-0.489317,0.069103,0.287234,-261.343218,-0.294733,66.06553
0.0567,-0.01725,0.019725,0.070464,0.0,0.0,0.0,0.018557,-0.489436,0.069552,0.287234,-261.343218,-0.294733,66.06553
0.0765,-0.016738,0.019474,0.070191,0.0,0.0,0.0,0.018657,-0.489009,0.070464,0.287234,-261.343218,-0.294733,66.06553
0.0968,-0.016732,0.019393,0.068829,0.0,0.0,0.0,0.018996,-0.489246,0.070215,0.287234,-261.343218,-0.294733,66.06553
0.1164,-0.016683,0.019455,0.069696,-0.003997,0.000512,-0.005567,0.018996,-0.489246,0.070215,0.287234,-261.343218,-0.294733,66.06553
0.1367,-0.016583,0.019576,0.069544,-0.004341,0.000571,-0.00605,0.018834,-0.489307,0.069696,0.287234,-261.343218,-0.294733,66.06553
0.1569,-0.017055,0.01937,0.069358,-0.004626,0.000618,-0.006473,0.018843,-0.48926,0.069634,0.287234,-261.343218,-0.294733,66.06553
0.1769,-0.017208,0.019643,0.06879,-0.004869,0.000659,-0.006826,0.018289,-0.489404,0.069358,0.362201,-261.343225,-0.3697,66.065522
0.1964,-0.016968,0.019266,0.069003,-0.005054,0.000674,-0.00714,0.017885,-0.489172,0.068838,0.362201,-261.343225,-0.3697,66.065522
0.2169,-0.016927,0.019623,0.069791,-0.005212,0.000687,-0.007402,0.017885,-0.489172,0.068838,0.362201,-261.343225,-0.3697,66.065522
0.2364,-0.016688,0.020068,0.069971,-0.005347,0.000699,-0.007621,0.018633,-0.489136,0.069787,0.437365,-261.343274,-0.444864,66.065467
0.2564,-0.016866,0.019372,0.068345,-0.005476,0.000722,-0.007824,0.018768,-0.488953,0.069861,0.437365,-261.343274,-0.444864,66.065467
0.2763,-0.016956,0.019536,0.068844,-0.005587,0.000741,-0.007994,0.017947,-0.489438,0.06833,0.512359,-261.343484,-0.519858,66.065229
0.2968,-0.016616,0.019497,0.068744,-0.005672,0.000748,-0.008157,0.018109,-0.489273,0.068795,0.512359,-261.343484,-0.519858,66.065229
0.3165,-0.016823,0.019765,0.069705,-0.005745,0.000755,-0.008294,0.018109,-0.489273,0.068795,0.512359,-261.343484,-0.519858,66.065229
0.3363,-0.016994,0.019526,0.069656,-0.005808,0.00076,-0.008408,0.018635,-0.488998,0.069636,0.587363,-261.344153,-0.594862,66.064465
0.3567,-0.016842,0.019397,0.069729,-0.005868,0.000771,-0.008549,0.018574,-0.489096,0.069637,0.587363,-261.344153,-0.594862,66.064465
0.3764,-0.017135,0.01946,0.068542,-0.00592,0.00078,-0.008667,0.018592,-0.489365,0.069604,0.6456,-261.345618,-0.669815,66.062798
0.3969,-0.01685,0.019709,0.068469,-0.005952,0.000776,-0.008766,0.017859,-0.489345,0.068628,0.6456,-261.345618,-0.669815,66.062798
0.417,-0.016566,0.01972,0.069072,-0.00598,0.000773,-0.008849,0.017859,-0.489345,0.068628,0.6456,-261.345618,-0.669815,66.062798
0.4366,-0.017174,0.01997,0.068235,-0.006005,0.000771,-0.008917,0.018436,-0.489058,0.068802,0.651474,-261.347902,-0.744829,66.060196
0.4568,-0.017181,0.019239,0.07115,-0.006024,0.000767,-0.009017,0.018073,-0.48897,0.068541,0.651474,-261.347902,-0.744829,66.060196
0.4762,-0.017103,0.019686,0.069448,-0.006041,0.000764,-0.0091,0.018894,-0.48946,0.070882,0.661609,-261.350778,-0.802762,66.056929
0.4967,-0.01705,0.019194,0.06989,-0.006063,0.000769,-0.009202,0.018332,-0.489118,0.069562,0.661609,-261.350778,-0.802762,66.056929
0.5171,-0.017359,0.019795,0.066331,-0.006082,0.000773,-0.009287,0.018332,-0.489118,0.069562,0.661609,-261.350778,-0.802762,66.056929
0.5366,-0.017296,0.019172,0.068285,-0.006098,0.000777,-0.009358,0.016189,-0.489069,0.065949,0.67073,-261.353863,-0.808126,66.053432
0.5566,-0.017324,0.019675,0.068756,-0.006077,0.000749,-0.009448,0.016687,-0.489296,0.066842,0.67073,-261.353863,-0.808126,66.053432
0.5762,-0.017429,0.019813,0.067795,-0.00606,0.000725,-0.009522,0.01752,-0.489109,0.068459,0.680714,-261.356991,-0.816737,66.049881
0.5965,-0.017288,0.019749,0.068053,-0.006051,0.00071,-0.009613,0.017144,-0.489023,0.067837,0.680714,-261.356991,-0.816737,66.049881
0.6163,-0.017567,0.019399,0.067788,-0.006043,0.000698,-0.009688,0.017144,-0.489023,0.067837,0.680714,-261.356991,-0.816737,66.049881
0.6369,-0.01763,0.019897,0.067184,-0.006037,0.000689,-0.00975,0.016726,-0.489416,0.067392,0.698731,-261.360134,-0.823559,66.04634
0.6565,-0.017237,0.019799,0.066648,-0.006023,0.000673,-0.00983,0.016649,-0.489227,0.067263,0.698731,-261.360134,-0.823559,66.04634
0.6769,-0.017328,0.019789,0.066446,-0.006011,0.00066,-0.009896,0.016536,-0.48906,0.066339,0.717294,-261.363321,-0.833151,66.042769
0.6969,-0.017751,0.019757,0.065048,-0.005995,0.000643,-0.009979,0.016525,-0.489082,0.06642,0.717294,-261.363321,-0.833151,66.042769
0.717,-0.017267,0.019748,0.065843,-0.005981,0.00063,-0.010048,0.016525,-0.489082,0.06642,0.717294,-261.363321,-0.833151,66.042769
0.7364,-0.017276,0.019996,0.065676,-0.005969,0.000618,-0.010105,0.016037,-0.489135,0.065431,0.73042,-261.366533,-0.839789,66.039185
0.7564,-0.017379,0.019374,0.065922,-0.005945,0.000599,-0.010181,0.016072,-0.489041,0.065482,0.73042,-261.366533,-0.839789,66.039185
0.7762,-0.017588,0.019798,0.065423,-0.005926,0.000582,-0.010243,0.016027,-0.489511,0.065602,0.749378,-261.369775,-0.849716,66.03559
0.7966,-0.017657,0.019426,0.065581,-0.005902,0.000563,-0.01032,0.015768,-0.489145,0.065423,0.749378,-261.369775,-0.849716,66.03559
0.8163,-0.017536,0.019697,0.066142,-0.005883,0.000547,-0.010383,0.015768,-0.489145,0.065423,0.749378,-261.369775,-0.849716,66.03559
0.8365,-0.017902,0.01963,0.064348,-0.005866,0.000534,-0.010435,0.015923,-0.48918,0.065715,0.763724,-261.373044,-0.856762,66.031984
0.8565,-0.017735,0.020037,0.065205,-0.005844,0.000518,-0.010498,0.01547,-0.489234,0.065103,0.763724,-261.373044,-0.856762,66.031984
0.8769,-0.017512,0.019722,0.064193,-0.005826,0.000505,-0.010551,0.01531,-0.488874,0.064876,0.783124,-261.376324,-0.866793,66.028393
0.8969,-0.017628,0.020022,0.063305,-0.005802,0.000487,-0.010609,0.015204,-0.489196,0.064238,0.783124,-261.376324,-0.866793,66.028393
0.9168,-0.017913,0.020103,0.064074,-0.005782,0.000472,-0.010657,0.015204,-0.489196,0.064238,0.783124,-261.376324,-0.866793,66.028393
0.9364,-0.01755,0.019956,0.06332,-0.005764,0.00046,-0.010697,0.014499,-0.488845,0.063634,0.795008,-261.379647,-0.873039,66.024772
0.9568,-0.017495,0.019822,0.063209,-0.005727,0.000433,-0.010739,0.014562,-0.488917,0.063454,0.795008,-261.379647,-0.873039,66.024772
0.9769,-0.017757,0.019806,0.064015,-0.005695,0.00041,-0.010774,0.014536,-0.489156,0.062869,0.811495,-261.382978,-0.881412,66.021166
0.9969,-0.017706,0.020223,0.062611,-0.00568,0.0004,-0.010809,0.01483,-0.48915,0.063899,0.811495,-261.382978,-0.881412,66.021166
1.0165,-0.017387,0.020025,0.063804,-0.005666,0.000391,-0.010837,0.01483,-0.48915,0.063899,0.811495,-261.382978,-0.881412,66.021166
1.0366,-0.017885,0.020316,0.062467,-0.005655,0.000384,-0.010861,0.014893,-0.488936,0.063356,0.825431,-261.38632,-0.887156,66.017577
1.0569,-0.017754,0.019523,0.061713,-0.00563,0.000366,-0.010884,0.014483,-0.488835,0.062942,0.825431,-261.38632,-0.887156,66.017577
1.0764,-0.017767,0.019764,0.059562,-0.005609,0.000352,-0.010904,0.013519,-0.489505,0.061368,0.835309,-261.38969,-0.892467,66.013975
1.0967,-0.017506,0.019702,0.062185,-0.005544,0.000308,-0.010924,0.012662,-0.489346,0.059699,0.835309,-261.38969,-0.892467,66.013975
1.117,-0.017483,0.019745,0.063121,-0.005489,0.000271,-0.01094,0.012662,-0.489346,0.059699,0.835309,-261.38969,-0.892467,66.013975
1.1368,-0.017961,0.019573,0.063005,-0.005443,0.00024,-0.010954,0.014452,-0.489239,0.062665,0.844007,-261.393059,-0.89609,66.01039
1.1563,-0.017893,0.019791,0.061561,-0.005453,0.000248,-0.010968,0.014302,-0.48931,0.062751,0.844007,-261.393059,-0.89609,66.01039
1.1764,-0.017396,0.020211,0.06162,-0.005462,0.000255,-0.01098,0.013312,-0.489246,0.061216,0.869888,-261.396392,-0.905057,66.006911
1.1964,-0.017682,0.019897,0.060514,-0.005451,0.000248,-0.010993,0.013936,-0.488861,0.061565,0.869888,-261.396392,-0.905057,66.006911
1.2163,-0.017588,0.019843,0.059827,-0.005441,0.000241,-0.011004,0.013936,-0.488861,0.061565,0.869888,-261.396392,-0.905057,66.006911
1.2363,-0.01767,0.019792,0.060166,-0.005433,0.000236,-0.011013,0.012677,-0.489247,0.059368,0.86823,-261.399778,-0.905516,66.003366
1.2567,-0.017732,0.020028,0.060243,-0.005397,0.000212,-0.011023,0.012783,-0.489264,0.059645,0.86823,-261.399778,-0.905516,66.003366
1.2764,-0.017525,0.019854,0.060543,-0.005367,0.000192,-0.011031,0.012801,-0.48905,0.059894,0.873873,-261.40316,-0.908152,65.999837
1.297,-0.017601,0.019676,0.060689,-0.005356,0.000185,-0.01104,0.013279,-0.489198,0.06047,0.873873,-261.40316,-0.908152,65.999837
1.3165,-0.017544,0.019992,0.05952,-0.005347,0.000179,-0.011048,0.013279,-0.489198,0.06047,0.873873,-261.40316,-0.908152,65.999837
1.3366,-0.017277,0.020063,0.058317,-0.005339,0.000174,-0.011054,0.012569,-0.48911,0.05906,0.883995,-261.406536,-0.91182,65.996342
1.3565,-0.017365,0.019863,0.057714,-0.005305,0.000153,-0.011062,0.012494,-0.489094,0.058703,0.883995,-261.406536,-0.91182,65.996342
1.3764,-0.017813,0.019962,0.058269,-0.005277,0.000135,-0.011068,0.011883,-0.489292,0.057363,0.888981,-261.409927,-0.914101,65.992842
1.3965,-0.01722,0.01976,0.060482,-0.005234,0.000108,-0.011074,0.011879,-0.489183,0.058174,0.888981,-261.409927,-0.914101,65.992842
1.4166,-0.0178,0.020403,0.058899,-0.005199,8.6e-05,-0.01108,0.011879,-0.489183,0.058174,0.888981,-261.409927,-0.914101,65.992842
1.4371,-0.018179,0.020055,0.057405,-0.005168,6.7e-05,-0.011085,0.012001,-0.488719,0.058437,0.898223,-261.41331,-0.917536,65.989373
1.4567,-0.017628,0.020454,0.058743,-0.005129,4.4e-05,-0.01109,0.011596,-0.488879,0.057957,0.898223,-261.41331,-0.917536,65.989373
1.4762,-0.017414,0.020173,0.058391,-0.005096,2.3e-05,-0.011094,0.01215,-0.488674,0.058393,0.913917,-261.416682,-0.923527,65.985959
1.4968,-0.017188,0.020031,0.059789,-0.005092,2.1e-05,-0.011098,0.012324,-0.488934,0.058375,0.913917,-261.416682,-0.923527,65.985959
1.5164,-0.017596,0.019939,0.057872,-0.005089,1.9e-05,-0.011102,0.012324,-0.488934,0.058375,0.913917,-261.416682,-0.923527,65.985959
1.5366,-0.017628,0.019653,0.057201,-0.005086,1.8e-05,-0.011105,0.01169,-0.489219,0.05741,0.924323,-261.420058,-0.927652,65.982568
1.5567,-0.017837,0.020185,0.055934,-0.005066,6e-06,-0.011109,0.011599,-0.489342,0.05727,0.924323,-261.420058,-0.927652,65.982568
1.5764,-0.017284,0.020068,0.055442,-0.005049,-4e-06,-0.011112,0.010513,-0.489026,0.055581,0.926157,-261.423441,-0.928638,65.979173
1.5963,-0.017535,0.020187,0.056987,-0.005007,-2.8e-05,-0.011115,0.010928,-0.489138,0.055436,0.926157,-261.423441,-0.928638,65.979173
1.6169,-0.017993,0.020308,0.056573,-0.004972,-4.8e-05,-0.011117,0.010928,-0.489138,0.055436,0.926157,-261.423441,-0.928638,65.979173
1.6364,-0.017592,0.019856,0.056677,-0.004943,-6.5e-05,-0.011119,0.010633,-0.488888,0.056108,0.931478,-261.42682,-0.930875,65.975797
1.6569,-0.017033,0.020002,0.055283,-0.004916,-8e-05,-0.011121,0.010879,-0.489067,0.056286,0.931478,-261.42682,-0.930875,65.975797
1.6766,-0.017231,0.019875,0.055565,-0.004893,-9.2e-05,-0.011123,0.010991,-0.48923,0.054931,0.946119,-261.430187,-0.93708,65.972471
1.6966,-0.017571,0.020527,0.053818,-0.004884,-9.7e-05,-0.011125,0.011076,-0.489329,0.055491,0.946119,-261.430187,-0.93708,65.972471
1.7168,-0.017331,0.020241,0.055947,-0.004877,-0.000101,-0.011127,0.011076,-0.489329,0.055491,0.946119,-261.430187,-0.93708,65.972471
1.7366,-0.017139,0.020165,0.05439,-0.00487,-0.000105,-0.011129,0.010983,-0.488977,0.055481,0.952954,-261.433566,-0.940085,65.969152
1.7569,-0.017274,0.019803,0.054259,-0.00485,-0.000116,-0.01113,0.010797,-0.489021,0.054982,0.952954,-261.433566,-0.940085,65.969152
1.7765,-0.017685,0.019901,0.052655,-0.004833,-0.000125,-0.011132,0.01023,-0.489458,0.053905,0.95631,-261.436946,-0.941696,65.965841
1.7969,-0.017382,0.020091,0.053906,-0.004766,-0.000159,-0.011133,0.009241,-0.489398,0.052744,0.95631,-261.436946,-0.941696,65.965841
1.8167,-0.017197,0.020024,0.053556,-0.00471,-0.000187,-0.011134,0.009241,-0.489398,0.052744,0.95631,-261.436946,-0.941696,65.965841
1.8367,-0.017146,0.019757,0.054302,-0.004662,-0.00021,-0.011135,0.009902,-0.489261,0.05309,0.961424,-261.440323,-0.944034,65.962545
1.857,-0.017142,0.019843,0.054975,-0.004656,-0.000214,-0.011136,0.010138,-0.489357,0.053532,0.961424,-261.440323,-0.944034,65.962545
1.8767,-0.017118,0.0198,0.052282,-0.00465,-0.000217,-0.011137,0.010734,-0.489402,0.054623,0.983938,-261.443655,-0.955068,65.959351
1.8964,-0.016973,0.019957,0.052834,-0.004628,-0.000228,-0.011138,0.009631,-0.489495,0.052468,0.983938,-261.443655,-0.955068,65.959351
1.9164,-0.017263,0.019939,0.05416,-0.00461,-0.000238,-0.011138,0.009631,-0.489495,0.052468,0.983938,-261.443655,-0.955068,65.959351
1.9366,-0.017191,0.020054,0.053421,-0.004594,-0.000246,-0.011139,0.010152,-0.489333,0.053695,0.985665,-261.447024,-0.955898,65.956125
1.9568,-0.017046,0.019803,0.054317,-0.004595,-0.000245,-0.01114,0.010084,-0.489288,0.053528,0.985665,-261.447024,-0.955898,65.956125
1.9768,-0.01735,0.019727,0.051907,-0.004596,-0.000245,-0.01114,0.010497,-0.48946,0.053963,0.993213,-261.450385,-0.959723,65.952927
1.9969,-0.016713,0.019792,0.052592,-0.004568,-0.000258,-0.011141,0.009222,-0.489576,0.052066,0.993213,-261.450385,-0.959723,65.952927
2.0171,-0.016864,0.019888,0.051045,-0.004544,-0.000269,-0.011142,0.009222,-0.489576,0.052066,0.993213,-261.450385,-0.959723,65.952927
2.0364,-0.016768,0.020115,0.052684,-0.004524,-0.000279,-0.011143,0.008966,-0.489468,0.05058,0.993007,-261.453751,-0.959649,65.949723
2.0563,-0.017342,0.020118,0.051745,-0.00451,-0.000285,-0.011143,0.009405,-0.489351,0.051389,0.993007,-261.453751,-0.959649,65.949723
2.0764,-0.016964,0.020099,0.049676,-0.004499,-0.000291,-0.011144,0.008893,-0.489216,0.051391,1.002478,-261.457107,-0.964672,65.946552
2.0965,-0.017014,0.01981,0.05179,-0.004448,-0.000313,-0.011145,0.008399,-0.489268,0.049805,1.002478,-261.457107,-0.964672,65.946552
2.1165,-0.017364,0.019778,0.051264,-0.004405,-0.000332,-0.011145,0.008399,-0.489268,0.049805,1.002478,-261.457107,-0.964672,65.946552
2.1368,-0.016768,0.020274,0.049488,-0.004369,-0.000348,-0.011146,0.008582,-0.489574,0.050799,1.00584,-261.460462,-0.966494,65.943391
2.1572,-0.016832,0.019873,0.052827,-0.004346,-0.000359,-0.011146,0.008511,-0.489385,0.050213,1.00584,-261.460462,-0.966494,65.943391
2.1766,-0.017171,0.020191,0.048921,-0.004326,-0.000368,-0.011147,0.00996,-0.489434,0.052474,1.022587,-261.463796,-0.976027,65.94029
2.1969,-0.017059,0.019976,0.051348,-0.004284,-0.000385,-0.011147,0.007969,-0.489222,0.049238,1.022587,-261.463796,-0.976027,65.94029
2.2171,-0.017051,0.019921,0.049666,-0.00425,-0.000399,-0.011148,0.007969,-0.489222,0.049238,1.022587,-261.463796,-0.976027,65.94029
2.2365,-0.016967,0.019614,0.049789,-0.00422,-0.000412,-0.011148,0.008088,-0.489474,0.049199,1.028303,-261.467149,-0.979358,65.937185
2.2568,-0.016783,0.019704,0.050494,-0.00421,-0.000416,-0.011149,0.0082,-0.489591,0.049386,1.028303,-261.467149,-0.979358,65.937185
2.2765,-0.016518,0.019845,0.049033,-0.004201,-0.00042,-0.01115,0.008825,-0.489666,0.05014,1.041863,-261.47049,-0.987623,65.934124
2.2969,-0.016942,0.020156,0.047674,-0.004205,-0.000418,-0.01115,0.008501,-0.489553,0.049106,1.041863,-261.47049,-0.987623,65.934124
2.3167,-0.01713,0.01996,0.048645,-0.004208,-0.000417,-0.011151,0.008501,-0.489553,0.049106,1.041863,-261.47049,-0.987623,65.934124
2.3363,-0.016736,0.01956,0.048013,-0.00421,-0.000416,-0.011151,0.007495,-0.489463,0.04818,1.044385,-261.473821,-0.989194,65.931077
2.3568,-0.016734,0.019895,0.047707,-0.004175,-0.00043,-0.011152,0.007575,-0.489625,0.048059,1.044385,-261.473821,-0.989194,65.931077
2.3763,-0.017117,0.019851,0.048036,-0.004145,-0.000442,-0.011152,0.007454,-0.489544,0.047352,1.043258,-261.477167,-0.988544,65.928014
2.3966,-0.016507,0.019597,0.047802,-0.004111,-0.000455,-0.011153,0.007372,-0.48956,0.047958,1.043258,-261.477167,-0.988544,65.928014
2.4167,-0.016812,0.019848,0.048282,-0.004083,-0.000466,-0.011153,0.007372,-0.48956,0.047958,1.043258,-261.477167,-0.988544,65.928014
2.4369,-0.016454,0.019868,0.047421,-0.004059,-0.000475,-0.011154,0.007631,-0.489584,0.047817,1.05154,-261.480502,-0.993841,65.92498
2.4567,-0.016716,0.020045,0.047736,-0.00405,-0.000479,-0.011154,0.007648,-0.489577,0.047602,1.05154,-261.480502,-0.993841,65.92498
2.4766,-0.0166,0.019577,0.046434,-0.004042,-0.000482,-0.011155,0.007492,-0.489395,0.047382,1.062644,-261.48383,-1.001159,65.921978
2.4966,-0.016696,0.019536,0.045149,-0.004015,-0.000492,-0.011155,0.007104,-0.489832,0.046501,1.062644,-261.48383,-1.001159,65.921978
2.5169,-0.016584,0.019996,0.046075,-0.003992,-0.0005,-0.011156,0.007104,-0.489832,0.046501,1.062644,-261.48383,-1.001159,65.921978
2.5363,-0.016405,0.020084,0.046933,-0.003973,-0.000507,-0.011156,0.006738,-0.489491,0.045608,1.064798,-261.487174,-1.002602,65.918966
2.5564,-0.016264,0.019862,0.045225,-0.00395,-0.000515,-0.011157,0.007044,-0.489437,0.046104,1.064798,-261.487174,-1.002602,65.918966
2.5764,-0.015829,0.019729,0.046108,-0.00393,-0.000523,-0.011157,0.006668,-0.489638,0.044872,1.073539,-261.490495,-1.008622,65.915994
2.5963,-0.016678,0.019883,0.045705,-0.003939,-0.000519,-0.011158,0.007584,-0.489722,0.045983,1.073539,-261.490495,-1.008622,65.915994
2.6163,-0.016053,0.019346,0.044382,-0.003947,-0.000516,-0.011158,0.007584,-0.489722,0.045983,1.073539,-261.490495,-1.008622,65.915994
2.6362,-0.016398,0.019642,0.046381,-0.003953,-0.000514,-0.011159,0.006411,-0.490181,0.043915,1.079052,-261.493817,-1.012484,65.913033
2.6569,-0.016039,0.019971,0.043912,-0.003925,-0.000523,-0.011159,0.006731,-0.490034,0.04486,1.079052,-261.493817,-1.012484,65.913033
2.6767,-0.016091,0.019332,0.046298,-0.003901,-0.000532,-0.01116,0.006223,-0.489559,0.043556,1.076164,-261.497149,-1.010556,65.910057
2.6967,-0.016071,0.0198,0.04428,-0.003911,-0.000528,-0.01116,0.00739,-0.490072,0.046034,1.076164,-261.497149,-1.010556,65.910057
2.7165,-0.016423,0.01978,0.045549,-0.00392,-0.000525,-0.011161,0.00739,-0.490072,0.046034,1.076164,-261.497149,-1.010556,65.910057
2.7368,-0.016154,0.019648,0.044321,-0.003927,-0.000522,-0.011161,0.006636,-0.489721,0.045081,1.082684,-261.500477,-1.01521,65.907097
2.7565,-0.016025,0.019584,0.042729,-0.003891,-0.000534,-0.011161,0.006539,-0.489777,0.044719,1.082684,-261.500477,-1.01521,65.907097
2.7762,-0.015692,0.019532,0.042053,-0.003862,-0.000544,-0.011162,0.005636,-0.489973,0.042375,1.079484,-261.503806,-1.013049,65.90413
2.7963,-0.015851,0.020077,0.042762,-0.003801,-0.000564,-0.011162,0.005733,-0.490015,0.042063,1.079484,-261.503806,-1.013049,65.90413
2.8166,-0.016209,0.019432,0.042584,-0.003751,-0.00058,-0.011162,0.005733,-0.490015,0.042063,1.079484,-261.503806,-1.013049,65.90413
2.8369,-0.016175,0.01974,0.041687,-0.003708,-0.000593,-0.011163,0.005342,-0.490135,0.042119,1.087659,-261.507127,-1.018933,65.901188
2.8563,-0.015683,0.019528,0.042781,-0.003648,-0.000611,-0.011163,0.005216,-0.490009,0.041888,1.087659,-261.507127,-1.018933,65.901188
2.8766,-0.015752,0.01956,0.041464,-0.003598,-0.000626,-0.011163,0.006013,-0.490029,0.042429,1.106875,-261.510404,-1.033533,65.898322
2.8966,-0.015424,0.020024,0.043019,-0.003566,-0.000635,-0.011164,0.005439,-0.490006,0.041534,1.106875,-261.510404,-1.033533,65.898322
2.9166,-0.015739,0.01966,0.042812,-0.003539,-0.000644,-0.011164,0.005439,-0.490006,0.041534,1.106875,-261.510404,-1.033533,65.898322
2.9364,-0.015466,0.019531,0.041784,-0.003516,-0.000651,-0.011164,0.005939,-0.489905,0.042346,1.120505,-261.5137,-1.044393,65.895467
2.9564,-0.015373,0.019406,0.041545,-0.003517,-0.000651,-0.011165,0.005881,-0.489957,0.042062,1.120505,-261.5137,-1.044393,65.895467
2.9763,-0.015475,0.019985,0.040425,-0.003518,-0.000651,-0.011165,0.005698,-0.490179,0.041191,1.130784,-261.516994,-1.052651,65.892634
2.9963,-0.015488,0.019861,0.041558,-0.003482,-0.000661,-0.011165,0.00518,-0.48965,0.040474,1.130784,-261.516994,-1.052651,65.892634
3.0165,-0.015534,0.019386,0.042212,-0.003453,-0.000669,-0.011166,0.00518,-0.48965,0.040474,1.130784,-261.516994,-1.052651,65.892634
3.0366,-0.015398,0.019392,0.041026,-0.003427,-0.000676,-0.011166,0.005842,-0.490194,0.041745,1.130676,-261.520291,-1.052496,65.889799
3.0566,-0.015431,0.019311,0.040851,-0.003436,-0.000674,-0.011166,0.005695,-0.490191,0.041401,1.130676,-261.520291,-1.052496,65.889799
3.0762,-0.014961,0.019738,0.039775,-0.003443,-0.000672,-0.011167,0.005289,-0.490289,0.040497,1.141927,-261.523583,-1.061894,65.886989
3.0964,-0.015359,0.019481,0.038848,-0.003427,-0.000677,-0.011167,0.005311,-0.489896,0.039818,1.141927,-261.523583,-1.061894,65.886989
3.1165,-0.015396,0.019672,0.039581,-0.003413,-0.000681,-0.011167,0.005311,-0.489896,0.039818,1.141927,-261.523583,-1.061894,65.886989
3.1367,-0.015168,0.019497,0.039281,-0.003402,-0.000684,-0.011167,0.004642,-0.489962,0.039114,1.140076,-261.526874,-1.060318,65.884176
3.1566,-0.015124,0.019479,0.038133,-0.003365,-0.000693,-0.011167,0.004714,-0.490026,0.039128,1.140076,-261.526874,-1.060318,65.884176
3.1763,-0.014837,0.019331,0.039347,-0.003335,-0.000701,-0.011168,0.004212,-0.490176,0.037777,1.145206,-261.53018,-1.064641,65.881361
3.1963,-0.014994,0.019591,0.039857,-0.003331,-0.000702,-0.011168,0.005138,-0.490268,0.039204,1.145206,-261.53018,-1.064641,65.881361
3.2162,-0.015329,0.019512,0.03983,-0.003328,-0.000703,-0.011168,0.005138,-0.490268,0.039204,1.145206,-261.53018,-1.064641,65.881361
3.2363,-0.015041,0.019302,0.039172,-0.003325,-0.000704,-0.011168,0.004841,-0.490119,0.039365,1.1535,-261.533456,-1.071896,65.878586
3.2564,-0.014733,0.019472,0.038234,-0.003309,-0.000708,-0.011169,0.004862,-0.4902,0.039232,1.1535,-261.533456,-1.071896,65.878586
3.2763,-0.014779,0.01948,0.036292,-0.003296,-0.000711,-0.011169,0.004657,-0.490182,0.037879,1.154712,-261.536748,-1.07294,65.8758
3.2966,-0.014743,0.019224,0.039126,-0.003232,-0.000725,-0.011168,0.003805,-0.490186,0.036419,1.154712,-261.536748,-1.07294,65.8758
3.3164,-0.014807,0.019311,0.038193,-0.003179,-0.000736,-0.011168,0.003805,-0.490186,0.036419,1.154712,-261.536748,-1.07294,65.8758
3.3362,-0.014644,0.019599,0.036623,-0.003134,-0.000746,-0.011168,0.00453,-0.490352,0.037726,1.158288,-261.540034,-1.076102,65.873025
3.3564,-0.014771,0.019489,0.037258,-0.003122,-0.000749,-0.011168,0.00431,-0.490236,0.037221,1.158288,-261.540034,-1.076102,65.873025
3.3761,-0.014279,0.019628,0.037321,-0.003112,-0.000752,-0.011168,0.004129,-0.490185,0.036907,1.17813,-261.543273,-1.09451,65.870322
3.3962,-0.014533,0.019224,0.035241,-0.003119,-0.00075,-0.011168,0.004692,-0.490032,0.037268,1.17813,-261.543273,-1.09451,65.870322
3.4165,-0.014472,0.019432,0.038675,-0.003126,-0.000749,-0.011169,0.004692,-0.490032,0.037268,1.17813,-261.543273,-1.09451,65.870322
3.4362,-0.014416,0.019172,0.036279,-0.003131,-0.000748,-0.011169,0.005119,-0.490223,0.038207,1.180929,-261.546546,-1.097052,65.867595
3.4563,-0.014429,0.019046,0.036678,-0.003138,-0.000747,-0.011169,0.00468,-0.490337,0.037365,1.180929,-261.546546,-1.097052,65.867595
3.4768,-0.014054,0.01954,0.03482,-0.003143,-0.000746,-0.01117,0.004174,-0.490639,0.036323,1.178562,-261.549823,-1.094759,65.864862
3.4969,-0.01443,0.019471,0.03578,-0.003099,-0.000755,-0.01117,0.003736,-0.490195,0.034932,1.178562,-261.549823,-1.094759,65.864862
3.5169,-0.014133,0.019381,0.036887,-0.003062,-0.000762,-0.011169,0.003736,-0.490195,0.034932,1.178562,-261.549823,-1.094759,65.864862
3.5366,-0.01443,0.019025,0.035602,-0.003032,-0.000768,-0.011169,0.004545,-0.490308,0.03642,1.177131,-261.5531,-1.093422,65.862126
3.5567,-0.014188,0.019603,0.034625,-0.003031,-0.000769,-0.01117,0.004193,-0.490453,0.036031,1.177131,-261.5531,-1.093422,65.862126
3.5766,-0.014241,0.019225,0.034202,-0.00303,-0.000769,-0.01117,0.003373,-0.490119,0.034272,1.19078,-261.556352,-1.106488,65.859432
3.5968,-0.013986,0.019081,0.033744,-0.00298,-0.000778,-0.011169,0.00321,-0.490447,0.034191,1.19078,-261.556352,-1.106488,65.859432
3.6167,-0.014096,0.019436,0.035074,-0.002937,-0.000786,-0.011169,0.00321,-0.490447,0.034191,1.19078,-261.556352,-1.106488,65.859432
3.6366,-0.013956,0.019327,0.033883,-0.002902,-0.000792,-0.011169,0.003663,-0.490286,0.034607,1.190994,-261.559621,-1.106665,65.856725
3.6569,-0.01363,0.019485,0.03489,-0.002887,-0.000795,-0.011168,0.003509,-0.490329,0.034257,1.190994,-261.559621,-1.106665,65.856725
3.6764,-0.013358,0.019177,0.032808,-0.002874,-0.000798,-0.011168,0.004069,-0.490232,0.034537,1.206602,-261.562856,-1.122186,65.854068
3.6963,-0.014232,0.019374,0.032745,-0.002859,-0.0008,-0.011168,0.003426,-0.490522,0.032939,1.206602,-261.562856,-1.122186,65.854068
3.7166,-0.013719,0.019168,0.033763,-0.002846,-0.000803,-0.011167,0.003426,-0.490522,0.032939,1.206602,-261.562856,-1.122186,65.854068
3.7372,-0.01358,0.019253,0.031371,-0.002835,-0.000804,-0.011167,0.003378,-0.490579,0.033296,1.210081,-261.566109,-1.125627,65.851401
3.7563,-0.013645,0.019192,0.033253,-0.002804,-0.000809,-0.011167,0.002976,-0.49055,0.032465,1.210081,-261.566109,-1.125627,65.851401
3.7767,-0.013265,0.018736,0.032109,-0.002778,-0.000813,-0.011166,0.003222,-0.490554,0.032898,1.214766,-261.569361,-1.13035,65.848743
3.7967,-0.013642,0.019213,0.032945,-0.002764,-0.000816,-0.011166,0.003114,-0.49096,0.032165,1.214766,-261.569361,-1.13035,65.848743
3.8167,-0.013523,0.018791,0.032158,-0.002753,-0.000817,-0.011166,0.003114,-0.49096,0.032165,1.214766,-261.569361,-1.13035,65.848743
3.8368,-0.013137,0.018942,0.033026,-0.002744,-0.000819,-0.011166,0.00276,-0.490983,0.031692,1.221815,-261.572605,-1.137645,65.8461
3.8563,-0.013665,0.019191,0.030508,-0.002736,-0.00082,-0.011166,0.003132,-0.490905,0.032183,1.221815,-261.572605,-1.137645,65.8461
3.8763,-0.013166,0.01911,0.030635,-0.00273,-0.000821,-0.011166,0.001805,-0.4906,0.030153,1.225963,-261.575851,-1.141986,65.843461
3.8966,-0.013122,0.018823,0.030513,-0.002685,-0.000826,-0.011165,0.002395,-0.490648,0.030576,1.225963,-261.575851,-1.141986,65.843461
3.9164,-0.013197,0.019199,0.030846,-0.002648,-0.000831,-0.011165,0.002395,-0.490648,0.030576,1.225963,-261.575851,-1.141986,65.843461
3.9365,-0.013117,0.018867,0.030057,-0.002616,-0.000836,-0.011165,0.002419,-0.490596,0.030379,1.227577,-261.579111,-1.143687,65.840813
3.9567,-0.013092,0.018685,0.029415,-0.002586,-0.000839,-0.011164,0.002318,-0.490729,0.03019,1.227577,-261.579111,-1.143687,65.840813
3.9765,-0.013088,0.018565,0.030007,-0.002561,-0.000842,-0.011164,0.001826,-0.491123,0.029065,1.241428,-261.582311,-1.158568,65.83823
3.9963,-0.01244,0.018612,0.029264,-0.002534,-0.000845,-0.011164,0.002177,-0.4912,0.02991,1.241428,-261.582311,-1.158568,65.83823
4.0163,-0.012778,0.019202,0.030679,-0.002511,-0.000848,-0.011163,0.002177,-0.4912,0.02991,1.241428,-261.582311,-1.158568,65.83823
4.0364,-0.012971,0.019072,0.030164,-0.002491,-0.00085,-0.011163,0.00276,-0.490596,0.030214,1.248198,-261.585537,-1.165948,65.835633
4.0565,-0.012692,0.018546,0.029484,-0.002496,-0.000849,-0.011163,0.002603,-0.490642,0.030139,1.248198,-261.585537,-1.165948,65.835633
4.0766,-0.012585,0.018991,0.028765,-0.002499,-0.000849,-0.011163,0.002264,-0.491262,0.029129,1.25663,-261.588747,-1.175316,65.833058
4.0969,-0.012496,0.018712,0.028078,-0.002476,-0.000852,-0.011163,0.002097,-0.490847,0.028781,1.25663,-261.588747,-1.175316,65.833058
4.1166,-0.012369,0.018913,0.028553,-0.002456,-0.000854,-0.011163,0.002097,-0.490847,0.028781,1.25663,-261.588747,-1.175316,65.833058
4.1367,-0.012466,0.018861,0.028256,-0.002439,-0.000855,-0.011162,0.002088,-0.490917,0.028085,1.255694,-261.591973,-1.174264,65.83047
4.1564,-0.012243,0.018928,0.028907,-0.002421,-0.000857,-0.011162,0.002017,-0.490929,0.0281,1.255694,-261.591973,-1.174264,65.83047
4.1761,-0.012341,0.018704,0.02807,-0.002406,-0.000858,-0.011162,0.00242,-0.490889,0.028551,1.262958,-261.595187,-1.182416,65.827898
4.1966,-0.012124,0.018759,0.027451,-0.002393,-0.000859,-0.011162,0.002009,-0.491078,0.028095,1.262958,-261.595187,-1.182416,65.827898
4.2167,-0.011998,0.018763,0.027513,-0.002382,-0.00086,-0.011162,0.002009,-0.491078,0.028095,1.262958,-261.595187,-1.182416,65.827898
4.2368,-0.01178,0.018586,0.026357,-0.002373,-0.000861,-0.011162,0.001932,-0.491083,0.027046,1.267048,-261.598403,-1.187062,65.825329
4.2567,-0.011807,0.018532,0.025705,-0.002354,-0.000862,-0.011162,0.00181,-0.49115,0.026711,1.267048,-261.598403,-1.187062,65.825329
4.2764,-0.011994,0.018578,0.027315,-0.002338,-0.000864,-0.011162,0.001226,-0.491329,0.02535,1.271032,-261.601616,-1.191645,65.822765
4.2968,-0.011809,0.018385,0.025898,-0.002328,-0.000864,-0.011162,0.001868,-0.491242,0.027123,1.271032,-261.601616,-1.191645,65.822765
4.3165,-0.012026,0.018837,0.026132,-0.00232,-0.000865,-0.011162,0.001868,-0.491242,0.027123,1.271032,-261.601616,-1.191645,65.822765
4.3369,-0.011564,0.018381,0.026465,-0.002313,-0.000865,-0.011162,0.001203,-0.491027,0.025665,1.275304,-261.604825,-1.196585,65.820209
4.3567,-0.011898,0.01877,0.026954,-0.002287,-0.000867,-0.011162,0.001488,-0.4912,0.025937,1.275304,-261.604825,-1.196585,65.820209
4.3761,-0.011417,0.018441,0.024764,-0.002264,-0.000868,-0.011162,0.001774,-0.491075,0.026599,1.278301,-261.608033,-1.200094,65.817656
4.3966,-0.011494,0.018575,0.02458,-0.002232,-0.00087,-0.011161,0.001258,-0.491375,0.02491,1.278301,-261.608033,-1.200094,65.817656
4.4167,-0.01153,0.018291,0.025496,-0.002206,-0.000872,-0.011161,0.001258,-0.491375,0.02491,1.278301,-261.608033,-1.200094,65.817656
4.4372,-0.011406,0.018356,0.023934,-0.002184,-0.000873,-0.011161,0.001378,-0.491582,0.025028,1.284293,-261.611233,-1.207105,65.815113
4.457,-0.011683,0.018392,0.024618,-0.002159,-0.000874,-0.011161,0.001136,-0.491553,0.024538,1.284293,-261.611233,-1.207105,65.815113
4.4762,-0.011111,0.018714,0.02487,-0.002137,-0.000875,-0.011161,0.000801,-0.491483,0.02426,1.294073,-261.614418,-1.218704,65.81259
4.4969,-0.011307,0.018484,0.024572,-0.002139,-0.000874,-0.011161,0.001497,-0.491163,0.024796,1.294073,-261.614418,-1.218704,65.81259
4.5169,-0.010846,0.018508,0.024342,-0.00214,-0.000874,-0.011161,0.001497,-0.491163,0.024796,1.294073,-261.614418,-1.218704,65.81259
4.5366,-0.010769,0.01847,0.022982,-0.002141,-0.000874,-0.011161,0.001478,-0.49138,0.023875,1.299726,-261.617607,-1.225491,65.810067
4.5567,-0.011094,0.018567,0.023372,-0.002128,-0.000875,-0.011161,0.001258,-0.491391,0.023465,1.299726,-261.617607,-1.225491,65.810067
4.5764,-0.010972,0.018517,0.024348,-0.002117,-0.000875,-0.011161,0.000757,-0.491323,0.023015,1.299303,-261.620801,-1.225018,65.80754
4.5964,-0.010846,0.018266,0.022821,-0.002115,-0.000875,-0.011161,0.001379,-0.491333,0.024209,1.299303,-261.620801,-1.225018,65.80754
4.6165,-0.010465,0.01834,0.023459,-0.002113,-0.000875,-0.011162,0.001379,-0.491333,0.024209,1.299303,-261.620801,-1.225018,65.80754
4.6365,-0.010595,0.018071,0.022345,-0.002112,-0.000875,-0.011162,0.00141,-0.491558,0.022992,1.302226,-261.623991,-1.228537,65.805018
4.6567,-0.010445,0.018331,0.022041,-0.002097,-0.000875,-0.011162,0.001153,-0.491661,0.022676,1.302226,-261.623991,-1.228537,65.805018
4.6764,-0.010915,0.018104,0.022555,-0.002085,-0.000876,-0.011162,0.000728,-0.491575,0.021684,1.302852,-261.627182,-1.22932,65.802496
4.6966,-0.010012,0.018074,0.021679,-0.002044,-0.000877,-0.011161,0.000596,-0.491751,0.022458,1.302852,-261.627182,-1.22932,65.802496
4.7165,-0.010599,0.018107,0.023186,-0.002011,-0.000877,-0.011161,0.000596,-0.491751,0.022458,1.302852,-261.627182,-1.22932,65.802496
4.7363,-0.010404,0.017983,0.022029,-0.001982,-0.000878,-0.011161,0.001139,-0.491794,0.022719,1.306122,-261.630369,-1.233292,65.799978
4.7563,-0.010449,0.018232,0.020761,-0.001981,-0.000877,-0.011161,0.001003,-0.491839,0.022384,1.306122,-261.630369,-1.233292,65.799978
4.7763,-0.010001,0.01823,0.0203,-0.00198,-0.000877,-0.011162,7.6e-05,-0.491687,0.020408,1.318629,-261.633527,-1.248626,65.797489
4.7966,-0.010131,0.018108,0.019623,-0.001939,-0.000877,-0.01116,0.000324,-0.491668,0.020292,1.318629,-261.633527,-1.248626,65.797489
4.8166,-0.010083,0.018343,0.020514,-0.001906,-0.000876,-0.011158,0.000324,-0.491668,0.020292,1.318629,-261.633527,-1.248626,65.797489
4.8366,-0.010055,0.018454,0.02207,-0.001878,-0.000875,-0.011157,0.000296,-0.491589,0.020047,1.318983,-261.636705,-1.24911,65.794985
4.8565,-0.009891,0.018393,0.01989,-0.001873,-0.000875,-0.011157,0.000655,-0.491525,0.020818,1.318983,-261.636705,-1.24911,65.794985
4.8765,-0.009499,0.018322,0.020423,-0.001869,-0.000875,-0.011157,0.000193,-0.491535,0.019537,1.331255,-261.639851,-1.264521,65.792509
4.8966,-0.010063,0.018489,0.017902,-0.001876,-0.000874,-0.011157,0.000846,-0.49157,0.020323,1.331255,-261.639851,-1.264521,65.792509
4.9165,-0.009783,0.018304,0.018339,-0.001881,-0.000874,-0.011156,0.000846,-0.49157,0.020323,1.331255,-261.639851,-1.264521,65.792509
4.9367,-0.009604,0.018339,0.019349,-0.001885,-0.000873,-0.011156,-0.000509,-0.491648,0.017871,1.332303,-261.643016,-1.26587,65.790018
4.9567,-0.009471,0.018176,0.020102,-0.00183,-0.000872,-0.011152,-0.000206,-0.491619,0.018415,1.332303,-261.643016,-1.26587,65.790018
4.9767,-0.009436,0.018179,0.018865,-0.001785,-0.000871,-0.011149,0.00072,-0.49175,0.019746,1.330314,-261.646181,-1.263526,65.787526
4.9964,-0.009829,0.017642,0.017385,-0.00177,-0.00087,-0.011148,0.00023,-0.491734,0.018926,1.330314,-261.646181,-1.263526,65.787526
5.0165,-0.009271,0.018063,0.018865,-0.001758,-0.00087,-0.011148,0.00023,-0.491734,0.018926,1.330314,-261.646181,-1.263526,65.787526
5.0371,-0.008844,0.017919,0.017831,-0.001748,-0.000869,-0.011147,0.000276,-0.491884,0.018401,1.342434,-261.649316,-1.278829,65.78506
5.0568,-0.009444,0.017863,0.018136,-0.00174,-0.000869,-0.011145,0.000257,-0.491935,0.018117,1.342434,-261.649316,-1.278829,65.78506
5.0763,-0.009099,0.01829,0.019045,-0.001733,-0.000868,-0.011143,-0.000251,-0.492082,0.017781,1.346941,-261.652469,-1.284554,65.782582
5.0969,-0.009175,0.01794,0.01836,-0.001743,-0.000868,-0.011144,0.000537,-0.491659,0.01892,1.346941,-261.652469,-1.284554,65.782582
5.1164,-0.008732,0.017694,0.017152,-0.001752,-0.000868,-0.011144,0.000537,-0.491659,0.01892,1.346941,-261.652469,-1.284554,65.782582
5.1367,-0.008639,0.017701,0.016839,-0.001759,-0.000868,-0.011144,-5.7e-05,-0.492268,0.016687,1.348701,-261.65561,-1.286824,65.780112
5.1569,-0.008652,0.018189,0.016947,-0.001729,-0.000866,-0.011134,-6.3e-05,-0.492256,0.016695,1.348701,-261.65561,-1.286824,65.780112
5.1763,-0.008753,0.017803,0.01655,-0.001704,-0.000864,-0.011125,-6.5e-05,-0.491767,0.016591,1.345457,-261.658762,-1.282782,65.777632
5.1968,-0.008802,0.017902,0.01547,-0.001671,-0.000862,-0.011115,-0.000295,-0.492098,0.016536,1.345457,-261.658762,-1.282782,65.777632
5.2164,-0.008324,0.018124,0.017759,-0.001643,-0.00086,-0.011108,-0.000295,-0.492098,0.016536,1.345457,-261.658762,-1.282782,65.777632
5.2367,-0.008484,0.017906,0.016678,-0.00162,-0.000859,-0.011102,0.000662,-0.491833,0.017295,1.351876,-261.661891,-1.291,65.775172
5.2563,-0.008208,0.018259,0.014476,-0.001639,-0.000859,-0.011101,0.000391,-0.491915,0.016988,1.351876,-261.661891,-1.291,65.775172
5.2764,-0.008096,0.017885,0.014866,-0.001655,-0.000859,-0.011101,-0.000876,-0.491715,0.014125,1.361877,-261.665001,-1.303822,65.772727
5.2964,-0.008426,0.01767,0.014505,-0.001613,-0.000855,-0.011059,-0.00055,-0.492028,0.01478,1.361877,-261.665001,-1.303822,65.772727
5.3164,-0.008334,0.018139,0.014541,-0.001579,-0.000852,-0.011026,-0.00055,-0.492028,0.01478,1.361877,-261.665001,-1.303822,65.772727
5.3366,-0.007793,0.0179,0.01516,-0.00155,-0.000849,-0.010998,-0.000987,-0.491844,0.014076,1.357467,-261.66813,-1.298263,65.770266
5.3562,-0.008161,0.017947,0.014529,-0.001522,-0.000846,-0.010966,-0.000616,-0.491929,0.014466,1.357467,-261.66813,-1.298263,65.770266
5.3765,-0.00794,0.017713,0.013892,-0.001499,-0.000844,-0.01094,-0.0008,-0.492027,0.014182,1.36874,-261.671198,-1.312582,65.767855
5.3967,-0.007786,0.017755,0.013575,-0.001465,-0.000841,-0.010897,-0.000853,-0.49222,0.0139,1.36874,-261.671198,-1.312582,65.767855
5.4166,-0.008112,0.017721,0.015043,-0.001436,-0.000838,-0.010862,-0.000853,-0.49222,0.0139,1.36874,-261.671198,-1.312582,65.767855
5.4366,-0.007215,0.017595,0.012553,-0.001412,-0.000836,-0.010834,-0.000502,-0.492258,0.014586,1.374142,-261.674264,-1.319402,65.765447
5.4566,-0.007734,0.017595,0.01537,-0.001404,-0.000835,-0.010803,-0.000636,-0.492306,0.013703,1.374142,-261.674264,-1.319402,65.765447
5.4766,-0.00734,0.017732,0.013255,-0.001396,-0.000834,-0.010777,6e-05,-0.492372,0.015025,1.383514,-261.677292,-1.331193,65.763071
5.4966,-0.00732,0.017897,0.012015,-0.001397,-0.000834,-0.010742,-0.000521,-0.492239,0.013407,1.383514,-261.677292,-1.331193,65.763071
5.5166,-0.007532,0.017629,0.012916,-0.001397,-0.000835,-0.010713,-0.000521,-0.492239,0.013407,1.383514,-261.677292,-1.331193,65.763071
5.5363,-0.007383,0.017635,0.013724,-0.001398,-0.000835,-0.01069,-0.001003,-0.492364,0.012466,1.384687,-261.680306,-1.332463,65.760709
5.5565,-0.007188,0.017641,0.012528,-0.001384,-0.000834,-0.010643,-0.000758,-0.492349,0.012925,1.384687,-261.680306,-1.332463,65.760709
5.5766,-0.006812,0.017889,0.011933,-0.001372,-0.000834,-0.010605,-0.000843,-0.492346,0.012187,1.383225,-261.683308,-1.330089,65.75836
5.5966,-0.00698,0.017722,0.011301,-0.001364,-0.000834,-0.010497,-0.000739,-0.492099,0.011938,1.383225,-261.683308,-1.330089,65.75836
5.6163,-0.007047,0.017637,0.01136,-0.001358,-0.000835,-0.010412,-0.000739,-0.492099,0.011938,1.383225,-261.683308,-1.330089,65.75836
5.6364,-0.006864,0.017317,0.010278,-0.001353,-0.000835,-0.010346,-0.001311,-0.492366,0.010917,1.38525,-261.686283,-1.332255,65.756038
5.6564,-0.007358,0.017565,0.010829,-0.001306,-0.000833,-0.010149,-0.001446,-0.49249,0.010602,1.38525,-261.686283,-1.332255,65.756038
5.6765,-0.006576,0.017554,0.010132,-0.001268,-0.000831,-0.009999,-0.001879,-0.492432,0.0105,1.383913,-261.689195,-1.32894,65.753779
5.6962,-0.006337,0.017573,0.011681,-0.001236,-0.000831,-0.009824,-0.001451,-0.492422,0.010147,1.383913,-261.689195,-1.32894,65.753779
5.7163,-0.006678,0.017477,0.010641,-0.00121,-0.000831,-0.009691,-0.001451,-0.492422,0.010147,1.383913,-261.689195,-1.32894,65.753779
5.7366,-0.006444,0.017616,0.009998,-0.001189,-0.000831,-0.009589,-0.001304,-0.49253,0.010223,1.390098,-261.692012,-1.334991,65.751611
5.7566,-0.006321,0.017213,0.010558,-0.001179,-0.000833,-0.009502,-0.001327,-0.492464,0.010083,1.390098,-261.692012,-1.334991,65.751611
5.7764,-0.006092,0.017703,0.01097,-0.001171,-0.000834,-0.009436,-0.000974,-0.492785,0.010253,1.394784,-261.694724,-1.338371,65.74955
5.7967,-0.005978,0.017323,0.009939,-0.00121,-0.000839,-0.009479,-0.000542,-0.492314,0.010891,1.394784,-261.694724,-1.338371,65.74955
5.8166,-0.006152,0.01746,0.010428,-0.001242,-0.000842,-0.009513,-0.000542,-0.492314,0.010891,1.394784,-261.694724,-1.338371,65.74955
5.8367,-0.005608,0.017298,0.008917,-0.001268,-0.000846,-0.009539,-0.000883,-0.492548,0.010033,1.395161,-261.697404,-1.337584,65.747523
5.8563,-0.005824,0.017171,0.011833,-0.001263,-0.000847,-0.009386,-0.00096,-0.492606,0.009535,1.395161,-261.697404,-1.337584,65.747523
5.8764,-0.005737,0.017268,0.008952,-0.00126,-0.000849,-0.009269,0.000171,-0.49282,0.011531,1.382938,-261.700103,-1.321455,65.745481
5.8966,-0.005534,0.01738,0.011071,-0.00125,-0.000851,-0.009123,-0.001055,-0.492722,0.009165,1.382938,-261.700103,-1.321455,65.745481
5.9165,-0.006123,0.017587,0.00871,-0.001243,-0.000852,-0.009013,-0.001055,-0.492722,0.009165,1.382938,-261.700103,-1.321455,65.745481
5.9369,-0.00567,0.017658,0.008154,-0.001237,-0.000854,-0.008929,-0.001733,-0.492429,0.008322,1.379702,-261.702753,-1.314787,65.743493
5.9563,-0.005287,0.017216,0.008797,-0.001197,-0.000853,-0.008707,-0.001651,-0.492392,0.008209,1.379702,-261.702753,-1.314787,65.743493
5.9765,-0.005601,0.017582,0.008095,-0.001165,-0.000853,-0.008541,-0.00084,-0.492791,0.008513,1.377093,-261.705329,-1.308015,65.741584
5.9964,-0.005594,0.017197,0.007197,-0.001152,-0.000855,-0.008398,-0.001422,-0.492435,0.008116,1.377093,-261.705329,-1.308015,65.741584
6.017,-0.004969,0.017068,0.008155,-0.001141,-0.000856,-0.008292,-0.001422,-0.492435,0.008116,1.377093,-261.705329,-1.308015,65.741584
6.0365,-0.005199,0.017173,0.007956,-0.001133,-0.000858,-0.008213,-0.000859,-0.492951,0.007798,1.381106,-261.707795,-1.309818,65.739782
6.0567,-0.005299,0.017664,0.006811,-0.001147,-0.000862,-0.0081,-0.00098,-0.492898,0.007821,1.381106,-261.707795,-1.309818,65.739782
6.0766,-0.005218,0.017367,0.00696,-0.001159,-0.000866,-0.008016,-0.001861,-0.492351,0.00655,1.380211,-261.710186,-1.304726,65.73806
6.0967,-0.005169,0.017061,0.006464,-0.001124,-0.000868,-0.007777,-0.001688,-0.492598,0.00691,1.380211,-261.710186,-1.304726,65.73806
6.1166,-0.004967,0.017451,0.007568,-0.001097,-0.00087,-0.007601,-0.001688,-0.492598,0.00691,1.380211,-261.710186,-1.304726,65.73806
6.1366,-0.005202,0.01721,0.006758,-0.001076,-0.000871,-0.007471,-0.001156,-0.492571,0.007234,1.372319,-261.712527,-1.290832,65.736389
6.1566,-0.00497,0.017246,0.005771,-0.001076,-0.000874,-0.007392,-0.001405,-0.49266,0.007002,1.372319,-261.712527,-1.290832,65.736389
6.1768,-0.004854,0.017174,0.006213,-0.001077,-0.000877,-0.007333,-0.002061,-0.492774,0.005532,1.375326,-261.714745,-1.287191,65.73485
6.1966,-0.004841,0.016874,0.00649,-0.001049,-0.000881,-0.007105,-0.001719,-0.492814,0.006144,1.375326,-261.714745,-1.287191,65.73485
6.2165,-0.004799,0.017072,0.006053,-0.001029,-0.000885,-0.006938,-0.001719,-0.492814,0.006144,1.375326,-261.714745,-1.287191,65.73485
6.2368,-0.004449,0.017365,0.006072,-0.001014,-0.000888,-0.006816,-0.001757,-0.492956,0.005747,1.372407,-261.716925,-1.280313,65.733349
6.2566,-0.004696,0.017074,0.005565,-0.001005,-0.000893,-0.006656,-0.001598,-0.492826,0.005844,1.372407,-261.716925,-1.280313,65.733349
6.2769,-0.004696,0.017146,0.006643,-0.000999,-0.000897,-0.00654,-0.00189,-0.492947,0.005348,1.372746,-261.718983,-1.27068,65.73198
6.2969,-0.004587,0.016841,0.006389,-0.001016,-0.0009,-0.006597,-0.001362,-0.492853,0.006516,1.372746,-261.718983,-1.27068,65.73198
6.3169,-0.004661,0.017252,0.005101,-0.001029,-0.000902,-0.006638,-0.001362,-0.492853,0.006516,1.372746,-261.718983,-1.27068,65.73198
6.3365,-0.004615,0.016665,0.006741,-0.001039,-0.000903,-0.006668,-0.002101,-0.492779,0.004828,1.36927,-261.720975,-1.25863,65.730682
6.3565,-0.004739,0.017375,0.005045,-0.001015,-0.000906,-0.006478,-0.001729,-0.493005,0.005576,1.36927,-261.720975,-1.25863,65.730682
6.3764,-0.004337,0.017,0.005377,-0.000997,-0.000909,-0.00634,-0.0022,-0.492648,0.004832,1.36487,-261.723006,-1.253922,65.729349
6.3964,-0.004486,0.016944,0.004571,-0.000985,-0.000913,-0.006173,-0.001652,-0.492962,0.005316,1.36487,-261.723006,-1.253922,65.729349
6.4164,-0.004562,0.017026,0.004514,-0.000977,-0.000917,-0.006051,-0.001652,-0.492962,0.005316,1.36487,-261.723006,-1.253922,65.729349
6.4365,-0.004307,0.0169,0.006445,-0.000971,-0.00092,-0.005962,-0.002301,-0.493007,0.004249,1.365164,-261.724958,-1.246154,65.728099
6.4564,-0.004307,0.016784,0.003579,-0.000957,-0.000922,-0.005842,-0.001788,-0.493045,0.005106,1.365164,-261.724958,-1.246154,65.728099
6.4765,-0.004216,0.016736,0.005723,-0.000946,-0.000924,-0.005755,-0.002513,-0.493242,0.00339,1.360958,-261.726814,-1.227925,65.726949
6.4965,-0.004372,0.016781,0.004085,-0.000963,-0.000927,-0.005787,-0.001405,-0.493256,0.005509,1.360958,-261.726814,-1.227925,65.726949
6.5166,-0.003675,0.017269,0.00385,-0.000977,-0.000929,-0.00581,-0.001405,-0.493256,0.005509,1.360958,-261.726814,-1.227925,65.726949
6.5364,-0.003853,0.016897,0.003691,-0.000988,-0.000931,-0.005826,-0.001751,-0.492766,0.00361,1.360816,-261.728627,-1.220645,65.725848
6.5564,-0.004047,0.017256,0.005398,-0.000948,-0.000927,-0.0053,-0.001845,-0.492906,0.003615,1.360816,-261.728627,-1.220645,65.725848
6.5764,-0.003727,0.016707,0.004371,-0.00092,-0.000927,-0.004923,-0.001325,-0.492766,0.005213,1.354064,-261.730461,-1.210982,65.724727
6.5964,-0.004024,0.016352,0.005189,-0.000933,-0.000932,-0.004899,-0.001484,-0.493243,0.004437,1.354064,-261.730461,-1.210982,65.724727
6.6168,-0.004134,0.01623,0.002966,-0.000943,-0.000936,-0.00488,-0.001484,-0.493243,0.004437,1.354064,-261.730461,-1.210982,65.724727
6.6366,-0.004083,0.016635,0.004075,-0.000952,-0.000939,-0.004867,-0.002658,-0.493805,0.00277,1.340971,-261.731992,-1.154108,65.723866
6.6564,-0.003857,0.016435,0.003694,-0.000888,-0.000931,-0.004498,-0.002398,-0.49363,0.003275,1.340971,-261.731992,-1.154108,65.723866
6.6765,-0.00377,0.01669,0.003255,-0.000839,-0.000924,-0.004234,-0.002003,-0.493591,0.003541,1.331955,-261.733588,-1.132729,65.722976
6.6965,-0.003992,0.016494,0.003392,-0.000822,-0.000924,-0.004045,-0.002102,-0.493334,0.003272,1.331955,-261.733588,-1.132729,65.722976
6.7164,-0.004018,0.016532,0.003858,-0.00081,-0.000924,-0.003908,-0.002102,-0.493334,0.003272,1.331955,-261.733588,-1.132729,65.722976
6.7365,-0.003398,0.016632,0.001411,-0.000802,-0.000925,-0.00381,-0.002085,-0.493502,0.003683,1.336142,-261.735011,-1.103104,65.722242
6.7563,-0.003994,0.016456,0.003133,-0.000773,-0.00092,-0.003554,-0.002331,-0.493451,0.002737,1.336142,-261.735011,-1.103104,65.722242
6.7766,-0.003718,0.016981,0.003112,-0.000753,-0.000918,-0.003371,-0.00242,-0.49357,0.003017,1.329118,-261.736294,-1.05165,65.721623
6.7966,-0.003275,0.016358,0.003393,-0.000757,-0.000921,-0.003363,-0.002159,-0.493069,0.003097,1.329118,-261.736294,-1.05165,65.721623
6.8166,-0.003529,0.016869,0.005285,-0.00076,-0.000923,-0.003357,-0.002159,-0.493069,0.003097,1.329118,-261.736294,-1.05165,65.721623
6.8364,-0.00353,0.016383,0.002707,-0.000763,-0.000925,-0.003352,-0.000863,-0.49316,0.005153,1.323107,-261.737444,-0.98754,65.721111
6.8565,-0.003672,0.016679,0.002562,-0.000823,-0.000931,-0.003659,-0.001391,-0.493349,0.004141,1.323107,-261.737444,-0.98754,65.721111
6.8767,-0.00381,0.016502,0.002978,-0.00087,-0.000936,-0.003882,-0.002389,-0.493348,0.002455,1.319603,-261.738669,-0.973806,65.720569
6.8965,-0.003564,0.016458,0.002622,-0.000833,-0.000931,-0.003665,-0.002301,-0.493485,0.002927,1.319603,-261.738669,-0.973806,65.720569
6.9169,-0.00337,0.016686,0.004693,-0.000805,-0.000928,-0.003509,-0.002301,-0.493485,0.002927,1.319603,-261.738669,-0.973806,65.720569
6.9365,-0.003529,0.016617,0.002228,-0.000784,-0.000926,-0.003397,-0.001011,-0.493346,0.004538,1.313502,-261.739979,-1.025696,65.719926
6.957,-0.003726,0.01645,0.003339,-0.00082,-0.000932,-0.003521,-0.001586,-0.493365,0.003566,1.313502,-261.739979,-1.025696,65.719926
6.9768,-0.003077,0.016439,0.001138,-0.000849,-0.000937,-0.003609,-0.002046,-0.493575,0.003236,1.315285,-261.741162,-0.972067,65.719396
6.9966,-0.003763,0.016832,0.003626,-0.000786,-0.00091,-0.002813,-0.002459,-0.493564,0.001312,1.315285,-261.741162,-0.972067,65.719396
7.0165,-0.003697,0.016435,0.004117,-0.00074,-0.000895,-0.002243,-0.002459,-0.493564,0.001312,1.315285,-261.741162,-0.972067,65.719396
7.0364,-0.00356,0.016425,0.002037,-0.000708,-0.000888,-0.001834,-0.001632,-0.493599,0.003967,1.306721,-261.742459,-0.980544,65.718788
7.0565,-0.003143,0.016508,0.001029,-0.000741,-0.000898,-0.002243,-0.001999,-0.493594,0.003162,1.306721,-261.742459,-0.980544,65.718788
7.0763,-0.003577,0.016577,0.002911,-0.000764,-0.000907,-0.002542,-0.002618,-0.493491,0.001028,1.231873,-261.74246,-0.905675,65.718787
7.0966,-0.003507,0.016547,0.001909,-0.000767,-0.000912,-0.002623,-0.002138,-0.493427,0.002749,1.231873,-261.74246,-0.905675,65.718787
7.1168,-0.003689,0.016459,0.002308,-0.000768,-0.000917,-0.002682,-0.002138,-0.493427,0.002749,1.231873,-261.74246,-0.905675,65.718787
7.1364,-0.003107,0.01646,0.001711,-0.000769,-0.000921,-0.002724,-0.002527,-0.493557,0.002253,1.269403,-261.742973,-0.830565,65.718588
7.1563,-0.003661,0.016449,0.00282,-0.000741,-0.000917,-0.002486,-0.002409,-0.493552,0.002025,1.269403,-261.742973,-0.830565,65.718588
7.1765,-0.003531,0.015995,0.001908,-0.00072,-0.000914,-0.002315,-0.002246,-0.493576,0.002738,1.281637,-261.743988,-0.768277,65.718186
7.1966,-0.003594,0.016012,0.001118,-0.000691,-0.00091,-0.002171,-0.002535,-0.493972,0.001969,1.281637,-261.743988,-0.768277,65.718186
7.2169,-0.003584,0.01622,0.00133,-0.000669,-0.000908,-0.002066,-0.002535,-0.493972,0.001969,1.281637,-261.743988,-0.768277,65.718186
7.2365,-0.003247,0.016309,0.000677,-0.000651,-0.000906,-0.00199,-0.002925,-0.493804,0.001265,1.271036,-261.744625,-0.693007,65.717956
7.2563,-0.003467,0.016355,0.001883,-0.000604,-0.000889,-0.001519,-0.002918,-0.493761,0.001018,1.271036,-261.744625,-0.693007,65.717956
7.2761,-0.003532,0.016391,0.001536,-0.000569,-0.000879,-0.00118,-0.002514,-0.493654,0.001859,1.273007,-261.744951,-0.618369,65.71785
7.2963,-0.003186,0.016363,0.001067,-0.000564,-0.000882,-0.001181,-0.002728,-0.493613,0.001564,1.273007,-261.744951,-0.618369,65.71785
7.3162,-0.003592,0.016277,0.002198,-0.00056,-0.000884,-0.001181,-0.002728,-0.493613,0.001564,1.273007,-261.744951,-0.618369,65.71785
7.3366,-0.003388,0.016339,0.001397,-0.000557,-0.000885,-0.001181,-0.00247,-0.493722,0.002198,1.229144,-261.744951,-0.54337,65.71785
7.3566,-0.003293,0.016046,0.001322,-0.000568,-0.00089,-0.001307,-0.002554,-0.493697,0.001872,1.229144,-261.744951,-0.54337,65.71785
7.3767,-0.002991,0.016203,0.002108,-0.000576,-0.000894,-0.001397,-0.002619,-0.493954,0.001322,1.237289,-261.744951,-0.468374,65.71785
7.3968,-0.003558,0.016285,0.001812,-0.000617,-0.000903,-0.001529,-0.001976,-0.493809,0.002041,1.237289,-261.744951,-0.468374,65.71785
7.4163,-0.003242,0.016278,0.001192,-0.000649,-0.000911,-0.001622,-0.001976,-0.493809,0.002041,1.237289,-261.744951,-0.468374,65.71785
7.4365,-0.003031,0.016624,0.002429,-0.000675,-0.000917,-0.001689,-0.002634,-0.493722,0.001191,1.252535,-261.744957,-0.393243,65.717849
7.4567,-0.003401,0.015909,0.001236,-0.000675,-0.000917,-0.001603,-0.002287,-0.493579,0.001701,1.252535,-261.744957,-0.393243,65.717849
7.4762,-0.003322,0.016184,0.001877,-0.000675,-0.000918,-0.001539,-0.00278,-0.494102,0.001211,1.237193,-261.745322,-0.318252,65.717727
7.4964,-0.003513,0.016311,0.002043,-0.000669,-0.000917,-0.001541,-0.002401,-0.493841,0.001819,1.237193,-261.745322,-0.318252,65.717727
7.5168,-0.003253,0.016294,0.003803,-0.000664,-0.000917,-0.001541,-0.002401,-0.493841,0.001819,1.237193,-261.745322,-0.318252,65.717727
7.5368,-0.003486,0.016037,0.003334,-0.000659,-0.000917,-0.00154,-0.001321,-0.493712,0.003785,1.222153,-261.745533,-0.243246,65.717655
7.5568,-0.003035,0.016382,0.002869,-0.000736,-0.000925,-0.002109,-0.001512,-0.493815,0.003599,1.222153,-261.745533,-0.243246,65.717655
7.5769,-0.003277,0.016305,0.000248,-0.000795,-0.000931,-0.002527,-0.001582,-0.49363,0.002844,1.22973,-261.745925,-0.168268,65.717524
7.5963,-0.003359,0.016461,0.000696,-0.000706,-0.000896,-0.001626,-0.003011,-0.49369,0.000477,1.22973,-261.745925,-0.168268,65.717524
7.6166,-0.003407,0.016331,0.001651,-0.00064,-0.000874,-0.000976,-0.003011,-0.49369,0.000477,1.22973,-261.745925,-0.168268,65.717524
7.6368,-0.003679,0.016444,0.001548,-0.000591,-0.000861,-0.000508,-0.002565,-0.49367,0.001649,1.259838,-261.745944,-0.243196,65.717517
7.6564,-0.003393,0.015858,0.00175,-0.000592,-0.00087,-0.000686,-0.002698,-0.493623,0.001607,1.259838,-261.745944,-0.243196,65.717517
7.6769,-0.003527,0.01645,0.003128,-0.00059,-0.000877,-0.000816,-0.0025,-0.494141,0.00175,1.18475,-261.745944,-0.168109,65.717517
7.6965,-0.003437,0.016438,0.002698,-0.000652,-0.00089,-0.001395,-0.001981,-0.493599,0.003009,1.18475,-261.745944,-0.168109,65.717517
7.7164,-0.003235,0.016123,0.000224,-0.000697,-0.000901,-0.001821,-0.001981,-0.493599,0.003009,1.18475,-261.745944,-0.168109,65.717517
7.7366,-0.003427,0.016011,0.00222,-0.000731,-0.00091,-0.002133,-0.003121,-0.493877,0.000224,1.165559,-261.745944,-0.093075,65.717517
7.7564,-0.003528,0.016325,0.003114,-0.000674,-0.000893,-0.001606,-0.002784,-0.493922,0.001039,1.165559,-261.745944,-0.093075,65.717517
7.7764,-0.002981,0.016064,0.001161,-0.000631,-0.000883,-0.001231,-0.001941,-0.493674,0.003111,1.240505,-261.746004,-0.16802,65.717495
7.7965,-0.003758,0.016447,0.003751,-0.000629,-0.000886,-0.001093,-0.002351,-0.493913,0.001328,1.240505,-261.746004,-0.16802,65.717495
7.8166,-0.003508,0.01611,0.001822,-0.000629,-0.000889,-0.000996,-0.002351,-0.493913,0.001328,1.240505,-261.746004,-0.16802,65.717495
7.8365,-0.002944,0.016375,0.001106,-0.00063,-0.000893,-0.000926,-0.002581,-0.493892,0.001817,1.202395,-261.746074,-0.093009,65.71747
7.8568,-0.003241,0.016201,0.002152,-0.000627,-0.000897,-0.000961,-0.002499,-0.493783,0.001526,1.202395,-261.746074,-0.093009,65.71747
7.8766,-0.002965,0.016475,3e-06,-0.000625,-0.0009,-0.000987,-0.002143,-0.493798,0.002152,1.163359,-261.746076,-0.017986,65.717469
7.8967,-0.00338,0.016123,0.000814,-0.000583,-0.000881,-0.00038,-0.00289,-0.49355,0.000196,1.163359,-261.746076,-0.017986,65.717469
7.9164,-0.003351,0.016212,0.000976,-0.000553,-0.00087,6e-05,-0.00289,-0.49355,0.000196,1.163359,-261.746076,-0.017986,65.717469
7.9368,-0.003382,0.015828,0.002129,-0.000533,-0.000864,0.000378,-0.002854,-0.493788,0.000975,1.176522,-261.746095,0.056885,65.717461
7.9566,-0.003255,0.016209,0.00181,-0.00055,-0.000874,2.3e-05,-0.002624,-0.493946,0.00145,1.176522,-261.746095,0.056885,65.717461
7.9761,-0.003497,0.015908,0.001013,-0.00056,-0.000881,-0.000235,-0.002332,-0.49379,0.00181,1.101437,-261.746095,0.131969,65.717461
7.9965,-0.003516,0.016397,0.000534,-0.000541,-0.000881,-0.000265,-0.002922,-0.494065,0.001084,1.101437,-261.746095,0.131969,65.717461
8.0167,-0.003149,0.016387,0.00115,-0.000525,-0.00088,-0.000288,-0.002922,-0.494065,0.001084,1.101437,-261.746095,0.131969,65.717461
8.0363,-0.003754,0.016002,0.003101,-0.000511,-0.00088,-0.000306,-0.002562,-0.493613,0.00115,1.070478,-261.746095,0.206973,65.717461
8.0567,-0.003506,0.016309,0.001418,-0.000548,-0.00089,-0.000671,-0.002404,-0.493768,0.001941,1.070478,-261.746095,0.206973,65.717461
8.0765,-0.00369,0.01623,0.002556,-0.000574,-0.000898,-0.000937,-0.002783,-0.493691,0.001418,1.123981,-261.746095,0.281883,65.71746
8.0968,-0.003621,0.015982,0.00338,-0.000601,-0.000905,-0.001315,-0.00242,-0.493761,0.00246,1.123981,-261.746095,0.281883,65.71746
8.1168,-0.003178,0.016411,0.002655,-0.000619,-0.000909,-0.001591,-0.00242,-0.493761,0.00246,1.123981,-261.746095,0.281883,65.71746
8.1363,-0.003541,0.016206,0.001612,-0.000631,-0.000913,-0.001792,-0.001833,-0.493601,0.002639,1.198499,-261.746333,0.357027,65.717361
8.1564,-0.003364,0.015967,0.001582,-0.000649,-0.000917,-0.001854,-0.002197,-0.493681,0.002216,1.198499,-261.746333,0.357027,65.717361
8.1761,-0.00345,0.016052,0.002035,-0.000662,-0.00092,-0.001899,-0.002557,-0.494032,0.001582,1.266184,-261.746334,0.282055,65.717361
8.1965,-0.002907,0.016308,0.002125,-0.000654,-0.000918,-0.001851,-0.002425,-0.493954,0.001996,1.266184,-261.746334,0.282055,65.717361
8.217,-0.003256,0.015888,0.001921,-0.000647,-0.000917,-0.001817,-0.002425,-0.493954,0.001996,1.266184,-261.746334,0.282055,65.717361
8.2372,-0.003421,0.015877,0.001682,-0.000642,-0.000916,-0.001794,-0.002276,-0.494111,0.001921,1.262395,-261.746335,0.207064,65.71736
8.2565,-0.002992,0.016067,0.000301,-0.000635,-0.000915,-0.001711,-0.002392,-0.494116,0.001825,1.262395,-261.746335,0.207064,65.71736
8.2764,-0.003492,0.016353,0.002617,-0.000631,-0.000914,-0.001652,-0.002839,-0.493934,0.0003,1.261884,-261.746353,0.132045,65.717355
8.2967,-0.003438,0.016128,0.001501,-0.000653,-0.000918,-0.001829,-0.002216,-0.49367,0.002419,1.261884,-261.746353,0.132045,65.717355
8.3166,-0.003542,0.016316,0.002491,-0.000669,-0.000922,-0.001957,-0.002216,-0.49367,0.002419,1.261884,-261.746353,0.132045,65.717355
8.3365,-0.003486,0.016324,0.001026,-0.000681,-0.000925,-0.002049,-0.002279,-0.493694,0.002473,1.253835,-261.746575,0.057022,65.717285
8.3566,-0.003344,0.016056,0.002787,-0.000661,-0.000921,-0.001917,-0.002558,-0.493688,0.001881,1.253835,-261.746575,0.057022,65.717285
8.3764,-0.003446,0.016336,0.001839,-0.000646,-0.000918,-0.001822,-0.001923,-0.493943,0.002786,1.267714,-261.746588,-0.017839,65.71728
8.3965,-0.003307,0.016727,0.002285,-0.000641,-0.000917,-0.001769,-0.002459,-0.493687,0.001919,1.267714,-261.746588,-0.017839,65.71728
8.4165,-0.003266,0.016344,0.002256,-0.000638,-0.000917,-0.001731,-0.002459,-0.493687,0.001919,1.267714,-261.746588,-0.017839,65.71728
8.4366,-0.003492,0.016,0.00221,-0.000636,-0.000916,-0.001704,-0.002123,-0.493667,0.002235,1.262723,-261.746837,-0.092972,65.717201
8.4563,-0.003411,0.016141,0.001088,-0.000651,-0.00092,-0.001798,-0.002222,-0.493803,0.002223,1.262723,-261.746837,-0.092972,65.717201
8.4764,-0.003155,0.016085,0.00113,-0.000663,-0.000923,-0.001865,-0.002873,-0.493883,0.001042,1.256803,-261.747539,-0.16783,65.716981
8.4966,-0.00328,0.016017,0.001292,-0.000632,-0.000911,-0.001463,-0.002605,-0.493913,0.001121,1.256803,-261.747539,-0.16783,65.716981
8.5163,-0.003236,0.015974,-0.000302,-0.000609,-0.000904,-0.001175,-0.002605,-0.493913,0.001121,1.256803,-261.747539,-0.16783,65.716981
8.5362,-0.003461,0.016345,0.003702,-0.000594,-0.0009,-0.000967,-0.003409,-0.494053,-0.000356,1.259569,-261.748148,-0.242967,65.716784
8.5563,-0.003292,0.016318,0.002466,-0.000582,-0.000898,-0.000893,-0.002664,-0.493893,0.001289,1.259569,-261.748148,-0.242967,65.716784
8.5762,-0.003222,0.016337,0.001769,-0.000574,-0.000898,-0.00084,-0.002034,-0.49368,0.002466,1.1916,-261.748148,-0.168103,65.716784
8.5965,-0.003587,0.016147,0.002269,-0.0006,-0.000905,-0.001023,-0.002294,-0.493664,0.001831,1.1916,-261.748148,-0.168103,65.716784
8.6166,-0.002771,0.016122,0.001276,-0.00062,-0.000911,-0.001156,-0.002294,-0.493664,0.001831,1.1916,-261.748148,-0.168103,65.716784
8.6366,-0.003403,0.015696,0.000587,-0.000635,-0.000915,-0.001252,-0.002121,-0.493877,0.001276,1.184557,-261.748148,-0.093087,65.716784
8.6565,-0.003324,0.016032,0.001032,-0.000616,-0.000908,-0.000967,-0.002517,-0.494049,0.000998,1.184557,-261.748148,-0.093087,65.716784
8.6764,-0.003325,0.016074,0.002509,-0.000603,-0.000904,-0.000761,-0.002802,-0.493972,0.001024,1.20926,-261.748274,-0.018084,65.716738
8.6963,-0.003479,0.016389,0.002066,-0.000643,-0.000913,-0.001164,-0.002111,-0.493928,0.00238,1.20926,-261.748274,-0.018084,65.716738
8.7168,-0.003291,0.016159,0.003902,-0.000671,-0.00092,-0.001457,-0.002111,-0.493928,0.00238,1.20926,-261.748274,-0.018084,65.716738
8.7369,-0.003591,0.01651,0.002547,-0.000691,-0.000925,-0.00167,-0.0013,-0.493837,0.003902,1.15576,-261.748275,0.057016,65.716738
8.7566,-0.003179,0.015944,0.002088,-0.000747,-0.000931,-0.002125,-0.001708,-0.493694,0.003345,1.15576,-261.748275,0.057016,65.716738
8.7761,-0.003267,0.01596,0.002583,-0.000789,-0.000936,-0.002458,-0.002126,-0.49407,0.002062,1.229277,-261.748687,-0.01807,65.716599
8.7963,-0.003544,0.016353,-0.000532,-0.000788,-0.000938,-0.002446,-0.001966,-0.494042,0.002535,1.229277,-261.748687,-0.01807,65.716599
8.8163,-0.003321,0.016225,0.0016,-0.000788,-0.000939,-0.002438,-0.001966,-0.494042,0.002535,1.229277,-261.748687,-0.01807,65.716599
8.8363,-0.003318,0.015764,0.000609,-0.000787,-0.00094,-0.002434,-0.002505,-0.493775,0.0016,1.257572,-261.748689,-0.092903,65.716598
8.8563,-0.003225,0.016481,0.003041,-0.000724,-0.00092,-0.001898,-0.00271,-0.493963,0.001195,1.257572,-261.748689,-0.092903,65.716598
8.8762,-0.00342,0.016288,0.001144,-0.000677,-0.000908,-0.001516,-0.001674,-0.493517,0.00304,1.257048,-261.748701,-0.167972,65.716593
8.8965,-0.003353,0.016267,0.002556,-0.000645,-0.000902,-0.001296,-0.002732,-0.493694,0.001315,1.257048,-261.748701,-0.167972,65.716593
8.9167,-0.003143,0.016035,0.000235,-0.00062,-0.000898,-0.001138,-0.002732,-0.493694,0.001315,1.257048,-261.748701,-0.167972,65.716593
8.9363,-0.003508,0.016015,0.002515,-0.000602,-0.000896,-0.001025,-0.003043,-0.493991,0.000189,1.217258,-261.749256,-0.093073,65.716401
8.9563,-0.00351,0.016538,0.001364,-0.000582,-0.000893,-0.000865,-0.00271,-0.493991,0.001136,1.217258,-261.749256,-0.093073,65.716401
8.9761,-0.003403,0.015912,2.5e-05,-0.000568,-0.000891,-0.000751,-0.002814,-0.493461,0.001364,1.194232,-261.749264,-0.017968,65.716398
8.9964,-0.00335,0.016023,0.001761,-0.000504,-0.000867,-0.000177,-0.003345,-0.494039,0.00013,1.194232,-261.749264,-0.017968,65.716398
9.0163,-0.003017,0.015894,0.001921,-0.000456,-0.000851,0.000239,-0.003345,-0.494039,0.00013,1.194232,-261.749264,-0.017968,65.716398
9.0362,-0.003487,0.016068,0.001265,-0.000421,-0.00084,0.00054,-0.002037,-0.494105,0.001921,1.172537,-261.749264,0.057293,65.716398
9.0563,-0.003623,0.01602,0.002589,-0.000476,-0.000857,5.9e-05,-0.002366,-0.494035,0.001653,1.172537,-261.749264,0.057293,65.716398
9.0761,-0.0033,0.015905,0.001638,-0.000517,-0.000871,-0.000291,-0.002303,-0.493979,0.002589,1.09789,-261.749264,0.131939,65.716398
9.0965,-0.003149,0.016237,0.000508,-0.000542,-0.000881,-0.000574,-0.00245,-0.494084,0.001724,1.09789,-261.749264,0.131939,65.716398
9.1167,-0.003458,0.015969,0.00069,-0.00056,-0.000888,-0.000781,-0.00245,-0.494084,0.001724,1.09789,-261.749264,0.131939,65.716398
9.1363,-0.003162,0.015751,0.00113,-0.000573,-0.000894,-0.000933,-0.003106,-0.494031,0.00069,1.112819,-261.749264,0.206917,65.716398
9.1569,-0.003406,0.016046,0.002835,-0.000542,-0.000886,-0.000671,-0.002895,-0.494119,0.000868,1.112819,-261.749264,0.206917,65.716398
9.1766,-0.003158,0.016024,0.002177,-0.000519,-0.00088,-0.000484,-0.001964,-0.493957,0.002829,1.187824,-261.749384,0.281922,65.716348
9.197,-0.003264,0.015931,0.001808,-0.000577,-0.000894,-0.000908,-0.00204,-0.493974,0.002236,1.187824,-261.749384,0.281922,65.716348
9.2168,-0.003359,0.016095,0.001241,-0.00062,-0.000904,-0.001217,-0.00204,-0.493974,0.002236,1.187824,-261.749384,0.281922,65.716348
9.2371,-0.003438,0.016374,0.001788,-0.000652,-0.000912,-0.001442,-0.002726,-0.493905,0.001241,1.15484,-261.749386,0.356932,65.716346
9.2569,-0.002914,0.015794,0.001926,-0.00063,-0.000908,-0.001306,-0.002645,-0.493791,0.001463,1.15484,-261.749386,0.356932,65.716346
9.2767,-0.003533,0.016421,0.002015,-0.000614,-0.000905,-0.001209,-0.001936,-0.494211,0.001918,1.221999,-261.749536,0.281852,65.716295
9.2969,-0.003212,0.016305,0.001164,-0.000623,-0.000909,-0.001355,-0.002457,-0.493633,0.002006,1.221999,-261.749536,0.281852,65.716295
9.3167,-0.003676,0.016135,0.000345,-0.000629,-0.000911,-0.001461,-0.002457,-0.493633,0.002006,1.221999,-261.749536,0.281852,65.716295
9.3368,-0.003676,0.015979,0.002465,-0.000633,-0.000913,-0.001539,-0.003525,-0.493902,0.000295,1.213325,-261.750234,0.265428,65.716042
9.3567,-0.003811,0.016066,0.001329,-0.000582,-0.0009,-0.001252,-0.003077,-0.493954,0.001174,1.213325,-261.750234,0.265428,65.716042
9.3762,-0.002987,0.016104,0.001117,-0.000543,-0.00089,-0.001046,-0.003137,-0.49394,0.00132,1.241705,-261.7504,0.190429,65.715988
9.3968,-0.003573,0.015939,0.001777,-0.000548,-0.000891,-0.00088,-0.002479,-0.4939,0.001133,1.241705,-261.7504,0.190429,65.715988
9.4168,-0.003355,0.015734,0.000826,-0.000553,-0.000892,-0.000761,-0.002479,-0.4939,0.001133,1.241705,-261.7504,0.190429,65.715988
9.4375,-0.003511,0.016058,0.001509,-0.000558,-0.000894,-0.000675,-0.002943,-0.49428,0.000808,1.22936,-261.750649,0.26548,65.715897
9.4571,-0.003613,0.015711,0.001799,-0.000537,-0.00089,-0.000589,-0.002865,-0.494149,0.00108,1.22936,-261.750649,0.26548,65.715897
9.4769,-0.003218,0.015937,0.000245,-0.00052,-0.000887,-0.000526,-0.002696,-0.494289,0.001798,1.166998,-261.750669,0.340342,65.715886
9.4972,-0.00341,0.016014,0.002053,-0.000486,-0.000873,-0.000144,-0.003059,-0.494083,0.00038,1.166998,-261.750669,0.340342,65.715886
9.5172,-0.003191,0.016142,0.001909,-0.000461,-0.000865,0.000133,-0.003059,-0.494083,0.00038,1.166998,-261.750669,0.340342,65.715886
9.5369,-0.003401,0.015866,0.0024,-0.000444,-0.000859,0.000334,-0.002218,-0.493858,0.001909,1.164343,-261.750679,0.415431,65.71588
9.5572,-0.003794,0.016135,0.000284,-0.000511,-0.000875,-0.000262,-0.002201,-0.493969,0.002108,1.164343,-261.750679,0.415431,65.71588
9.5764,-0.003133,0.015812,-0.000111,-0.000561,-0.000888,-0.000697,-0.00365,-0.493865,0.000284,1.089346,-261.750679,0.490428,65.71588
9.5969,-0.003421,0.016023,0.002475,-0.000499,-0.000862,-2.7e-05,-0.003229,-0.49416,-7.7e-05,1.089346,-261.750679,0.490428,65.71588
9.6169,-0.00333,0.015623,0.003082,-0.000454,-0.000845,0.000459,-0.003229,-0.49416,-7.7e-05,1.089346,-261.750679,0.490428,65.71588
9.637,-0.003106,0.01577,0.000695,-0.000421,-0.000834,0.000811,-0.00177,-0.494392,0.003067,1.164352,-261.750952,0.565434,65.715742
9.6567,-0.003307,0.015691,0.002812,-0.000495,-0.000854,9.8e-05,-0.002168,-0.494328,0.002106,1.164352,-261.750952,0.565434,65.715742
9.6762,-0.003374,0.016018,0.001143,-0.000549,-0.00087,-0.000424,-0.001873,-0.494307,0.002812,1.089376,-261.750952,0.64041,65.715742
9.6967,-0.003385,0.016066,0.003035,-0.000545,-0.000874,-0.000487,-0.002708,-0.494011,0.001294,1.089376,-261.750952,0.64041,65.715742
9.7166,-0.00336,0.016148,0.001144,-0.000541,-0.000878,-0.000536,-0.002708,-0.494011,0.001294,1.089376,-261.750952,0.64041,65.715742
9.7371,-0.003683,0.015965,0.000453,-0.000538,-0.000881,-0.000574,-0.00279,-0.49387,0.001133,1.118591,-261.751214,0.715337,65.71557
9.7565,-0.003128,0.016,0.000733,-0.000509,-0.000875,-0.000407,-0.003054,-0.493937,0.000862,1.118591,-261.751214,0.715337,65.71557
9.7765,-0.003387,0.015805,0.003366,-0.000487,-0.000871,-0.000288,-0.00277,-0.494026,0.000716,1.158808,-261.751705,0.778341,65.715294
9.7965,-0.003541,0.015915,0.000303,-0.000578,-0.000885,-0.001035,-0.00177,-0.494178,0.003127,1.158808,-261.751705,0.778341,65.715294
9.8165,-0.002867,0.015923,0.000666,-0.000648,-0.000897,-0.001587,-0.00177,-0.494178,0.003127,1.158808,-261.751705,0.778341,65.715294
9.8365,-0.003465,0.016023,0.002231,-0.0007,-0.000907,-0.001994,-0.00254,-0.494097,0.000658,1.135432,-261.751975,0.853239,65.715095
9.8565,-0.00396,0.015981,0.001551,-0.000669,-0.000899,-0.001621,-0.002455,-0.494051,0.001294,1.135432,-261.751975,0.853239,65.715095
9.8763,-0.003127,0.015498,0.001413,-0.000648,-0.000895,-0.001356,-0.003168,-0.494018,0.001551,1.210463,-261.751975,0.778208,65.715095
9.8965,-0.003363,0.015826,0.000183,-0.000629,-0.000894,-0.001225,-0.00247,-0.494461,0.001425,1.210463,-261.751975,0.778208,65.715095
9.9165,-0.003163,0.015948,0.001824,-0.000614,-0.000893,-0.001132,-0.00247,-0.494461,0.001425,1.210463,-261.751975,0.778208,65.715095
9.9366,-0.003393,0.016204,0.001091,-0.000604,-0.000893,-0.001067,-0.002233,-0.494052,0.001824,1.211306,-261.751975,0.703091,65.715095
9.9569,-0.003295,0.015909,0.00122,-0.000603,-0.000895,-0.001062,-0.00248,-0.493947,0.001524,1.211306,-261.751975,0.703091,65.715095
9.9762,-0.003071,0.016291,0.000355,-0.000603,-0.000898,-0.00106,-0.002676,-0.494096,0.001215,1.198141,-261.752096,0.628121,65.715048
9.9962,-0.003057,0.015882,-6.8e-05,-0.000565,-0.000882,-0.000546,-0.002873,-0.493738,0.000421,1.198141,-261.752096,0.628121,65.715048
10.0163,-0.003333,0.015497,0.002096,-0.000539,-0.000873,-0.000175,-0.002873,-0.493738,0.000421,1.198141,-261.752096,0.628121,65.715048
10.0364,-0.003634,0.015759,0.001212,-0.000521,-0.000868,9.3e-05,-0.002274,-0.494518,0.002079,1.198877,-261.75237,0.552815,65.71494
10.0565,-0.003308,0.01552,0.001768,-0.000538,-0.000876,-0.000292,-0.002587,-0.494403,0.001713,1.198877,-261.75237,0.552815,65.71494
10.0763,-0.003705,0.015697,0.002564,-0.000548,-0.000883,-0.000573,-0.002407,-0.49448,0.001768,1.123938,-261.752373,0.627754,65.714937
10.0968,-0.00357,0.016058,0.001777,-0.000578,-0.000891,-0.001056,-0.002398,-0.494318,0.002488,1.123938,-261.752373,0.627754,65.714937
10.1168,-0.003189,0.015971,0.00177,-0.000599,-0.000897,-0.00141,-0.002398,-0.494318,0.002488,1.123938,-261.752373,0.627754,65.714937
10.1368,-0.003302,0.016092,0.000392,-0.000611,-0.000902,-0.001668,-0.002303,-0.494054,0.001752,1.152659,-261.752754,0.702392,65.714721
10.1566,-0.003645,0.015886,0.001674,-0.000589,-0.000895,-0.001356,-0.002622,-0.493999,0.00121,1.152659,-261.752754,0.702392,65.714721
10.1766,-0.003378,0.015348,0.00141,-0.000573,-0.000891,-0.001133,-0.002791,-0.494114,0.001674,1.227692,-261.752754,0.627359,65.714721
10.1965,-0.003806,0.01604,0.00193,-0.000556,-0.000888,-0.001071,-0.00267,-0.494605,0.001433,1.227692,-261.752754,0.627359,65.714721
10.2166,-0.003256,0.016027,0.001383,-0.000542,-0.000886,-0.001028,-0.00267,-0.494605,0.001433,1.227692,-261.752754,0.627359,65.714721
10.2365,-0.00369,0.016056,0.001248,-0.000531,-0.000885,-0.000997,-0.002556,-0.493982,0.001373,1.223277,-261.75292,0.55227,65.714661
10.2563,-0.003508,0.015739,0.000469,-0.000523,-0.000885,-0.000928,-0.002756,-0.493968,0.001322,1.223277,-261.75292,0.55227,65.714661
10.2763,-0.003288,0.015844,0.000271,-0.000518,-0.000885,-0.000879,-0.003285,-0.494287,0.00044,1.229566,-261.753503,0.47994,65.714441
10.2964,-0.003641,0.016135,0.001222,-0.000472,-0.000865,-0.000349,-0.003163,-0.49417,0.000285,1.229566,-261.753503,0.47994,65.714441
10.3163,-0.003438,0.015738,0.000543,-0.000438,-0.000852,3.4e-05,-0.003163,-0.49417,0.000285,1.229566,-261.753503,0.47994,65.714441
10.3368,-0.003468,0.016184,0.001826,-0.000414,-0.000844,0.000312,-0.003178,-0.494292,0.000513,1.221356,-261.753998,0.554919,65.714237
10.3566,-0.00346,0.015708,0.003048,-0.000424,-0.000851,0.000152,-0.002925,-0.494105,0.001033,1.221356,-261.753998,0.554919,65.714237
10.3765,-0.003502,0.015443,0.001071,-0.00043,-0.000856,3.6e-05,-0.001906,-0.49429,0.003048,1.146315,-261.753998,0.62996,65.714237
10.3965,-0.003243,0.015442,0.00088,-0.000434,-0.00086,-0.000143,-0.002863,-0.494533,0.001247,1.146315,-261.753998,0.62996,65.714237
10.4166,-0.003914,0.015446,0.002164,-0.000436,-0.000863,-0.000274,-0.002863,-0.494533,0.001247,1.146315,-261.753998,0.62996,65.714237
10.4368,-0.00337,0.015665,0.002165,-0.000437,-0.000865,-0.000369,-0.002811,-0.494553,0.002164,1.094837,-261.754005,0.705026,65.71423
10.4568,-0.003294,0.015773,0.002368,-0.000469,-0.000874,-0.000799,-0.002587,-0.494463,0.002164,1.094837,-261.754005,0.705026,65.71423
10.4765,-0.003473,0.015738,0.000691,-0.000492,-0.00088,-0.001113,-0.00209,-0.494232,0.002364,1.169839,-261.754133,0.780028,65.714145
10.4968,-0.003282,0.015595,0.000639,-0.000462,-0.00087,-0.00079,-0.003026,-0.49426,0.000844,1.169839,-261.754133,0.780028,65.714145
10.5168,-0.003212,0.015864,0.000981,-0.000441,-0.000863,-0.000559,-0.003026,-0.49426,0.000844,1.169839,-261.754133,0.780028,65.714145
10.5365,-0.003499,0.015568,0.00045,-0.000426,-0.000859,-0.000393,-0.002714,-0.494139,0.000978,1.244743,-261.754178,0.705124,65.71413
10.5563,-0.0032,0.015414,0.00253,-0.000418,-0.000857,-0.000234,-0.002942,-0.49426,0.000761,1.244743,-261.754178,0.705124,65.71413
10.5764,-0.00342,0.015552,0.001891,-0.000413,-0.000856,-0.00012,-0.001914,-0.494593,0.002525,1.20133,-261.754327,0.78024,65.714035
10.5968,-0.003251,0.015533,0.001185,-0.00046,-0.000868,-0.00054,-0.002408,-0.494461,0.001947,1.20133,-261.754327,0.78024,65.714035
10.6163,-0.003578,0.015587,0.000982,-0.000493,-0.000878,-0.000845,-0.002408,-0.494461,0.001947,1.20133,-261.754327,0.78024,65.714035
10.6362,-0.003188,0.015662,0.00265,-0.000518,-0.000885,-0.001067,-0.003082,-0.49442,0.00098,1.15213,-261.754413,0.855233,65.71396
10.6563,-0.003729,0.015686,0.000341,-0.000523,-0.000887,-0.001121,-0.002568,-0.494386,0.001669,1.15213,-261.754413,0.855233,65.71396
10.6763,-0.003465,0.015552,0.001212,-0.000526,-0.000889,-0.001161,-0.003556,-0.494315,0.00034,1.227141,-261.754439,0.780222,65.713951
10.697,-0.003291,0.015556,0.002322,-0.000499,-0.000882,-0.000961,-0.002912,-0.494436,0.001132,1.227141,-261.754439,0.780222,65.713951
10.7166,-0.003544,0.015832,0.001285,-0.000478,-0.000876,-0.000818,-0.002912,-0.494436,0.001132,1.227141,-261.754439,0.780222,65.713951
10.7363,-0.003661,0.015483,0.002556,-0.000463,-0.000873,-0.000715,-0.00289,-0.494169,0.001284,1.252723,-261.754462,0.705316,65.713944
10.7569,-0.003542,0.015722,0.001505,-0.000478,-0.000878,-0.000923,-0.00267,-0.494312,0.001807,1.252723,-261.754462,0.705316,65.713944
10.7768,-0.003526,0.01594,0.000965,-0.000489,-0.000882,-0.001074,-0.002788,-0.494304,0.001483,1.231146,-261.754991,0.755785,65.713701
10.7964,-0.003628,0.015673,0.000245,-0.000466,-0.000875,-0.000845,-0.003012,-0.494084,0.001013,1.231146,-261.754991,0.755785,65.713701
10.8168,-0.003414,0.015506,2.2e-05,-0.00045,-0.00087,-0.000681,-0.003012,-0.494084,0.001013,1.231146,-261.754991,0.755785,65.713701
10.837,-0.003405,0.015805,0.002022,-0.000437,-0.000868,-0.000562,-0.003406,-0.494502,1.4e-05,1.263093,-261.755107,0.680917,65.713663
10.8566,-0.003245,0.015604,0.002402,-0.000423,-0.000863,-0.000391,-0.002988,-0.494378,0.000828,1.263093,-261.755107,0.680917,65.713663
10.8762,-0.003395,0.015271,0.000844,-0.000413,-0.00086,-0.000267,-0.002028,-0.494408,0.002392,1.224127,-261.755381,0.755946,65.713518
10.8963,-0.003234,0.015678,-0.000448,-0.000409,-0.00086,-0.000247,-0.002884,-0.494702,0.000977,1.224127,-261.755381,0.755946,65.713518
10.9164,-0.003626,0.015582,0.001088,-0.000406,-0.00086,-0.000233,-0.002884,-0.494702,0.000977,1.224127,-261.755381,0.755946,65.713518
10.9362,-0.003344,0.015557,0.002628,-0.000404,-0.00086,-0.000223,-0.003077,-0.494427,0.001084,1.187403,-261.755502,0.831023,65.713429
10.9564,-0.003316,0.015213,0.00024,-0.000433,-0.000868,-0.00053,-0.002637,-0.494434,0.001718,1.187403,-261.755502,0.831023,65.713429
10.9763,-0.003403,0.015482,0.001414,-0.000454,-0.000875,-0.000752,-0.003199,-0.494799,0.000237,1.185384,-261.755684,0.906032,65.713288
10.9966,-0.003521,0.015379,0.001981,-0.000456,-0.000875,-0.000747,-0.002727,-0.494542,0.001312,1.185384,-261.755684,0.906032,65.713288
11.0166,-0.003408,0.015602,0.000359,-0.000457,-0.000876,-0.000744,-0.002727,-0.494542,0.001312,1.185384,-261.755684,0.906032,65.713288
11.0363,-0.003588,0.015336,0.001445,-0.000458,-0.000876,-0.000742,-0.003235,-0.494421,0.000341,1.242558,-261.756027,0.831043,65.713139
11.0566,-0.003669,0.015479,-5.5e-05,-0.00043,-0.000867,-0.0005,-0.003081,-0.494522,0.000786,1.242558,-261.756027,0.831043,65.713139
11.0763,-0.003853,0.015703,0.001823,-0.00041,-0.00086,-0.000326,-0.00371,-0.494546,-7.6e-05,1.238968,-261.756529,0.756141,65.712916
11.0967,-0.003567,0.015369,0.002411,-0.000416,-0.000864,-0.000582,-0.002991,-0.494318,0.001661,1.238968,-261.756529,0.756141,65.712916
11.1168,-0.003448,0.015169,0.00079,-0.000419,-0.000866,-0.000768,-0.002991,-0.494318,0.001661,1.238968,-261.756529,0.756141,65.712916
11.1366,-0.003602,0.01573,0.000967,-0.00042,-0.000868,-0.000903,-0.003051,-0.494842,0.000785,1.201914,-261.756677,0.831309,65.712814
11.1567,-0.00375,0.015695,-0.000846,-0.000397,-0.000859,-0.00065,-0.003076,-0.49461,0.000858,1.201914,-261.756677,0.831309,65.712814
11.1767,-0.003699,0.015613,0.002108,-0.00038,-0.000853,-0.000468,-0.004188,-0.49432,-0.00086,1.276827,-261.756984,0.756395,65.712705
11.1968,-0.003678,0.015497,0.001174,-0.000406,-0.000861,-0.00076,-0.002758,-0.494381,0.001852,1.276827,-261.756984,0.756395,65.712705
11.2165,-0.003837,0.015476,0.000625,-0.000425,-0.000867,-0.000973,-0.002758,-0.494381,0.001852,1.276827,-261.756984,0.756395,65.712705
11.2363,-0.003709,0.015595,0.001366,-0.000438,-0.000871,-0.001127,-0.003526,-0.494539,0.000616,1.248862,-261.757194,0.831441,65.712586
11.2563,-0.003249,0.015175,0.001716,-0.000398,-0.000858,-0.000838,-0.00332,-0.494487,0.000917,1.248862,-261.757194,0.831441,65.712586
11.2763,-0.003365,0.015559,0.000665,-0.000368,-0.000849,-0.000631,-0.002374,-0.494826,0.001715,1.296753,-261.75722,0.756566,65.712578
11.2965,-0.00343,0.015441,-7.7e-05,-0.000363,-0.000845,-0.000407,-0.002967,-0.494475,0.000759,1.296753,-261.75722,0.756566,65.712578
11.3163,-0.003374,0.015652,0.000961,-0.000361,-0.000844,-0.000246,-0.002967,-0.494475,0.000759,1.296753,-261.75722,0.756566,65.712578
11.3362,-0.003357,0.015554,0.00207,-0.000361,-0.000844,-0.00013,-0.002895,-0.494373,0.000941,1.281167,-261.757589,0.831561,65.712409
11.3566,-0.003213,0.015385,0.000706,-0.000393,-0.000853,-0.000336,-0.002651,-0.494406,0.001405,1.281167,-261.757589,0.831561,65.712409
11.3765,-0.003402,0.015334,0.001054,-0.000416,-0.000861,-0.000485,-0.002856,-0.49462,0.000705,1.206053,-261.757673,0.906676,65.712337
11.3967,-0.003806,0.015179,0.000426,-0.000412,-0.00086,-0.000425,-0.002864,-0.494662,0.001024,1.206053,-261.757673,0.906676,65.712337
11.4169,-0.003506,0.015489,0.000912,-0.000409,-0.00086,-0.000383,-0.002864,-0.494662,0.001024,1.206053,-261.757673,0.906676,65.712337
11.4363,-0.003517,0.015258,-0.001005,-0.000407,-0.00086,-0.000353,-0.003058,-0.494546,0.000892,1.225383,-261.758156,0.935827,65.712062
11.4564,-0.003524,0.015263,0.000814,-0.000357,-0.000839,0.00012,-0.003461,-0.494631,0.000107,1.225383,-261.758156,0.935827,65.712062
11.4764,-0.003158,0.014875,0.000896,-0.000319,-0.000825,0.000463,-0.003121,-0.494762,0.000803,1.209041,-261.758577,1.007673,65.711782
11.4969,-0.003527,0.015455,-0.000312,-0.00034,-0.000832,0.000326,-0.002738,-0.495095,0.000887,1.209041,-261.758577,1.007673,65.711782
11.5169,-0.003274,0.015372,0.003081,-0.000357,-0.000838,0.000227,-0.002738,-0.495095,0.000887,1.209041,-261.758577,1.007673,65.711782
11.5363,-0.00342,0.015278,0.000184,-0.000369,-0.000843,0.000155,-0.001705,-0.494632,0.003084,1.13404,-261.758621,1.082674,65.711703
11.5565,-0.003504,0.01543,0.002648,-0.000424,-0.000857,-0.000315,-0.002375,-0.49467,0.001887,1.13404,-261.758621,1.082674,65.711703
11.5766,-0.00381,0.015536,0.000762,-0.000464,-0.000868,-0.000657,-0.002163,-0.494589,0.002652,1.112399,-261.75889,1.157664,65.711378
11.5967,-0.003343,0.015613,0.002256,-0.000425,-0.000859,-0.000502,-0.003309,-0.494476,0.000932,1.112399,-261.75889,1.157664,65.711378
11.6167,-0.00315,0.01533,-0.0007,-0.000394,-0.000852,-0.000392,-0.003309,-0.494476,0.000932,1.112399,-261.75889,1.157664,65.711378
11.6366,-0.003486,0.015233,0.001739,-0.000369,-0.000847,-0.000313,-0.003508,-0.494673,-0.000702,1.187302,-261.758938,1.082762,65.711354
11.6564,-0.003526,0.015164,0.000274,-0.000347,-0.000835,5.3e-05,-0.003136,-0.494712,0.000297,1.187302,-261.758938,1.082762,65.711354
11.6763,-0.003535,0.015137,0.000797,-0.000331,-0.000828,0.000318,-0.003397,-0.494862,0.000265,1.229021,-261.759362,1.057794,65.711064
11.6965,-0.003491,0.015012,-0.000109,-0.000325,-0.000829,0.000286,-0.003152,-0.494864,0.000751,1.229021,-261.759362,1.057794,65.711064
11.7168,-0.00339,0.015275,0.001154,-0.000319,-0.000829,0.000263,-0.003152,-0.494864,0.000751,1.229021,-261.759362,1.057794,65.711064
11.7366,-0.003486,0.01526,0.000909,-0.000314,-0.000829,0.000246,-0.002808,-0.494737,0.001159,1.153998,-261.759473,1.132817,65.710898
11.7567,-0.003695,0.015068,0.001532,-0.000332,-0.000835,9.3e-05,-0.0029,-0.49474,0.001053,1.153998,-261.759473,1.132817,65.710898
11.7768,-0.003559,0.015217,0.001042,-0.000345,-0.00084,-1.8e-05,-0.002921,-0.494951,0.001538,1.137143,-261.759701,1.208238,65.710585
11.7967,-0.003613,0.01518,0.001218,-0.000347,-0.000842,-0.000114,-0.003018,-0.494798,0.001087,1.137143,-261.759701,1.208238,65.710585
11.817,-0.004042,0.015377,-3.9e-05,-0.000348,-0.000844,-0.000183,-0.003018,-0.494798,0.001087,1.137143,-261.759701,1.208238,65.710585
11.8369,-0.003224,0.015418,0.000608,-0.000348,-0.000845,-0.000235,-0.004076,-0.494656,-4e-05,1.185777,-261.760049,1.176663,65.710244
11.8569,-0.003578,0.015448,0.000233,-0.000301,-0.000827,0.000148,-0.003606,-0.49463,0.000223,1.185777,-261.760049,1.176663,65.710244
11.877,-0.003437,0.015052,0.001306,-0.000267,-0.000813,0.000424,-0.003469,-0.494576,0.000227,1.232618,-261.760426,1.110899,65.709962
11.8971,-0.003215,0.014956,0.001245,-0.000298,-0.000824,0.000156,-0.002836,-0.494915,0.001205,1.232618,-261.760426,1.110899,65.709962
11.9166,-0.003447,0.014925,0.001992,-0.000321,-0.000832,-3.9e-05,-0.002836,-0.494915,0.001205,1.232618,-261.760426,1.110899,65.709962
11.9364,-0.003578,0.014976,0.001241,-0.000338,-0.000838,-0.000181,-0.002437,-0.495087,0.001998,1.157627,-261.760522,1.18589,65.709791
11.9566,-0.003801,0.014856,0.001422,-0.000369,-0.000847,-0.000486,-0.002644,-0.495063,0.001691,1.157627,-261.760522,1.18589,65.709791
11.9766,-0.00377,0.014787,0.00013,-0.000391,-0.000854,-0.000709,-0.003086,-0.495167,0.001417,1.228322,-261.760879,1.135766,65.709506
11.9966,-0.003572,0.015234,0.001521,-0.000321,-0.000827,-0.000204,-0.003649,-0.49521,0.000245,1.228322,-261.760879,1.135766,65.709506
12.0166,-0.00346,0.015057,-0.000402,-0.000267,-0.000808,0.000161,-0.003649,-0.49521,0.000245,1.228322,-261.760879,1.135766,65.709506
12.0367,-0.003504,0.015476,0.001885,-0.000226,-0.000794,0.000424,-0.003667,-0.49495,-0.000407,1.275825,-261.760984,1.060751,65.709461
12.0569,-0.003378,0.014974,0.002262,-0.000233,-0.000797,0.000467,-0.003204,-0.494775,0.000537,1.275825,-261.760984,1.060751,65.709461
12.0763,-0.003528,0.014973,-0.000506,-0.00024,-0.0008,0.000499,-0.002227,-0.49503,0.002264,1.200753,-261.76103,1.135823,65.709376
12.0966,-0.003723,0.014871,0.000589,-0.000201,-0.000782,0.000932,-0.003654,-0.495027,-0.000271,1.200753,-261.76103,1.135823,65.709376
12.1165,-0.003474,0.015453,0.001285,-0.000172,-0.000771,0.001249,-0.003654,-0.495027,-0.000271,1.200753,-261.76103,1.135823,65.709376
12.1367,-0.003575,0.014849,0.001826,-0.000151,-0.000763,0.00148,-0.002824,-0.49456,0.001293,1.125702,-261.76112,1.210873,65.709192
12.1564,-0.003335,0.014932,0.002051,-0.000224,-0.000786,0.000809,-0.002751,-0.494802,0.001511,1.125702,-261.76112,1.210873,65.709192
12.1761,-0.003799,0.014846,0.00176,-0.000278,-0.000804,0.000317,-0.002289,-0.495067,0.002051,1.050835,-261.76112,1.285741,65.709192
12.1968,-0.003605,0.014994,0.000581,-0.000311,-0.000816,-0.00015,-0.002846,-0.495145,0.001786,1.050835,-261.76112,1.285741,65.709192
12.2167,-0.003749,0.014835,7.1e-05,-0.000334,-0.000825,-0.000492,-0.002846,-0.495145,0.001786,1.050835,-261.76112,1.285741,65.709192
12.2371,-0.003763,0.014874,0.000399,-0.000349,-0.000832,-0.000743,-0.003723,-0.495194,8.3e-05,1.125841,-261.761353,1.299021,65.708832
12.2571,-0.003846,0.014998,0.001699,-0.000284,-0.000807,-0.000207,-0.003658,-0.49517,0.000211,1.125841,-261.761353,1.299021,65.708832
12.2761,-0.003604,0.014781,0.001693,-0.000236,-0.00079,0.00018,-0.002979,-0.495002,0.001699,1.200814,-261.761361,1.224048,65.708829
12.2966,-0.003484,0.014984,8.5e-05,-0.000278,-0.000804,-0.000219,-0.002762,-0.495199,0.001693,1.200814,-261.761361,1.224048,65.708829
12.3169,-0.003762,0.015098,0.002081,-0.000308,-0.000816,-0.00051,-0.002762,-0.495199,0.001693,1.200814,-261.761361,1.224048,65.708829
12.3363,-0.003814,0.015091,0.000188,-0.000331,-0.000825,-0.000723,-0.002709,-0.494929,0.002087,1.237248,-261.761608,1.299074,65.708509
12.3568,-0.003424,0.014632,0.001287,-0.000323,-0.000826,-0.000723,-0.00312,-0.494924,0.001317,1.237248,-261.761608,1.299074,65.708509
12.3768,-0.003934,0.014699,0.000473,-0.000316,-0.000827,-0.000725,-0.002768,-0.495368,0.001286,1.312262,-261.761627,1.224059,65.708502
12.3965,-0.003947,0.014929,0.001588,-0.000264,-0.000809,-0.000368,-0.00361,-0.495307,0.000547,1.312262,-261.761627,1.224059,65.708502
12.4163,-0.003632,0.014831,0.00181,-0.000224,-0.000796,-0.000112,-0.00361,-0.495307,0.000547,1.312262,-261.761627,1.224059,65.708502
12.4364,-0.003638,0.01509,0.000937,-0.000193,-0.000786,7.3e-05,-0.00271,-0.495174,0.001806,1.326589,-261.761704,1.149095,65.708473
12.4569,-0.00367,0.015204,0.000556,-0.000231,-0.0008,-0.000206,-0.002893,-0.495067,0.001452,1.326589,-261.761704,1.149095,65.708473
12.4761,-0.003485,0.01506,0.000617,-0.000259,-0.00081,-0.000409,-0.003391,-0.494809,0.000556,1.316708,-261.761871,1.224116,65.708287
12.4971,-0.003469,0.014922,-0.00019,-0.000252,-0.000806,-0.000174,-0.003191,-0.494928,0.000611,1.316708,-261.761871,1.224116,65.708287
12.517,-0.003897,0.014617,0.000292,-0.000248,-0.000805,-4e-06,-0.003191,-0.494928,0.000611,1.316708,-261.761871,1.224116,65.708287
12.5366,-0.003579,0.015147,-0.00013,-0.000246,-0.000805,0.000118,-0.003757,-0.495413,0.000277,1.330655,-261.762256,1.149124,65.708069
12.5566,-0.003229,0.014524,0.001842,-0.000203,-0.000788,0.000459,-0.003713,-0.49519,0.00011,1.330655,-261.762256,1.149124,65.708069
12.5765,-0.00365,0.014949,0.001577,-0.00017,-0.000776,0.000706,-0.002295,-0.495491,0.001844,1.255672,-261.762451,1.224107,65.70784
12.5966,-0.003908,0.014854,0.002878,-0.000227,-0.000794,0.000199,-0.002797,-0.495091,0.001601,1.255672,-261.762451,1.224107,65.70784
12.6169,-0.003501,0.014426,0.000855,-0.000268,-0.000808,-0.000171,-0.002797,-0.495091,0.001601,1.255672,-261.762451,1.224107,65.70784
12.6371,-0.003919,0.014974,0.002925,-0.000299,-0.000819,-0.000441,-0.003068,-0.495585,0.000865,1.180647,-261.762506,1.299132,65.707663
12.6568,-0.003613,0.014877,0.000914,-0.000318,-0.000827,-0.000676,-0.00281,-0.49536,0.001696,1.180647,-261.762506,1.299132,65.707663
12.6766,-0.003755,0.014988,0.000992,-0.000332,-0.000833,-0.000847,-0.003151,-0.495132,0.000909,1.255618,-261.762662,1.224161,65.707577
12.6968,-0.003889,0.014871,0.001482,-0.000308,-0.000826,-0.000666,-0.003241,-0.495022,0.000984,1.255618,-261.762662,1.224161,65.707577
12.7169,-0.003868,0.014682,-0.000135,-0.000291,-0.000822,-0.000537,-0.003241,-0.495022,0.000984,1.255618,-261.762662,1.224161,65.707577
12.7365,-0.003597,0.014653,-1e-06,-0.000278,-0.00082,-0.000445,-0.003937,-0.495319,-0.000136,1.329915,-261.762676,1.148997,65.707572
12.7569,-0.003917,0.015048,0.000877,-0.000212,-0.000791,0.000149,-0.003798,-0.495331,-8.1e-05,1.329915,-261.762676,1.148997,65.707572
12.7764,-0.003803,0.014536,0.001582,-0.000164,-0.000771,0.00058,-0.003478,-0.494977,0.000864,1.321472,-261.76311,1.101173,65.707336
12.7969,-0.003793,0.014679,0.001307,-0.000199,-0.000784,0.000141,-0.00304,-0.49542,0.001516,1.321472,-261.76311,1.101173,65.707336
12.8168,-0.003869,0.014886,0.001345,-0.000223,-0.000794,-0.000179,-0.00304,-0.49542,0.001516,1.321472,-261.76311,1.101173,65.707336
12.8369,-0.003743,0.014371,0.000359,-0.000239,-0.000802,-0.000413,-0.003185,-0.495118,0.001348,1.246579,-261.763134,1.176065,65.707273
12.8565,-0.003497,0.015048,0.000807,-0.000225,-0.000799,-0.000337,-0.003335,-0.495323,0.000952,1.246579,-261.763134,1.176065,65.707273
12.8764,-0.003763,0.014639,0.001066,-0.000213,-0.000798,-0.000284,-0.003092,-0.494973,0.000796,1.321575,-261.7635,1.160155,65.70707
12.8967,-0.003635,0.014658,0.002468,-0.000213,-0.0008,-0.000288,-0.003209,-0.495327,0.001041,1.321575,-261.7635,1.160155,65.70707
12.9168,-0.003832,0.014469,0.00118,-0.000214,-0.000801,-0.000291,-0.003209,-0.495327,0.001041,1.321575,-261.7635,1.160155,65.70707
12.9367,-0.003758,0.01449,0.000296,-0.000214,-0.000802,-0.000294,-0.003238,-0.49556,0.00117,1.35486,-261.763852,1.235162,65.706836
12.9566,-0.003957,0.014213,0.000672,-0.000195,-0.000797,-0.000189,-0.00339,-0.495543,0.00081,1.35486,-261.763852,1.235162,65.706836
12.9765,-0.004178,0.014491,0.002282,-0.000181,-0.000793,-0.000114,-0.003621,-0.495813,0.000663,1.356485,-261.764254,1.240177,65.706573
12.9969,-0.003649,0.014547,0.000274,-0.000213,-0.000802,-0.000608,-0.003067,-0.495535,0.002141,1.356485,-261.764254,1.240177,65.706573
13.0166,-0.003741,0.014801,0.00074,-0.000234,-0.000808,-0.000968,-0.003067,-0.495535,0.002141,1.356485,-261.764254,1.240177,65.706573
13.0367,-0.003488,0.014792,0.00151,-0.000247,-0.000813,-0.001231,-0.003371,-0.495229,0.000736,1.363681,-261.764567,1.315114,65.706308
13.0565,-0.003711,0.014827,0.000249,-0.00024,-0.000809,-0.000975,-0.003105,-0.495223,0.001051,1.363681,-261.764567,1.315114,65.706308
13.0768,-0.003711,0.01446,0.000752,-0.000237,-0.000807,-0.000793,-0.003584,-0.495173,0.000249,1.41419,-261.764567,1.240139,65.706308
13.0968,-0.003838,0.014356,0.001407,-0.000212,-0.000797,-0.000499,-0.00335,-0.495507,0.000707,1.41419,-261.764567,1.240139,65.706308
13.1166,-0.003521,0.014657,0.000684,-0.000193,-0.000791,-0.000288,-0.00335,-0.495507,0.000707,1.41419,-261.764567,1.240139,65.706308
13.1365,-0.003499,0.014507,-0.000105,-0.00018,-0.000787,-0.000136,-0.003174,-0.49535,0.000677,1.389259,-261.764685,1.165231,65.706272
13.1568,-0.003815,0.014303,0.003174,-0.000168,-0.000781,0.000146,-0.003328,-0.495409,0.000359,1.389259,-261.764685,1.165231,65.706272
13.1762,-0.003704,0.014748,-0.001218,-0.000161,-0.000777,0.000351,-0.002201,-0.495711,0.003171,1.366591,-261.764925,1.240228,65.706076
13.1969,-0.003453,0.014929,0.001501,-9.1e-05,-0.000742,0.001104,-0.004146,-0.495292,-0.000846,1.366591,-261.764925,1.240228,65.706076
13.2171,-0.003636,0.014723,0.000952,-3.9e-05,-0.000719,0.001658,-0.004146,-0.495292,-0.000846,1.366591,-261.764925,1.240228,65.706076
13.2368,-0.00367,0.014664,0.000541,0.0,-0.000703,0.002065,-0.003156,-0.495295,0.00096,1.291419,-261.76506,1.315399,65.705844
13.2566,-0.003454,0.014766,-0.000999,-5.2e-05,-0.000724,0.001547,-0.003253,-0.495313,0.000791,1.291419,-261.76506,1.315399,65.705844
13.2768,-0.003645,0.014995,0.000467,-9.1e-05,-0.000741,0.001169,-0.003963,-0.495236,-0.000992,1.366345,-261.765038,1.390326,65.705767
13.2969,-0.00384,0.014764,0.001602,-0.000104,-0.000749,0.001111,-0.003455,-0.495025,0.000343,1.366345,-261.765038,1.390326,65.705767
13.3169,-0.003431,0.014386,0.001765,-0.000115,-0.000755,0.001068,-0.003455,-0.495025,0.000343,1.366345,-261.765038,1.390326,65.705767
13.3362,-0.003871,0.014643,0.001313,-0.000123,-0.000759,0.001037,-0.002531,-0.495613,0.001765,1.291287,-261.765038,1.465384,65.705767
13.3569,-0.003893,0.014646,0.001528,-0.000184,-0.000778,0.000455,-0.002805,-0.495508,0.00158,1.291287,-261.765038,1.465384,65.705767
13.3766,-0.003674,0.014562,0.000387,-0.000227,-0.000793,2.9e-05,-0.003114,-0.495354,0.001528,1.216342,-261.765039,1.482555,65.705757
13.3969,-0.003874,0.014132,0.001277,-0.000203,-0.000786,0.000213,-0.003445,-0.49543,0.000485,1.216342,-261.765039,1.482555,65.705757
13.4168,-0.003534,0.014669,0.000948,-0.000185,-0.000781,0.000344,-0.003445,-0.49543,0.000485,1.216342,-261.765039,1.482555,65.705757
13.4373,-0.003735,0.014617,0.000726,-0.000171,-0.000778,0.000438,-0.003054,-0.495348,0.000949,1.285439,-261.765211,1.407541,65.705578
13.4569,-0.003935,0.014544,0.001514,-0.000183,-0.000784,0.000324,-0.00318,-0.495364,0.000859,1.285439,-261.765211,1.407541,65.705578
13.4766,-0.004096,0.014485,0.001077,-0.000193,-0.000788,0.00024,-0.003168,-0.495479,0.001527,1.247873,-261.765422,1.40879,65.705164
13.4969,-0.003696,0.013909,0.001706,-0.000181,-0.000788,6.2e-05,-0.003513,-0.495513,0.001118,1.247873,-261.765422,1.40879,65.705164
13.5168,-0.003699,0.014363,0.00104,-0.000169,-0.000787,-6.9e-05,-0.003513,-0.495513,0.001118,1.247873,-261.765422,1.40879,65.705164
13.5368,-0.003414,0.014764,0.001512,-0.000158,-0.000785,-0.000164,-0.003177,-0.495669,0.001049,1.278881,-261.765679,1.367493,65.704798
13.557,-0.003924,0.014072,0.00338,-0.000185,-0.000794,-0.000289,-0.002959,-0.495495,0.00124,1.278881,-261.765679,1.367493,65.704798
13.5767,-0.003869,0.014848,0.001416,-0.000206,-0.000801,-0.00038,-0.002205,-0.495945,0.003376,1.35388,-261.765967,1.343705,65.704572
13.5966,-0.004214,0.014603,0.001124,-0.000226,-0.000808,-0.000592,-0.003065,-0.495221,0.001587,1.35388,-261.765967,1.343705,65.704572
13.6168,-0.003783,0.014317,0.000288,-0.00024,-0.000813,-0.000747,-0.003065,-0.495221,0.001587,1.35388,-261.765967,1.343705,65.704572
13.6367,-0.003946,0.014812,0.002093,-0.00025,-0.000817,-0.000859,-0.003642,-0.495709,0.000276,1.374396,-261.766299,1.268613,65.704382
13.6568,-0.003983,0.014359,0.000684,-0.000227,-0.00081,-0.000692,-0.003332,-0.4955,0.001014,1.374396,-261.766299,1.268613,65.704382
13.6761,-0.00408,0.01455,0.000518,-0.00021,-0.000805,-0.000573,-0.003635,-0.495643,0.000682,1.3865,-261.766336,1.193706,65.704371
13.6972,-0.003819,0.014551,0.001306,-0.000162,-0.000787,-0.000255,-0.0038,-0.495467,0.000533,1.3865,-261.766336,1.193706,65.704371
13.7166,-0.003785,0.014578,0.000793,-0.000125,-0.000773,-2.7e-05,-0.0038,-0.495467,0.000533,1.3865,-261.766336,1.193706,65.704371
13.7367,-0.003441,0.014418,0.001045,-9.7e-05,-0.000764,0.000139,-0.003389,-0.495454,0.000771,1.390982,-261.766783,1.138464,65.704181
13.7564,-0.003829,0.014229,-0.000242,-0.000116,-0.00077,9.1e-05,-0.003194,-0.49551,0.00088,1.390982,-261.766783,1.138464,65.704181
13.7764,-0.003838,0.014418,0.001224,-0.000132,-0.000776,5.6e-05,-0.003953,-0.495775,-0.000241,1.429411,-261.766834,1.213529,65.704117
13.7965,-0.004038,0.014129,-0.000386,-0.000141,-0.00078,-6.6e-05,-0.003281,-0.495599,0.001091,1.429411,-261.766834,1.213529,65.704117
13.8165,-0.003424,0.014252,-0.000104,-0.000147,-0.000783,-0.000154,-0.003281,-0.495599,0.001091,1.429411,-261.766834,1.213529,65.704117
13.8367,-0.003567,0.014305,8.5e-05,-0.000151,-0.000785,-0.000218,-0.003481,-0.495765,-0.000103,1.394958,-261.766993,1.288457,65.703943
13.8566,-0.003747,0.013946,0.001318,-0.00012,-0.000768,0.000283,-0.003499,-0.495738,-2.6e-05,1.394958,-261.766993,1.288457,65.703943
13.8764,-0.003472,0.014068,0.000537,-0.0001,-0.000756,0.000647,-0.00308,-0.496078,0.001311,1.407516,-261.767347,1.342784,65.703689
13.8964,-0.003962,0.014573,0.000264,-0.000112,-0.000761,0.000593,-0.003188,-0.495946,0.000606,1.407516,-261.767347,1.342784,65.703689
13.9163,-0.003793,0.014084,-0.000856,-0.000122,-0.000765,0.000554,-0.003188,-0.495946,0.000606,1.407516,-261.767347,1.342784,65.703689
13.9366,-0.00391,0.014483,0.000261,-0.00013,-0.000768,0.000525,-0.004233,-0.495935,-0.00084,1.332517,-261.767438,1.417783,65.703409
13.9567,-0.003729,0.014513,-3.9e-05,-6.9e-05,-0.000742,0.001011,-0.004048,-0.495768,-0.000392,1.332517,-261.767438,1.417783,65.703409
13.9766,-0.003577,0.014284,0.002119,-2.3e-05,-0.000723,0.001366,-0.003753,-0.495511,-2.3e-05,1.288737,-261.767615,1.452304,65.702992
13.9968,-0.003921,0.013866,0.002089,-0.00012,-0.00075,0.000567,-0.002609,-0.495698,0.001927,1.288737,-261.767615,1.452304,65.702992
14.0163,-0.00396,0.014434,0.001346,-0.000192,-0.000772,-2e-05,-0.002609,-0.495698,0.001927,1.288737,-261.767615,1.452304,65.702992
14.0366,-0.003741,0.014049,0.001851,-0.000244,-0.00079,-0.00045,-0.003273,-0.495566,0.001346,1.213723,-261.767615,1.527318,65.702991
14.057,-0.003979,0.014407,-0.000724,-0.000247,-0.000795,-0.00062,-0.003078,-0.495723,0.001554,1.213723,-261.767615,1.527318,65.702991
14.0763,-0.003916,0.014327,-0.000863,-0.000247,-0.000799,-0.000745,-0.004348,-0.495594,-0.000724,1.288827,-261.767639,1.452214,65.702979
14.0966,-0.00381,0.014251,0.00119,-0.000132,-0.000745,0.00031,-0.004355,-0.495666,-0.00085,1.288827,-261.767639,1.452214,65.702979
14.1163,-0.003873,0.014368,0.000888,-4.6e-05,-0.000707,0.001085,-0.004355,-0.495666,-0.00085,1.288827,-261.767639,1.452214,65.702979
14.1371,-0.003742,0.014545,0.002616,1.9e-05,-0.00068,0.001654,-0.00342,-0.495633,0.000888,1.363763,-261.767646,1.377278,65.702977
14.1566,-0.003577,0.014006,0.002116,-5.8e-05,-0.000708,0.000912,-0.003011,-0.49556,0.001586,1.363763,-261.767646,1.377278,65.702977
14.1765,-0.003759,0.01408,0.000305,-0.000114,-0.000731,0.000368,-0.002499,-0.496,0.002135,1.438708,-261.767599,1.452222,65.702736
14.1966,-0.003342,0.01412,0.000259,-9.9e-05,-0.000731,0.000466,-0.0035,-0.495928,0.000477,1.438708,-261.767599,1.452222,65.702736
14.2165,-0.003903,0.014527,-0.000234,-8.8e-05,-0.000731,0.000535,-0.0035,-0.495928,0.000477,1.438708,-261.767599,1.452222,65.702736
14.2367,-0.003953,0.014203,0.002291,-7.9e-05,-0.000732,0.000582,-0.004026,-0.4955,-0.000221,1.363687,-261.767782,1.45226,65.702397
14.2563,-0.003986,0.014556,0.000494,-8.2e-05,-0.000738,0.000457,-0.003521,-0.495624,0.000805,1.363687,-261.767782,1.45226,65.702397
14.2765,-0.004348,0.014121,0.001188,-8.3e-05,-0.000742,0.000365,-0.003737,-0.495467,0.000511,1.362601,-261.76793,1.497824,65.701976
14.2965,-0.003887,0.014146,0.002404,-7.1e-05,-0.000743,0.000149,-0.003742,-0.495843,0.001128,1.362601,-261.76793,1.497824,65.701976
14.3164,-0.003843,0.014137,0.001975,-5.9e-05,-0.000742,-9e-06,-0.003742,-0.495843,0.001128,1.362601,-261.76793,1.497824,65.701976
14.3366,-0.003771,0.01405,0.003457,-4.6e-05,-0.000742,-0.000125,-0.002839,-0.495891,0.00199,1.411514,-261.768132,1.48451,65.701604
14.3565,-0.003809,0.014098,0.000433,-0.000138,-0.000764,-0.00076,-0.002503,-0.495917,0.002585,1.411514,-261.768132,1.48451,65.701604
14.3764,-0.003678,0.014077,0.001413,-0.000207,-0.000782,-0.001227,-0.00359,-0.495922,0.00043,1.486508,-261.768408,1.501208,65.701379
14.3966,-0.004159,0.014234,0.001296,-0.000205,-0.000784,-0.001093,-0.003012,-0.495923,0.001329,1.486508,-261.768408,1.501208,65.701379
14.4166,-0.003947,0.013784,0.000647,-0.000204,-0.000785,-0.000999,-0.003012,-0.495923,0.001329,1.486508,-261.768408,1.501208,65.701379
14.4363,-0.004109,0.014203,0.000693,-0.000205,-0.000788,-0.000933,-0.003617,-0.496216,0.000647,1.436382,-261.768408,1.426091,65.701379
14.4566,-0.003779,0.01421,0.000712,-0.000153,-0.000769,-0.000579,-0.003673,-0.496046,0.000666,1.436382,-261.768408,1.426091,65.701379
14.4764,-0.004021,0.014095,0.001679,-0.000112,-0.000757,-0.000325,-0.003416,-0.495789,0.000712,1.420894,-261.768409,1.351211,65.701379
14.4964,-0.003982,0.014047,0.000467,-0.00013,-0.000765,-0.000557,-0.003186,-0.495894,0.001597,1.420894,-261.768409,1.351211,65.701379
14.5167,-0.004105,0.013833,7.9e-05,-0.000142,-0.000772,-0.000727,-0.003186,-0.495894,0.001597,1.420894,-261.768409,1.351211,65.701379
14.5366,-0.003832,0.013721,0.002246,-0.00015,-0.000777,-0.00085,-0.004069,-0.496198,6.5e-05,1.453645,-261.768784,1.372192,65.701157
14.5565,-0.003615,0.014291,0.00129,-0.000119,-0.000767,-0.000659,-0.003506,-0.496234,0.000953,1.453645,-261.768784,1.372192,65.701157
14.5766,-0.003418,0.01415,0.000917,-9.5e-05,-0.00076,-0.000522,-0.002958,-0.495713,0.001285,1.455286,-261.768873,1.297319,65.701136
14.5971,-0.003731,0.013824,0.000403,-0.000119,-0.000767,-0.000424,-0.002951,-0.495838,0.000951,1.455286,-261.768873,1.297319,65.701136
14.6168,-0.004089,0.014507,0.001286,-0.000139,-0.000774,-0.000353,-0.002951,-0.495838,0.000951,1.455286,-261.768873,1.297319,65.701136
14.6369,-0.0039,0.013828,0.00299,-0.000157,-0.00078,-0.000302,-0.003436,-0.495522,0.001266,1.483383,-261.769275,1.359769,65.700969
14.6565,-0.003597,0.013917,0.000386,-0.000187,-0.000789,-0.000685,-0.003005,-0.495789,0.001965,1.483383,-261.769275,1.359769,65.700969
14.6765,-0.004233,0.014122,0.001979,-0.000208,-0.000797,-0.000963,-0.003405,-0.496105,0.000377,1.408821,-261.769619,1.3122,65.700752
14.6967,-0.003824,0.013859,0.000788,-0.000203,-0.000797,-0.001116,-0.003241,-0.495898,0.001835,1.408821,-261.769619,1.3122,65.700752
14.7172,-0.003716,0.013868,0.000456,-0.000198,-0.000797,-0.001227,-0.003241,-0.495898,0.001835,1.408821,-261.769619,1.3122,65.700752
14.7365,-0.003967,0.014118,0.001519,-0.000192,-0.000796,-0.001309,-0.003484,-0.496133,0.000455,1.421598,-261.769625,1.237172,65.70075
14.7568,-0.003784,0.013892,0.002691,-0.000161,-0.000783,-0.000954,-0.003369,-0.496033,0.000876,1.421598,-261.769625,1.237172,65.70075
14.7764,-0.003725,0.014087,-6.2e-05,-0.000138,-0.000775,-0.000699,-0.002412,-0.496107,0.002691,1.451224,-261.769625,1.162015,65.70075
14.7963,-0.003771,0.014065,0.000444,-9.6e-05,-0.000754,-0.000167,-0.003642,-0.49593,0.000172,1.451224,-261.769625,1.162015,65.70075
14.8166,-0.003775,0.013826,0.001632,-6.5e-05,-0.00074,0.000219,-0.003642,-0.49593,0.000172,1.451224,-261.769625,1.162015,65.70075
14.8368,-0.003521,0.013895,0.000584,-4.4e-05,-0.000731,0.000499,-0.002949,-0.496206,0.001603,1.456354,-261.7701,1.192432,65.700604
14.8567,-0.003683,0.013895,0.001982,-7.8e-05,-0.000745,0.000215,-0.00306,-0.496169,0.001189,1.456354,-261.7701,1.192432,65.700604
14.8764,-0.003586,0.013865,0.000753,-0.000104,-0.000755,9e-06,-0.002673,-0.496108,0.001984,1.467638,-261.770127,1.26723,65.700538
14.8964,-0.004189,0.014474,0.000732,-0.000111,-0.000759,7e-06,-0.003156,-0.496133,0.000861,1.467638,-261.770127,1.26723,65.700538
