mach0312/omni-docking-bench/src/icros_test_setup/results/MPPI_sample/timeseries/trial_063.csv
t,x,y,yaw,vx,vy,wz,bl_x,bl_y,bl_yaw,front_steering_joint,front_wheel_joint,rear_steering_joint,rear_wheel_joint
0.0,-0.046942,-0.032119,0.088324,0.007094,-0.000306,0.000574,-0.004,-0.539915,0.087293,0.006221,-257.282817,-0.092354,72.01964
0.0004,-0.047209,-0.032107,0.088791,0.006885,-0.000297,0.000557,-0.003683,-0.540122,0.087946,0.006221,-257.279858,-0.092354,72.022611
0.0007,-0.04674,-0.031714,0.090468,0.006641,-0.000287,0.000537,-0.003683,-0.540122,0.087946,0.006221,-257.277021,-0.092354,72.02546
0.0011,-0.046522,-0.031684,0.08805,0.006357,-0.000275,0.000514,-0.003683,-0.540122,0.087946,0.006221,-257.274464,-0.092354,72.028028
0.0014,-0.04666,-0.031864,0.089264,0.006036,-0.000261,0.000488,-0.002873,-0.540288,0.088652,0.006221,-257.274464,-0.092354,72.028028
0.0017,-0.046608,-0.031578,0.088385,0.005674,-0.000245,0.000459,-0.002873,-0.540288,0.088652,0.006221,-257.274464,-0.092354,72.028028
0.0019,-0.046903,-0.031885,0.087993,0.005279,-0.000228,0.000427,-0.002878,-0.54025,0.088537,0.006221,-257.274464,-0.092354,72.028028
0.015,-0.046488,-0.031834,0.088539,0.0,0.0,0.0,-0.001906,-0.539904,0.088008,0.006221,-257.272207,-0.092354,72.030295
0.0347,-0.046343,-0.031858,0.088545,0.0,0.0,0.0,-0.001427,-0.539842,0.088494,0.006221,-257.272207,-0.092354,72.030295
0.055,-0.046203,-0.031566,0.086846,0.0,0.0,0.0,-0.001427,-0.539842,0.088494,0.006221,-257.272207,-0.092354,72.030295
0.0747,-0.046426,-0.031797,0.089365,0.0,0.0,0.0,-0.001967,-0.539644,0.086846,0.006221,-257.272207,-0.092354,72.030295
0.0948,-0.04635,-0.031497,0.089116,0.0,0.0,0.0,-0.001535,-0.539692,0.087877,0.006221,-257.272207,-0.092354,72.030295
0.1147,-0.046412,-0.031608,0.088574,-0.004177,0.004566,-0.012116,-0.00096,-0.539473,0.089116,0.006221,-257.272207,-0.092354,72.030295
0.1347,-0.046576,-0.032013,0.089151,-0.004546,0.005021,-0.013002,-0.00127,-0.539597,0.088621,0.006221,-257.272207,-0.092354,72.030295
0.1549,-0.046135,-0.032052,0.089082,-0.004856,0.005418,-0.013698,-0.00127,-0.539597,0.088621,0.006221,-257.272207,-0.092354,72.030295
0.175,-0.046115,-0.0316,0.088733,-0.005118,0.005763,-0.014244,-0.000763,-0.54003,0.089082,0.081252,-257.272207,-0.167385,72.030295
0.1947,-0.046862,-0.031605,0.087479,-0.005352,0.006064,-0.014675,-0.000827,-0.539852,0.08894,0.081252,-257.272207,-0.167385,72.030295
0.2148,-0.046144,-0.031843,0.0878,-0.005549,0.006327,-0.015011,-0.002304,-0.539655,0.087479,0.156119,-257.272207,-0.242252,72.030295
0.235,-0.046277,-0.031591,0.088194,-0.005694,0.006554,-0.015268,-0.001499,-0.539859,0.087773,0.156119,-257.272207,-0.242252,72.030295
0.2549,-0.045932,-0.031584,0.089011,-0.005816,0.006752,-0.015469,-0.001499,-0.539859,0.087773,0.156119,-257.272207,-0.242252,72.030295
0.2747,-0.046557,-0.032201,0.086853,-0.005919,0.006924,-0.015626,-0.000596,-0.539565,0.089011,0.231231,-257.272207,-0.317364,72.030295
0.2947,-0.046705,-0.03152,0.087893,-0.00601,0.007073,-0.015749,-0.001319,-0.539865,0.088104,0.231231,-257.272207,-0.317364,72.030295
0.3149,-0.046285,-0.031892,0.088856,-0.006087,0.007203,-0.015846,-0.001937,-0.539551,0.087892,0.306533,-257.272207,-0.392667,72.030294
0.3347,-0.046343,-0.031739,0.085634,-0.006158,0.007316,-0.015924,-0.001105,-0.539852,0.088775,0.306533,-257.272207,-0.392667,72.030294
0.3549,-0.046153,-0.032019,0.087721,-0.006218,0.007414,-0.015985,-0.001105,-0.539852,0.088775,0.306533,-257.272207,-0.392667,72.030294
0.3746,-0.046151,-0.031845,0.088053,-0.006269,0.007499,-0.016033,-0.001473,-0.540058,0.087721,0.38127,-257.272207,-0.467403,72.030294
0.395,-0.046599,-0.0318,0.088074,-0.006302,0.007572,-0.016069,-0.001402,-0.53998,0.087858,0.38127,-257.272207,-0.467403,72.030294
0.415,-0.046371,-0.032043,0.088266,-0.00633,0.007636,-0.016098,-0.001739,-0.539823,0.088074,0.350676,-257.272208,-0.542407,72.030293
0.4349,-0.046477,-0.032002,0.087061,-0.006351,0.007692,-0.016121,-0.001441,-0.540038,0.08825,0.350676,-257.272208,-0.542407,72.030293
0.4547,-0.046228,-0.031901,0.089255,-0.006369,0.00774,-0.01614,-0.001441,-0.540038,0.08825,0.350676,-257.272208,-0.542407,72.030293
0.4753,-0.046403,-0.031557,0.087644,-0.006384,0.007782,-0.016156,-0.000768,-0.53987,0.089255,0.333857,-257.272209,-0.617409,72.03029
0.4948,-0.046591,-0.031725,0.087497,-0.006403,0.007818,-0.01617,-0.001178,-0.539759,0.088591,0.333857,-257.272209,-0.617409,72.03029
0.5153,-0.046127,-0.032039,0.088115,-0.006419,0.00785,-0.016182,-0.002026,-0.539773,0.087496,0.315766,-257.272214,-0.692423,72.030275
0.5346,-0.046266,-0.031946,0.088982,-0.006429,0.007878,-0.016191,-0.001317,-0.540035,0.088059,0.315766,-257.272214,-0.692423,72.030275
0.5553,-0.046067,-0.032037,0.089121,-0.006437,0.007902,-0.016198,-0.001317,-0.540035,0.088059,0.315766,-257.272214,-0.692423,72.030275
0.5748,-0.046317,-0.032117,0.089142,-0.006444,0.007923,-0.016205,-0.00068,-0.540011,0.089116,0.306725,-257.272238,-0.76726,72.030209
0.5948,-0.046106,-0.031999,0.088964,-0.006467,0.007942,-0.016214,-0.000775,-0.540044,0.089126,0.306725,-257.272238,-0.76726,72.030209
0.6155,-0.046588,-0.031631,0.088293,-0.006486,0.007958,-0.01622,-0.000804,-0.539977,0.088951,0.297317,-257.272323,-0.842249,72.029969
0.6352,-0.04641,-0.031729,0.089548,-0.006477,0.007972,-0.01622,-0.001552,-0.539671,0.088346,0.297317,-257.272323,-0.842249,72.029969
0.655,-0.046669,-0.031735,0.088137,-0.006469,0.007983,-0.016221,-0.001552,-0.539671,0.088346,0.297317,-257.272323,-0.842249,72.029969
0.6747,-0.046131,-0.031859,0.088068,-0.006462,0.007992,-0.016222,-0.001815,-0.539733,0.088083,0.291803,-257.272575,-0.917509,72.029262
0.6947,-0.046179,-0.031702,0.087117,-0.006456,0.008001,-0.016223,-0.001598,-0.539792,0.088071,0.291803,-257.272575,-0.917509,72.029262
0.7149,-0.046873,-0.031407,0.087823,-0.00645,0.008008,-0.016225,-0.001868,-0.539724,0.087016,0.288093,-257.273159,-0.992321,72.027611
0.7348,-0.04645,-0.031592,0.089519,-0.006428,0.008012,-0.016223,-0.002122,-0.539462,0.087753,0.288093,-257.273159,-0.992321,72.027611
0.7549,-0.046407,-0.031725,0.087847,-0.006409,0.008016,-0.016222,-0.002122,-0.539462,0.087753,0.288093,-257.273159,-0.992321,72.027611
0.7747,-0.04612,-0.031613,0.086791,-0.006393,0.008019,-0.016223,-0.001809,-0.539642,0.087583,0.28668,-257.274277,-1.067537,72.024445
0.795,-0.046351,-0.031834,0.087452,-0.006389,0.008023,-0.016323,-0.001868,-0.53965,0.087227,0.28668,-257.274277,-1.067537,72.024445
0.8148,-0.046326,-0.031573,0.086946,-0.006386,0.008026,-0.016402,-0.001971,-0.539737,0.087122,0.287314,-257.276039,-1.142412,72.019415
0.8351,-0.046761,-0.03116,0.087826,-0.006376,0.008028,-0.016541,-0.002042,-0.539647,0.086945,0.287314,-257.276039,-1.142412,72.019415
0.855,-0.046202,-0.031125,0.087007,-0.006367,0.008031,-0.01665,-0.002042,-0.539647,0.086945,0.287314,-257.276039,-1.142412,72.019415
0.8749,-0.046527,-0.030631,0.086344,-0.00636,0.008033,-0.016737,-0.002148,-0.538925,0.086408,0.302306,-257.278387,-1.217481,72.012698
0.8946,-0.046391,-0.030708,0.08772,-0.006341,0.008034,-0.0169,-0.002341,-0.538814,0.086312,0.302306,-257.278387,-1.217481,72.012698
0.9147,-0.046354,-0.030221,0.086217,-0.006325,0.008035,-0.017031,-0.001931,-0.538514,0.087198,0.331476,-257.281027,-1.235572,72.00511
0.935,-0.046412,-0.030626,0.084538,-0.006307,0.008036,-0.017235,-0.002404,-0.538331,0.086277,0.331476,-257.281027,-1.235572,72.00511
0.9547,-0.046277,-0.030252,0.087362,-0.006292,0.008038,-0.017399,-0.002404,-0.538331,0.086277,0.331476,-257.281027,-1.235572,72.00511
0.975,-0.046251,-0.030291,0.08423,-0.006279,0.00804,-0.017529,-0.002068,-0.537999,0.086658,0.357965,-257.283697,-1.240316,71.997404
0.995,-0.045876,-0.029953,0.085275,-0.00626,0.008041,-0.017721,-0.002625,-0.538161,0.085582,0.357965,-257.283697,-1.240316,71.997404
1.0149,-0.046276,-0.029474,0.083038,-0.006243,0.008042,-0.017877,-0.002653,-0.537869,0.084733,0.401532,-257.286352,-1.247574,71.989708
1.0349,-0.046071,-0.030107,0.082913,-0.006185,0.008037,-0.018068,-0.003882,-0.537718,0.083146,0.401532,-257.286352,-1.247574,71.989708
1.055,-0.046158,-0.029415,0.084364,-0.006136,0.008033,-0.018226,-0.003882,-0.537718,0.083146,0.401532,-257.286352,-1.247574,71.989708
1.0747,-0.045554,-0.029296,0.081565,-0.006094,0.008029,-0.018355,-0.003466,-0.537294,0.083631,0.431757,-257.28905,-1.2527,71.981875
1.0947,-0.046055,-0.029344,0.083608,-0.006063,0.008028,-0.018534,-0.003717,-0.537383,0.082706,0.431757,-257.28905,-1.2527,71.981875
1.1149,-0.046052,-0.028898,0.082196,-0.006036,0.008026,-0.01868,-0.003671,-0.537333,0.083047,0.48102,-257.291689,-1.264035,71.974126
1.1347,-0.045855,-0.028806,0.082859,-0.005997,0.008022,-0.018856,-0.004143,-0.537179,0.082245,0.48102,-257.291689,-1.264035,71.974126
1.1554,-0.045594,-0.028876,0.081028,-0.005964,0.008019,-0.019002,-0.004143,-0.537179,0.082245,0.48102,-257.291689,-1.264035,71.974126
1.1751,-0.046214,-0.028666,0.080151,-0.005936,0.008017,-0.019122,-0.004591,-0.536892,0.080255,0.510754,-257.294417,-1.269655,71.966104
1.1951,-0.045606,-0.028608,0.081593,-0.005883,0.00801,-0.019267,-0.004939,-0.536912,0.080125,0.510754,-257.294417,-1.269655,71.966104
1.2149,-0.045703,-0.028263,0.080546,-0.005839,0.008003,-0.019388,-0.004243,-0.536679,0.081001,0.552751,-257.297131,-1.278093,71.958099
1.2351,-0.045905,-0.028267,0.079677,-0.005809,0.007999,-0.019534,-0.004643,-0.536605,0.080556,0.552751,-257.297131,-1.278093,71.958099
1.255,-0.045617,-0.028257,0.079557,-0.005784,0.007996,-0.019656,-0.004643,-0.536605,0.080556,0.552751,-257.297131,-1.278093,71.958099
1.2749,-0.045337,-0.02785,0.077897,-0.005763,0.007994,-0.019756,-0.005352,-0.536334,0.078757,0.581485,-257.299882,-1.284624,71.949955
1.2951,-0.04544,-0.027561,0.080677,-0.005714,0.007985,-0.019869,-0.005503,-0.536286,0.078318,0.581485,-257.299882,-1.284624,71.949955
1.3146,-0.045038,-0.027381,0.077709,-0.005673,0.007977,-0.019964,-0.004539,-0.535667,0.080058,0.615104,-257.302657,-1.291044,71.941746
1.3348,-0.045347,-0.027092,0.079615,-0.005639,0.007971,-0.020068,-0.005379,-0.535816,0.077878,0.615104,-257.302657,-1.291044,71.941746
1.3549,-0.044986,-0.02734,0.077736,-0.005611,0.007966,-0.020155,-0.005379,-0.535816,0.077878,0.615104,-257.302657,-1.291044,71.941746
1.3747,-0.044844,-0.026835,0.078341,-0.005587,0.007962,-0.020228,-0.00564,-0.535489,0.076911,0.639124,-257.305451,-1.296639,71.933462
1.3948,-0.044989,-0.026938,0.078231,-0.005564,0.007957,-0.020301,-0.00538,-0.535364,0.0774,0.639124,-257.305451,-1.296639,71.933462
1.4147,-0.045056,-0.026508,0.076645,-0.005544,0.007954,-0.020363,-0.005327,-0.535142,0.077593,0.666271,-257.308265,-1.302421,71.925121
1.435,-0.044496,-0.026355,0.076637,-0.005504,0.007944,-0.020418,-0.005957,-0.535011,0.076695,0.666271,-257.308265,-1.302421,71.925121
1.4549,-0.045019,-0.026143,0.07535,-0.005471,0.007937,-0.020465,-0.005957,-0.535011,0.076695,0.666271,-257.308265,-1.302421,71.925121
1.4748,-0.044536,-0.026247,0.074828,-0.005443,0.00793,-0.020505,-0.006882,-0.534383,0.074501,0.679907,-257.311106,-1.305303,71.9167
1.4949,-0.04443,-0.02601,0.074725,-0.005389,0.007915,-0.020542,-0.006717,-0.534526,0.074537,0.679907,-257.311106,-1.305303,71.9167
1.515,-0.044195,-0.02538,0.075547,-0.005343,0.007902,-0.020575,-0.006546,-0.53435,0.074077,0.701007,-257.313935,-1.31072,71.908294
1.5349,-0.044657,-0.025598,0.074416,-0.005334,0.007899,-0.020618,-0.005786,-0.533951,0.075387,0.701007,-257.313935,-1.31072,71.908294
1.5551,-0.044451,-0.025618,0.074231,-0.005325,0.007898,-0.020654,-0.005786,-0.533951,0.075387,0.701007,-257.313935,-1.31072,71.908294
1.5751,-0.044301,-0.025278,0.075374,-0.005318,0.007896,-0.020683,-0.006874,-0.533902,0.073376,0.717645,-257.316759,-1.315441,71.899869
1.5953,-0.04423,-0.0256,0.073462,-0.005286,0.007887,-0.02071,-0.006499,-0.533836,0.074101,0.717645,-257.316759,-1.315441,71.899869
1.6149,-0.044004,-0.02505,0.07047,-0.005258,0.007879,-0.020733,-0.006985,-0.533986,0.072804,0.727557,-257.319609,-1.317295,71.891385
1.6352,-0.043835,-0.024768,0.07377,-0.005182,0.007852,-0.020749,-0.008014,-0.533789,0.070625,0.727557,-257.319609,-1.317295,71.891385
1.6546,-0.043981,-0.024552,0.072679,-0.005118,0.00783,-0.020766,-0.008014,-0.533789,0.070625,0.727557,-257.319609,-1.317295,71.891385
1.6748,-0.043711,-0.024349,0.07074,-0.005065,0.007811,-0.020782,-0.007189,-0.532895,0.071818,0.73822,-257.322435,-1.320201,71.882956
1.6949,-0.043782,-0.024392,0.07188,-0.005031,0.007799,-0.020805,-0.00741,-0.532932,0.071279,0.73822,-257.322435,-1.320201,71.882956
1.7157,-0.043506,-0.024019,0.07012,-0.005002,0.007788,-0.020825,-0.007331,-0.532841,0.071227,0.766944,-257.325209,-1.328622,71.874627
1.7355,-0.043516,-0.023786,0.069908,-0.004964,0.007774,-0.020845,-0.007735,-0.532759,0.070204,0.766944,-257.325209,-1.328622,71.874627
1.7553,-0.043075,-0.024234,0.070745,-0.004933,0.007762,-0.020863,-0.007735,-0.532759,0.070204,0.766944,-257.325209,-1.328622,71.874627
1.7753,-0.043287,-0.023597,0.068401,-0.004906,0.007752,-0.020878,-0.007256,-0.532648,0.069874,0.778242,-257.328023,-1.331565,71.866168
1.7952,-0.043245,-0.023808,0.068698,-0.004881,0.007741,-0.020896,-0.007768,-0.532511,0.069164,0.778242,-257.328023,-1.331565,71.866168
1.8148,-0.042931,-0.02304,0.06688,-0.004859,0.007733,-0.020911,-0.008407,-0.532372,0.06804,0.794817,-257.330805,-1.335911,71.857795
1.835,-0.042885,-0.022982,0.066925,-0.004796,0.007706,-0.020918,-0.008818,-0.531928,0.066947,0.794817,-257.330805,-1.335911,71.857795
1.8548,-0.043196,-0.023151,0.068212,-0.004743,0.007682,-0.020927,-0.008818,-0.531928,0.066947,0.794817,-257.330805,-1.335911,71.857795
1.875,-0.042662,-0.022875,0.066926,-0.004699,0.007663,-0.020936,-0.008659,-0.531657,0.067339,0.803498,-257.333597,-1.338096,71.849391
1.8953,-0.042957,-0.023268,0.066491,-0.004664,0.007647,-0.020948,-0.008643,-0.531652,0.067071,0.803498,-257.333597,-1.338096,71.849391
1.9145,-0.042377,-0.022316,0.064984,-0.004634,0.007634,-0.02096,-0.009235,-0.53191,0.065831,0.828642,-257.336377,-1.344938,71.841
1.9347,-0.042285,-0.022603,0.065526,-0.004583,0.007609,-0.020967,-0.009263,-0.531273,0.065013,0.828642,-257.336377,-1.344938,71.841
1.9554,-0.042686,-0.022393,0.065989,-0.00454,0.007588,-0.020974,-0.009263,-0.531273,0.065013,0.828642,-257.336377,-1.344938,71.841
1.975,-0.041792,-0.022268,0.063348,-0.004503,0.007571,-0.020982,-0.009268,-0.530981,0.065123,0.839752,-257.339139,-1.347784,71.832662
1.9951,-0.042192,-0.021676,0.06312,-0.004466,0.007552,-0.02099,-0.009393,-0.531057,0.064271,0.839752,-257.339139,-1.347784,71.832662
2.0145,-0.041926,-0.021653,0.063928,-0.004434,0.007536,-0.020997,-0.010177,-0.530433,0.062464,0.861214,-257.341862,-1.353372,71.824439
2.0347,-0.042087,-0.021324,0.062835,-0.004398,0.007518,-0.021005,-0.009428,-0.530584,0.063763,0.861214,-257.341862,-1.353372,71.824439
2.0547,-0.041862,-0.021722,0.062872,-0.004369,0.007502,-0.021012,-0.009428,-0.530584,0.063763,0.861214,-257.341862,-1.353372,71.824439
2.0752,-0.041425,-0.02135,0.062544,-0.004344,0.007489,-0.021018,-0.010023,-0.530411,0.061995,0.873061,-257.344617,-1.356374,71.81612
2.0952,-0.041721,-0.021172,0.063231,-0.004305,0.007468,-0.021023,-0.009854,-0.530353,0.062116,0.873061,-257.344617,-1.356374,71.81612
2.1152,-0.041712,-0.020832,0.062012,-0.004273,0.00745,-0.021027,-0.009647,-0.529924,0.062563,0.88865,-257.34736,-1.360255,71.807845
2.1348,-0.041076,-0.020858,0.061873,-0.004228,0.007425,-0.02103,-0.010073,-0.529846,0.062027,0.88865,-257.34736,-1.360255,71.807845
2.1548,-0.041597,-0.020763,0.060717,-0.004192,0.007404,-0.021034,-0.010073,-0.529846,0.062027,0.88865,-257.34736,-1.360255,71.807845
2.1751,-0.041069,-0.020276,0.061101,-0.004161,0.007386,-0.021038,-0.010848,-0.529524,0.059838,0.900736,-257.350107,-1.363278,71.799567
2.195,-0.041077,-0.020325,0.06089,-0.004113,0.007358,-0.021039,-0.010497,-0.529408,0.06025,0.900736,-257.350107,-1.363278,71.799567
2.2153,-0.04068,-0.020062,0.059443,-0.004073,0.007334,-0.021042,-0.010188,-0.529154,0.060222,0.919897,-257.352835,-1.368014,71.791358
2.2354,-0.040721,-0.020023,0.059246,-0.00404,0.007314,-0.021047,-0.010372,-0.529149,0.059479,0.919897,-257.352835,-1.368014,71.791358
2.255,-0.040805,-0.019887,0.05855,-0.004012,0.007297,-0.021053,-0.010372,-0.529149,0.059479,0.919897,-257.352835,-1.368014,71.791358
2.2749,-0.040748,-0.019519,0.058123,-0.003989,0.007282,-0.021058,-0.01115,-0.528717,0.057671,0.934868,-257.355581,-1.371682,71.783114
2.2951,-0.040322,-0.020005,0.057846,-0.003934,0.007246,-0.021057,-0.01116,-0.528658,0.057758,0.934868,-257.355581,-1.371682,71.783114
2.3149,-0.039985,-0.01893,0.056029,-0.003888,0.007216,-0.021058,-0.010975,-0.52893,0.057184,0.950106,-257.3583,-1.375303,71.774972
2.335,-0.040093,-0.019296,0.05687,-0.003833,0.00718,-0.021058,-0.011391,-0.528191,0.056099,0.950106,-257.3583,-1.375303,71.774972
2.3548,-0.040044,-0.019688,0.059203,-0.003787,0.007149,-0.02106,-0.011391,-0.528191,0.056099,0.950106,-257.3583,-1.375303,71.774972
2.3749,-0.039445,-0.018581,0.05739,-0.003749,0.007123,-0.021063,-0.010047,-0.528504,0.058326,0.967668,-257.361033,-1.379531,71.766819
2.3949,-0.039802,-0.018828,0.057197,-0.003759,0.007129,-0.021076,-0.010128,-0.528155,0.057838,0.967668,-257.361033,-1.379531,71.766819
2.4149,-0.039228,-0.019,0.05622,-0.003768,0.007134,-0.021086,-0.010778,-0.527777,0.056534,0.992359,-257.363743,-1.385379,71.758782
2.4348,-0.039391,-0.018279,0.055132,-0.003759,0.007129,-0.021091,-0.010596,-0.528146,0.056214,0.992359,-257.363743,-1.385379,71.758782
2.4553,-0.039169,-0.018237,0.054467,-0.003752,0.007124,-0.021096,-0.010596,-0.528146,0.056214,0.992359,-257.363743,-1.385379,71.758782
2.4749,-0.039563,-0.018393,0.055546,-0.003746,0.00712,-0.021099,-0.011578,-0.52719,0.053584,0.990282,-257.366509,-1.384711,71.750581
2.4946,-0.039079,-0.018577,0.054565,-0.003695,0.007084,-0.021094,-0.011459,-0.527333,0.054313,0.990282,-257.366509,-1.384711,71.750581
2.515,-0.038842,-0.017775,0.053482,-0.003652,0.007053,-0.021092,-0.011394,-0.527601,0.053901,0.994705,-257.369244,-1.385705,71.742486
2.5346,-0.038879,-0.017914,0.052641,-0.003608,0.007021,-0.021091,-0.01157,-0.527084,0.053485,0.994705,-257.369244,-1.385705,71.742486
2.5546,-0.038709,-0.017454,0.053092,-0.003572,0.006994,-0.021091,-0.01157,-0.527084,0.053485,0.994705,-257.369244,-1.385705,71.742486
2.575,-0.038794,-0.017256,0.053688,-0.003541,0.006972,-0.021093,-0.011812,-0.52645,0.052214,1.011007,-257.371979,-1.389593,71.734428
2.5953,-0.038599,-0.01749,0.050431,-0.003497,0.006938,-0.021093,-0.011676,-0.526446,0.052707,1.011007,-257.371979,-1.389593,71.734428
2.6148,-0.038047,-0.016842,0.050127,-0.003461,0.00691,-0.021094,-0.013014,-0.526626,0.04976,1.031114,-257.374716,-1.394312,71.726416
2.6348,-0.038268,-0.016732,0.050279,-0.003401,0.006861,-0.021091,-0.012546,-0.526229,0.05006,1.031114,-257.374716,-1.394312,71.726416
2.6553,-0.037861,-0.01723,0.051664,-0.00335,0.006819,-0.02109,-0.012546,-0.526229,0.05006,1.031114,-257.374716,-1.394312,71.726416
2.675,-0.037754,-0.016737,0.051581,-0.003308,0.006785,-0.021092,-0.011683,-0.526268,0.050782,1.045651,-257.377468,-1.397681,71.718406
2.695,-0.037936,-0.016969,0.049659,-0.0033,0.006778,-0.0211,-0.011611,-0.526151,0.051002,1.045651,-257.377468,-1.397681,71.718406
2.715,-0.037554,-0.016062,0.049801,-0.003294,0.006773,-0.021107,-0.012734,-0.526133,0.048997,1.073631,-257.380206,-1.404131,71.710534
2.7346,-0.03778,-0.016473,0.050247,-0.003253,0.006738,-0.021106,-0.012223,-0.525482,0.049694,1.073631,-257.380206,-1.404131,71.710534
2.7548,-0.037759,-0.016531,0.048057,-0.003219,0.006709,-0.021107,-0.012223,-0.525482,0.049694,1.073631,-257.380206,-1.404131,71.710534
2.775,-0.036955,-0.015963,0.048291,-0.003191,0.006684,-0.021109,-0.013411,-0.525666,0.047174,1.076974,-257.38299,-1.404842,71.702548
2.795,-0.037217,-0.0159,0.049789,-0.003147,0.006645,-0.021108,-0.012985,-0.525511,0.047533,1.076974,-257.38299,-1.404842,71.702548
2.8147,-0.036587,-0.015707,0.046203,-0.003111,0.006612,-0.021108,-0.011945,-0.525062,0.049124,1.096047,-257.38576,-1.409223,71.694675
2.8348,-0.036144,-0.015436,0.04702,-0.003074,0.006578,-0.021109,-0.01294,-0.525143,0.046431,1.096047,-257.38576,-1.409223,71.694675
2.8548,-0.036661,-0.015618,0.046651,-0.003043,0.006549,-0.021111,-0.01294,-0.525143,0.046431,1.096047,-257.38576,-1.409223,71.694675
2.875,-0.036253,-0.015534,0.047491,-0.003017,0.006525,-0.021114,-0.01302,-0.524794,0.04577,1.110827,-257.388558,-1.412628,71.68679
2.8948,-0.036302,-0.015105,0.047279,-0.002996,0.006506,-0.021118,-0.012635,-0.524831,0.046374,1.110827,-257.388558,-1.412628,71.68679
2.915,-0.03553,-0.014498,0.046058,-0.002979,0.00649,-0.021121,-0.012304,-0.524333,0.046611,1.128483,-257.391362,-1.416687,71.678972
2.9345,-0.035876,-0.014723,0.045851,-0.002959,0.00647,-0.021125,-0.012076,-0.523979,0.046073,1.128483,-257.391362,-1.416687,71.678972
2.9547,-0.035718,-0.014954,0.045353,-0.002943,0.006453,-0.021129,-0.012076,-0.523979,0.046073,1.128483,-257.391362,-1.416687,71.678972
2.9751,-0.035587,-0.014613,0.045384,-0.002929,0.006439,-0.021133,-0.012732,-0.524165,0.04447,1.135744,-257.394187,-1.418341,71.671132
2.9951,-0.035422,-0.014434,0.042768,-0.002906,0.006416,-0.021134,-0.012632,-0.524103,0.044743,1.135744,-257.394187,-1.418341,71.671132
3.0148,-0.03573,-0.014146,0.041991,-0.002886,0.006396,-0.021136,-0.013718,-0.523768,0.042099,1.145541,-257.397022,-1.420526,71.663319
3.0349,-0.035094,-0.014359,0.043053,-0.002818,0.006323,-0.021127,-0.014274,-0.523693,0.041968,1.145541,-257.397022,-1.420526,71.663319
3.0552,-0.035135,-0.014131,0.04353,-0.002762,0.006263,-0.021122,-0.014274,-0.523693,0.041968,1.145541,-257.397022,-1.420526,71.663319
3.0748,-0.034617,-0.014093,0.040589,-0.002715,0.006212,-0.02112,-0.013074,-0.523386,0.042648,1.153637,-257.399865,-1.422393,71.655529
3.0947,-0.03498,-0.013957,0.041395,-0.002691,0.006187,-0.021124,-0.013436,-0.523473,0.041704,1.153637,-257.399865,-1.422393,71.655529
3.1149,-0.034543,-0.014325,0.040774,-0.002671,0.006167,-0.021129,-0.013967,-0.52333,0.040734,1.185169,-257.402708,-1.429699,71.647925
3.1348,-0.034509,-0.013324,0.040861,-0.002656,0.006152,-0.021132,-0.013776,-0.523843,0.040739,1.185169,-257.402708,-1.429699,71.647925
3.1547,-0.034868,-0.013797,0.041213,-0.002644,0.006139,-0.021135,-0.013776,-0.523843,0.040739,1.185169,-257.402708,-1.429699,71.647925
3.1752,-0.034037,-0.013262,0.040648,-0.002633,0.006129,-0.021138,-0.013977,-0.523111,0.040332,1.193418,-257.405599,-1.43166,71.640244
3.195,-0.034037,-0.013268,0.040167,-0.002603,0.006095,-0.021138,-0.01372,-0.522972,0.040359,1.193418,-257.405599,-1.43166,71.640244
3.2147,-0.033362,-0.012542,0.038878,-0.002579,0.006066,-0.021138,-0.013649,-0.522664,0.039492,1.200413,-257.408514,-1.433359,71.632542
3.235,-0.03356,-0.012976,0.039254,-0.002542,0.006022,-0.021138,-0.013553,-0.522189,0.038897,1.200413,-257.408514,-1.433359,71.632542
3.255,-0.033284,-0.012645,0.039726,-0.002511,0.005985,-0.021138,-0.013553,-0.522189,0.038897,1.200413,-257.408514,-1.433359,71.632542
3.2747,-0.033562,-0.012705,0.038073,-0.002486,0.005954,-0.02114,-0.013146,-0.521994,0.038846,1.210473,-257.411427,-1.435738,71.624914
3.2947,-0.033311,-0.012699,0.038749,-0.002462,0.005925,-0.021142,-0.013568,-0.522104,0.03843,1.210473,-257.411427,-1.435738,71.624914
3.3149,-0.032771,-0.012864,0.037699,-0.002443,0.005902,-0.021144,-0.01364,-0.52213,0.03808,1.227665,-257.414378,-1.439794,71.617312
3.3349,-0.032731,-0.012488,0.036382,-0.002437,0.005896,-0.021148,-0.013561,-0.522463,0.037699,1.227665,-257.414378,-1.439794,71.617312
3.3547,-0.032684,-0.012325,0.036337,-0.002433,0.00589,-0.021152,-0.013561,-0.522463,0.037699,1.227665,-257.414378,-1.439794,71.617312
3.3748,-0.032403,-0.012127,0.035966,-0.002429,0.005886,-0.021155,-0.014266,-0.521746,0.035457,1.235588,-257.417338,-1.441694,71.609749
3.3952,-0.032573,-0.01211,0.035287,-0.002393,0.00584,-0.021151,-0.014196,-0.521739,0.035565,1.235588,-257.417338,-1.441694,71.609749
3.4152,-0.032177,-0.012016,0.034508,-0.002363,0.005801,-0.02115,-0.014664,-0.521609,0.034615,1.238321,-257.420314,-1.442358,71.602166
3.4356,-0.031721,-0.011634,0.033888,-0.002329,0.005757,-0.021148,-0.014592,-0.521694,0.034484,1.238321,-257.420314,-1.442358,71.602166
3.4552,-0.031822,-0.011624,0.034142,-0.002301,0.00572,-0.021147,-0.014592,-0.521694,0.034484,1.238321,-257.420314,-1.442358,71.602166
3.475,-0.031282,-0.011218,0.03404,-0.002278,0.00569,-0.021148,-0.01452,-0.521089,0.033259,1.250226,-257.423308,-1.445233,71.594634
3.495,-0.031739,-0.011263,0.034128,-0.002246,0.005647,-0.021147,-0.014288,-0.520993,0.033479,1.250226,-257.423308,-1.445233,71.594634
3.5149,-0.031029,-0.010966,0.032384,-0.002221,0.005611,-0.021148,-0.014416,-0.520789,0.033459,1.265448,-257.426325,-1.448986,71.587169
3.5346,-0.030775,-0.011233,0.031696,-0.002187,0.005563,-0.021147,-0.014511,-0.520697,0.032443,1.265448,-257.426325,-1.448986,71.587169
3.5547,-0.031203,-0.010795,0.032365,-0.00216,0.005524,-0.021147,-0.014511,-0.520697,0.032443,1.265448,-257.426325,-1.448986,71.587169
3.5746,-0.031037,-0.01048,0.031575,-0.002137,0.005491,-0.021148,-0.014799,-0.520297,0.031483,1.275709,-257.429374,-1.451511,71.579718
3.595,-0.03055,-0.011053,0.032527,-0.0021,0.005436,-0.021146,-0.014868,-0.520241,0.031419,1.275709,-257.429374,-1.451511,71.579718
3.6147,-0.030499,-0.010623,0.030237,-0.002069,0.005389,-0.021146,-0.014038,-0.520612,0.031858,1.29057,-257.432448,-1.455227,71.572343
3.6348,-0.030273,-0.010402,0.02909,-0.002047,0.005356,-0.021147,-0.014991,-0.520401,0.030348,1.29057,-257.432448,-1.455227,71.572343
3.6547,-0.030359,-0.01067,0.031408,-0.002028,0.005328,-0.021149,-0.014991,-0.520401,0.030348,1.29057,-257.432448,-1.455227,71.572343
3.6748,-0.029686,-0.010367,0.029607,-0.002012,0.005305,-0.021151,-0.014436,-0.520196,0.030524,1.302429,-257.435563,-1.458216,71.564993
3.6949,-0.0301,-0.010357,0.029596,-0.002001,0.005288,-0.021155,-0.014509,-0.520149,0.030051,1.302429,-257.435563,-1.458216,71.564993
3.7147,-0.029505,-0.009769,0.028519,-0.001992,0.005275,-0.021158,-0.015077,-0.519967,0.028922,1.312423,-257.438707,-1.460828,71.557672
3.7351,-0.029666,-0.009802,0.027575,-0.001963,0.005227,-0.021156,-0.014977,-0.51959,0.028521,1.312423,-257.438707,-1.460828,71.557672
3.755,-0.029202,-0.009784,0.028749,-0.001939,0.005187,-0.021155,-0.014977,-0.51959,0.028521,1.312423,-257.438707,-1.460828,71.557672
3.7751,-0.029105,-0.009788,0.026821,-0.001919,0.005154,-0.021156,-0.014631,-0.519355,0.027864,1.315922,-257.441867,-1.461737,71.550352
3.7948,-0.029068,-0.009584,0.026257,-0.0019,0.00512,-0.021156,-0.014966,-0.519431,0.027337,1.315922,-257.441867,-1.461737,71.550352
3.8146,-0.028631,-0.009363,0.025215,-0.001883,0.005093,-0.021157,-0.015743,-0.519246,0.025585,1.328554,-257.445064,-1.465008,71.54309
3.8347,-0.028778,-0.009418,0.026352,-0.001853,0.00504,-0.021155,-0.015773,-0.519197,0.025214,1.328554,-257.445064,-1.465008,71.54309
3.855,-0.02868,-0.009351,0.024981,-0.001828,0.004997,-0.021154,-0.015773,-0.519197,0.025214,1.328554,-257.445064,-1.465008,71.54309
3.8748,-0.028205,-0.008878,0.024679,-0.001807,0.004961,-0.021154,-0.016025,-0.518981,0.024096,1.334748,-257.448278,-1.466642,71.535859
3.8952,-0.028124,-0.008917,0.025747,-0.001781,0.004913,-0.021154,-0.01587,-0.518852,0.024231,1.334748,-257.448278,-1.466642,71.535859
3.915,-0.027662,-0.008774,0.022079,-0.00176,0.004873,-0.021154,-0.015056,-0.518592,0.025076,1.347502,-257.451538,-1.470054,71.528681
3.9349,-0.027762,-0.008786,0.02416,-0.001733,0.004822,-0.021152,-0.016291,-0.518638,0.022301,1.347502,-257.451538,-1.470054,71.528681
3.9549,-0.028127,-0.00897,0.023576,-0.00171,0.00478,-0.021152,-0.016291,-0.518638,0.022301,1.347502,-257.451538,-1.470054,71.528681
3.9748,-0.027548,-0.00848,0.022627,-0.001692,0.004745,-0.021152,-0.016183,-0.518627,0.022692,1.355485,-257.454831,-1.472214,71.521535
3.9952,-0.027473,-0.008628,0.022044,-0.001675,0.004712,-0.021153,-0.01612,-0.518489,0.022564,1.355485,-257.454831,-1.472214,71.521535
4.015,-0.026822,-0.008457,0.022028,-0.001661,0.004685,-0.021155,-0.016288,-0.518355,0.021373,1.366698,-257.45816,-1.475303,71.514457
4.0352,-0.027031,-0.008481,0.02094,-0.001652,0.004667,-0.021157,-0.015652,-0.518328,0.021938,1.366698,-257.45816,-1.475303,71.514457
4.055,-0.026645,-0.008448,0.021873,-0.001644,0.004651,-0.021159,-0.015652,-0.518328,0.021938,1.366698,-257.45816,-1.475303,71.514457
4.075,-0.026327,-0.008229,0.020594,-0.001638,0.004639,-0.021162,-0.015564,-0.518132,0.02099,1.371756,-257.461521,-1.476721,71.507382
4.0954,-0.026233,-0.008119,0.020878,-0.001628,0.004618,-0.021162,-0.015681,-0.518105,0.020724,1.371756,-257.461521,-1.476721,71.507382
4.1145,-0.025663,-0.007722,0.02046,-0.00162,0.0046,-0.021162,-0.015641,-0.517861,0.020207,1.375606,-257.464899,-1.477792,71.500327
4.1348,-0.025805,-0.007762,0.018996,-0.001608,0.004571,-0.021162,-0.015267,-0.517629,0.020406,1.375606,-257.464899,-1.477792,71.500327
4.1552,-0.025636,-0.007761,0.020319,-0.001597,0.004547,-0.021163,-0.015267,-0.517629,0.020406,1.375606,-257.464899,-1.477792,71.500327
4.1748,-0.02575,-0.00788,0.017968,-0.001589,0.004527,-0.021163,-0.015346,-0.517465,0.019437,1.378564,-257.46829,-1.478605,71.493292
4.1949,-0.025967,-0.00796,0.018195,-0.001575,0.004497,-0.021158,-0.015865,-0.51758,0.018729,1.378564,-257.46829,-1.478605,71.493292
4.2148,-0.02491,-0.007364,0.017712,-0.001564,0.004471,-0.021153,-0.016741,-0.517732,0.017522,1.383817,-257.471702,-1.480012,71.486294
4.2353,-0.025158,-0.007383,0.017857,-0.001549,0.004435,-0.021142,-0.015964,-0.51732,0.017656,1.383817,-257.471702,-1.480012,71.486294
4.2552,-0.024869,-0.007686,0.017617,-0.001536,0.004405,-0.021133,-0.015964,-0.51732,0.017656,1.383817,-257.471702,-1.480012,71.486294
4.2751,-0.024426,-0.007189,0.015683,-0.001526,0.00438,-0.021127,-0.015954,-0.517421,0.016731,1.387721,-257.475137,-1.481094,71.479313
4.2953,-0.024468,-0.007359,0.015773,-0.001515,0.004356,-0.021101,-0.016154,-0.51728,0.016205,1.387721,-257.475137,-1.481094,71.479313
4.3145,-0.024312,-0.007094,0.015171,-0.001507,0.004336,-0.021081,-0.016475,-0.517157,0.015099,1.393642,-257.478605,-1.48274,71.472364
4.3346,-0.024096,-0.006898,0.01475,-0.001492,0.004302,-0.021032,-0.016569,-0.517039,0.015131,1.393642,-257.478605,-1.48274,71.472364
4.3549,-0.024153,-0.006899,0.015646,-0.00148,0.004274,-0.020995,-0.016569,-0.517039,0.015131,1.393642,-257.478605,-1.48274,71.472364
4.3749,-0.023712,-0.00678,0.01453,-0.00147,0.00425,-0.020967,-0.01624,-0.516656,0.014764,1.396101,-257.482073,-1.483456,71.465454
4.3947,-0.023696,-0.00622,0.014455,-0.001457,0.004218,-0.020921,-0.016273,-0.516664,0.014566,1.396101,-257.482073,-1.483456,71.465454
4.4153,-0.023413,-0.006585,0.013851,-0.001446,0.004191,-0.020887,-0.016373,-0.516032,0.013788,1.400672,-257.485544,-1.484832,71.45861
4.4353,-0.023018,-0.006317,0.013268,-0.001432,0.004161,-0.020817,-0.016353,-0.516486,0.013813,1.400672,-257.485544,-1.484832,71.45861
4.4548,-0.023146,-0.006506,0.012893,-0.001422,0.004136,-0.020765,-0.016353,-0.516486,0.013813,1.400672,-257.485544,-1.484832,71.45861
4.4749,-0.023102,-0.006334,0.013,-0.001413,0.004115,-0.020726,-0.016633,-0.516289,0.012019,1.403571,-257.489017,-1.485686,71.451809
4.4949,-0.022925,-0.00657,0.011786,-0.001398,0.004091,-0.020573,-0.016574,-0.51627,0.01232,1.403571,-257.489017,-1.485686,71.451809
4.515,-0.022665,-0.006099,0.012045,-0.001386,0.004069,-0.02046,-0.016961,-0.516404,0.011127,1.406848,-257.492476,-1.486727,71.445086
4.5346,-0.021905,-0.006496,0.010491,-0.001372,0.004042,-0.020332,-0.016568,-0.516088,0.01192,1.406848,-257.492476,-1.486727,71.445086
4.555,-0.022046,-0.006489,0.011168,-0.001361,0.004018,-0.020238,-0.016568,-0.516088,0.01192,1.406848,-257.492476,-1.486727,71.445086
4.575,-0.021725,-0.005992,0.008413,-0.001354,0.003997,-0.020169,-0.016411,-0.516288,0.010311,1.407826,-257.495897,-1.487337,71.438427
4.5949,-0.021783,-0.005673,0.009227,-0.001332,0.003998,-0.019716,-0.016838,-0.516139,0.009433,1.407826,-257.495897,-1.487337,71.438427
4.6147,-0.02153,-0.005655,0.010241,-0.001317,0.003992,-0.0194,-0.017121,-0.515524,0.008587,1.409551,-257.49927,-1.488022,71.431878
4.6347,-0.021231,-0.005926,0.008441,-0.001304,0.003954,-0.019298,-0.016378,-0.515613,0.010071,1.409551,-257.49927,-1.488022,71.431878
4.6547,-0.021413,-0.005593,0.01067,-0.001295,0.003921,-0.019229,-0.016378,-0.515613,0.010071,1.409551,-257.49927,-1.488022,71.431878
4.6752,-0.021132,-0.005393,0.008112,-0.001288,0.003893,-0.019183,-0.016028,-0.515398,0.00986,1.404655,-257.502455,-1.487815,71.425524
4.695,-0.020648,-0.005483,0.008112,-0.001274,0.003862,-0.018954,-0.016433,-0.51537,0.009046,1.404655,-257.502455,-1.487815,71.425524
4.7146,-0.020584,-0.005245,0.007588,-0.001264,0.003833,-0.018797,-0.016553,-0.515342,0.007502,1.407596,-257.505625,-1.488449,71.419261
4.7349,-0.020462,-0.005125,0.006735,-0.001247,0.003806,-0.018308,-0.016703,-0.515234,0.007549,1.407596,-257.505625,-1.488449,71.419261
4.755,-0.020417,-0.005179,0.007558,-0.001236,0.003777,-0.01798,-0.016703,-0.515234,0.007549,1.407596,-257.505625,-1.488449,71.419261
4.7748,-0.019905,-0.00486,0.00476,-0.00123,0.003748,-0.017761,-0.016616,-0.515005,0.006772,1.407024,-257.508721,-1.488463,71.413124
4.7946,-0.019762,-0.005584,0.005854,-0.001211,0.003715,-0.017058,-0.016971,-0.514926,0.005866,1.407024,-257.508721,-1.488463,71.413124
4.815,-0.019645,-0.004533,0.005618,-0.001203,0.003677,-0.016596,-0.016817,-0.515457,0.00529,1.39919,-257.511604,-1.486689,71.407264
4.8354,-0.019836,-0.004732,0.005056,-0.001194,0.003626,-0.016178,-0.016785,-0.514599,0.005562,1.39919,-257.511604,-1.486689,71.407264
4.855,-0.019688,-0.005114,0.003669,-0.00119,0.003578,-0.015908,-0.016785,-0.514599,0.005562,1.39919,-257.511604,-1.486689,71.407264
4.8752,-0.019296,-0.005023,0.005216,-0.00119,0.003534,-0.015739,-0.017868,-0.514958,0.002977,1.386735,-257.514225,-1.483956,71.401731
4.8952,-0.019552,-0.004553,0.005647,-0.001176,0.003531,-0.014877,-0.01737,-0.514964,0.003812,1.386735,-257.514225,-1.483956,71.401731
4.9148,-0.018871,-0.004452,0.004426,-0.001175,0.003518,-0.014315,-0.016711,-0.514433,0.005147,1.377463,-257.516699,-1.480527,71.396459
4.9354,-0.019026,-0.004359,0.003552,-0.001182,0.003471,-0.014246,-0.016624,-0.51444,0.004464,1.377463,-257.516699,-1.480527,71.396459
4.9548,-0.019089,-0.004865,0.002935,-0.00119,0.00343,-0.014211,-0.016624,-0.51444,0.004464,1.377463,-257.516699,-1.480527,71.396459
4.9745,-0.018801,-0.004431,0.002269,-0.001198,0.003395,-0.014197,-0.017641,-0.514718,0.002345,1.34965,-257.518811,-1.475289,71.391602
4.9948,-0.018824,-0.004245,0.003374,-0.001175,0.003391,-0.013068,-0.017648,-0.514583,0.002246,1.34965,-257.518811,-1.475289,71.391602
5.0145,-0.018604,-0.004222,0.00221,-0.001167,0.003378,-0.01232,-0.017142,-0.514134,0.002922,1.347519,-257.520985,-1.471843,71.386729
5.0346,-0.018254,-0.004229,0.001925,-0.001164,0.003339,-0.011824,-0.017454,-0.514209,0.002244,1.347519,-257.520985,-1.471843,71.386729
5.0551,-0.018219,-0.00421,0.001762,-0.001167,0.003302,-0.011501,-0.017454,-0.514209,0.002244,1.347519,-257.520985,-1.471843,71.386729
5.0748,-0.018515,-0.004021,0.000459,-0.001173,0.003266,-0.011296,-0.017367,-0.514075,0.001271,1.296489,-257.52263,-1.464184,71.382541
5.0949,-0.018372,-0.003995,0.001359,-0.001152,0.003238,-0.010374,-0.017748,-0.514037,0.00088,1.296489,-257.52263,-1.464184,71.382541
5.1148,-0.017884,-0.003842,0.001835,-0.001143,0.003208,-0.009755,-0.017716,-0.513893,0.001008,1.258536,-257.524121,-1.455938,71.378545
5.1345,-0.018189,-0.003806,0.000824,-0.001158,0.003161,-0.009836,-0.017016,-0.513841,0.001747,1.258536,-257.524121,-1.455938,71.378545
5.1547,-0.018232,-0.003962,0.001212,-0.001171,0.003123,-0.009896,-0.017016,-0.513841,0.001747,1.258536,-257.524121,-1.455938,71.378545
5.1746,-0.018104,-0.003354,0.000959,-0.001182,0.003092,-0.009942,-0.017656,-0.513841,0.000845,1.183538,-257.525188,-1.446748,71.375234
5.195,-0.017795,-0.003709,0.000125,-0.001171,0.003059,-0.009445,-0.017644,-0.51363,0.000849,1.183538,-257.525188,-1.446748,71.375234
5.2147,-0.018045,-0.003755,0.000718,-0.001166,0.003028,-0.009104,-0.017769,-0.51361,-0.000193,1.193235,-257.52647,-1.442526,71.37154
5.2347,-0.017641,-0.003412,-0.001202,-0.001162,0.003008,-0.00874,-0.017688,-0.513737,0.000623,1.193235,-257.52647,-1.442526,71.37154
5.2547,-0.017841,-0.003865,0.000241,-0.001163,0.002988,-0.008487,-0.017688,-0.513737,0.000623,1.193235,-257.52647,-1.442526,71.37154
5.2749,-0.017271,-0.003469,0.001239,-0.001165,0.00297,-0.008314,-0.017764,-0.513744,-0.000122,1.139327,-257.527532,-1.43588,71.368238
5.2948,-0.017326,-0.003159,0.001702,-0.001165,0.002953,-0.008063,-0.017312,-0.513618,0.000389,1.139327,-257.527532,-1.43588,71.368238
5.3147,-0.017432,-0.003273,-0.001289,-0.001167,0.002937,-0.007887,-0.016492,-0.513072,0.001458,1.065677,-257.528415,-1.426999,71.365256
5.3346,-0.017257,-0.003452,0.000348,-0.001137,0.002912,-0.007075,-0.017935,-0.513248,-0.001034,1.065677,-257.528415,-1.426999,71.365256
5.3546,-0.017264,-0.003274,-6.7e-05,-0.001119,0.002882,-0.006504,-0.017935,-0.513248,-0.001034,1.065677,-257.528415,-1.426999,71.365256
5.3746,-0.017292,-0.00333,0.000531,-0.00111,0.002853,-0.006109,-0.017345,-0.513156,-0.000383,1.015236,-257.529264,-1.421439,71.362249
5.3947,-0.016951,-0.003151,-6.1e-05,-0.001126,0.002818,-0.006305,-0.017218,-0.513214,-4.5e-05,1.015236,-257.529264,-1.421439,71.362249
5.4146,-0.017341,-0.002938,0.000318,-0.001138,0.002791,-0.006437,-0.016986,-0.513139,-9e-05,0.940336,-257.529343,-1.403821,71.361872
5.4352,-0.017004,-0.003194,-0.001225,-0.001152,0.00275,-0.006711,-0.017162,-0.512956,0.00028,0.940336,-257.529343,-1.403821,71.361872
5.4546,-0.017622,-0.003052,-0.00084,-0.001162,0.002719,-0.006895,-0.017162,-0.512956,0.00028,0.940336,-257.529343,-1.403821,71.361872
5.475,-0.016944,-0.003271,-0.002389,-0.001168,0.002696,-0.007016,-0.018081,-0.512973,-0.001027,0.865314,-257.529784,-1.403042,71.360007
5.4952,-0.016885,-0.003043,-0.001927,-0.001137,0.002702,-0.006202,-0.018118,-0.513086,-0.001609,0.865314,-257.529784,-1.403042,71.360007
5.5148,-0.016961,-0.003016,-0.001863,-0.001117,0.002698,-0.005622,-0.017901,-0.512963,-0.002132,0.936928,-257.530511,-1.405049,71.3574
5.5347,-0.016586,-0.00333,-0.003096,-0.001101,0.002691,-0.005099,-0.017912,-0.513006,-0.001901,0.936928,-257.530511,-1.405049,71.3574
5.5547,-0.01698,-0.002996,-0.001628,-0.001092,0.002679,-0.004728,-0.017912,-0.513006,-0.001901,0.936928,-257.530511,-1.405049,71.3574
5.5747,-0.016685,-0.002856,-0.002418,-0.001088,0.002666,-0.004468,-0.017816,-0.512981,-0.001659,0.861978,-257.530579,-1.39063,71.357083
5.5947,-0.01666,-0.0027,-0.000536,-0.001086,0.002649,-0.004255,-0.017858,-0.512928,-0.001972,0.861978,-257.530579,-1.39063,71.357083
5.6145,-0.016903,-0.002733,-0.000638,-0.001087,0.002632,-0.004105,-0.016933,-0.5127,-0.000536,0.786954,-257.530579,-1.371783,71.357082
5.6346,-0.016752,-0.002783,-0.00232,-0.001113,0.002596,-0.004615,-0.017203,-0.51273,-0.000629,0.786954,-257.530579,-1.371783,71.357082
5.6549,-0.017059,-0.00261,-0.001793,-0.001131,0.002571,-0.00496,-0.017203,-0.51273,-0.000629,0.786954,-257.530579,-1.371783,71.357082
5.6749,-0.017288,-0.002497,-0.002419,-0.001142,0.002555,-0.005192,-0.017974,-0.512609,-0.001793,0.71198,-257.530579,-1.362401,71.357082
5.6948,-0.0167,-0.002935,-0.000607,-0.00112,0.002543,-0.00471,-0.018198,-0.512563,-0.002049,0.71198,-257.530579,-1.362401,71.357082
5.715,-0.017027,-0.002566,-0.003051,-0.001106,0.002528,-0.004368,-0.017025,-0.512898,-0.000686,0.636976,-257.53082,-1.373996,71.355994
5.735,-0.017021,-0.00285,-0.001143,-0.001085,0.002523,-0.003845,-0.018442,-0.512592,-0.002839,0.636976,-257.53082,-1.373996,71.355994
5.7547,-0.016978,-0.002823,0.000121,-0.001073,0.002514,-0.003474,-0.018442,-0.512592,-0.002839,0.636976,-257.53082,-1.373996,71.355994
5.7751,-0.016938,-0.00273,-0.001677,-0.001065,0.002501,-0.003213,-0.016916,-0.512822,0.000119,0.562079,-257.530826,-1.361079,71.355968
5.7952,-0.017062,-0.002624,-0.001054,-0.001104,0.002483,-0.004014,-0.017272,-0.512784,-0.00061,0.562079,-257.530826,-1.361079,71.355968
5.8148,-0.016775,-0.002705,-0.0,-0.001131,0.002477,-0.004557,-0.017599,-0.512624,-0.001054,0.487078,-257.530826,-1.336513,71.355968
5.8351,-0.017235,-0.003043,-0.002127,-0.001159,0.002471,-0.005218,-0.016851,-0.512698,-9.6e-05,0.487078,-257.530826,-1.336513,71.355968
5.8551,-0.017155,-0.002597,-0.001517,-0.001176,0.002473,-0.005663,-0.016851,-0.512698,-9.6e-05,0.487078,-257.530826,-1.336513,71.355968
5.8748,-0.016793,-0.002953,-0.00077,-0.001186,0.00248,-0.00596,-0.017949,-0.512551,-0.001604,0.412085,-257.531036,-1.358934,71.355005
5.8952,-0.017389,-0.002433,-0.001709,-0.001167,0.002498,-0.005542,-0.017637,-0.512711,-0.001271,0.412085,-257.531036,-1.358934,71.355005
5.9148,-0.016849,-0.002508,7.5e-05,-0.001154,0.002509,-0.005244,-0.018266,-0.512422,-0.001729,0.487307,-257.531113,-1.379421,71.354716
5.935,-0.017124,-0.002804,-0.002925,-0.001168,0.002492,-0.005658,-0.016942,-0.512499,-8.8e-05,0.487307,-257.531113,-1.379421,71.354716
5.9547,-0.01687,-0.002766,-0.003601,-0.001176,0.002483,-0.005938,-0.016942,-0.512499,-8.8e-05,0.487307,-257.531113,-1.379421,71.354716
5.975,-0.016725,-0.002493,-0.002667,-0.00118,0.002478,-0.006126,-0.018753,-0.512663,-0.003811,0.541414,-257.53163,-1.371433,71.352478
5.9949,-0.0169,-0.002664,-0.001134,-0.001122,0.002515,-0.004919,-0.018473,-0.512578,-0.003346,0.541414,-257.53163,-1.371433,71.352478
6.0145,-0.016766,-0.002759,-0.002284,-0.001084,0.00253,-0.004045,-0.01749,-0.512641,-0.001187,0.616978,-257.531826,-1.38324,71.351758
6.035,-0.0167,-0.002809,-0.000714,-0.001082,0.002531,-0.003801,-0.017895,-0.512747,-0.002195,0.616978,-257.531826,-1.38324,71.351758
6.0548,-0.016614,-0.002488,-0.002882,-0.001083,0.00253,-0.003629,-0.017895,-0.512747,-0.002195,0.616978,-257.531826,-1.38324,71.351758
6.0749,-0.016992,-0.002334,-0.001439,-0.001084,0.002527,-0.003507,-0.018083,-0.512486,-0.002882,0.54237,-257.531827,-1.357395,71.351757
6.0951,-0.01682,-0.002721,-0.002076,-0.001082,0.002504,-0.003382,-0.017937,-0.512424,-0.002293,0.54237,-257.531827,-1.357395,71.351757
6.1152,-0.016514,-0.002803,-0.002757,-0.001081,0.002484,-0.003294,-0.017879,-0.512719,-0.002076,0.46757,-257.531827,-1.342565,71.351757
6.1349,-0.016352,-0.00262,-0.001737,-0.001078,0.002494,-0.003079,-0.017917,-0.512795,-0.002705,0.46757,-257.531827,-1.342565,71.351757
6.1551,-0.016997,-0.00227,-0.00207,-0.001077,0.0025,-0.00293,-0.017917,-0.512795,-0.002705,0.46757,-257.531827,-1.342565,71.351757
6.1751,-0.016705,-0.003086,-0.002255,-0.001078,0.002503,-0.002828,-0.018052,-0.512269,-0.00207,0.392159,-257.531827,-1.33479,71.351756
6.1948,-0.016499,-0.002683,-0.002789,-0.001086,0.002486,-0.002976,-0.017972,-0.5126,-0.002145,0.392159,-257.531827,-1.33479,71.351756
6.2146,-0.016792,-0.002668,-0.002526,-0.001092,0.002473,-0.003079,-0.017922,-0.512681,-0.002789,0.317577,-257.531827,-1.321337,71.351756
6.2351,-0.016865,-0.003113,-0.0012,-0.001091,0.002471,-0.002988,-0.018069,-0.512667,-0.002545,0.317577,-257.531827,-1.321337,71.351756
6.255,-0.01711,-0.002996,-0.002492,-0.00109,0.002468,-0.002923,-0.018069,-0.512667,-0.002545,0.317577,-257.531827,-1.321337,71.351756
6.2748,-0.016985,-0.002374,-0.002303,-0.00109,0.002465,-0.002876,-0.018382,-0.512994,-0.002492,0.241951,-257.531827,-1.325019,71.351756
6.2955,-0.016736,-0.002588,-0.002957,-0.001093,0.002464,-0.002892,-0.018292,-0.512743,-0.002416,0.241951,-257.531827,-1.325019,71.351756
6.315,-0.017129,-0.002659,-0.001377,-0.001095,0.002463,-0.002903,-0.018244,-0.512586,-0.002957,0.167575,-257.531827,-1.318013,71.351756
6.3354,-0.016803,-0.002717,-0.000721,-0.001113,0.002451,-0.0033,-0.017869,-0.512652,-0.00152,0.167575,-257.531827,-1.318013,71.351756
6.3551,-0.016704,-0.002379,-0.00317,-0.001124,0.002445,-0.003569,-0.017869,-0.512652,-0.00152,0.167575,-257.531827,-1.318013,71.351756
6.3751,-0.016647,-0.002993,-0.004063,-0.001131,0.002443,-0.003749,-0.018321,-0.512377,-0.00317,0.092577,-257.531827,-1.317771,71.351756
6.395,-0.016505,-0.00268,-0.000359,-0.0011,0.002462,-0.003119,-0.018484,-0.512628,-0.003536,0.092577,-257.531827,-1.317771,71.351756
6.415,-0.016971,-0.002378,-0.001432,-0.00108,0.002471,-0.002672,-0.016703,-0.512648,-0.000413,0.017572,-257.532024,-1.336271,71.350914
6.4347,-0.01684,-0.002568,-0.002039,-0.001103,0.002439,-0.003224,-0.017621,-0.512398,-0.001352,0.017572,-257.532024,-1.336271,71.350914
6.4549,-0.016305,-0.00239,-0.002861,-0.001118,0.002419,-0.003599,-0.017621,-0.512398,-0.001352,0.017572,-257.532024,-1.336271,71.350914
6.4751,-0.016949,-0.002697,-0.001209,-0.001128,0.002407,-0.003851,-0.017764,-0.512388,-0.002861,-0.05765,-257.532025,-1.313419,71.350913
6.4955,-0.016798,-0.002532,-0.001217,-0.001119,0.002415,-0.003657,-0.017681,-0.512517,-0.00217,-0.05765,-257.532025,-1.313419,71.350913
6.5148,-0.016506,-0.002422,-0.002226,-0.001114,0.00242,-0.00352,-0.017454,-0.512456,-0.001339,-0.048467,-257.532472,-1.338108,71.348974
6.5348,-0.016418,-0.002216,-0.002461,-0.001109,0.002418,-0.003425,-0.017629,-0.51242,-0.002165,-0.048467,-257.532472,-1.338108,71.348974
6.5553,-0.01652,-0.002683,-0.000337,-0.001107,0.002414,-0.003358,-0.017629,-0.51242,-0.002165,-0.048467,-257.532472,-1.338108,71.348974
6.5748,-0.016374,-0.002424,-0.003406,-0.001105,0.002411,-0.003312,-0.016719,-0.512628,-0.000421,-0.123666,-257.532729,-1.331736,71.347921
6.5948,-0.016473,-0.002468,-0.003002,-0.001113,0.002412,-0.00348,-0.017315,-0.512533,-0.001703,-0.123666,-257.532729,-1.331736,71.347921
6.6145,-0.016753,-0.002362,-0.00195,-0.001119,0.002415,-0.003595,-0.018021,-0.512431,-0.003054,-0.198732,-257.532951,-1.326635,71.347053
6.6345,-0.016845,-0.002571,-0.003013,-0.001114,0.002408,-0.003524,-0.017771,-0.512365,-0.002041,-0.198732,-257.532951,-1.326635,71.347053
6.6546,-0.016688,-0.002508,-0.004287,-0.001111,0.002402,-0.003475,-0.017771,-0.512365,-0.002041,-0.198732,-257.532951,-1.326635,71.347053
6.6747,-0.016581,-0.001892,-0.001848,-0.001108,0.002396,-0.00344,-0.018921,-0.512402,-0.004437,-0.193073,-257.533406,-1.332672,71.345163
6.6949,-0.01679,-0.002054,-0.002606,-0.001082,0.002394,-0.002944,-0.018351,-0.51218,-0.003388,-0.193073,-257.533406,-1.332672,71.345163
6.7149,-0.016807,-0.001851,-0.003322,-0.001064,0.002386,-0.002596,-0.018152,-0.511981,-0.002708,-0.260312,-257.533832,-1.329184,71.343442
6.7351,-0.016431,-0.001938,-0.003678,-0.001052,0.00235,-0.002394,-0.018471,-0.511856,-0.003272,-0.260312,-257.533832,-1.329184,71.343442
6.755,-0.01651,-0.002612,-0.003038,-0.001043,0.002319,-0.002257,-0.018471,-0.511856,-0.003272,-0.260312,-257.533832,-1.329184,71.343442
6.7749,-0.016183,-0.001976,-0.003552,-0.001038,0.002291,-0.002166,-0.018064,-0.512602,-0.003049,-0.335184,-257.533879,-1.309055,71.343298
6.795,-0.016647,-0.002142,-0.001304,-0.00104,0.002298,-0.002114,-0.018036,-0.512346,-0.003254,-0.335184,-257.533879,-1.309055,71.343298
6.815,-0.016661,-0.00179,-0.003371,-0.001042,0.002303,-0.002082,-0.017315,-0.512138,-0.001309,-0.410175,-257.533912,-1.290964,71.34321
6.8346,-0.016594,-0.001731,-0.004092,-0.001042,0.002272,-0.002095,-0.018268,-0.511824,-0.003154,-0.410175,-257.533912,-1.290964,71.34321
6.8545,-0.016593,-0.002064,-0.001831,-0.001042,0.002247,-0.002108,-0.018268,-0.511824,-0.003154,-0.410175,-257.533912,-1.290964,71.34321
6.8745,-0.01658,-0.001994,-0.002786,-0.001042,0.002227,-0.002118,-0.017532,-0.512054,-0.001841,-0.485313,-257.533974,-1.28708,71.343052
6.8947,-0.016344,-0.002124,-0.002673,-0.00106,0.002215,-0.002477,-0.017724,-0.512028,-0.002229,-0.485313,-257.533974,-1.28708,71.343052
6.9148,-0.016855,-0.002014,-0.003284,-0.001071,0.002209,-0.002724,-0.017721,-0.512096,-0.002701,-0.56018,-257.534186,-1.282962,71.342494
6.9348,-0.01665,-0.00225,-0.002611,-0.001061,0.002213,-0.002525,-0.018457,-0.512018,-0.003233,-0.56018,-257.534186,-1.282962,71.342494
6.9546,-0.016642,-0.001863,-0.002282,-0.001055,0.002214,-0.002386,-0.018457,-0.512018,-0.003233,-0.56018,-257.534186,-1.282962,71.342494
6.9748,-0.016604,-0.002206,-0.002717,-0.001051,0.002214,-0.002289,-0.017845,-0.511781,-0.002381,-0.485181,-257.534607,-1.30101,71.341087
6.9949,-0.016315,-0.00189,-0.004599,-0.001059,0.002203,-0.002476,-0.017909,-0.511945,-0.00253,-0.485181,-257.534607,-1.30101,71.341087
7.0149,-0.016634,-0.002034,-0.003477,-0.001065,0.002195,-0.002605,-0.018681,-0.511843,-0.004645,-0.560178,-257.534931,-1.287697,71.340172
7.0345,-0.016389,-0.001952,-0.00322,-0.001052,0.002204,-0.002333,-0.018434,-0.512012,-0.003586,-0.560178,-257.534931,-1.287697,71.340172
7.0546,-0.016344,-0.001751,-0.004793,-0.001043,0.002208,-0.002142,-0.018434,-0.512012,-0.003586,-0.560178,-257.534931,-1.287697,71.340172
7.0749,-0.016679,-0.001732,-0.002517,-0.001038,0.00221,-0.002009,-0.018831,-0.511657,-0.004898,-0.515764,-257.535405,-1.296605,71.33865
7.0953,-0.016819,-0.001831,-0.001974,-0.001028,0.002194,-0.001813,-0.018481,-0.511676,-0.003938,-0.515764,-257.535405,-1.296605,71.33865
7.115,-0.016498,-0.001713,-0.00257,-0.001021,0.002178,-0.001677,-0.017839,-0.511804,-0.002,-0.590763,-257.535625,-1.2774,71.338097
7.1352,-0.016802,-0.001466,-0.002827,-0.001041,0.002153,-0.002068,-0.017812,-0.511718,-0.002523,-0.590763,-257.535625,-1.2774,71.338097
7.1551,-0.016892,-0.001819,-0.003977,-0.001053,0.002136,-0.002336,-0.017812,-0.511718,-0.002523,-0.590763,-257.535625,-1.2774,71.338097
7.1749,-0.016747,-0.001915,-0.002719,-0.001061,0.002125,-0.00252,-0.018936,-0.511785,-0.004003,-0.665908,-257.535838,-1.262211,71.337633
7.195,-0.016385,-0.001812,-0.003742,-0.001051,0.002133,-0.002309,-0.01861,-0.511834,-0.003482,-0.665908,-257.535838,-1.262211,71.337633
7.2147,-0.016852,-0.001918,-0.003749,-0.001045,0.002137,-0.002159,-0.018315,-0.511763,-0.003792,-0.591057,-257.536155,-1.288849,71.336635
7.235,-0.016437,-0.001643,-0.003554,-0.001037,0.002148,-0.001969,-0.018732,-0.511901,-0.003754,-0.591057,-257.536155,-1.288849,71.336635
7.255,-0.016593,-0.001652,-0.002849,-0.001032,0.002156,-0.001835,-0.018732,-0.511901,-0.003754,-0.591057,-257.536155,-1.288849,71.336635
7.2747,-0.016605,-0.001271,-0.005939,-0.00103,0.00216,-0.001742,-0.018085,-0.511568,-0.002931,-0.664428,-257.536637,-1.277211,71.335322
7.2948,-0.016909,-0.00139,-0.00316,-0.001019,0.002137,-0.001561,-0.018719,-0.511435,-0.004163,-0.664428,-257.536637,-1.277211,71.335322
7.3147,-0.016572,-0.001297,-0.003452,-0.001012,0.002116,-0.001435,-0.018543,-0.511341,-0.003199,-0.738966,-257.537051,-1.261697,71.334391
7.3349,-0.016336,-0.001506,-0.002632,-0.001019,0.002081,-0.001573,-0.018352,-0.511296,-0.003432,-0.738966,-257.537051,-1.261697,71.334391
7.3551,-0.016732,-0.00162,-0.003083,-0.001024,0.002054,-0.00167,-0.018352,-0.511296,-0.003432,-0.738966,-257.537051,-1.261697,71.334391
7.3748,-0.016359,-0.001638,-0.004134,-0.001027,0.002032,-0.001738,-0.018335,-0.511557,-0.003127,-0.814033,-257.537501,-1.244853,71.333503
7.3949,-0.016743,-0.001267,-0.002135,-0.001029,0.002033,-0.001749,-0.018393,-0.511581,-0.003546,-0.814033,-257.537501,-1.244853,71.333503
7.4148,-0.01674,-0.001056,-0.005322,-0.00103,0.002034,-0.001757,-0.017862,-0.511205,-0.002187,-0.757234,-257.538037,-1.250242,71.332266
7.4349,-0.016581,-0.001143,-0.003805,-0.001002,0.002021,-0.001365,-0.019318,-0.511059,-0.005054,-0.757234,-257.538037,-1.250242,71.332266
7.4548,-0.016845,-0.000863,-0.004401,-0.000983,0.002004,-0.001086,-0.019318,-0.511059,-0.005054,-0.757234,-257.538037,-1.250242,71.332266
7.4748,-0.016634,-0.001419,-0.00351,-0.000971,0.001986,-0.000889,-0.019133,-0.510773,-0.004474,-0.75064,-257.538601,-1.250608,71.330956
7.4946,-0.016506,-0.001151,-0.002947,-0.000981,0.001957,-0.001006,-0.018845,-0.511028,-0.004085,-0.75064,-257.538601,-1.250608,71.330956
7.5153,-0.016623,-0.001105,-0.004476,-0.000989,0.001934,-0.001089,-0.018023,-0.511124,-0.002961,-0.825693,-257.538891,-1.204153,71.330503
7.5351,-0.016641,-0.001229,-0.005535,-0.00099,0.001923,-0.001073,-0.018831,-0.511101,-0.004347,-0.825693,-257.538891,-1.204153,71.330503
7.5549,-0.016629,-0.001383,-0.002818,-0.000992,0.001914,-0.001063,-0.018831,-0.511101,-0.004347,-0.825693,-257.538891,-1.204153,71.330503
7.5749,-0.016713,-0.000894,-0.004181,-0.000993,0.001906,-0.001056,-0.018103,-0.511309,-0.002859,-0.900696,-257.539466,-1.207302,71.32951
7.5954,-0.016593,-0.001231,-0.002573,-0.00101,0.001892,-0.001345,-0.01841,-0.51113,-0.003402,-0.900696,-257.539466,-1.207302,71.32951
7.615,-0.016309,-0.000949,-0.002861,-0.001022,0.001883,-0.001543,-0.017937,-0.511168,-0.002606,-0.903719,-257.540109,-1.199573,71.328414
7.6352,-0.016691,-0.001123,-0.002047,-0.001038,0.001863,-0.001877,-0.017784,-0.510963,-0.00284,-0.903719,-257.540109,-1.199573,71.328414
7.6547,-0.0164,-0.000945,-0.005536,-0.001047,0.001849,-0.002103,-0.017784,-0.510963,-0.00284,-0.903719,-257.540109,-1.199573,71.328414
7.6751,-0.016791,-0.001065,-0.003245,-0.001053,0.001841,-0.002254,-0.01925,-0.510884,-0.005576,-0.828588,-257.540474,-1.223731,71.327624
7.6947,-0.016672,-0.00103,-0.004747,-0.001025,0.001854,-0.001823,-0.018922,-0.510951,-0.004622,-0.828588,-257.540474,-1.223731,71.327624
7.715,-0.016917,-0.00103,-0.003381,-0.001006,0.00186,-0.001514,-0.019094,-0.511021,-0.004751,-0.753577,-257.540501,-1.254607,71.327544
7.7351,-0.016513,-0.000725,-0.004504,-0.001013,0.001854,-0.001606,-0.018689,-0.511026,-0.003526,-0.753577,-257.540501,-1.254607,71.327544
7.7549,-0.016258,-0.001259,-0.00445,-0.001019,0.00185,-0.001668,-0.018689,-0.511026,-0.003526,-0.753577,-257.540501,-1.254607,71.327544
7.7746,-0.016562,-0.000561,-0.005102,-0.001022,0.001847,-0.00171,-0.018568,-0.511177,-0.004512,-0.749066,-257.541042,-1.224064,71.326379
7.7947,-0.016562,-0.000741,-0.002605,-0.001002,0.001853,-0.001396,-0.018815,-0.510915,-0.004759,-0.749066,-257.541042,-1.224064,71.326379
7.8145,-0.016679,-0.000513,-0.004647,-0.00099,0.001854,-0.001173,-0.01792,-0.510686,-0.002654,-0.67418,-257.541506,-1.231075,71.325283
7.8348,-0.01675,-0.000722,-0.001933,-0.000986,0.001826,-0.001088,-0.01895,-0.51052,-0.004473,-0.67418,-257.541506,-1.231075,71.325283
7.8548,-0.017007,-0.000689,-0.004673,-0.000984,0.001801,-0.001029,-0.01895,-0.51052,-0.004473,-0.67418,-257.541506,-1.231075,71.325283
7.8749,-0.016792,-0.000779,-0.003187,-0.000983,0.00178,-0.000989,-0.019415,-0.51064,-0.004704,-0.749145,-257.541858,-1.203225,71.32464
7.8946,-0.016758,-0.000656,-0.001753,-0.00099,0.001768,-0.001071,-0.019011,-0.51069,-0.004088,-0.749145,-257.541858,-1.203225,71.32464
7.9145,-0.01664,-0.000425,-0.004537,-0.000996,0.001759,-0.001129,-0.017677,-0.510613,-0.001779,-0.824143,-257.542332,-1.179645,71.323844
7.9351,-0.0166,-0.000576,-0.003898,-0.000996,0.001739,-0.001097,-0.018847,-0.510434,-0.004305,-0.824143,-257.542332,-1.179645,71.323844
7.955,-0.016548,-0.000625,-0.004311,-0.000996,0.001722,-0.001073,-0.018847,-0.510434,-0.004305,-0.824143,-257.542332,-1.179645,71.323844
7.9746,-0.016784,-0.000615,-0.003904,-0.000997,0.001708,-0.001054,-0.018788,-0.510547,-0.004358,-0.82118,-257.54292,-1.184626,71.32278
7.9947,-0.0169,-0.000715,-0.003816,-0.001,0.001703,-0.001079,-0.018788,-0.510566,-0.004168,-0.82118,-257.54292,-1.184626,71.32278
8.015,-0.0163,-0.000288,-0.003769,-0.001003,0.001699,-0.001096,-0.018878,-0.510657,-0.003849,-0.818168,-257.543496,-1.169908,71.32177
8.0349,-0.016784,-0.000318,-0.003656,-0.001011,0.001676,-0.001226,-0.018282,-0.510315,-0.003777,-0.818168,-257.543496,-1.169908,71.32177
8.0547,-0.017078,-0.000365,-0.004417,-0.001016,0.001659,-0.001314,-0.018282,-0.510315,-0.003777,-0.818168,-257.543496,-1.169908,71.32177
8.0748,-0.016702,-0.000407,-0.004937,-0.001019,0.001646,-0.001374,-0.019372,-0.510289,-0.004462,-0.798916,-257.544068,-1.170325,71.320747
8.0948,-0.016584,-2.2e-05,-0.003932,-0.001006,0.001647,-0.001164,-0.019315,-0.510327,-0.004661,-0.798916,-257.544068,-1.170325,71.320747
8.1149,-0.016228,-0.000548,-0.005031,-0.000996,0.001646,-0.001015,-0.018613,-0.509978,-0.003964,-0.72392,-257.544465,-1.181581,71.319927
8.1351,-0.017053,-0.000286,-0.005877,-0.000986,0.001656,-0.000841,-0.018778,-0.510488,-0.004937,-0.72392,-257.544465,-1.181581,71.319927
8.1547,-0.016462,-0.000489,-0.003457,-0.00098,0.001662,-0.00072,-0.018778,-0.510488,-0.004937,-0.72392,-257.544465,-1.181581,71.319927
8.1749,-0.017127,-0.000283,-0.0043,-0.000977,0.001665,-0.000635,-0.018263,-0.510424,-0.003496,-0.798912,-257.544981,-1.156454,71.319034
8.1952,-0.016747,0.000305,-0.003908,-0.000993,0.001646,-0.000892,-0.0187,-0.510357,-0.00383,-0.798912,-257.544981,-1.156454,71.319034
8.2148,-0.016777,0.00026,-0.00435,-0.001005,0.001633,-0.00107,-0.018765,-0.509649,-0.003925,-0.873909,-257.545486,-1.126706,71.31832
8.2349,-0.016773,-5.6e-05,-0.00513,-0.001003,0.001594,-0.001056,-0.018976,-0.509725,-0.004312,-0.873909,-257.545486,-1.126706,71.31832
8.2548,-0.016616,3.3e-05,-0.0048,-0.001001,0.001561,-0.001048,-0.018976,-0.509725,-0.004312,-0.873909,-257.545486,-1.126706,71.31832
8.2751,-0.016778,-9.4e-05,-0.005114,-0.001,0.001534,-0.001043,-0.019099,-0.509904,-0.004837,-0.798905,-257.545958,-1.156846,71.317479
8.2951,-0.016813,-0.000193,-0.004834,-0.000989,0.001534,-0.000864,-0.019225,-0.509975,-0.004959,-0.798905,-257.545958,-1.156846,71.317479
8.315,-0.016763,-0.000121,-0.006445,-0.000982,0.001531,-0.000736,-0.019307,-0.510142,-0.004864,-0.730994,-257.546453,-1.139058,71.316599
8.3346,-0.016948,-0.000294,-0.003695,-0.000957,0.001556,-0.000365,-0.019987,-0.510111,-0.006309,-0.730994,-257.546453,-1.139058,71.316599
8.3548,-0.01684,6.4e-05,-0.00534,-0.00094,0.00157,-9.7e-05,-0.019987,-0.510111,-0.006309,-0.730994,-257.546453,-1.139058,71.316599
8.3748,-0.016747,0.000108,-0.004742,-0.000927,0.001577,9.5e-05,-0.019598,-0.509876,-0.005367,-0.805611,-257.54694,-1.110402,71.315862
8.3949,-0.016835,7.7e-05,-0.004908,-0.000939,0.001551,-3e-05,-0.019425,-0.509874,-0.005113,-0.805611,-257.54694,-1.110402,71.315862
8.4149,-0.01676,6.4e-05,-0.00433,-0.000948,0.00153,-0.00012,-0.019349,-0.509902,-0.004909,-0.880674,-257.547183,-1.035339,71.315632
8.4347,-0.016492,0.000214,-0.004393,-0.000967,0.001509,-0.000385,-0.019003,-0.509928,-0.004381,-0.880674,-257.547183,-1.035339,71.315632
8.4547,-0.016857,-9.3e-05,-0.003612,-0.000981,0.001494,-0.000568,-0.019003,-0.509928,-0.004381,-0.880674,-257.547183,-1.035339,71.315632
8.4746,-0.016644,0.000457,-0.005077,-0.000991,0.001485,-0.000694,-0.018732,-0.510038,-0.003617,-0.955613,-257.547749,-1.036916,71.315025
8.4949,-0.016919,0.000146,-0.00414,-0.001,0.001471,-0.000829,-0.018941,-0.509826,-0.004216,-0.955613,-257.547749,-1.036916,71.315025
8.5148,-0.017167,0.000261,-0.005377,-0.001006,0.001461,-0.00092,-0.019052,-0.509816,-0.004155,-0.880546,-257.54816,-1.092061,71.314417
8.5347,-0.016626,0.000531,-0.004293,-0.000991,0.001463,-0.00071,-0.019832,-0.509738,-0.005267,-0.880546,-257.54816,-1.092061,71.314417
8.5546,-0.017051,5.4e-05,-0.005843,-0.00098,0.001462,-0.00056,-0.019832,-0.509738,-0.005267,-0.880546,-257.54816,-1.092061,71.314417
8.5747,-0.017045,0.000426,-0.003579,-0.000973,0.001459,-0.000453,-0.020059,-0.509894,-0.005868,-0.805708,-257.548532,-1.109308,71.313795
8.5947,-0.017082,0.000421,-0.005154,-0.000975,0.001453,-0.000458,-0.019576,-0.509757,-0.004936,-0.805708,-257.548532,-1.109308,71.313795
8.6149,-0.016932,0.000681,-0.003795,-0.000976,0.001447,-0.000461,-0.019738,-0.509531,-0.005166,-0.880706,-257.549068,-1.059736,71.313098
8.6347,-0.01717,0.000342,-0.003363,-0.000995,0.001405,-0.000757,-0.018947,-0.509333,-0.003919,-0.880706,-257.549068,-1.059736,71.313098
8.6547,-0.017057,0.000349,-0.005322,-0.001008,0.001375,-0.000959,-0.018947,-0.509333,-0.003919,-0.880706,-257.549068,-1.059736,71.313098
8.6745,-0.017143,0.000426,-0.003553,-0.001016,0.001352,-0.001097,-0.019812,-0.509583,-0.005341,-0.873565,-257.549676,-1.056797,71.312303
8.6948,-0.016886,0.000259,-0.006079,-0.001009,0.001357,-0.000991,-0.019465,-0.509571,-0.004611,-0.873565,-257.549676,-1.056797,71.312303
8.7148,-0.017375,0.000685,-0.006341,-0.001004,0.001361,-0.000915,-0.019994,-0.50972,-0.006087,-0.798455,-257.549805,-1.105064,71.312065
8.7352,-0.017056,0.0007,-0.005816,-0.000975,0.001378,-0.000495,-0.020554,-0.509342,-0.006318,-0.798455,-257.549805,-1.105064,71.312065
8.7547,-0.017184,0.000557,-0.003512,-0.000954,0.001386,-0.000189,-0.020554,-0.509342,-0.006318,-0.798455,-257.549805,-1.105064,71.312065
8.7747,-0.017412,-9.6e-05,-0.005013,-0.000939,0.001388,3.1e-05,-0.019007,-0.509395,-0.00354,-0.723553,-257.550205,-1.088819,71.311391
8.7948,-0.017288,0.000477,-0.004242,-0.000965,0.001374,-0.000347,-0.019407,-0.509676,-0.004151,-0.723553,-257.550205,-1.088819,71.311391
8.8146,-0.017156,0.000185,-0.00415,-0.000984,0.001368,-0.000608,-0.01946,-0.509507,-0.004243,-0.798718,-257.550387,-1.013654,71.311213
8.835,-0.01742,0.000663,-0.005332,-0.000997,0.001375,-0.000786,-0.01929,-0.509782,-0.004159,-0.798718,-257.550387,-1.013654,71.311213
8.855,-0.017106,0.000512,-0.004287,-0.001005,0.001382,-0.000907,-0.01929,-0.509782,-0.004159,-0.798718,-257.550387,-1.013654,71.311213
8.875,-0.017215,0.000594,-0.003492,-0.001011,0.00139,-0.000989,-0.019332,-0.509427,-0.004311,-0.791757,-257.550932,-1.055956,71.310435
8.895,-0.017214,0.000228,-0.00515,-0.001017,0.001374,-0.001099,-0.019199,-0.509411,-0.003978,-0.791757,-257.550932,-1.055956,71.310435
8.9152,-0.0173,0.000528,-0.003591,-0.001021,0.001363,-0.001172,-0.019864,-0.509732,-0.005172,-0.71663,-257.551307,-1.101714,71.309779
8.9352,-0.01732,0.000492,-0.004041,-0.001028,0.001353,-0.001297,-0.019199,-0.509491,-0.003736,-0.71663,-257.551307,-1.101714,71.309779
8.9549,-0.017486,0.000936,-0.003193,-0.001031,0.001346,-0.00138,-0.019199,-0.509491,-0.003736,-0.71663,-257.551307,-1.101714,71.309779
8.9748,-0.017156,0.000729,-0.004597,-0.001033,0.001342,-0.001435,-0.019143,-0.509021,-0.003224,-0.641747,-257.55164,-1.114052,71.309142
8.9946,-0.017153,0.000366,-0.005164,-0.001033,0.001322,-0.001454,-0.019291,-0.509116,-0.003786,-0.641747,-257.55164,-1.114052,71.309142
9.0149,-0.01689,0.000709,-0.004616,-0.001033,0.001305,-0.001465,-0.0198,-0.509606,-0.005183,-0.566748,-257.551849,-1.135004,71.30869
9.0346,-0.017162,0.00072,-0.003985,-0.001016,0.001313,-0.001225,-0.019292,-0.509312,-0.004665,-0.566748,-257.551849,-1.135004,71.30869
9.0546,-0.017374,0.000798,-0.006028,-0.001006,0.001317,-0.001054,-0.019292,-0.509312,-0.004665,-0.566748,-257.551849,-1.135004,71.30869
9.0747,-0.017316,0.000867,-0.00541,-0.000999,0.001318,-0.000934,-0.020472,-0.50916,-0.006061,-0.491575,-257.552101,-1.131954,71.30814
9.0949,-0.017542,0.00074,-0.004188,-0.000975,0.001327,-0.000595,-0.020311,-0.509142,-0.005796,-0.491575,-257.552101,-1.131954,71.30814
9.1151,-0.017254,0.000866,-0.006318,-0.000959,0.001328,-0.000352,-0.019699,-0.509228,-0.004209,-0.566539,-257.552434,-1.08418,71.307569
9.1348,-0.017402,0.000982,-0.002587,-0.000944,0.001331,-0.000112,-0.020412,-0.509131,-0.006143,-0.566539,-257.552434,-1.08418,71.307569
9.1547,-0.017326,0.000839,-0.005145,-0.000933,0.00133,5.8e-05,-0.020412,-0.509131,-0.006143,-0.566539,-257.552434,-1.08418,71.307569
9.1747,-0.017179,0.000993,-0.006058,-0.000926,0.001325,0.000178,-0.01996,-0.509142,-0.00515,-0.641585,-257.552569,-1.014778,71.307402
9.1946,-0.016829,0.000961,-0.004417,-0.000933,0.001307,0.000129,-0.020088,-0.509082,-0.005524,-0.641585,-257.552569,-1.014778,71.307402
9.2147,-0.01711,0.001018,-0.005202,-0.000938,0.001293,9.2e-05,-0.019086,-0.50903,-0.004417,-0.716522,-257.552644,-0.93984,71.307335
9.2347,-0.017228,0.000627,-0.005825,-0.000949,0.00127,-3e-05,-0.019704,-0.50898,-0.005134,-0.716522,-257.552644,-0.93984,71.307335
9.2548,-0.017061,0.000871,-0.004382,-0.000957,0.001253,-0.000118,-0.019704,-0.50898,-0.005134,-0.716522,-257.552644,-0.93984,71.307335
9.2751,-0.017317,0.000639,-0.006266,-0.000963,0.001239,-0.00018,-0.019312,-0.509105,-0.004383,-0.79153,-257.552888,-0.922354,71.307105
9.2948,-0.016904,0.000622,-0.006223,-0.000967,0.001242,-0.000218,-0.019808,-0.509204,-0.005158,-0.79153,-257.552888,-0.922354,71.307105
9.3152,-0.017136,0.000721,-0.004923,-0.00097,0.001245,-0.000245,-0.020105,-0.509332,-0.006228,-0.864648,-257.553426,-0.950758,71.306504
9.3347,-0.01755,0.00095,-0.004705,-0.000974,0.00125,-0.000295,-0.019687,-0.509276,-0.005035,-0.864648,-257.553426,-0.950758,71.306504
9.3548,-0.017471,0.000802,-0.00459,-0.000977,0.001254,-0.000329,-0.019687,-0.509276,-0.005035,-0.864648,-257.553426,-0.950758,71.306504
9.3747,-0.017123,0.000991,-0.006356,-0.000979,0.001259,-0.000354,-0.019852,-0.509141,-0.0046,-0.846092,-257.554005,-0.963108,71.305831
9.3949,-0.017293,0.000743,-0.005262,-0.000976,0.001256,-0.000301,-0.020066,-0.509077,-0.005319,-0.846092,-257.554005,-0.963108,71.305831
9.415,-0.017377,0.000941,-0.004248,-0.000974,0.001253,-0.000264,-0.020007,-0.50921,-0.005273,-0.81666,-257.554566,-0.98452,71.305137
9.435,-0.017502,0.000811,-0.005505,-0.00099,0.001237,-0.000499,-0.019585,-0.509066,-0.004337,-0.81666,-257.554566,-0.98452,71.305137
9.4549,-0.017191,0.000835,-0.003767,-0.001,0.001227,-0.00066,-0.019585,-0.509066,-0.004337,-0.81666,-257.554566,-0.98452,71.305137
9.4748,-0.017458,0.000911,-0.005688,-0.001008,0.001221,-0.000771,-0.019152,-0.50911,-0.003778,-0.842575,-257.555143,-0.968026,71.30446
9.4949,-0.017509,0.000679,-0.004646,-0.001008,0.001221,-0.000783,-0.01965,-0.509092,-0.00456,-0.842575,-257.555143,-0.968026,71.30446
9.5152,-0.017199,0.000829,-0.006182,-0.001009,0.001222,-0.000789,-0.019893,-0.509295,-0.004656,-0.767548,-257.555385,-1.033534,71.304081
9.5347,-0.017857,0.000979,-0.006095,-0.000984,0.001249,-0.000456,-0.020311,-0.509172,-0.006044,-0.767548,-257.555385,-1.033534,71.304081
9.5548,-0.017504,0.000991,-0.005071,-0.000966,0.001266,-0.000215,-0.020311,-0.509172,-0.006044,-0.767548,-257.555385,-1.033534,71.304081
9.5749,-0.017028,0.001213,-0.004384,-0.000954,0.001277,-4.3e-05,-0.020121,-0.508963,-0.005094,-0.692569,-257.555759,-1.03622,71.303489
9.5948,-0.017467,0.001223,-0.002585,-0.000967,0.00125,-0.000209,-0.019774,-0.508885,-0.004807,-0.692569,-257.555759,-1.03622,71.303489
9.6153,-0.017231,0.001172,-0.005091,-0.000977,0.00123,-0.000325,-0.018797,-0.508761,-0.002588,-0.767587,-257.555994,-0.961201,71.303247
9.6347,-0.017363,0.001055,-0.005549,-0.000982,0.001211,-0.000389,-0.019739,-0.508815,-0.004875,-0.767587,-257.555994,-0.961201,71.303247
9.6549,-0.017654,0.001351,-0.006025,-0.000987,0.001197,-0.000433,-0.019739,-0.508815,-0.004875,-0.767587,-257.555994,-0.961201,71.303247
9.675,-0.017089,0.001424,-0.00501,-0.00099,0.001186,-0.000464,-0.020766,-0.50859,-0.006038,-0.812564,-257.556544,-0.9711,71.302578
9.6949,-0.017181,0.001425,-0.004894,-0.000979,0.001175,-0.000309,-0.020313,-0.508576,-0.005621,-0.812564,-257.556544,-0.9711,71.302578
9.7145,-0.01688,0.001213,-0.005681,-0.000971,0.001165,-0.000198,-0.019705,-0.508534,-0.004908,-0.739437,-257.557034,-0.977895,71.301929
9.7348,-0.017785,0.001082,-0.005832,-0.000967,0.001162,-0.000123,-0.019772,-0.508755,-0.005611,-0.739437,-257.557034,-0.977895,71.301929
9.7547,-0.017516,0.001475,-0.005528,-0.000964,0.001158,-7e-05,-0.019772,-0.508755,-0.005611,-0.739437,-257.557034,-0.977895,71.301929
9.7749,-0.017745,0.001545,-0.005996,-0.000962,0.001154,-3.3e-05,-0.02037,-0.508476,-0.005535,-0.814276,-257.557523,-0.923829,71.301376
9.7946,-0.017077,0.001005,-0.005425,-0.000959,0.001136,1.7e-05,-0.020548,-0.508459,-0.005722,-0.814276,-257.557523,-0.923829,71.301376
9.8149,-0.017534,0.001654,-0.00429,-0.000958,0.001121,5.1e-05,-0.019872,-0.508953,-0.005426,-0.867143,-257.558079,-0.884394,71.300809
9.8348,-0.017598,0.001482,-0.005487,-0.000981,0.001086,-0.000269,-0.019736,-0.508393,-0.00439,-0.867143,-257.558079,-0.884394,71.300809
9.8547,-0.01782,0.001367,-0.005034,-0.000998,0.00106,-0.00049,-0.019736,-0.508393,-0.00439,-0.867143,-257.558079,-0.884394,71.300809
9.8746,-0.017624,0.001407,-0.003931,-0.001009,0.001041,-0.000641,-0.020427,-0.50858,-0.005032,-0.877371,-257.558666,-0.849782,71.300241
9.8947,-0.017337,0.001579,-0.005523,-0.001012,0.001045,-0.00069,-0.020104,-0.508579,-0.004581,-0.877371,-257.558666,-0.849782,71.300241
9.9153,-0.017656,0.00125,-0.00569,-0.001014,0.001049,-0.000722,-0.020159,-0.508406,-0.005526,-0.802376,-257.558753,-0.924777,71.300113
9.9352,-0.017675,0.001245,-0.005396,-0.000996,0.001075,-0.000482,-0.020523,-0.508712,-0.005676,-0.802376,-257.558753,-0.924777,71.300113
9.9549,-0.017511,0.001466,-0.004662,-0.000983,0.001093,-0.000309,-0.020523,-0.508712,-0.005676,-0.802376,-257.558753,-0.924777,71.300113
9.9751,-0.018031,0.001815,-0.005252,-0.000974,0.001106,-0.000186,-0.019902,-0.508514,-0.00467,-0.727405,-257.558902,-0.973037,71.299886
9.9949,-0.017883,0.001807,-0.005844,-0.000982,0.001086,-0.000282,-0.020232,-0.508376,-0.004908,-0.727405,-257.558902,-0.973037,71.299886
10.015,-0.017686,0.001514,-0.00681,-0.000988,0.001071,-0.000349,-0.02089,-0.508154,-0.005849,-0.794536,-257.559374,-0.898085,71.299357
10.035,-0.017368,0.001262,-0.004787,-0.000965,0.001093,-2e-05,-0.021136,-0.508443,-0.006722,-0.794536,-257.559374,-0.898085,71.299357
10.0552,-0.017721,0.001884,-0.005275,-0.000948,0.001106,0.000219,-0.021136,-0.508443,-0.006722,-0.794536,-257.559374,-0.898085,71.299357
10.0749,-0.017848,0.00188,-0.0064,-0.000936,0.001113,0.000391,-0.020448,-0.508069,-0.005288,-0.71954,-257.559844,-0.914635,71.298774
10.095,-0.017599,0.001402,-0.005191,-0.000944,0.001081,0.000318,-0.020723,-0.508081,-0.005742,-0.71954,-257.559844,-0.914635,71.298774
10.1148,-0.017783,0.001799,-0.005266,-0.00095,0.001055,0.000265,-0.020255,-0.508582,-0.00519,-0.794539,-257.560006,-0.839636,71.298648
10.1347,-0.017908,0.001909,-0.00469,-0.000963,0.001035,0.000113,-0.020451,-0.508227,-0.00526,-0.794539,-257.560006,-0.839636,71.298648
10.1549,-0.017836,0.001538,-0.00638,-0.000972,0.00102,6e-06,-0.020451,-0.508227,-0.00526,-0.794539,-257.560006,-0.839636,71.298648
10.1749,-0.017589,0.001444,-0.005603,-0.000978,0.001009,-7e-05,-0.021119,-0.50842,-0.006373,-0.869671,-257.560453,-0.764504,71.29827
10.1951,-0.017884,0.001699,-0.005225,-0.000968,0.001026,5.4e-05,-0.020846,-0.508469,-0.006055,-0.869671,-257.560453,-0.764504,71.29827
10.2151,-0.017537,0.001622,-0.005351,-0.000961,0.001038,0.000142,-0.020574,-0.508267,-0.005226,-0.794628,-257.560911,-0.821844,71.297793
10.2353,-0.017458,0.001685,-0.00426,-0.000969,0.001029,4.5e-05,-0.020295,-0.50836,-0.00534,-0.794628,-257.560911,-0.821844,71.297793
10.2552,-0.018129,0.002009,-0.004969,-0.000974,0.001023,-2.3e-05,-0.020295,-0.50836,-0.00534,-0.794628,-257.560911,-0.821844,71.297793
10.275,-0.017906,0.001731,-0.00565,-0.000978,0.001019,-7.1e-05,-0.0207,-0.507945,-0.004964,-0.864002,-257.561443,-0.780377,71.297306
10.2951,-0.017683,0.001599,-0.005166,-0.000983,0.001002,-0.000128,-0.02074,-0.508069,-0.005242,-0.864002,-257.561443,-0.780377,71.297306
10.3151,-0.017635,0.001554,-0.005498,-0.000987,0.000989,-0.000167,-0.020345,-0.508366,-0.005168,-0.789011,-257.561927,-0.826786,71.296801
10.3348,-0.018028,0.001764,-0.005962,-0.000984,0.000999,-0.00014,-0.020432,-0.508431,-0.00547,-0.789011,-257.561927,-0.826786,71.296801
10.3552,-0.017792,0.00184,-0.004458,-0.000982,0.001007,-0.00012,-0.020432,-0.508431,-0.00547,-0.789011,-257.561927,-0.826786,71.296801
10.3753,-0.018185,0.001727,-0.004861,-0.000981,0.001013,-0.000106,-0.020105,-0.508116,-0.004464,-0.732517,-257.562429,-0.835789,71.296243
10.3952,-0.017974,0.002106,-0.006671,-0.000996,0.000994,-0.000311,-0.020336,-0.508173,-0.004626,-0.732517,-257.562429,-0.835789,71.296243
10.4155,-0.018106,0.001946,-0.006282,-0.001006,0.000981,-0.000453,-0.021407,-0.507851,-0.006674,-0.768494,-257.562964,-0.832463,71.295672
10.4354,-0.018002,0.002039,-0.00575,-0.000985,0.000993,-0.000169,-0.02132,-0.508025,-0.006318,-0.768494,-257.562964,-0.832463,71.295672
10.4552,-0.01786,0.001867,-0.004362,-0.00097,0.000998,3.6e-05,-0.02132,-0.508025,-0.006318,-0.768494,-257.562964,-0.832463,71.295672
10.4749,-0.017973,0.001918,-0.004783,-0.000959,0.000999,0.000184,-0.020111,-0.508101,-0.004372,-0.69345,-257.563273,-0.896225,71.295267
10.4952,-0.018106,0.001727,-0.003658,-0.000983,0.000974,-0.000136,-0.020236,-0.508088,-0.00454,-0.69345,-257.563273,-0.896225,71.295267
10.5145,-0.018189,0.001284,-0.006202,-0.000999,0.000956,-0.000358,-0.019986,-0.508256,-0.003657,-0.768406,-257.563537,-0.82127,71.295032
10.5351,-0.0179,0.002196,-0.005221,-0.000984,0.000997,-0.000167,-0.02123,-0.508665,-0.005973,-0.768406,-257.563537,-0.82127,71.295032
10.555,-0.017954,0.001733,-0.003768,-0.000972,0.001029,-3e-05,-0.02123,-0.508665,-0.005973,-0.768406,-257.563537,-0.82127,71.295032
10.5749,-0.01784,0.001731,-0.005241,-0.000964,0.001052,6.8e-05,-0.019905,-0.508233,-0.003777,-0.6934,-257.5639,-0.866087,71.294581
10.5952,-0.017862,0.001833,-0.005978,-0.000988,0.001025,-0.000265,-0.020156,-0.508241,-0.004375,-0.6934,-257.5639,-0.866087,71.294581
10.6151,-0.018031,0.001878,-0.005731,-0.001005,0.001006,-0.000495,-0.020932,-0.508137,-0.005978,-0.768392,-257.564276,-0.808874,71.294221
10.635,-0.018578,0.001509,-0.005004,-0.000991,0.001007,-0.00031,-0.020953,-0.508114,-0.005753,-0.768392,-257.564276,-0.808874,71.294221
10.6547,-0.018082,0.001828,-0.004673,-0.000982,0.001006,-0.000177,-0.020953,-0.508114,-0.005753,-0.768392,-257.564276,-0.808874,71.294221
10.6746,-0.018143,0.00186,-0.0066,-0.000976,0.001003,-8.1e-05,-0.020488,-0.508142,-0.004682,-0.693402,-257.56455,-0.883865,71.293852
10.695,-0.017981,0.002246,-0.005153,-0.000977,0.000997,-7.9e-05,-0.020904,-0.508134,-0.005459,-0.693402,-257.56455,-0.883865,71.293852
10.715,-0.01812,0.0022,-0.004789,-0.000978,0.000991,-7.7e-05,-0.020635,-0.50772,-0.005155,-0.768398,-257.565014,-0.823255,71.293364
10.735,-0.017929,0.002106,-0.003216,-0.000991,0.000959,-0.000235,-0.02057,-0.507786,-0.004823,-0.768398,-257.565014,-0.823255,71.293364
10.7548,-0.018126,0.002274,-0.004239,-0.001,0.000935,-0.000344,-0.02057,-0.507786,-0.004823,-0.768398,-257.565014,-0.823255,71.293364
10.7753,-0.018286,0.002171,-0.006182,-0.001007,0.000916,-0.000419,-0.020329,-0.50768,-0.004242,-0.767954,-257.565558,-0.815459,71.292794
10.7953,-0.018135,0.002491,-0.004314,-0.001008,0.000902,-0.000418,-0.020785,-0.507732,-0.005032,-0.767954,-257.565558,-0.815459,71.292794
10.8148,-0.01809,0.002641,-0.004445,-0.001009,0.000891,-0.000415,-0.020352,-0.507487,-0.00432,-0.692871,-257.565822,-0.860818,71.292454
10.835,-0.018289,0.0021,-0.006039,-0.001023,0.000854,-0.000574,-0.020357,-0.507366,-0.004433,-0.692871,-257.565822,-0.860818,71.292454
10.8553,-0.0186,0.002096,-0.00645,-0.001032,0.000824,-0.000682,-0.020357,-0.507366,-0.004433,-0.692871,-257.565822,-0.860818,71.292454
10.8752,-0.018471,0.002244,-0.004715,-0.001039,0.000802,-0.000755,-0.021921,-0.507864,-0.006462,-0.617757,-257.566186,-0.848431,71.29199
10.8954,-0.018336,0.002389,-0.005304,-0.001017,0.000831,-0.000487,-0.021499,-0.507814,-0.005752,-0.617757,-257.566186,-0.848431,71.29199
10.9153,-0.018188,0.002007,-0.005527,-0.001002,0.000852,-0.000295,-0.021048,-0.507597,-0.005308,-0.542928,-257.566285,-0.882532,71.291842
10.9353,-0.018183,0.001904,-0.006474,-0.000996,0.000867,-0.00021,-0.02101,-0.507952,-0.005509,-0.542928,-257.566285,-0.882532,71.291842
10.9551,-0.018161,0.002054,-0.003249,-0.000991,0.000878,-0.000151,-0.02101,-0.507952,-0.005509,-0.542928,-257.566285,-0.882532,71.291842
10.9749,-0.018818,0.0018,-0.004437,-0.000988,0.000886,-0.00011,-0.019854,-0.507913,-0.00326,-0.590554,-257.566703,-0.807395,71.291343
10.9949,-0.018577,0.002359,-0.004554,-0.001016,0.000874,-0.000573,-0.020378,-0.508029,-0.00376,-0.590554,-257.566703,-0.807395,71.291343
11.0145,-0.018371,0.00222,-0.005593,-0.001034,0.000868,-0.000889,-0.020926,-0.507613,-0.004558,-0.665868,-257.567127,-0.767478,71.29089
11.0346,-0.018429,0.002197,-0.005419,-0.001017,0.000879,-0.000637,-0.021201,-0.507758,-0.005509,-0.665868,-257.567127,-0.767478,71.29089
11.0546,-0.018331,0.002267,-0.005203,-0.001005,0.000885,-0.000456,-0.021201,-0.507758,-0.005509,-0.665868,-257.567127,-0.767478,71.29089
11.075,-0.018436,0.002242,-0.006557,-0.000996,0.000887,-0.000325,-0.020988,-0.507723,-0.005205,-0.591059,-257.567159,-0.842288,71.290838
11.0951,-0.018234,0.001848,-0.005415,-0.000987,0.00089,-0.000178,-0.021314,-0.507732,-0.005761,-0.591059,-257.567159,-0.842288,71.290838
11.115,-0.018441,0.002066,-0.005509,-0.00098,0.000891,-7.4e-05,-0.021027,-0.508116,-0.005425,-0.604776,-257.567639,-0.828433,71.290253
11.1349,-0.018309,0.002323,-0.006109,-0.00098,0.000896,-5.7e-05,-0.021231,-0.507942,-0.005502,-0.604776,-257.567639,-0.828433,71.290253
11.155,-0.018505,0.0023,-0.004856,-0.00098,0.000901,-4.7e-05,-0.021231,-0.507942,-0.005502,-0.604776,-257.567639,-0.828433,71.290253
11.175,-0.018072,0.002316,-0.006316,-0.00098,0.000904,-4e-05,-0.021014,-0.507666,-0.004859,-0.679687,-257.568042,-0.762135,71.289832
11.1951,-0.01858,0.002518,-0.004259,-0.000982,0.000891,-4.7e-05,-0.021132,-0.507666,-0.005459,-0.679687,-257.568042,-0.762135,71.289832
11.2145,-0.018062,0.002484,-0.006631,-0.000984,0.000881,-5.2e-05,-0.020782,-0.507449,-0.004261,-0.731462,-257.568546,-0.758603,71.289314
11.2348,-0.018513,0.002245,-0.004263,-0.00097,0.000879,0.000143,-0.021389,-0.507499,-0.006427,-0.731462,-257.568546,-0.758603,71.289314
11.2552,-0.018152,0.002828,-0.007115,-0.000961,0.000875,0.000283,-0.021389,-0.507499,-0.006427,-0.731462,-257.568546,-0.758603,71.289314
11.2749,-0.018505,0.002596,-0.005599,-0.000955,0.000869,0.000382,-0.021821,-0.507122,-0.007117,-0.712282,-257.569062,-0.747886,71.288782
11.2949,-0.01831,0.002173,-0.006844,-0.000952,0.000852,0.000465,-0.021637,-0.50723,-0.006495,-0.712282,-257.569062,-0.747886,71.288782
11.3147,-0.018604,0.002163,-0.006055,-0.00095,0.000836,0.000523,-0.021815,-0.507802,-0.00684,-0.787276,-257.569337,-0.672892,71.288566
11.335,-0.018311,0.002515,-0.005227,-0.000953,0.000847,0.00049,-0.021704,-0.507824,-0.006126,-0.787276,-257.569337,-0.672892,71.288566
11.3549,-0.018546,0.002245,-0.003751,-0.000955,0.000857,0.000465,-0.021704,-0.507824,-0.006126,-0.787276,-257.569337,-0.672892,71.288566
11.3747,-0.019013,0.0027,-0.004222,-0.000957,0.000864,0.000446,-0.020479,-0.507732,-0.003741,-0.862253,-257.569654,-0.597916,71.288337
11.3951,-0.018672,0.002198,-0.003667,-0.000996,0.000827,-0.000157,-0.020762,-0.507552,-0.003936,-0.862253,-257.569654,-0.597916,71.288337
11.4145,-0.018742,0.00258,-0.005049,-0.001023,0.000803,-0.000569,-0.020571,-0.507772,-0.003654,-0.871356,-257.570229,-0.554,71.287901
11.4348,-0.018589,0.002675,-0.005581,-0.001025,0.000798,-0.000562,-0.021253,-0.507444,-0.004926,-0.871356,-257.570229,-0.554,71.287901
11.4548,-0.018518,0.00264,-0.006122,-0.001026,0.000793,-0.000553,-0.021253,-0.507444,-0.004926,-0.871356,-257.570229,-0.554,71.287901
11.4751,-0.018501,0.002484,-0.005694,-0.001026,0.000789,-0.000544,-0.02164,-0.50735,-0.006122,-0.796301,-257.570233,-0.629055,71.287896
11.4951,-0.018622,0.002743,-0.004773,-0.001009,0.0008,-0.000306,-0.021543,-0.507415,-0.005944,-0.796301,-257.570233,-0.629055,71.287896
11.5148,-0.018509,0.002663,-0.004711,-0.000997,0.000806,-0.000134,-0.021058,-0.50725,-0.004773,-0.721224,-257.570256,-0.704132,71.287865
11.5351,-0.018678,0.002251,-0.004402,-0.001011,0.000784,-0.000302,-0.020925,-0.507324,-0.004717,-0.721224,-257.570256,-0.704132,71.287865
11.5551,-0.018531,0.002337,-0.006271,-0.001021,0.000768,-0.000418,-0.020925,-0.507324,-0.004717,-0.721224,-257.570256,-0.704132,71.287865
11.5749,-0.018411,0.002789,-0.006127,-0.001028,0.000757,-0.000498,-0.021765,-0.507623,-0.006276,-0.646357,-257.570681,-0.727084,71.287404
11.5951,-0.018347,0.002412,-0.006287,-0.001007,0.00078,-0.000217,-0.021676,-0.507449,-0.006216,-0.646357,-257.570681,-0.727084,71.287404
11.615,-0.018476,0.002513,-0.005358,-0.000991,0.000795,-1.4e-05,-0.021565,-0.507568,-0.006291,-0.571363,-257.570854,-0.801156,71.287177
11.6349,-0.018406,0.002348,-0.007027,-0.000994,0.000792,-3.2e-05,-0.021241,-0.507487,-0.005441,-0.571363,-257.570854,-0.801156,71.287177
11.6551,-0.018486,0.002507,-0.005562,-0.000995,0.00079,-4.6e-05,-0.021241,-0.507487,-0.005441,-0.571363,-257.570854,-0.801156,71.287177
11.675,-0.018537,0.00245,-0.006691,-0.000996,0.000789,-5.6e-05,-0.02135,-0.507462,-0.005564,-0.646412,-257.571197,-0.726107,71.286831
11.695,-0.019047,0.002786,-0.005512,-0.000987,0.000798,6.3e-05,-0.021599,-0.507491,-0.006026,-0.646412,-257.571197,-0.726107,71.286831
11.715,-0.018565,0.002543,-0.005131,-0.000981,0.000804,0.000148,-0.021889,-0.507182,-0.005514,-0.648101,-257.571687,-0.690556,71.286325
11.7356,-0.018295,0.002711,-0.005903,-0.000992,0.000791,1.3e-05,-0.021261,-0.507419,-0.005173,-0.648101,-257.571687,-0.690556,71.286325
11.7552,-0.018811,0.002752,-0.003649,-0.001,0.000782,-8.2e-05,-0.021261,-0.507419,-0.005173,-0.648101,-257.571687,-0.690556,71.286325
11.7751,-0.018893,0.002462,-0.005587,-0.001005,0.000776,-0.000149,-0.020705,-0.507217,-0.003644,-0.723063,-257.572125,-0.628942,71.285924
11.7949,-0.018677,0.002665,-0.005018,-0.001022,0.000759,-0.000391,-0.021139,-0.507343,-0.004448,-0.723063,-257.572125,-0.628942,71.285924
11.815,-0.018643,0.002424,-0.004203,-0.001034,0.000748,-0.000557,-0.021257,-0.50731,-0.00502,-0.647806,-257.572465,-0.704199,71.285554
11.8347,-0.018411,0.002382,-0.00548,-0.001044,0.000748,-0.000721,-0.020828,-0.507548,-0.004273,-0.647806,-257.572465,-0.704199,71.285554
11.855,-0.018786,0.002876,-0.004785,-0.001051,0.00075,-0.000832,-0.020828,-0.507548,-0.004273,-0.647806,-257.572465,-0.704199,71.285554
11.8748,-0.019114,0.002574,-0.0052,-0.001055,0.000753,-0.000906,-0.021237,-0.507109,-0.004789,-0.572959,-257.572577,-0.779046,71.285403
11.8949,-0.019023,0.002725,-0.00528,-0.001046,0.000753,-0.000773,-0.021455,-0.507236,-0.004958,-0.572959,-257.572577,-0.779046,71.285403
11.9151,-0.018994,0.00236,-0.004286,-0.001039,0.000751,-0.000677,-0.021718,-0.507266,-0.005282,-0.497977,-257.572607,-0.854028,71.285355
11.9351,-0.018535,0.003037,-0.004065,-0.001044,0.000759,-0.000764,-0.021227,-0.507603,-0.004372,-0.497977,-257.572607,-0.854028,71.285355
11.955,-0.018983,0.002523,-0.004348,-0.001047,0.000767,-0.000823,-0.021227,-0.507603,-0.004372,-0.497977,-257.572607,-0.854028,71.285355
11.9751,-0.018652,0.002764,-0.004617,-0.001048,0.000774,-0.000862,-0.021225,-0.507453,-0.004362,-0.422975,-257.57286,-0.842352,71.284993
11.9952,-0.018729,0.002731,-0.006258,-0.001048,0.000769,-0.000863,-0.02114,-0.507361,-0.004467,-0.422975,-257.57286,-0.842352,71.284993
12.0148,-0.01878,0.002529,-0.005059,-0.001048,0.000764,-0.000861,-0.021938,-0.507245,-0.006271,-0.348067,-257.57309,-0.892552,71.284637
12.0351,-0.018828,0.002632,-0.004943,-0.001035,0.000775,-0.000683,-0.021412,-0.507444,-0.005166,-0.348067,-257.57309,-0.892552,71.284637
12.0549,-0.019252,0.002371,-0.005371,-0.001026,0.000781,-0.000557,-0.021412,-0.507444,-0.005166,-0.348067,-257.57309,-0.892552,71.284637
12.0752,-0.018631,0.003089,-0.004981,-0.00102,0.000785,-0.000467,-0.022025,-0.507596,-0.005397,-0.272982,-257.573425,-0.888514,71.284119
12.0952,-0.019171,0.002804,-0.00568,-0.001015,0.000783,-0.00039,-0.021678,-0.507309,-0.005229,-0.272982,-257.573425,-0.888514,71.284119
12.1154,-0.018956,0.002578,-0.004125,-0.001012,0.00078,-0.000336,-0.022086,-0.507175,-0.00569,-0.34803,-257.573665,-0.813466,71.283806
12.135,-0.018864,0.002698,-0.00555,-0.001027,0.000767,-0.000558,-0.021149,-0.507396,-0.004261,-0.34803,-257.573665,-0.813466,71.283806
12.1551,-0.018987,0.002456,-0.005695,-0.001038,0.000758,-0.000713,-0.021149,-0.507396,-0.004261,-0.34803,-257.573665,-0.813466,71.283806
12.1748,-0.018458,0.00276,-0.003872,-0.001045,0.000753,-0.000819,-0.021917,-0.507517,-0.005705,-0.423034,-257.573952,-0.771973,71.283458
12.1949,-0.01876,0.00276,-0.005438,-0.001037,0.00076,-0.000704,-0.021317,-0.507401,-0.004962,-0.423034,-257.573952,-0.771973,71.283458
12.2149,-0.019026,0.002909,-0.006162,-0.001031,0.000764,-0.000623,-0.02155,-0.50722,-0.005449,-0.348169,-257.57416,-0.846838,71.283142
12.2355,-0.01927,0.003022,-0.006097,-0.00101,0.000772,-0.00032,-0.022112,-0.507094,-0.006097,-0.348169,-257.57416,-0.846838,71.283142
12.2553,-0.019378,0.002656,-0.004745,-0.000995,0.000775,-0.000103,-0.022112,-0.507094,-0.006097,-0.348169,-257.57416,-0.846838,71.283142
12.2747,-0.019076,0.002489,-0.004799,-0.000985,0.000773,5.2e-05,-0.021841,-0.507306,-0.004771,-0.355763,-257.5746,-0.837144,71.282526
12.2952,-0.019287,0.002844,-0.005209,-0.001,0.000765,-0.000144,-0.021715,-0.507384,-0.004785,-0.355763,-257.5746,-0.837144,71.282526
12.3149,-0.019002,0.00302,-0.006804,-0.00101,0.00076,-0.000282,-0.021947,-0.507147,-0.00521,-0.430976,-257.574648,-0.761931,71.28248
12.3357,-0.01895,0.00283,-0.006995,-0.00099,0.000769,1.9e-05,-0.022422,-0.506985,-0.00665,-0.430976,-257.574648,-0.761931,71.28248
12.3548,-0.018636,0.003011,-0.005361,-0.000975,0.000772,0.000237,-0.022422,-0.506985,-0.00665,-0.430976,-257.574648,-0.761931,71.28248
12.3746,-0.01896,0.003212,-0.006341,-0.000965,0.000771,0.000393,-0.021406,-0.506955,-0.005371,-0.505765,-257.575049,-0.745352,71.282008
12.3947,-0.018956,0.003131,-0.005372,-0.000974,0.000745,0.000327,-0.02173,-0.50688,-0.005766,-0.505765,-257.575049,-0.745352,71.282008
12.4145,-0.019317,0.003017,-0.004759,-0.00098,0.000724,0.000278,-0.021698,-0.506859,-0.005371,-0.580788,-257.575098,-0.670328,71.281969
12.4351,-0.019407,0.003071,-0.005365,-0.001001,0.000701,7e-06,-0.021741,-0.506967,-0.004814,-0.580788,-257.575098,-0.670328,71.281969
12.4552,-0.019348,0.002493,-0.005495,-0.001016,0.000684,-0.000182,-0.021741,-0.506967,-0.004814,-0.580788,-257.575098,-0.670328,71.281969
12.4746,-0.018831,0.002925,-0.004986,-0.001026,0.000674,-0.000312,-0.022169,-0.507486,-0.005493,-0.655809,-257.575338,-0.595308,71.281766
12.4948,-0.018966,0.003005,-0.005488,-0.001023,0.000689,-0.000284,-0.021845,-0.507313,-0.005284,-0.655809,-257.575338,-0.595308,71.281766
12.5148,-0.018686,0.002746,-0.004864,-0.001021,0.000702,-0.000263,-0.021778,-0.506978,-0.005491,-0.580744,-257.575516,-0.670372,71.281554
12.5346,-0.019496,0.002891,-0.004738,-0.001027,0.000699,-0.000337,-0.021222,-0.507223,-0.00492,-0.580744,-257.575516,-0.670372,71.281554
12.5546,-0.019235,0.002975,-0.005579,-0.001031,0.000698,-0.000388,-0.021222,-0.507223,-0.00492,-0.580744,-257.575516,-0.670372,71.281554
12.5749,-0.0191,0.002951,-0.005898,-0.001033,0.000697,-0.000423,-0.022117,-0.506992,-0.005588,-0.50586,-257.575913,-0.701136,71.281096
12.5946,-0.01891,0.002969,-0.004654,-0.001021,0.000703,-0.000261,-0.022118,-0.507009,-0.005716,-0.50586,-257.575913,-0.701136,71.281096
12.6145,-0.019157,0.003103,-0.006296,-0.001013,0.000706,-0.000145,-0.02131,-0.507007,-0.004664,-0.430863,-257.576278,-0.746327,71.280639
12.6347,-0.01904,0.003179,-0.005452,-0.001,0.000709,2.5e-05,-0.022272,-0.506897,-0.006146,-0.430863,-257.576278,-0.746327,71.280639
12.6548,-0.019199,0.002483,-0.005099,-0.000992,0.000708,0.000146,-0.022272,-0.506897,-0.006146,-0.430863,-257.576278,-0.746327,71.280639
12.675,-0.019258,0.003134,-0.006623,-0.000986,0.000706,0.000233,-0.02183,-0.507489,-0.005104,-0.505861,-257.576622,-0.67133,71.280265
12.6947,-0.018975,0.002978,-0.005214,-0.000988,0.000712,0.000205,-0.022165,-0.507226,-0.00573,-0.505861,-257.576622,-0.67133,71.280265
12.7153,-0.018999,0.003111,-0.006451,-0.000989,0.000718,0.000185,-0.021645,-0.507007,-0.005213,-0.581016,-257.576805,-0.596175,71.280105
12.7349,-0.019261,0.003139,-0.005553,-0.000982,0.000715,0.000295,-0.022235,-0.506889,-0.006345,-0.581016,-257.576805,-0.596175,71.280105
12.7551,-0.019636,0.002887,-0.005308,-0.000977,0.000711,0.000374,-0.022235,-0.506889,-0.006345,-0.581016,-257.576805,-0.596175,71.280105
12.7748,-0.019695,0.003029,-0.005642,-0.000974,0.000707,0.000429,-0.022376,-0.507083,-0.005304,-0.656016,-257.577204,-0.548917,71.279747
12.7946,-0.019351,0.002896,-0.005828,-0.000987,0.0007,0.00027,-0.02246,-0.507032,-0.00544,-0.656016,-257.577204,-0.548917,71.279747
12.8147,-0.019526,0.003345,-0.004506,-0.000995,0.000695,0.000158,-0.022343,-0.507082,-0.005821,-0.730872,-257.57754,-0.47406,71.279485
12.8347,-0.019276,0.003258,-0.006452,-0.001018,0.000663,-0.000137,-0.02187,-0.506687,-0.004621,-0.730872,-257.57754,-0.47406,71.279485
12.8548,-0.019482,0.002936,-0.007227,-0.001034,0.000641,-0.00034,-0.02187,-0.506687,-0.004621,-0.730872,-257.57754,-0.47406,71.279485
12.8747,-0.019476,0.003558,-0.004909,-0.001045,0.000624,-0.000478,-0.023204,-0.507025,-0.007221,-0.672006,-257.577987,-0.541676,71.279077
12.8946,-0.019299,0.003093,-0.006429,-0.001024,0.000646,-0.000195,-0.022711,-0.506783,-0.006282,-0.672006,-257.577987,-0.541676,71.279077
12.9148,-0.019475,0.00274,-0.004546,-0.001008,0.000659,1e-05,-0.022579,-0.506895,-0.006429,-0.597096,-257.578017,-0.616585,71.279039
12.9348,-0.019086,0.003045,-0.006495,-0.001023,0.000663,-0.000207,-0.021862,-0.507223,-0.00471,-0.597096,-257.578017,-0.616585,71.279039
12.9547,-0.019446,0.003229,-0.004754,-0.001032,0.000668,-0.000356,-0.021862,-0.507223,-0.00471,-0.597096,-257.578017,-0.616585,71.279039
12.975,-0.01925,0.003411,-0.004583,-0.001039,0.000675,-0.000459,-0.021912,-0.506738,-0.004754,-0.583146,-257.578485,-0.574909,71.278573
12.9947,-0.019193,0.003243,-0.004909,-0.001046,0.000654,-0.000537,-0.021785,-0.506673,-0.004684,-0.583146,-257.578485,-0.574909,71.278573
13.0146,-0.019432,0.003096,-0.005305,-0.001051,0.000637,-0.000589,-0.021706,-0.506744,-0.004911,-0.508232,-257.578614,-0.649822,71.27841
13.0347,-0.01927,0.00297,-0.005221,-0.001043,0.000644,-0.000477,-0.022101,-0.506883,-0.005271,-0.508232,-257.578614,-0.649822,71.27841
13.0546,-0.019548,0.00313,-0.006858,-0.001037,0.000649,-0.000396,-0.022101,-0.506883,-0.005271,-0.508232,-257.578614,-0.649822,71.27841
13.0748,-0.01894,0.003119,-0.003823,-0.001033,0.000651,-0.000339,-0.023058,-0.506849,-0.006863,-0.433104,-257.578744,-0.724951,71.278236
13.0952,-0.018913,0.003355,-0.006382,-0.001024,0.000657,-0.000216,-0.022179,-0.50686,-0.005629,-0.433104,-257.578744,-0.724951,71.278236
13.1148,-0.019436,0.003368,-0.004684,-0.001017,0.000659,-0.00013,-0.022199,-0.506614,-0.006392,-0.406408,-257.579182,-0.693268,71.277713
13.1345,-0.019504,0.003243,-0.004953,-0.001029,0.000637,-0.000262,-0.021859,-0.506624,-0.004833,-0.406408,-257.579182,-0.693268,71.277713
13.1552,-0.019565,0.003195,-0.005786,-0.001037,0.00062,-0.000354,-0.021859,-0.506624,-0.004833,-0.406408,-257.579182,-0.693268,71.277713
13.175,-0.019571,0.00328,-0.005403,-0.001043,0.000608,-0.000418,-0.022548,-0.506776,-0.005791,-0.481529,-257.57954,-0.627836,71.277329
13.1947,-0.019323,0.002927,-0.004573,-0.001032,0.000618,-0.000272,-0.022462,-0.506748,-0.005634,-0.481529,-257.57954,-0.627836,71.277329
13.2151,-0.019844,0.003028,-0.005377,-0.001024,0.000625,-0.000168,-0.021676,-0.507055,-0.00458,-0.406661,-257.57982,-0.691256,71.276984
13.2353,-0.019667,0.003311,-0.006797,-0.001023,0.000636,-0.000168,-0.022511,-0.506972,-0.00531,-0.406661,-257.57982,-0.691256,71.276984
13.2551,-0.019824,0.003356,-0.005719,-0.001022,0.000646,-0.000168,-0.022511,-0.506972,-0.00531,-0.406661,-257.57982,-0.691256,71.276984
13.2752,-0.019635,0.00306,-0.006519,-0.001021,0.000653,-0.000169,-0.022777,-0.506613,-0.005725,-0.472111,-257.580213,-0.618089,71.276555
13.2952,-0.019367,0.003031,-0.0063,-0.001009,0.00066,-1.1e-05,-0.022855,-0.506739,-0.006048,-0.472111,-257.580213,-0.618089,71.276555
13.315,-0.019376,0.00328,-0.005373,-0.001,0.000664,0.000103,-0.022612,-0.506938,-0.006305,-0.493783,-257.580671,-0.637624,71.276053
13.3352,-0.019441,0.003253,-0.005398,-0.001005,0.000652,5.3e-05,-0.022163,-0.506732,-0.005457,-0.493783,-257.580671,-0.637624,71.276053
13.3552,-0.01975,0.003492,-0.00457,-0.001009,0.000643,1.8e-05,-0.022163,-0.506732,-0.005457,-0.493783,-257.580671,-0.637624,71.276053
13.3749,-0.019889,0.003528,-0.006646,-0.001012,0.000636,-8e-06,-0.022108,-0.506485,-0.004569,-0.568776,-257.58099,-0.562632,71.275752
13.3947,-0.019587,0.003239,-0.004013,-0.001015,0.000621,-3.6e-05,-0.02259,-0.506473,-0.005418,-0.568776,-257.58099,-0.562632,71.275752
13.4153,-0.019543,0.003226,-0.004952,-0.001018,0.000609,-5.6e-05,-0.021666,-0.506737,-0.004014,-0.557849,-257.581466,-0.564697,71.275274
13.4352,-0.019817,0.003314,-0.004618,-0.001029,0.000603,-0.000206,-0.022035,-0.506764,-0.00487,-0.557849,-257.581466,-0.564697,71.275274
13.455,-0.019596,0.003347,-0.006628,-0.001037,0.000599,-0.000311,-0.022035,-0.506764,-0.00487,-0.557849,-257.581466,-0.564697,71.275274
13.4751,-0.019635,0.003176,-0.005695,-0.001042,0.000598,-0.000383,-0.023017,-0.506617,-0.00663,-0.514307,-257.58192,-0.563378,71.274806
13.4952,-0.019656,0.003244,-0.005201,-0.001022,0.000619,-0.000129,-0.022824,-0.506696,-0.006244,-0.514307,-257.58192,-0.563378,71.274806
13.5147,-0.019834,0.003152,-0.004696,-0.001008,0.000632,5.4e-05,-0.022325,-0.506739,-0.005205,-0.439271,-257.582139,-0.638414,71.274542
13.5351,-0.019829,0.003201,-0.007269,-0.001024,0.000624,-0.000165,-0.022237,-0.506833,-0.004737,-0.439271,-257.582139,-0.638414,71.274542
13.5549,-0.01977,0.003098,-0.006338,-0.001035,0.00062,-0.000317,-0.022237,-0.506833,-0.004737,-0.439271,-257.582139,-0.638414,71.274542
13.5748,-0.02004,0.00358,-0.006593,-0.001042,0.000619,-0.000422,-0.023027,-0.506876,-0.006338,-0.514451,-257.58243,-0.563234,71.274259
13.5949,-0.019679,0.003145,-0.004893,-0.001019,0.000642,-0.000122,-0.023182,-0.506686,-0.006441,-0.514451,-257.58243,-0.563234,71.274259
13.615,-0.019783,0.003299,-0.00582,-0.001003,0.000657,9.6e-05,-0.022189,-0.50684,-0.004897,-0.439783,-257.582624,-0.637903,71.274021
13.635,-0.019444,0.00351,-0.005161,-0.001002,0.000653,0.000111,-0.022703,-0.506705,-0.00574,-0.439783,-257.582624,-0.637903,71.274021
13.6548,-0.019959,0.003471,-0.005301,-0.001002,0.00065,0.000122,-0.022703,-0.506705,-0.00574,-0.439783,-257.582624,-0.637903,71.274021
13.675,-0.019991,0.003094,-0.005906,-0.001002,0.000647,0.000128,-0.022684,-0.506508,-0.005301,-0.51488,-257.582873,-0.562805,71.273784
13.695,-0.019899,0.003125,-0.005851,-0.001006,0.00064,8.9e-05,-0.022818,-0.506666,-0.005549,-0.51488,-257.582873,-0.562805,71.273784
13.7151,-0.019893,0.003553,-0.004711,-0.001008,0.000636,6.1e-05,-0.022909,-0.50685,-0.005848,-0.589916,-257.583268,-0.515722,71.273416
13.7351,-0.019887,0.003323,-0.005709,-0.001025,0.000611,-0.00015,-0.022338,-0.506469,-0.004787,-0.589916,-257.583268,-0.515722,71.273416
13.7551,-0.020167,0.003287,-0.005528,-0.001037,0.000593,-0.000297,-0.022338,-0.506469,-0.004787,-0.589916,-257.583268,-0.515722,71.273416
13.7749,-0.020014,0.003286,-0.005525,-0.001046,0.00058,-0.000398,-0.023028,-0.506679,-0.005526,-0.588479,-257.583745,-0.535673,71.272954
13.7949,-0.019879,0.003398,-0.005055,-0.001037,0.000594,-0.000287,-0.022953,-0.506687,-0.005525,-0.588479,-257.583745,-0.535673,71.272954
13.8145,-0.019995,0.003882,-0.005272,-0.00103,0.000604,-0.000207,-0.022464,-0.506591,-0.005056,-0.514205,-257.583842,-0.609946,71.272838
13.8347,-0.020022,0.003615,-0.006214,-0.001033,0.000582,-0.000215,-0.022664,-0.506155,-0.005252,-0.514205,-257.583842,-0.609946,71.272838
13.8546,-0.019567,0.00354,-0.006234,-0.001036,0.000563,-0.00022,-0.022664,-0.506155,-0.005252,-0.514205,-257.583842,-0.609946,71.272838
13.8746,-0.019566,0.003633,-0.005183,-0.001038,0.000548,-0.000222,-0.022785,-0.506427,-0.006241,-0.439207,-257.584251,-0.617116,71.272382
13.895,-0.020108,0.003447,-0.005909,-0.001029,0.000553,-9.8e-05,-0.022555,-0.506397,-0.005811,-0.439207,-257.584251,-0.617116,71.272382
13.9148,-0.019775,0.003315,-0.007088,-0.001023,0.000555,-1e-05,-0.023152,-0.506528,-0.005915,-0.377705,-257.584663,-0.582176,71.271923
13.9348,-0.020205,0.00367,-0.006365,-0.001002,0.000591,0.000268,-0.023371,-0.506658,-0.006983,-0.377705,-257.584663,-0.582176,71.271923
13.9552,-0.019926,0.003716,-0.005365,-0.000986,0.000617,0.00047,-0.023371,-0.506658,-0.006983,-0.377705,-257.584663,-0.582176,71.271923
13.9752,-0.020034,0.003568,-0.004283,-0.000975,0.000635,0.000615,-0.022694,-0.506261,-0.005366,-0.452663,-257.585002,-0.507218,71.271583
13.995,-0.0199,0.00319,-0.005648,-0.001003,0.0006,0.000267,-0.022505,-0.506326,-0.004927,-0.452663,-257.585002,-0.507218,71.271583
14.015,-0.020439,0.003518,-0.003983,-0.001022,0.000575,2.5e-05,-0.022782,-0.506801,-0.005648,-0.527668,-257.58503,-0.432213,71.271563
14.0352,-0.020245,0.003694,-0.004728,-0.001048,0.000557,-0.000379,-0.022496,-0.506505,-0.004122,-0.527668,-257.58503,-0.432213,71.271563
14.0553,-0.020311,0.003624,-0.00642,-0.001066,0.000547,-0.000654,-0.022496,-0.506505,-0.004122,-0.527668,-257.58503,-0.432213,71.271563
14.075,-0.020327,0.003474,-0.008264,-0.001078,0.000542,-0.00084,-0.023625,-0.506343,-0.006419,-0.523506,-257.585467,-0.500695,71.271132
14.095,-0.020088,0.00373,-0.005302,-0.001044,0.00059,-0.000321,-0.024003,-0.506408,-0.00717,-0.523506,-257.585467,-0.500695,71.271132
14.1157,-0.020148,0.003582,-0.005566,-0.001018,0.000622,6.4e-05,-0.022792,-0.506263,-0.005302,-0.448759,-257.585469,-0.575442,71.271129
14.1354,-0.020139,0.003748,-0.005677,-0.001021,0.00061,4.1e-05,-0.022966,-0.506395,-0.005538,-0.448759,-257.585469,-0.575442,71.271129
14.155,-0.01994,0.003839,-0.006608,-0.001022,0.0006,2.4e-05,-0.022966,-0.506395,-0.005538,-0.448759,-257.585469,-0.575442,71.271129
14.1751,-0.020344,0.003705,-0.006689,-0.001023,0.000592,1.2e-05,-0.023341,-0.506132,-0.006607,-0.523756,-257.585825,-0.520019,71.270785
14.1954,-0.019853,0.003583,-0.006081,-0.001008,0.000597,0.000224,-0.023513,-0.506191,-0.00664,-0.523756,-257.585825,-0.520019,71.270785
14.2147,-0.020239,0.003533,-0.005616,-0.000997,0.000597,0.000377,-0.022987,-0.506389,-0.006081,-0.529996,-257.586299,-0.519333,71.270314
14.2352,-0.020091,0.003705,-0.005839,-0.001004,0.00059,0.000287,-0.023094,-0.506451,-0.00566,-0.529996,-257.586299,-0.519333,71.270314
14.255,-0.020113,0.003795,-0.006481,-0.001009,0.000585,0.000223,-0.023094,-0.506451,-0.00566,-0.529996,-257.586299,-0.519333,71.270314
14.2749,-0.020434,0.003654,-0.004602,-0.001013,0.000582,0.000177,-0.023436,-0.506184,-0.006477,-0.605009,-257.586517,-0.444321,71.270135
14.295,-0.020271,0.004193,-0.004413,-0.001015,0.000571,0.000149,-0.023162,-0.506249,-0.005685,-0.605009,-257.586517,-0.444321,71.270135
14.3149,-0.020227,0.00363,-0.004758,-0.001018,0.000563,0.00013,-0.022553,-0.505783,-0.004407,-0.598073,-257.587003,-0.437672,71.269692
14.335,-0.020426,0.003486,-0.005721,-0.001036,0.000544,-0.000124,-0.022646,-0.506312,-0.004727,-0.598073,-257.587003,-0.437672,71.269692
14.3548,-0.020251,0.004252,-0.004971,-0.001049,0.000532,-0.000299,-0.022646,-0.506312,-0.004727,-0.598073,-257.587003,-0.437672,71.269692
14.375,-0.020382,0.003649,-0.007322,-0.001058,0.000524,-0.000419,-0.022827,-0.505719,-0.004966,-0.56302,-257.587474,-0.443459,71.26925
14.3953,-0.020407,0.004155,-0.005022,-0.001044,0.000524,-0.00022,-0.023359,-0.505969,-0.005928,-0.56302,-257.587474,-0.443459,71.26925
14.4149,-0.020156,0.003927,-0.006308,-0.001035,0.000521,-7.7e-05,-0.022972,-0.505836,-0.005022,-0.488009,-257.587522,-0.51847,71.269192
14.4353,-0.020337,0.003545,-0.005468,-0.001023,0.000524,8e-05,-0.023338,-0.506043,-0.006195,-0.488009,-257.587522,-0.51847,71.269192
14.4552,-0.020419,0.003893,-0.005106,-0.001016,0.000524,0.000192,-0.023338,-0.506043,-0.006195,-0.488009,-257.587522,-0.51847,71.269192
14.4752,-0.020546,0.004216,-0.006998,-0.00101,0.000522,0.000271,-0.023064,-0.506079,-0.005109,-0.429791,-257.587952,-0.502111,71.268747
14.4953,-0.020834,0.004122,-0.005532,-0.001013,0.000513,0.000262,-0.023497,-0.505952,-0.005878,-0.429791,-257.587952,-0.502111,71.268747
14.515,-0.020275,0.003924,-0.006477,-0.001015,0.000505,0.000255,-0.023669,-0.505863,-0.005531,-0.504751,-257.588154,-0.427151,71.26857
14.5349,-0.020532,0.003785,-0.005683,-0.001008,0.000511,0.000352,-0.023587,-0.506046,-0.006389,-0.504751,-257.588154,-0.427151,71.26857
14.555,-0.020449,0.004069,-0.006738,-0.001003,0.000514,0.000421,-0.023587,-0.506046,-0.006389,-0.504751,-257.588154,-0.427151,71.26857
14.5748,-0.020662,0.003782,-0.005318,-0.001,0.000515,0.00047,-0.023918,-0.505902,-0.00673,-0.577067,-257.58854,-0.352146,71.268228
14.5952,-0.020786,0.003596,-0.002458,-0.001002,0.000512,0.000456,-0.0237,-0.506026,-0.006152,-0.577067,-257.58854,-0.352146,71.268228
14.6152,-0.020506,0.003861,-0.006486,-0.001003,0.00051,0.000445,-0.022061,-0.506392,-0.00245,-0.652111,-257.588877,-0.277102,71.267959
14.6351,-0.020325,0.003806,-0.005041,-0.001005,0.000513,0.000432,-0.02366,-0.506151,-0.006127,-0.652111,-257.588877,-0.277102,71.267959
14.6548,-0.020667,0.003816,-0.00686,-0.001005,0.000515,0.000422,-0.02366,-0.506151,-0.006127,-0.652111,-257.588877,-0.277102,71.267959
14.6749,-0.020447,0.003658,-0.004928,-0.001006,0.000517,0.000414,-0.024206,-0.506151,-0.006842,-0.66179,-257.589368,-0.232382,71.26756
