mach0312/omni-docking-bench/src/icros_test_setup/results/MPPI_sample/timeseries/trial_076.csv
t,x,y,yaw,vx,vy,wz,bl_x,bl_y,bl_yaw,front_steering_joint,front_wheel_joint,rear_steering_joint,rear_wheel_joint
0.0,0.060552,-0.001456,-0.042301,0.009942,0.000646,-0.022508,0.036235,-0.511193,-0.039051,-0.921635,-260.483549,0.966308,66.599196
0.0004,0.06056,-0.001495,-0.042306,0.009122,0.000593,-0.020652,0.036235,-0.511193,-0.039051,-0.921635,-260.475275,0.966308,66.607997
0.0007,0.060418,-0.001292,-0.044519,0.008235,0.000535,-0.018644,0.037533,-0.510467,-0.038785,-0.921635,-260.468196,0.966308,66.615526
0.001,0.061767,-0.001345,-0.043338,0.007268,0.000472,-0.016454,0.037533,-0.510467,-0.038785,-0.921635,-260.462161,0.966308,66.621945
0.0013,0.061608,-0.00132,-0.04396,0.006236,0.000405,-0.014118,0.036948,-0.510883,-0.040781,-0.921635,-260.458033,0.966308,66.626337
0.0016,0.062718,-0.001463,-0.045617,0.00513,0.000333,-0.011615,0.036948,-0.510883,-0.040781,-0.921635,-260.458033,0.966308,66.626337
0.0019,0.062212,-0.001375,-0.046614,0.003955,0.000257,-0.008954,0.036948,-0.510883,-0.040781,-0.921635,-260.458033,0.966308,66.626337
0.0021,0.06282,-0.001639,-0.044755,0.002713,0.000176,-0.006143,0.038363,-0.510922,-0.040537,-0.921635,-260.458033,0.966308,66.626337
0.0073,0.063118,-0.001454,-0.045665,0.0,0.0,0.0,0.040264,-0.511123,-0.045345,-0.921635,-260.458033,0.966308,66.626337
0.0285,0.063257,-0.00119,-0.047814,0.0,0.0,0.0,0.040118,-0.51104,-0.045545,-0.921635,-260.458033,0.966308,66.626337
0.0471,0.063707,-0.001322,-0.047173,0.0,0.0,0.0,0.039009,-0.510605,-0.048105,-0.921635,-260.455416,0.966308,66.629119
0.0677,0.063748,-0.001368,-0.04684,0.0,0.0,0.0,0.039606,-0.510741,-0.047269,-0.921635,-260.455416,0.966308,66.629119
0.0877,0.063734,-0.001541,-0.045514,0.0,0.0,0.0,0.039606,-0.510741,-0.047269,-0.921635,-260.455416,0.966308,66.629119
0.1074,0.063944,-0.001093,-0.046196,0.0,0.0,0.0,0.04053,-0.511013,-0.045514,-0.921635,-260.455416,0.966308,66.629119
0.1274,0.063583,-0.001267,-0.046638,-0.002943,-0.00033,0.002164,0.040473,-0.510821,-0.045795,-0.921635,-260.455416,0.966308,66.629119
0.1475,0.063517,-0.001273,-0.04638,-0.003183,-0.000337,0.002537,0.039806,-0.510713,-0.046638,-0.921635,-260.455416,0.966308,66.629119
0.1678,0.063794,-0.001665,-0.046467,-0.003395,-0.000341,0.003432,0.039866,-0.510724,-0.0464,-0.921635,-260.455416,0.966308,66.629119
0.1874,0.063714,-0.001552,-0.045734,-0.003583,-0.000344,0.004046,0.039866,-0.510724,-0.0464,-0.921635,-260.455416,0.966308,66.629119
0.2071,0.063584,-0.001251,-0.047716,-0.003583,-0.000344,0.004046,0.040398,-0.511019,-0.045734,-0.846373,-260.455417,0.891046,66.629119
0.2277,0.064075,-0.001492,-0.046186,-0.003899,-0.000338,0.005745,0.039932,-0.510877,-0.046544,-0.846373,-260.455417,0.891046,66.629119
0.2474,0.063925,-0.001644,-0.045943,-0.00403,-0.000335,0.006239,0.04052,-0.510948,-0.046171,-0.771753,-260.45557,0.816426,66.628951
0.2674,0.063689,-0.001051,-0.04798,-0.004147,-0.000327,0.007107,0.040504,-0.511092,-0.045962,-0.771753,-260.45557,0.816426,66.628951
0.2872,0.063752,-0.001455,-0.045664,-0.004252,-0.00032,0.007732,0.040504,-0.511092,-0.045962,-0.771753,-260.45557,0.816426,66.628951
0.3074,0.063555,-0.001331,-0.046914,-0.004252,-0.00032,0.007732,0.040313,-0.51093,-0.045419,-0.711581,-260.457567,0.799413,66.626782
0.3275,0.063085,-0.001321,-0.046902,-0.00443,-0.000321,0.009368,0.040019,-0.510865,-0.046002,-0.711581,-260.457567,0.799413,66.626782
0.3473,0.063302,-0.001017,-0.045217,-0.004506,-0.000323,0.009889,0.039063,-0.510764,-0.046705,-0.786482,-260.459544,0.870297,66.624651
0.3674,0.063155,-0.001389,-0.04567,-0.004573,-0.000332,0.01067,0.040136,-0.51052,-0.045342,-0.786482,-260.459544,0.870297,66.624651
0.3875,0.062504,-0.001569,-0.045547,-0.004634,-0.000342,0.011263,0.040136,-0.51052,-0.045342,-0.786482,-260.459544,0.870297,66.624651
0.4073,0.062379,-0.001287,-0.045239,-0.004634,-0.000342,0.011263,0.039143,-0.511046,-0.045256,-0.861483,-260.461631,0.945298,66.622416
0.4275,0.062741,-0.001062,-0.045386,-0.004739,-0.000342,0.012582,0.039197,-0.510932,-0.045216,-0.861483,-260.461631,0.945298,66.622416
0.4475,0.062333,-0.001241,-0.046298,-0.004784,-0.000343,0.013032,0.039478,-0.510541,-0.04509,-0.936486,-260.464296,1.000259,66.619563
0.4675,0.062261,-0.001757,-0.045235,-0.004825,-0.000352,0.013567,0.038788,-0.510681,-0.04618,-0.936486,-260.464296,1.000259,66.619563
0.4875,0.062327,-0.001146,-0.044972,-0.004862,-0.000361,0.013991,0.038788,-0.510681,-0.04618,-0.936486,-260.464296,1.000259,66.619563
0.5073,0.061855,-0.001414,-0.043777,-0.004862,-0.000361,0.013991,0.039222,-0.510635,-0.044491,-1.00988,-260.467473,1.048017,66.616178
0.5275,0.062124,-0.001218,-0.044347,-0.004927,-0.000372,0.014963,0.039329,-0.510754,-0.044144,-1.00988,-260.467473,1.048017,66.616178
0.5477,0.061137,-0.001397,-0.043019,-0.004955,-0.000378,0.015306,0.039362,-0.510721,-0.04391,-1.034741,-260.471211,1.071076,66.612193
0.5676,0.061176,-0.001256,-0.044506,-0.00498,-0.00038,0.015711,0.039211,-0.510907,-0.043076,-1.034741,-260.471211,1.071076,66.612193
0.5871,0.061371,-0.001403,-0.043902,-0.005004,-0.000383,0.016037,0.039211,-0.510907,-0.043076,-1.034741,-260.471211,1.071076,66.612193
0.6073,0.060873,-0.001134,-0.043546,-0.005004,-0.000383,0.016037,0.038786,-0.510918,-0.043281,-1.066125,-260.475194,1.099659,66.60795
0.6278,0.060544,-0.001402,-0.041284,-0.005045,-0.000394,0.016647,0.038716,-0.510809,-0.043317,-1.066125,-260.475194,1.099659,66.60795
0.6471,0.059936,-0.001353,-0.041316,-0.005063,-0.000399,0.016868,0.039336,-0.510973,-0.040775,-1.082147,-260.479432,1.113857,66.603442
0.6671,0.05988,-0.001081,-0.042469,-0.005079,-0.0004,0.017117,0.038903,-0.510923,-0.041244,-1.082147,-260.479432,1.113857,66.603442
0.6873,0.059697,-0.001647,-0.042454,-0.005094,-0.000402,0.01732,0.038903,-0.510923,-0.041244,-1.082147,-260.479432,1.113857,66.603442
0.7072,0.058935,-0.000851,-0.041298,-0.005094,-0.000402,0.01732,0.037841,-0.511195,-0.041754,-1.098208,-260.483848,1.128907,66.598741
0.7272,0.059113,-0.001464,-0.040782,-0.00512,-0.000408,0.017734,0.037832,-0.510877,-0.041486,-1.098208,-260.483848,1.128907,66.598741
0.7478,0.058348,-0.001372,-0.042187,-0.005132,-0.000411,0.017887,0.038158,-0.511046,-0.040233,-1.106686,-260.488383,1.136409,66.593918
0.7675,0.058603,-0.001126,-0.039719,-0.005143,-0.000413,0.018068,0.03695,-0.51093,-0.041982,-1.106686,-260.488383,1.136409,66.593918
0.7874,0.058581,-0.001605,-0.040921,-0.005152,-0.000415,0.018217,0.03695,-0.51093,-0.041982,-1.106686,-260.488383,1.136409,66.593918
0.8073,0.057667,-0.00107,-0.040991,-0.005152,-0.000415,0.018217,0.037503,-0.511187,-0.040175,-1.116692,-260.493049,1.145672,66.588955
0.8273,0.058081,-0.001343,-0.041969,-0.005169,-0.000415,0.018505,0.037179,-0.510966,-0.04042,-1.116692,-260.493049,1.145672,66.588955
0.8473,0.057452,-0.001217,-0.040073,-0.005177,-0.000416,0.018613,0.036518,-0.5109,-0.041388,-1.122451,-260.497798,1.150914,66.583905
0.8676,0.057219,-0.001245,-0.037794,-0.005183,-0.00042,0.018735,0.036966,-0.510816,-0.040163,-1.122451,-260.497798,1.150914,66.583905
0.8873,0.057442,-0.001274,-0.038258,-0.005189,-0.000424,0.018836,0.036966,-0.510816,-0.040163,-1.122451,-260.497798,1.150914,66.583905
0.9071,0.056186,-0.001499,-0.036937,-0.005189,-0.000424,0.018836,0.037719,-0.51091,-0.03748,-1.129245,-260.502644,1.156887,66.578756
0.9272,0.056615,-0.001461,-0.038257,-0.005201,-0.000419,0.019042,0.037543,-0.51101,-0.037166,-1.129245,-260.502644,1.156887,66.578756
0.9476,0.055728,-0.001171,-0.038009,-0.005205,-0.000417,0.01912,0.036944,-0.511095,-0.037659,-1.13276,-260.507529,1.160446,66.573562
0.9671,0.05588,-0.001259,-0.036229,-0.00521,-0.00042,0.019207,0.036398,-0.510833,-0.037939,-1.13276,-260.507529,1.160446,66.573562
0.9875,0.055432,-0.001039,-0.037206,-0.005214,-0.000423,0.01928,0.036398,-0.510833,-0.037939,-1.13276,-260.507529,1.160446,66.573562
1.0077,0.054927,-0.001272,-0.03677,-0.005214,-0.000423,0.01928,0.036244,-0.510696,-0.036407,-1.137778,-260.512488,1.164354,66.568298
1.0275,0.054793,-0.001302,-0.035019,-0.005221,-0.000427,0.019421,0.036192,-0.510791,-0.036463,-1.137778,-260.512488,1.164354,66.568298
1.0473,0.0541,-0.001171,-0.034687,-0.005224,-0.000429,0.019475,0.036771,-0.510997,-0.034406,-1.140262,-260.517492,1.166868,66.562985
1.0673,0.054145,-0.001104,-0.034554,-0.005227,-0.000428,0.019532,0.036436,-0.510876,-0.034632,-1.140262,-260.517492,1.166868,66.562985
1.0872,0.054151,-0.001363,-0.034307,-0.00523,-0.000427,0.019579,0.036436,-0.510876,-0.034632,-1.140262,-260.517492,1.166868,66.562985
1.1073,0.053609,-0.000607,-0.032441,-0.00523,-0.000427,0.019579,0.036439,-0.511073,-0.033492,-1.143227,-260.522529,1.169833,66.557634
1.1277,0.053125,-0.001324,-0.034574,-0.005235,-0.000427,0.01967,0.036669,-0.510776,-0.032971,-1.143227,-260.522529,1.169833,66.557634
1.1473,0.052687,-0.001234,-0.03282,-0.005237,-0.000428,0.019705,0.035328,-0.511028,-0.03395,-1.144969,-260.527587,1.171191,66.552263
1.1674,0.052821,-0.001125,-0.033134,-0.00524,-0.000423,0.019742,0.035887,-0.510966,-0.03289,-1.144969,-260.527587,1.171191,66.552263
1.1879,0.052672,-0.001691,-0.033863,-0.005242,-0.000419,0.019773,0.035887,-0.510966,-0.03289,-1.144969,-260.527587,1.171191,66.552263
1.2078,0.051654,-0.00144,-0.033635,-0.005242,-0.000419,0.019773,0.035186,-0.511409,-0.033038,-1.146905,-260.532681,1.172955,66.546855
1.2272,0.051843,-0.001123,-0.032183,-0.005245,-0.000396,0.019834,0.034882,-0.511306,-0.033185,-1.146905,-260.532681,1.172955,66.546855
1.2473,0.051028,-0.001037,-0.032202,-0.005247,-0.000387,0.019857,0.035266,-0.510867,-0.031554,-1.148241,-260.537804,1.173625,66.541424
1.2674,0.051185,-0.001069,-0.030584,-0.005248,-0.000392,0.019882,0.034655,-0.510781,-0.032117,-1.148241,-260.537804,1.173625,66.541424
1.2876,0.05112,-0.001128,-0.030188,-0.005249,-0.000396,0.019902,0.034655,-0.510781,-0.032117,-1.148241,-260.537804,1.173625,66.541424
1.3074,0.050573,-0.001348,-0.030413,-0.005249,-0.000396,0.019902,0.035507,-0.510905,-0.029357,-1.150533,-260.542946,1.173803,66.535998
1.3274,0.050579,-0.001045,-0.029599,-0.005251,-0.00039,0.019943,0.0353,-0.510991,-0.029693,-1.150533,-260.542946,1.173803,66.535998
1.3472,0.049543,-0.000998,-0.029536,-0.005252,-0.000387,0.019959,0.035319,-0.51083,-0.028966,-1.150961,-260.548087,1.1747,66.530567
1.3673,0.049611,-0.001536,-0.029264,-0.005253,-0.00039,0.019975,0.034549,-0.510781,-0.029452,-1.150961,-260.548087,1.1747,66.530567
1.3876,0.049651,-0.001336,-0.028805,-0.005254,-0.000392,0.019989,0.034549,-0.510781,-0.029452,-1.150961,-260.548087,1.1747,66.530567
1.4076,0.048675,-0.001188,-0.027616,-0.005254,-0.000392,0.019989,0.034742,-0.511135,-0.027969,-1.152086,-260.553263,1.175199,66.525106
1.4275,0.048909,-0.001365,-0.028083,-0.005256,-0.000379,0.020017,0.034655,-0.511078,-0.027728,-1.152086,-260.553263,1.175199,66.525106
1.4476,0.047595,-0.001144,-0.027571,-0.005256,-0.000374,0.020027,0.034422,-0.511172,-0.027447,-1.152407,-260.558434,1.175763,66.519646
1.4673,0.047886,-0.001008,-0.027628,-0.005257,-0.000371,0.020038,0.033604,-0.51097,-0.027529,-1.152407,-260.558434,1.175763,66.519646
1.4874,0.048197,-0.001164,-0.02645,-0.005257,-0.000369,0.020048,0.033604,-0.51097,-0.027529,-1.152407,-260.558434,1.175763,66.519646
1.5074,0.047166,-0.001091,-0.026003,-0.005257,-0.000369,0.020048,0.034489,-0.510995,-0.025613,-1.153552,-260.563626,1.17573,66.514179
1.5274,0.047063,-0.001615,-0.026989,-0.005258,-0.000363,0.020066,0.034223,-0.510965,-0.025677,-1.153552,-260.563626,1.17573,66.514179
1.5474,0.046429,-0.001188,-0.025091,-0.005259,-0.000361,0.020073,0.033133,-0.511436,-0.026353,-1.154024,-260.568817,1.175872,66.508718
1.5677,0.04635,-0.00143,-0.024934,-0.005259,-0.000356,0.020081,0.033583,-0.511063,-0.025168,-1.154024,-260.568817,1.175872,66.508718
1.5872,0.046394,-0.001058,-0.02443,-0.005259,-0.000351,0.020087,0.033583,-0.511063,-0.025168,-1.154024,-260.568817,1.175872,66.508718
1.608,0.045788,-0.001372,-0.024287,-0.005259,-0.000351,0.020087,0.033716,-0.510916,-0.023591,-1.154643,-260.574021,1.176008,66.503248
1.6275,0.045645,-0.001359,-0.023068,-0.00526,-0.000343,0.0201,0.033561,-0.511043,-0.023781,-1.154643,-260.574021,1.176008,66.503248
1.6476,0.045126,-0.001241,-0.022554,-0.00526,-0.00034,0.020105,0.033714,-0.511231,-0.02243,-1.155174,-260.579231,1.175924,66.49778
1.6671,0.044838,-0.001156,-0.024865,-0.00526,-0.000334,0.020111,0.033624,-0.511122,-0.022512,-1.155174,-260.579231,1.175924,66.49778
1.6871,0.04482,-0.000946,-0.024873,-0.00526,-0.000329,0.020115,0.033624,-0.511122,-0.022512,-1.155174,-260.579231,1.175924,66.49778
1.7073,0.044387,-0.00123,-0.024566,-0.00526,-0.000329,0.020115,0.031916,-0.510797,-0.024034,-1.15582,-260.584442,1.175863,66.492319
1.7276,0.04397,-0.00101,-0.021444,-0.00526,-0.000331,0.020123,0.031868,-0.510912,-0.024153,-1.15582,-260.584442,1.175863,66.492319
1.7471,0.043521,-0.001133,-0.019683,-0.00526,-0.000332,0.020126,0.032867,-0.5109,-0.020803,-1.156321,-260.589673,1.175725,66.486846
1.7675,0.043399,-0.001111,-0.020636,-0.005261,-0.000328,0.020128,0.033422,-0.511023,-0.019749,-1.156321,-260.589673,1.175725,66.486846
1.7874,0.043114,-0.001083,-0.021206,-0.005261,-0.000325,0.02013,0.033422,-0.511023,-0.019749,-1.156321,-260.589673,1.175725,66.486846
1.8072,0.042937,-0.001152,-0.018774,-0.005261,-0.000325,0.02013,0.03208,-0.510977,-0.020363,-1.156424,-260.5949,1.175983,66.481375
1.8276,0.042939,-0.001232,-0.01839,-0.005262,-0.000318,0.020133,0.032579,-0.511013,-0.019617,-1.156424,-260.5949,1.175983,66.481375
1.8476,0.041665,-0.000935,-0.019289,-0.005262,-0.000316,0.020134,0.033393,-0.511153,-0.017749,-1.156658,-260.600129,1.175791,66.475906
1.8677,0.041992,-0.000957,-0.019612,-0.005262,-0.000317,0.020132,0.031955,-0.510868,-0.019124,-1.156658,-260.600129,1.175791,66.475906
1.8876,0.041841,-0.001085,-0.019636,-0.005262,-0.000318,0.020131,0.031955,-0.510868,-0.019124,-1.156658,-260.600129,1.175791,66.475906
1.9072,0.040891,-0.001347,-0.017693,-0.005262,-0.000318,0.020131,0.031607,-0.510995,-0.018794,-1.156953,-260.605364,1.175543,66.47044
1.9278,0.041071,-0.000977,-0.017298,-0.005261,-0.000305,0.020116,0.031689,-0.511108,-0.018245,-1.156953,-260.605364,1.175543,66.47044
1.9472,0.040326,-0.001287,-0.018229,-0.005261,-0.0003,0.020111,0.032082,-0.510908,-0.016658,-1.156842,-260.610589,1.175536,66.464981
1.9675,0.039889,-0.000985,-0.016915,-0.005261,-0.000293,0.020105,0.031116,-0.511176,-0.018054,-1.156842,-260.610589,1.175536,66.464981
1.9874,0.040128,-0.00101,-0.016818,-0.00526,-0.000287,0.0201,0.031116,-0.511176,-0.018054,-1.156842,-260.610589,1.175536,66.464981
2.0071,0.039165,-0.000869,-0.016229,-0.00526,-0.000287,0.0201,0.031331,-0.510947,-0.015977,-1.157084,-260.61583,1.174769,66.459519
2.0275,0.039495,-0.00153,-0.016429,-0.005252,-0.000297,0.020024,0.031124,-0.510888,-0.015983,-1.157084,-260.61583,1.174769,66.459519
2.0474,0.038473,-0.001352,-0.014451,-0.005249,-0.000301,0.019998,0.030949,-0.511468,-0.01579,-1.157339,-260.621062,1.174278,66.454076
2.0674,0.038848,-0.001395,-0.01619,-0.005242,-0.000296,0.019911,0.031081,-0.511315,-0.014539,-1.157339,-260.621062,1.174278,66.454076
2.0874,0.038899,-0.001568,-0.01601,-0.005237,-0.000291,0.019843,0.031081,-0.511315,-0.014539,-1.157339,-260.621062,1.174278,66.454076
2.1079,0.037806,-0.001042,-0.0132,-0.005237,-0.000291,0.019843,0.030514,-0.511512,-0.015173,-1.155754,-260.626268,1.173633,66.448649
2.128,0.038074,-0.001288,-0.013141,-0.005227,-0.000283,0.019719,0.030715,-0.511305,-0.014278,-1.155754,-260.626268,1.173633,66.448649
2.1474,0.036801,-0.001442,-0.012982,-0.005223,-0.000279,0.019678,0.031205,-0.511251,-0.012508,-1.154023,-260.631447,1.171509,66.443257
2.1677,0.036847,-0.001326,-0.012864,-0.00522,-0.000277,0.019527,0.030263,-0.511387,-0.012908,-1.154023,-260.631447,1.171509,66.443257
2.1878,0.037333,-0.001529,-0.013131,-0.005216,-0.000274,0.019412,0.030263,-0.511387,-0.012908,-1.154023,-260.631447,1.171509,66.443257
2.2077,0.036496,-0.001193,-0.010466,-0.005216,-0.000274,0.019412,0.030417,-0.511494,-0.012308,-1.152187,-260.636586,1.169152,66.437913
2.2281,0.036411,-0.001458,-0.013262,-0.005218,-0.000278,0.018945,0.030693,-0.511361,-0.011463,-1.152187,-260.636586,1.169152,66.437913
2.2473,0.035813,-0.001158,-0.01099,-0.005217,-0.000278,0.018797,0.029481,-0.51142,-0.012644,-1.147616,-260.641659,1.164679,66.432639
2.2679,0.035494,-0.000983,-0.009097,-0.005217,-0.000284,0.018634,0.030135,-0.511154,-0.011107,-1.147616,-260.641659,1.164679,66.432639
2.2874,0.035518,-0.001148,-0.01114,-0.005217,-0.000289,0.018514,0.030135,-0.511154,-0.011107,-1.147616,-260.641659,1.164679,66.432639
2.3078,0.035031,-0.001065,-0.01013,-0.005217,-0.000289,0.018514,0.029619,-0.511125,-0.010357,-1.134939,-260.646584,1.153206,66.427512
2.3276,0.034784,-0.000887,-0.010938,-0.005224,-0.000304,0.018094,0.029694,-0.511091,-0.010174,-1.134939,-260.646584,1.153206,66.427512
2.3472,0.034002,-0.001192,-0.009575,-0.005226,-0.000308,0.017964,0.02904,-0.510864,-0.010349,-1.12859,-260.651456,1.148029,66.422431
2.3671,0.034411,-0.001132,-0.010536,-0.005229,-0.000311,0.017767,0.029104,-0.511143,-0.009613,-1.12859,-260.651456,1.148029,66.422431
2.3877,0.033816,-0.001203,-0.009264,-0.005232,-0.000313,0.017624,0.029104,-0.511143,-0.009613,-1.12859,-260.651456,1.148029,66.422431
2.4075,0.0336,-0.001211,-0.008048,-0.005232,-0.000313,0.017624,0.028874,-0.511192,-0.008517,-1.115125,-260.656176,1.136951,66.417489
2.4277,0.033351,-0.00122,-0.008505,-0.005241,-0.000322,0.016939,0.029103,-0.511194,-0.008239,-1.115125,-260.656176,1.136951,66.417489
2.4476,0.032628,-0.001497,-0.00772,-0.005244,-0.000321,0.016739,0.028847,-0.51121,-0.007944,-1.10667,-260.660864,1.129513,66.412576
2.4676,0.032632,-0.001166,-0.008372,-0.005248,-0.000313,0.016467,0.028696,-0.511461,-0.007712,-1.10667,-260.660864,1.129513,66.412576
2.4878,0.032933,-0.00107,-0.007099,-0.005251,-0.000305,0.016276,0.028696,-0.511461,-0.007712,-1.10667,-260.660864,1.129513,66.412576
2.5079,0.031888,-0.001119,-0.006812,-0.005251,-0.000305,0.016276,0.029098,-0.511069,-0.006413,-1.083755,-260.665291,1.109282,66.407923
2.5277,0.031857,-0.00133,-0.007562,-0.005262,-0.000323,0.015455,0.028782,-0.511087,-0.006501,-1.083755,-260.665291,1.109282,66.407923
2.547,0.031331,-0.000918,-0.006238,-0.005266,-0.000326,0.01522,0.027834,-0.511323,-0.007046,-1.071867,-260.669628,1.097201,66.403373
2.5675,0.03176,-0.000997,-0.006026,-0.005269,-0.000331,0.014989,0.028112,-0.510946,-0.006286,-1.071867,-260.669628,1.097201,66.403373
2.5872,0.031087,-0.001174,-0.005905,-0.005271,-0.000334,0.014829,0.028112,-0.510946,-0.006286,-1.071867,-260.669628,1.097201,66.403373
2.6075,0.030592,-0.001951,-0.006056,-0.005271,-0.000334,0.014829,0.027861,-0.511177,-0.005286,-1.039961,-260.673674,1.070039,66.399107
2.6278,0.030889,-0.001539,-0.00643,-0.005277,-0.00031,0.014212,0.027691,-0.51149,-0.005527,-1.039961,-260.673674,1.070039,66.399107
2.6476,0.030179,-0.00133,-0.004811,-0.005278,-0.000297,0.014035,0.027441,-0.511539,-0.005955,-1.027221,-260.677732,1.059266,66.394819
2.6672,0.030235,-0.001367,-0.005123,-0.00528,-0.000296,0.013685,0.02769,-0.511345,-0.004894,-1.027221,-260.677732,1.059266,66.394819
2.6873,0.029894,-0.001344,-0.004241,-0.005281,-0.000292,0.013441,0.02769,-0.511345,-0.004894,-1.027221,-260.677732,1.059266,66.394819
2.7075,0.029387,-0.001499,-0.003425,-0.005281,-0.000292,0.013441,0.027515,-0.511351,-0.003665,-1.003046,-260.681587,1.034033,66.390766
2.7279,0.029577,-0.001476,-0.003362,-0.005286,-0.000288,0.012177,0.027542,-0.511412,-0.003499,-1.003046,-260.681587,1.034033,66.390766
2.7478,0.028919,-0.001149,-0.003142,-0.005287,-0.000284,0.01182,0.027697,-0.511482,-0.002939,-0.982505,-260.685341,1.014906,66.386817
2.7674,0.029128,-0.001591,-0.002995,-0.005288,-0.000288,0.011388,0.027347,-0.511183,-0.003095,-0.982505,-260.685341,1.014906,66.386817
2.7874,0.028733,-0.001649,-0.002952,-0.005288,-0.000291,0.011088,0.027347,-0.511183,-0.003095,-0.982505,-260.685341,1.014906,66.386817
2.8073,0.028517,-0.001363,-0.002237,-0.005288,-0.000291,0.011088,0.02703,-0.511657,-0.002512,-0.919436,-260.688443,0.956959,66.383553
2.8277,0.028575,-0.001218,-0.002259,-0.005287,-0.000273,0.010107,0.027149,-0.511538,-0.002349,-0.919436,-260.688443,0.956959,66.383553
2.8473,0.027685,-0.001285,-0.001309,-0.005286,-0.000264,0.009824,0.027259,-0.511225,-0.001917,-0.886417,-260.691687,0.928146,66.38013
2.8679,0.027483,-0.001758,-0.002006,-0.005286,-0.000264,0.009091,0.027031,-0.51128,-0.001346,-0.886417,-260.691687,0.928146,66.38013
2.8872,0.027752,-0.001338,-0.003042,-0.005286,-0.000264,0.008569,0.027031,-0.51128,-0.001346,-0.886417,-260.691687,0.928146,66.38013
2.9077,0.027297,-0.001548,-0.00041,-0.005286,-0.000264,0.008569,0.026002,-0.511345,-0.002674,-0.826226,-260.694482,0.86991,66.377193
2.9277,0.02737,-0.001115,-0.000772,-0.005283,-0.000248,0.00828,0.026425,-0.51143,-0.001701,-0.826226,-260.694482,0.86991,66.377193
2.9479,0.02718,-0.001151,-8.5e-05,-0.005281,-0.000241,0.008195,0.026832,-0.511122,-0.000537,-0.754555,-260.696975,0.804984,66.374573
2.9672,0.026996,-0.001273,-0.001983,-0.005281,-0.00024,0.007307,0.0271,-0.511148,-0.000114,-0.754555,-260.696975,0.804984,66.374573
2.9872,0.026931,-0.001621,0.001236,-0.00528,-0.000239,0.006661,0.0271,-0.511148,-0.000114,-0.754555,-260.696975,0.804984,66.374573
3.0072,0.026703,-0.001551,-0.000904,-0.00528,-0.000239,0.006661,0.027344,-0.51163,0.001574,-0.734008,-260.699781,0.78207,66.371637
3.0275,0.026451,-0.001834,-0.002397,-0.005279,-0.000196,0.005321,0.026864,-0.511599,0.000591,-0.734008,-260.699781,0.78207,66.371637
3.0471,0.02651,-0.001651,-0.001261,-0.005278,-0.000179,0.004908,0.025111,-0.511838,-0.00224,-0.6589,-260.701644,0.706962,66.36969
3.068,0.026159,-0.001295,-0.00083,-0.005272,-0.000159,0.005612,0.025793,-0.511668,-0.001341,-0.6589,-260.701644,0.706962,66.36969
3.0873,0.026334,-0.001567,-0.001091,-0.005267,-0.000144,0.006109,0.025793,-0.511668,-0.001341,-0.6589,-260.701644,0.706962,66.36969
3.1073,0.026158,-0.001766,-0.00094,-0.005267,-0.000144,0.006109,0.025692,-0.511569,-0.000994,-0.584003,-260.702622,0.632065,66.368683
3.1274,0.026172,-0.001215,0.000263,-0.00526,-0.000131,0.006366,0.025677,-0.51165,-0.00096,-0.584003,-260.702622,0.632065,66.368683
3.1476,0.025823,-0.001135,-5.2e-05,-0.005258,-0.000126,0.006438,0.026138,-0.511219,0.000457,-0.597908,-260.705163,0.634403,66.366076
3.1673,0.025509,-0.001758,-0.000647,-0.005257,-0.000138,0.005977,0.025818,-0.511142,3e-06,-0.597908,-260.705163,0.634403,66.366076
3.1876,0.025892,-0.001259,0.000326,-0.005257,-0.000149,0.005641,0.025818,-0.511142,3e-06,-0.597908,-260.705163,0.634403,66.366076
3.2075,0.02512,-0.001427,0.00053,-0.005257,-0.000149,0.005641,0.025843,-0.511264,0.00059,-0.626522,-260.707707,0.657384,66.363473
3.2276,0.025199,-0.001673,0.000924,-0.005257,-0.000143,0.004739,0.025631,-0.511332,0.000595,-0.626522,-260.707707,0.657384,66.363473
3.2474,0.024858,-0.00139,0.000795,-0.005257,-0.000141,0.00446,0.025523,-0.511678,0.001083,-0.560115,-260.7099,0.599706,66.361222
3.2676,0.024875,-0.001462,-0.000139,-0.005256,-0.000134,0.004157,0.025278,-0.511415,0.000828,-0.560115,-260.7099,0.599706,66.361222
3.2876,0.024596,-0.001647,0.00037,-0.005256,-0.000127,0.003935,0.025278,-0.511415,0.000828,-0.560115,-260.7099,0.599706,66.361222
3.3076,0.024746,-0.001455,0.000684,-0.005256,-0.000127,0.003935,0.02463,-0.511651,0.000511,-0.485077,-260.711579,0.524668,66.359506
3.3275,0.024316,-0.001303,-0.000522,-0.005252,-0.000109,0.003837,0.024803,-0.511571,0.000598,-0.485077,-260.711579,0.524668,66.359506
3.348,0.024,-0.00156,0.000766,-0.00525,-0.000101,0.003803,0.023911,-0.511306,-0.000418,-0.410072,-260.713481,0.449663,66.357568
3.3673,0.024836,-0.001004,0.000546,-0.005248,-9.4e-05,0.003747,0.024343,-0.511538,0.00067,-0.410072,-260.713481,0.449663,66.357568
3.3876,0.024397,-0.00146,0.000756,-0.005247,-8.8e-05,0.003703,0.024343,-0.511538,0.00067,-0.410072,-260.713481,0.449663,66.357568
3.4073,0.023716,-0.00154,0.000562,-0.005247,-8.8e-05,0.003703,0.024565,-0.511464,0.000914,-0.400326,-260.715747,0.432471,66.355271
3.4272,0.024269,-0.001099,0.001443,-0.005244,-8e-05,0.003554,0.024308,-0.511496,0.000787,-0.400326,-260.715747,0.432471,66.355271
3.4476,0.023464,-0.001428,0.000727,-0.005242,-7.6e-05,0.003507,0.024839,-0.511101,0.00156,-0.392796,-260.718008,0.421103,66.352981
3.4676,0.023475,-0.001277,0.000786,-0.005241,-7.6e-05,0.003463,0.023916,-0.511399,0.000807,-0.392796,-260.718008,0.421103,66.352981
3.4876,0.023602,-0.001252,0.002118,-0.005239,-7.5e-05,0.00343,0.023916,-0.511399,0.000807,-0.392796,-260.718008,0.421103,66.352981
3.5076,0.02266,-0.00163,0.002215,-0.005239,-7.5e-05,0.00343,0.024466,-0.511254,0.002263,-0.375321,-260.720237,0.400256,66.350729
3.528,0.022811,-0.001722,0.001979,-0.005235,-5.4e-05,0.002445,0.024162,-0.511409,0.00226,-0.375321,-260.720237,0.400256,66.350729
3.547,0.023109,-0.001372,0.00188,-0.005234,-4.5e-05,0.002141,0.023652,-0.511724,0.002089,-0.367908,-260.72248,0.392734,66.348464
3.5672,0.022914,-0.001334,0.000683,-0.005234,-4e-05,0.002041,0.024023,-0.511402,0.001903,-0.367908,-260.72248,0.392734,66.348464
3.5876,0.02288,-0.001167,0.001757,-0.005233,-3.5e-05,0.001967,0.024023,-0.511402,0.001903,-0.367908,-260.72248,0.392734,66.348464
3.6071,0.022498,-0.001543,4.1e-05,-0.005233,-3.5e-05,0.001967,0.023657,-0.511168,0.001819,-0.292849,-260.723674,0.317675,66.347265
3.6272,0.022862,-0.001313,0.001703,-0.00523,-4.1e-05,0.00243,0.023175,-0.511323,0.001094,-0.292849,-260.723674,0.317675,66.347265
3.6472,0.022227,-0.001494,0.001576,-0.005229,-4.4e-05,0.002563,0.023595,-0.511315,0.001755,-0.219229,-260.725424,0.242706,66.345511
3.6672,0.022416,-0.00135,0.00361,-0.005229,-3.5e-05,0.00245,0.023072,-0.511478,0.001594,-0.219229,-260.725424,0.242706,66.345511
3.6872,0.02202,-0.00167,0.001321,-0.005228,-2.8e-05,0.002367,0.023072,-0.511478,0.001594,-0.219229,-260.725424,0.242706,66.345511
3.7071,0.022012,-0.001549,0.000129,-0.005228,-2.8e-05,0.002367,0.0225,-0.511671,0.001416,-0.283233,-260.727364,0.298517,66.343562
3.7275,0.021682,-0.00132,0.001959,-0.005223,-1.1e-05,0.00278,0.022302,-0.511621,0.000895,-0.283233,-260.727364,0.298517,66.343562
3.7478,0.021985,-0.001992,0.002201,-0.005221,-5e-06,0.002898,0.022517,-0.51132,0.002034,-0.264835,-260.729496,0.27469,66.341424
3.768,0.021749,-0.001536,0.001589,-0.005219,2e-05,0.002475,0.023032,-0.511917,0.002187,-0.264835,-260.729496,0.27469,66.341424
3.7879,0.021971,-0.001799,0.001395,-0.005217,4.1e-05,0.002168,0.023032,-0.511917,0.002187,-0.264835,-260.729496,0.27469,66.341424
3.8073,0.021705,-0.001526,0.00193,-0.005217,4.1e-05,0.002168,0.022486,-0.511799,0.001505,-0.326032,-260.731484,0.32771,66.339434
3.8276,0.021747,-0.001291,0.001783,-0.005217,5.4e-05,0.002086,0.022548,-0.511686,0.001693,-0.326032,-260.731484,0.32771,66.339434
3.8475,0.02119,-0.001807,0.002858,-0.005217,5.8e-05,0.00206,0.022521,-0.51129,0.00184,-0.255947,-260.733251,0.252581,66.337674
3.8675,0.021399,-0.001351,0.001851,-0.005214,7.3e-05,0.001683,0.022629,-0.51176,0.002771,-0.255947,-260.733251,0.252581,66.337674
3.8876,0.021175,-0.00142,0.002638,-0.005212,8.6e-05,0.001409,0.022629,-0.51176,0.002771,-0.255947,-260.733251,0.252581,66.337674
3.9074,0.021295,-0.0012,0.003205,-0.005212,8.6e-05,0.001409,0.022305,-0.511417,0.002723,-0.247237,-260.735377,0.226094,66.335559
3.9277,0.02115,-0.001473,0.001647,-0.005211,7.5e-05,0.000986,0.022537,-0.511326,0.002931,-0.247237,-260.735377,0.226094,66.335559
3.9473,0.021096,-0.001351,0.003121,-0.005211,7.2e-05,0.000858,0.02185,-0.51147,0.001685,-0.179591,-260.737162,0.151056,66.333783
3.9678,0.021174,-0.001752,0.002703,-0.00521,7e-05,0.000745,0.02261,-0.511359,0.003002,-0.179591,-260.737162,0.151056,66.333783
3.9874,0.020961,-0.001552,0.003493,-0.00521,6.9e-05,0.000663,0.02261,-0.511359,0.003002,-0.179591,-260.737162,0.151056,66.333783
4.0084,0.020466,-0.001129,0.003665,-0.00521,6.9e-05,0.000663,0.022552,-0.511547,0.003524,-0.113859,-260.73899,0.086599,66.331961
4.0279,0.020319,-0.001211,0.000735,-0.005207,7.6e-05,0.000281,0.022444,-0.511379,0.003584,-0.113859,-260.73899,0.086599,66.331961
4.0476,0.020446,-0.001792,0.001968,-0.005206,7.9e-05,0.000165,0.02053,-0.511209,0.000756,-0.090708,-260.741048,0.064355,66.329906
4.0674,0.020093,-0.001637,0.001484,-0.005206,8.9e-05,0.000651,0.021353,-0.511736,0.001854,-0.090708,-260.741048,0.064355,66.329906
4.0875,0.0202,-0.001531,0.001787,-0.005206,9.7e-05,0.00099,0.021353,-0.511736,0.001854,-0.090708,-260.741048,0.064355,66.329906
4.1077,0.019843,-0.001537,0.001762,-0.005206,9.7e-05,0.00099,0.020916,-0.511527,0.001793,-0.034561,-260.74292,0.004157,66.328035
4.1277,0.020015,-0.001461,0.001376,-0.005206,9.6e-05,0.001437,0.020822,-0.511531,0.001781,-0.034561,-260.74292,0.004157,66.328035
4.1477,0.01995,-0.001585,0.003262,-0.005206,9.5e-05,0.001563,0.020594,-0.511459,0.001396,-0.109671,-260.744482,0.079267,66.326481
4.1675,0.019506,-0.001696,0.003408,-0.005204,0.000103,0.001214,0.02152,-0.511572,0.003104,-0.109671,-260.744482,0.079267,66.326481
4.188,0.020059,-0.001522,0.002286,-0.005202,0.00011,0.000961,0.02152,-0.511572,0.003104,-0.109671,-260.744482,0.079267,66.326481
4.2077,0.019238,-0.001322,0.002887,-0.005202,0.00011,0.000961,0.021053,-0.511519,0.002334,-0.184674,-260.746147,0.154269,66.324826
4.2277,0.019415,-0.001427,0.002053,-0.005202,0.000107,0.000929,0.020894,-0.511438,0.002564,-0.184674,-260.746147,0.154269,66.324826
4.2478,0.019523,-0.001339,0.004015,-0.005203,0.000106,0.000918,0.020312,-0.511423,0.002081,-0.133212,-260.748038,0.091415,66.322944
4.2674,0.019634,-0.001509,0.001459,-0.0052,0.000106,0.000551,0.021452,-0.511342,0.003846,-0.133212,-260.748038,0.091415,66.322944
4.2871,0.019103,-0.001308,0.001743,-0.005198,0.000106,0.000282,0.021452,-0.511342,0.003846,-0.133212,-260.748038,0.091415,66.322944
4.3076,0.019043,-0.001355,0.002613,-0.005198,0.000106,0.000282,0.019775,-0.511303,0.001781,-0.127497,-260.750134,0.087116,66.320857
4.3276,0.019502,-0.001516,0.002433,-0.005201,9.5e-05,0.000847,0.019995,-0.511323,0.002126,-0.127497,-260.750134,0.087116,66.320857
4.3471,0.018758,-0.002029,0.004088,-0.005202,9e-05,0.00101,0.020604,-0.511512,0.00244,-0.053537,-260.751887,0.012619,66.319106
4.3674,0.01881,-0.001501,0.003167,-0.005197,0.000124,0.000578,0.020616,-0.51198,0.003965,-0.053537,-260.751887,0.012619,66.319106
4.3873,0.018805,-0.00076,0.002991,-0.005193,0.000154,0.000258,0.020616,-0.51198,0.003965,-0.053537,-260.751887,0.012619,66.319106
4.4073,0.018882,-0.001461,0.002511,-0.005193,0.000154,0.000258,0.020158,-0.510755,0.003021,-0.128889,-260.753547,0.087971,66.317453
4.4272,0.018688,-0.00152,0.003074,-0.005197,0.000112,0.00041,0.02014,-0.511046,0.002814,-0.128889,-260.753547,0.087971,66.317453
4.4473,0.01835,-0.001621,0.003234,-0.005198,9.6e-05,0.000453,0.020121,-0.511515,0.003083,-0.05989,-260.755251,0.013277,66.315752
4.4673,0.018517,-0.001355,0.002934,-0.005196,0.000113,0.000357,0.020003,-0.511609,0.003221,-0.05989,-260.755251,0.013277,66.315752
4.4881,0.018421,-0.001675,0.001565,-0.005195,0.000128,0.000288,0.020003,-0.511609,0.003221,-0.05989,-260.755251,0.013277,66.315752
4.5075,0.018217,-0.001486,0.001826,-0.005195,0.000128,0.000288,0.019004,-0.511671,0.001583,-0.071654,-260.757319,0.03465,66.313689
4.5275,0.017857,-0.001364,0.003874,-0.005193,0.000136,0.001132,0.019038,-0.511594,0.001685,-0.071654,-260.757319,0.03465,66.313689
4.5478,0.017888,-0.001432,0.001521,-0.005192,0.000139,0.001371,0.01967,-0.511357,0.003883,-0.058342,-260.759373,0.009266,66.311637
4.5673,0.017951,-0.001612,0.00256,-0.005192,0.000134,0.001521,0.018742,-0.511425,0.001723,-0.058342,-260.759373,0.009266,66.311637
4.5876,0.017889,-0.001637,0.002275,-0.005192,0.00013,0.001625,0.018742,-0.511425,0.001723,-0.058342,-260.759373,0.009266,66.311637
4.6077,0.017716,-0.001679,0.00214,-0.005192,0.00013,0.001625,0.018918,-0.511632,0.002298,-0.133367,-260.760642,0.08429,66.310379
4.6275,0.017907,-0.001478,0.001406,-0.005189,0.000151,0.001414,0.018857,-0.511651,0.002236,-0.133367,-260.760642,0.08429,66.310379
4.6474,0.0173,-0.001358,0.001814,-0.005188,0.00016,0.00135,0.018489,-0.511475,0.001447,-0.208336,-260.762374,0.159259,66.308663
4.6675,0.01751,-0.001549,0.002436,-0.005189,0.000151,0.001472,0.018241,-0.511367,0.001785,-0.208336,-260.762374,0.159259,66.308663
4.6872,0.017412,-0.001459,0.004506,-0.005189,0.000144,0.001558,0.018241,-0.511367,0.001785,-0.208336,-260.762374,0.159259,66.308663
4.7072,0.017431,-0.001524,0.005044,-0.005189,0.000144,0.001558,0.019498,-0.511449,0.004561,-0.187433,-260.764435,0.127409,66.306622
4.7275,0.017144,-0.001351,0.001953,-0.005187,0.000146,0.000283,0.019679,-0.511476,0.004764,-0.187433,-260.764435,0.127409,66.306622
4.747,0.016618,-0.001451,0.00292,-0.005184,0.000153,-0.000128,0.017977,-0.511346,0.002001,-0.208014,-260.766517,0.154364,66.30456
4.7675,0.016776,-0.001703,0.001505,-0.005186,0.000159,6.2e-05,0.018087,-0.511439,0.00284,-0.208014,-260.766517,0.154364,66.30456
4.7877,0.016444,-0.001328,0.00303,-0.005186,0.000163,0.000196,0.018087,-0.511439,0.00284,-0.208014,-260.766517,0.154364,66.30456
4.8075,0.016775,-0.001595,0.002031,-0.005186,0.000163,0.000196,0.017927,-0.511324,0.003041,-0.133008,-260.767117,0.079359,66.303959
4.8275,0.016589,-0.001192,0.00277,-0.005187,0.000169,0.000476,0.017872,-0.511435,0.002626,-0.133008,-260.767117,0.079359,66.303959
4.8473,0.01642,-0.001203,0.002002,-0.005187,0.000172,0.000556,0.01787,-0.511187,0.002776,-0.057882,-260.768781,0.004233,66.302298
4.8672,0.016714,-0.000737,0.003632,-0.005188,0.000159,0.000811,0.017471,-0.511201,0.002068,-0.057882,-260.768781,0.004233,66.302298
4.8871,0.016603,-0.001324,0.003355,-0.005188,0.000147,0.000989,0.017471,-0.511201,0.002068,-0.057882,-260.768781,0.004233,66.302298
4.9071,0.015803,-0.001422,0.003437,-0.005188,0.000147,0.000989,0.018106,-0.511314,0.003378,-0.098302,-260.770786,0.03236,66.300301
4.9275,0.016246,-0.001428,0.002642,-0.005183,0.00016,0.000467,0.017854,-0.511357,0.003405,-0.098302,-260.770786,0.03236,66.300301
4.9474,0.016089,-0.001321,0.002648,-0.005181,0.000166,0.000309,0.017442,-0.511422,0.002671,-0.143887,-260.772717,0.087816,66.298383
4.9673,0.016238,-0.001693,0.002554,-0.005182,0.000165,0.000426,0.017432,-0.511328,0.002652,-0.143887,-260.772717,0.087816,66.298383
4.9874,0.015649,-0.001444,0.003196,-0.005182,0.000164,0.000509,0.017432,-0.511328,0.002652,-0.143887,-260.772717,0.087816,66.298383
5.0071,0.016067,-0.001606,0.003281,-0.005182,0.000164,0.000509,0.017103,-0.511437,0.003208,-0.068904,-260.774413,0.012834,66.296691
5.0275,0.015773,-0.001296,0.002905,-0.005178,0.000191,0.000296,0.017346,-0.511506,0.00324,-0.068904,-260.774413,0.012834,66.296691
5.0474,0.015436,-0.001384,0.004035,-0.005176,0.000201,0.000232,0.017092,-0.511289,0.002921,-0.091527,-260.776469,0.028298,66.294643
5.0673,0.015391,-0.001514,0.002793,-0.005174,0.000205,-1e-06,0.017451,-0.511372,0.00394,-0.091527,-260.776469,0.028298,66.294643
5.0872,0.015533,-0.00092,0.001924,-0.005172,0.000209,-0.00017,0.017451,-0.511372,0.00394,-0.091527,-260.776469,0.028298,66.294643
5.1073,0.015203,-0.001429,0.004356,-0.005172,0.000209,-0.00017,0.016305,-0.510911,0.001933,-0.066175,-260.778474,-0.01142,66.292643
5.1274,0.015263,-0.001425,0.001487,-0.005176,0.000184,0.000115,0.016743,-0.511122,0.002935,-0.066175,-260.778474,-0.01142,66.292643
5.1473,0.015138,-0.001251,0.004491,-0.005177,0.000175,0.000199,0.015869,-0.511418,0.001482,-0.020326,-260.780394,-0.060491,66.290719
5.1675,0.014839,-0.001153,0.002299,-0.005174,0.000179,-8.8e-05,0.017279,-0.511261,0.004217,-0.020326,-260.780394,-0.060491,66.290719
5.1875,0.01524,-0.0015,0.002803,-0.005172,0.000183,-0.000297,0.017279,-0.511261,0.004217,-0.020326,-260.780394,-0.060491,66.290719
5.2074,0.014832,-0.001514,0.004409,-0.005172,0.000183,-0.000297,0.016466,-0.511492,0.00281,-0.057125,-260.782349,-0.010308,66.288767
5.2274,0.014679,-0.001098,0.002456,-0.00517,0.000214,-0.000223,0.016696,-0.511498,0.003471,-0.057125,-260.782349,-0.010308,66.288767
5.2472,0.014414,-0.001305,0.002268,-0.005169,0.000227,-0.0002,0.015785,-0.511092,0.002448,-0.000267,-260.784201,-0.070273,66.28691
5.2674,0.014358,-0.001349,0.003468,-0.00517,0.000222,0.000204,0.015582,-0.511286,0.002283,-0.000267,-260.784201,-0.070273,66.28691
5.2873,0.014332,-0.001282,0.003236,-0.00517,0.000218,0.000487,0.015582,-0.511286,0.002283,-0.000267,-260.784201,-0.070273,66.28691
5.3074,0.014197,-0.00141,0.003685,-0.00517,0.000218,0.000487,0.015768,-0.511271,0.003228,-0.020136,-260.786258,-0.067394,66.28485
5.3274,0.014522,-0.001419,0.004251,-0.005165,0.000228,0.000202,0.015871,-0.511326,0.003417,-0.020136,-260.786258,-0.067394,66.28485
5.3478,0.013994,-0.001639,0.002907,-0.005164,0.000232,0.000116,0.016557,-0.511409,0.004262,-0.095203,-260.787938,0.007673,66.283177
5.3676,0.014337,-0.001149,0.0032,-0.005162,0.000253,0.000171,0.015566,-0.511616,0.003028,-0.095203,-260.787938,0.007673,66.283177
5.3875,0.013792,-0.001233,0.003549,-0.00516,0.00027,0.000209,0.015566,-0.511616,0.003028,-0.095203,-260.787938,0.007673,66.283177
5.4075,0.01362,-0.00124,0.004581,-0.00516,0.00027,0.000209,0.015396,-0.511221,0.003554,-0.058686,-260.789918,-0.031261,66.281199
5.4276,0.013523,-0.001128,0.003502,-0.005156,0.000262,-0.000198,0.015603,-0.511226,0.003979,-0.058686,-260.789918,-0.031261,66.281199
5.4475,0.013471,-0.001634,0.00352,-0.005155,0.00026,-0.000322,0.015146,-0.511117,0.003508,-0.077041,-260.791976,-0.027606,66.279147
5.4673,0.013459,-0.001272,0.003876,-0.005153,0.00028,-0.000287,0.015247,-0.511587,0.003519,-0.077041,-260.791976,-0.027606,66.279147
5.4875,0.013693,-0.001286,0.004246,-0.005151,0.000298,-0.000261,0.015247,-0.511587,0.003519,-0.077041,-260.791976,-0.027606,66.279147
5.5072,0.013181,-0.001584,0.002999,-0.005151,0.000298,-0.000261,0.015668,-0.511273,0.004234,-0.012189,-260.793793,-0.088269,66.277323
5.5272,0.013196,-0.001032,0.003018,-0.005149,0.000306,-0.000327,0.015252,-0.511399,0.003724,-0.012189,-260.793793,-0.088269,66.277323
5.5475,0.013094,-0.001606,0.00245,-0.005148,0.000309,-0.000347,0.014572,-0.511021,0.00301,-0.026913,-260.795845,-0.088545,66.275264
5.5672,0.012993,-0.001651,0.003625,-0.005148,0.000319,2.3e-05,0.014356,-0.511551,0.0025,-0.026913,-260.795845,-0.088545,66.275264
5.5871,0.013275,-0.00122,0.002979,-0.005147,0.000328,0.000281,0.014356,-0.511551,0.0025,-0.026913,-260.795845,-0.088545,66.275264
5.6072,0.012681,-0.001258,0.003176,-0.005147,0.000328,0.000281,0.01458,-0.511206,0.002965,-0.018801,-260.7979,-0.100714,66.273199
5.6275,0.012854,-0.001514,0.003509,-0.005147,0.000307,0.000282,0.01444,-0.511225,0.003049,-0.018801,-260.7979,-0.100714,66.273199
5.6478,0.012567,-0.001421,0.003473,-0.005147,0.000299,0.000281,0.014507,-0.511503,0.003516,-0.093894,-260.799634,-0.030386,66.271472
5.6675,0.012574,-0.000989,0.001892,-0.005144,0.000309,0.000155,0.014347,-0.511425,0.003477,-0.093894,-260.799634,-0.030386,66.271472
5.6875,0.012577,-0.001311,0.002632,-0.005142,0.000318,6.4e-05,0.014347,-0.511425,0.003477,-0.093894,-260.799634,-0.030386,66.271472
5.7074,0.012272,-0.001361,0.004373,-0.005142,0.000318,6.4e-05,0.013705,-0.511297,0.002643,-0.091134,-260.801698,-0.024676,66.269416
5.7279,0.012575,-0.001413,0.004047,-0.005139,0.000322,1.3e-05,0.014005,-0.51132,0.00335,-0.091134,-260.801698,-0.024676,66.269416
5.747,0.012289,-0.001006,0.002403,-0.005138,0.000323,-2e-06,0.014479,-0.511399,0.004049,-0.069269,-260.803715,-0.054239,66.267401
5.7677,0.011997,-0.00114,0.002235,-0.00514,0.000301,0.000241,0.013593,-0.511039,0.002551,-0.069269,-260.803715,-0.054239,66.267401
5.7874,0.011846,-0.001043,0.005303,-0.005141,0.000282,0.000411,0.013593,-0.511039,0.002551,-0.069269,-260.803715,-0.054239,66.267401
5.8073,0.012002,-0.001125,0.002912,-0.005141,0.000282,0.000411,0.014336,-0.511023,0.005303,-0.06261,-260.80577,-0.063009,66.265346
5.8276,0.011862,-0.001374,0.001913,-0.005136,0.00027,-0.00023,0.013967,-0.511062,0.004333,-0.06261,-260.80577,-0.063009,66.265346
5.8475,0.011518,-0.0014,0.003687,-0.005134,0.000266,-0.000429,0.012686,-0.511365,0.001925,-0.103362,-260.807681,-0.006044,66.263445
5.8675,0.011432,-0.001206,0.003513,-0.005132,0.000289,-0.000366,0.013327,-0.511394,0.003529,-0.103362,-260.807681,-0.006044,66.263445
5.8872,0.012131,-0.001224,0.003834,-0.00513,0.000308,-0.000322,0.013327,-0.511394,0.003529,-0.103362,-260.807681,-0.006044,66.263445
5.9075,0.011538,-0.001286,0.003492,-0.00513,0.000308,-0.000322,0.01393,-0.511212,0.003827,-0.028361,-260.809179,-0.081045,66.261939
5.9276,0.01137,-0.000942,0.003034,-0.005128,0.000314,-0.000343,0.01366,-0.511241,0.003688,-0.028361,-260.809179,-0.081045,66.261939
5.9473,0.011237,-0.001016,0.002926,-0.005128,0.000316,-0.000349,0.012755,-0.510931,0.003024,-0.021767,-260.81122,-0.098016,66.259889
5.967,0.010973,-0.001174,0.003604,-0.005129,0.000301,-0.000128,0.012724,-0.511006,0.002934,-0.021767,-260.81122,-0.098016,66.259889
5.9871,0.010981,-0.001041,0.0018,-0.005129,0.000289,2.7e-05,0.012724,-0.511006,0.002934,-0.021767,-260.81122,-0.098016,66.259889
6.0073,0.010575,-0.001454,0.00299,-0.005129,0.000289,2.7e-05,0.011685,-0.511027,0.001785,-0.019996,-260.813275,-0.102753,66.257824
6.0275,0.010851,-0.001191,0.002356,-0.005122,0.000305,0.00059,0.011832,-0.511203,0.002285,-0.019996,-260.813275,-0.102753,66.257824
6.0474,0.010465,-0.001073,0.002735,-0.005119,0.000311,0.00075,0.0119,-0.511181,0.002357,-0.05949,-260.815194,-0.053016,66.255905
6.0676,0.01041,-0.001317,0.003885,-0.005115,0.000309,0.00072,0.011855,-0.51108,0.002701,-0.05949,-260.815194,-0.053016,66.255905
6.0877,0.010848,-0.001067,0.004062,-0.005113,0.000306,0.000698,0.011855,-0.51108,0.002701,-0.05949,-260.815194,-0.053016,66.255905
6.1073,0.010397,-0.000913,0.003364,-0.005113,0.000306,0.000698,0.012751,-0.511054,0.004083,-0.13423,-260.816838,0.021724,66.254278
6.1279,0.010489,-0.001044,0.003674,-0.005109,0.000292,0.000135,0.012461,-0.510992,0.003782,-0.13423,-260.816838,0.021724,66.254278
6.1473,0.009999,-0.00099,0.002938,-0.005107,0.000287,-3.6e-05,0.012201,-0.511031,0.003696,-0.142327,-260.818893,0.023405,66.252244
6.1673,0.009918,-0.000731,0.001666,-0.005106,0.000286,6.3e-05,0.01155,-0.510991,0.003005,-0.142327,-260.818893,0.023405,66.252244
6.1873,0.010242,-0.000982,0.003171,-0.005105,0.000284,0.000133,0.01155,-0.510991,0.003005,-0.142327,-260.818893,0.023405,66.252244
6.2073,0.010116,-0.00101,0.004677,-0.005105,0.000284,0.000133,0.011692,-0.51097,0.003173,-0.067674,-260.820493,-0.051247,66.250643
6.2275,0.010007,-0.001319,0.001969,-0.005101,0.000283,-0.000165,0.012003,-0.510983,0.003788,-0.067674,-260.820493,-0.051247,66.250643
6.2473,0.009903,-0.001162,0.003432,-0.005099,0.000283,-0.000255,0.010849,-0.511309,0.001973,-0.07151,-260.822536,-0.039782,66.248604
6.2677,0.009609,-0.001394,0.002206,-0.005097,0.000301,-0.000182,0.011573,-0.511172,0.003302,-0.07151,-260.822536,-0.039782,66.248604
6.2879,0.009806,-0.001062,0.004064,-0.005096,0.000316,-0.00013,0.011573,-0.511172,0.003302,-0.07151,-260.822536,-0.039782,66.248604
6.3072,0.009565,-0.001071,0.002342,-0.005096,0.000316,-0.00013,0.011678,-0.511048,0.004054,-0.025074,-260.824441,-0.085863,66.246692
6.3279,0.009377,-0.001318,0.002659,-0.005091,0.000325,-0.000104,0.011291,-0.511055,0.003373,-0.025074,-260.824441,-0.085863,66.246692
6.3481,0.009307,-0.000915,0.003335,-0.005089,0.000329,-9.6e-05,0.010571,-0.511307,0.002655,-0.046365,-260.826464,-0.077295,66.244665
6.3674,0.009124,-0.001256,0.003185,-0.005087,0.000325,-5.9e-05,0.010954,-0.510952,0.003265,-0.046365,-260.826464,-0.077295,66.244665
6.3873,0.009208,-0.00061,0.002181,-0.005085,0.000321,-3.4e-05,0.010954,-0.510952,0.003265,-0.046365,-260.826464,-0.077295,66.244665
6.4074,0.008943,-0.000991,0.004391,-0.005085,0.000321,-3.4e-05,0.010107,-0.510595,0.002177,-0.053032,-260.828501,-0.075953,66.242625
6.4281,0.009292,-0.001206,0.003387,-0.00508,0.000286,9.4e-05,0.01052,-0.510753,0.003077,-0.053032,-260.828501,-0.075953,66.242625
6.447,0.00855,-0.001158,0.002781,-0.005077,0.000272,0.000131,0.010858,-0.511194,0.003386,-0.059134,-260.830534,-0.067152,66.240591
6.4675,0.008509,-0.001018,0.003351,-0.005069,0.000306,0.000233,0.01004,-0.511159,0.002835,-0.059134,-260.830534,-0.067152,66.240591
6.4873,0.008638,-0.001157,0.001627,-0.005061,0.000333,0.000305,0.01004,-0.511159,0.002835,-0.059134,-260.830534,-0.067152,66.240591
6.5076,0.008508,-0.001195,0.003494,-0.005061,0.000333,0.000305,0.009258,-0.511146,0.001632,-0.069222,-260.83254,-0.037834,66.238589
6.5282,0.008458,-0.000903,0.005028,-0.005044,0.00038,0.000643,0.009654,-0.511163,0.002391,-0.069222,-260.83254,-0.037834,66.238589
6.547,0.007931,-0.00137,0.003939,-0.005036,0.000398,0.00074,0.010861,-0.510887,0.005037,-0.102334,-260.834536,-0.029042,66.236602
6.5671,0.008323,-0.001064,0.001591,-0.005027,0.000432,0.000339,0.010017,-0.511322,0.00404,-0.102334,-260.834536,-0.029042,66.236602
6.5872,0.008343,-0.000787,0.004956,-0.005019,0.000461,4.4e-05,0.010017,-0.511322,0.00404,-0.102334,-260.834536,-0.029042,66.236602
6.6074,0.007954,-0.001205,0.003524,-0.005019,0.000461,4.4e-05,0.010678,-0.510767,0.004984,-0.167104,-260.836399,0.010764,66.234765
6.6278,0.008043,-0.001169,0.002448,-0.005018,0.000432,-0.000465,0.010278,-0.510943,0.004392,-0.167104,-260.836399,0.010764,66.234765
6.647,0.007758,-0.000746,0.002351,-0.005018,0.000422,-0.000622,0.009163,-0.511157,0.002451,-0.096891,-260.838008,-0.064242,66.233157
6.6675,0.007774,-0.000799,0.002269,-0.005011,0.000399,-0.000131,0.008968,-0.510778,0.00236,-0.096891,-260.838008,-0.064242,66.233157
6.6873,0.008413,-0.000899,0.004258,-0.005005,0.000379,0.000211,0.008968,-0.510778,0.00236,-0.096891,-260.838008,-0.064242,66.233157
6.7074,0.007579,-0.000661,0.004006,-0.005005,0.000379,0.000211,0.010424,-0.510882,0.004242,-0.021602,-260.839538,-0.139531,66.231608
6.7275,0.007411,-0.001349,0.002711,-0.005007,0.000349,-0.000276,0.010077,-0.510789,0.004144,-0.021602,-260.839538,-0.139531,66.231608
6.7471,0.007427,-0.001047,0.004369,-0.005008,0.000339,-0.000426,0.008667,-0.511337,0.002714,-0.096307,-260.841137,-0.064826,66.230015
6.7673,0.00715,-0.000629,0.0037,-0.005002,0.000367,-0.000553,0.009558,-0.511069,0.004218,-0.096307,-260.841137,-0.064826,66.230015
6.787,0.007276,-0.001082,0.002522,-0.004996,0.000391,-0.000645,0.009558,-0.511069,0.004218,-0.096307,-260.841137,-0.064826,66.230015
6.8072,0.007301,-0.000822,0.000968,-0.004996,0.000391,-0.000645,0.008383,-0.511068,0.002508,-0.021301,-260.84286,-0.119051,66.228281
6.8275,0.00731,-0.000639,0.002736,-0.004956,0.000421,0.000525,0.008122,-0.510966,0.001878,-0.021301,-260.84286,-0.119051,66.228281
6.8475,0.007264,-0.001149,0.00313,-0.00494,0.000431,0.000856,0.008551,-0.510626,0.002716,0.00064,-260.844801,-0.155785,66.226316
6.8674,0.006745,-0.001068,0.002504,-0.004935,0.000451,0.00067,0.008824,-0.511099,0.003092,0.00064,-260.844801,-0.155785,66.226316
6.8874,0.007103,-0.001159,0.002487,-0.004931,0.000467,0.000534,0.008824,-0.511099,0.003092,0.00064,-260.844801,-0.155785,66.226316
6.9075,0.006963,-0.001065,0.001866,-0.004931,0.000467,0.000534,0.008301,-0.511152,0.002487,-0.074354,-260.845485,-0.080791,66.225644
6.9272,0.006906,-0.000897,0.004406,-0.004907,0.000507,0.000846,0.008135,-0.511115,0.002233,-0.074354,-260.845485,-0.080791,66.225644
6.9473,0.006661,-0.000827,0.003078,-0.004897,0.000521,0.000934,0.009019,-0.51088,0.004419,-0.149395,-260.847187,-0.028557,66.223962
6.9675,0.006441,-0.001111,0.004457,-0.004892,0.0005,0.000685,0.008295,-0.510829,0.003199,-0.149395,-260.847187,-0.028557,66.223962
6.9873,0.006672,-0.000732,0.003497,-0.004889,0.000483,0.000505,0.008295,-0.510829,0.003199,-0.149395,-260.847187,-0.028557,66.223962
7.0072,0.006479,-0.000917,0.00294,-0.004889,0.000483,0.000505,0.00827,-0.51071,0.003533,-0.219412,-260.848999,0.010087,66.222194
7.0281,0.006589,-0.00087,0.004289,-0.004878,0.000454,0.000233,0.008129,-0.510792,0.003295,-0.219412,-260.848999,0.010087,66.222194
7.0471,0.006271,-0.000695,0.005341,-0.004874,0.000443,0.000152,0.008632,-0.510851,0.004304,-0.160384,-260.85081,-0.0357,66.220405
7.0677,0.006216,-0.000283,0.003325,-0.004883,0.000412,-0.000327,0.008954,-0.510702,0.005246,-0.160384,-260.85081,-0.0357,66.220405
7.0874,0.006025,-0.000594,0.005062,-0.004891,0.00039,-0.000686,0.008954,-0.510702,0.005246,-0.160384,-260.85081,-0.0357,66.220405
7.1074,0.006026,-0.000901,0.002805,-0.004891,0.00039,-0.000686,0.008415,-0.510571,0.005068,-0.10958,-260.852658,-0.071797,66.218564
7.1275,0.005916,-0.000381,0.004158,-0.004873,0.000385,-0.000757,0.007997,-0.510704,0.004135,-0.10958,-260.852658,-0.071797,66.218564
7.1471,0.005721,-0.000982,0.004926,-0.004867,0.000383,-0.000778,0.007926,-0.510367,0.004148,-0.034392,-260.854036,-0.146985,66.217167
7.1672,0.005801,-0.000669,0.00355,-0.004861,0.000409,-0.000953,0.008201,-0.510923,0.004858,-0.034392,-260.854036,-0.146985,66.217167
7.1872,0.005831,-0.000839,0.004078,-0.004857,0.000431,-0.001081,0.008201,-0.510923,0.004858,-0.034392,-260.854036,-0.146985,66.217167
7.2072,0.005247,-0.000764,0.002669,-0.004857,0.000431,-0.001081,0.007719,-0.510821,0.004047,0.01904,-260.85587,-0.174458,66.215305
7.2271,0.005858,-0.000955,0.003237,-0.004815,0.000451,-0.000649,0.007245,-0.510795,0.003483,0.01904,-260.85587,-0.174458,66.215305
7.2474,0.005442,-0.00109,0.001223,-0.004798,0.000458,-0.000521,0.007361,-0.51094,0.003204,0.047276,-260.857726,-0.22093,66.213405
7.2676,0.005368,-0.001111,0.002138,-0.004728,0.000526,0.000345,0.006173,-0.511076,0.001397,0.047276,-260.857726,-0.22093,66.213405
7.2872,0.005555,-0.000672,0.00234,-0.004671,0.000575,0.000942,0.006173,-0.511076,0.001397,0.047276,-260.857726,-0.22093,66.213405
7.3073,0.005106,-0.000985,0.003225,-0.004671,0.000575,0.000942,0.006576,-0.510654,0.002321,-0.027761,-260.859375,-0.160351,66.211735
7.3271,0.005357,-0.001032,0.0035,-0.004636,0.000549,0.000789,0.006628,-0.510787,0.00269,-0.027761,-260.859375,-0.160351,66.211735
7.3472,0.00485,-0.000765,0.004315,-0.004622,0.000539,0.00074,0.007095,-0.511025,0.003501,-0.102765,-260.859984,-0.085346,66.211143
7.3671,0.004849,-0.000535,0.002012,-0.004624,0.000529,0.000292,0.007052,-0.510783,0.004243,-0.102765,-260.859984,-0.085346,66.211143
7.3871,0.004932,-0.001314,0.00292,-0.004626,0.000522,-4e-05,0.007052,-0.510783,0.004243,-0.102765,-260.859984,-0.085346,66.211143
7.4073,0.004743,-0.000616,0.001029,-0.004626,0.000522,-4e-05,0.006272,-0.511297,0.00294,-0.177774,-260.861443,-0.018774,66.209717
7.4273,0.005011,-0.000167,0.004121,-0.004519,0.000613,0.000598,0.005844,-0.511017,0.002161,-0.177774,-260.861443,-0.018774,66.209717
7.447,0.004701,-0.000316,0.002125,-0.004479,0.000643,0.00078,0.006996,-0.510151,0.004122,-0.107126,-260.862912,-0.093722,66.208246
7.467,0.005006,-0.00052,0.00127,-0.004456,0.000534,0.00085,0.005887,-0.510299,0.002302,-0.107126,-260.862912,-0.093722,66.208246
7.4872,0.004741,-0.000681,0.003975,-0.004436,0.000446,0.000899,0.005887,-0.510299,0.002302,-0.107126,-260.862912,-0.093722,66.208246
7.5073,0.004808,-0.00068,0.003037,-0.004436,0.000446,0.000899,0.006636,-0.510663,0.003991,-0.182179,-260.864205,-0.037193,66.206991
7.5273,0.004566,-0.000776,0.00238,-0.004456,0.000437,0.000291,0.006507,-0.510667,0.003605,-0.182179,-260.864205,-0.037193,66.206991
7.5472,0.004025,-0.000657,0.002481,-0.004464,0.000435,0.000106,0.005649,-0.510762,0.002407,-0.220578,-260.865881,0.023205,66.205355
7.5673,0.00463,-0.00042,0.002498,-0.0044,0.000449,0.000307,0.005316,-0.510664,0.002476,-0.220578,-260.865881,0.023205,66.205355
7.5871,0.004468,-0.00055,0.003532,-0.004348,0.000458,0.000448,0.005316,-0.510664,0.002476,-0.220578,-260.865881,0.023205,66.205355
7.6072,0.00407,-0.000356,0.003368,-0.004348,0.000458,0.000448,0.00614,-0.510534,0.003542,-0.145523,-260.867121,-0.051849,66.204119
7.6277,0.004284,-0.000459,0.003049,-0.00435,0.000392,0.000105,0.005981,-0.510459,0.003472,-0.145523,-260.867121,-0.051849,66.204119
7.6471,0.003864,-0.001035,0.004373,-0.004351,0.000369,3e-06,0.005702,-0.510442,0.003063,-0.166853,-260.868871,-0.042422,66.202391
7.6679,0.003919,-0.000612,0.001484,-0.004346,0.000444,-0.000262,0.006053,-0.510979,0.00426,-0.166853,-260.868871,-0.042422,66.202391
7.6876,0.003954,-0.000446,0.002764,-0.004343,0.000505,-0.000456,0.006053,-0.510979,0.00426,-0.166853,-260.868871,-0.042422,66.202391
7.7074,0.003712,-0.000813,0.002538,-0.004343,0.000505,-0.000456,0.005205,-0.510431,0.002765,-0.091826,-260.870395,-0.084112,66.200868
7.7274,0.003391,-0.000638,0.002324,-0.004237,0.000481,5.5e-05,0.005106,-0.510583,0.002674,-0.091826,-260.870395,-0.084112,66.200868
7.7476,0.003249,-0.000772,0.002909,-0.004198,0.000471,0.000206,0.004459,-0.510624,0.002314,-0.052124,-260.871866,-0.15902,66.199374
7.7677,0.00382,-0.000592,0.002798,-0.004125,0.00051,0.000247,0.004703,-0.510757,0.002856,-0.052124,-260.871866,-0.15902,66.199374
7.7873,0.003312,-0.000551,0.001904,-0.004066,0.000541,0.000277,0.004703,-0.510757,0.002856,-0.052124,-260.871866,-0.15902,66.199374
7.8078,0.003567,-0.000697,0.002327,-0.004066,0.000541,0.000277,0.004142,-0.510536,0.001909,-0.127234,-260.873224,-0.08391,66.198026
7.8276,0.003325,-0.000684,0.002934,-0.003922,0.000519,0.00076,0.004376,-0.510599,0.00208,-0.127234,-260.873224,-0.08391,66.198026
7.8475,0.00324,-0.000539,0.003571,-0.00387,0.000509,0.000901,0.004697,-0.510665,0.002942,-0.172852,-260.874819,-0.091052,66.196448
7.8676,0.003078,-0.000947,0.003398,-0.003885,0.000488,0.00056,0.005022,-0.510546,0.003514,-0.172852,-260.874819,-0.091052,66.196448
7.8874,0.003353,-0.000353,0.002484,-0.003896,0.000472,0.000312,0.005022,-0.510546,0.003514,-0.172852,-260.874819,-0.091052,66.196448
7.9073,0.003034,-0.000488,0.003896,-0.003896,0.000472,0.000312,0.004501,-0.510336,0.002507,-0.247786,-260.876,-0.016118,66.195309
7.9273,0.00319,-0.00044,0.003493,-0.003868,0.000396,0.000206,0.004702,-0.510395,0.003084,-0.247786,-260.876,-0.016118,66.195309
7.9472,0.003101,-0.000452,0.003189,-0.003857,0.000369,0.000176,0.004864,-0.510424,0.003502,-0.172656,-260.877364,-0.072161,66.193961
7.968,0.002975,-0.000567,0.001923,-0.00385,0.00036,0.000117,0.004733,-0.510447,0.003213,-0.172656,-260.877364,-0.072161,66.193961
7.9876,0.002716,-0.0006,0.004053,-0.003845,0.000352,7.6e-05,0.004733,-0.510447,0.003213,-0.172656,-260.877364,-0.072161,66.193961
8.0077,0.002492,-0.00043,0.002943,-0.003845,0.000352,7.6e-05,0.004628,-0.510582,0.00406,-0.122909,-260.87886,-0.067728,66.192472
8.0274,0.002683,-0.000458,0.001885,-0.003759,0.000385,-0.00017,0.004339,-0.510515,0.003584,-0.122909,-260.87886,-0.067728,66.192472
8.0476,0.002245,-0.0004,0.004366,-0.003728,0.000396,-0.000242,0.003524,-0.510446,0.001887,-0.103224,-260.880385,-0.079353,66.19095
8.0677,0.002828,-0.000395,0.003173,-0.003707,0.000379,-0.00044,0.004385,-0.510399,0.004155,-0.103224,-260.880385,-0.079353,66.19095
8.0875,0.002477,-0.000663,0.002397,-0.00369,0.000366,-0.000583,0.004385,-0.510399,0.004155,-0.103224,-260.880385,-0.079353,66.19095
8.1074,0.00237,-0.000848,0.003683,-0.00369,0.000366,-0.000583,0.003558,-0.510647,0.002388,-0.066484,-260.881751,-0.144731,66.189574
8.1275,0.002192,-0.000445,0.003115,-0.003538,0.000494,-0.000161,0.003823,-0.510726,0.002916,-0.066484,-260.881751,-0.144731,66.189574
8.1474,0.002129,-0.000335,0.002344,-0.003484,0.000537,-3.6e-05,0.003675,-0.510432,0.003098,-0.002671,-260.88308,-0.193338,66.188219
8.1672,0.00209,-0.000359,0.004181,-0.003374,0.000473,0.0002,0.003351,-0.510342,0.002413,-0.002671,-260.88308,-0.193338,66.188219
8.1874,0.002433,-0.000249,0.003214,-0.003287,0.000422,0.000368,0.003351,-0.510342,0.002413,-0.002671,-260.88308,-0.193338,66.188219
8.2074,0.002231,-9.2e-05,0.004296,-0.003287,0.000422,0.000368,0.003969,-0.510234,0.003207,-0.077533,-260.884071,-0.159016,66.187226
8.2274,0.002202,-0.000549,0.00452,-0.003352,0.000281,-4.6e-05,0.004141,-0.510173,0.003649,-0.077533,-260.884071,-0.159016,66.187226
8.2474,0.002121,-7.8e-05,0.002673,-0.003376,0.000232,-0.000171,0.004436,-0.510536,0.004524,-0.152504,-260.884991,-0.084046,66.186322
8.2671,0.001812,-0.000357,0.004166,-0.003322,0.000175,-3.2e-05,0.003567,-0.510118,0.002841,-0.152504,-260.884991,-0.084046,66.186322
8.2875,0.001835,-0.000247,0.002293,-0.00328,0.00013,6.7e-05,0.003567,-0.510118,0.002841,-0.152504,-260.884991,-0.084046,66.186322
8.3071,0.001997,-0.000416,0.002144,-0.00328,0.00013,6.7e-05,0.002891,-0.510236,0.002291,-0.077487,-260.886082,-0.099249,66.185227
8.327,0.001795,-0.000574,0.003141,-0.003035,0.000157,0.000526,0.002959,-0.510307,0.002231,-0.077487,-260.886082,-0.099249,66.185227
8.347,0.001424,-0.000215,0.00429,-0.002951,0.000164,0.000659,0.003303,-0.510568,0.003143,-0.05204,-260.887279,-0.026985,66.18403
8.3674,0.001373,-0.000513,0.002751,-0.002981,0.000157,0.000206,0.003581,-0.51024,0.004193,-0.05204,-260.887279,-0.026985,66.18403
8.3872,0.001761,-0.000407,0.002715,-0.003005,0.000152,-0.000128,0.003581,-0.51024,0.004193,-0.05204,-260.887279,-0.026985,66.18403
8.4072,0.001513,-0.00026,0.004401,-0.003005,0.000152,-0.000128,0.00307,-0.510402,0.002726,-0.12716,-260.888016,0.048135,66.183305
8.4274,0.001504,-0.000547,0.002416,-0.002981,0.000193,-0.00021,0.003346,-0.510341,0.003421,-0.12716,-260.888016,0.048135,66.183305
8.4474,0.00141,-0.000427,0.004311,-0.002973,0.000207,-0.000235,0.002673,-0.510543,0.002418,-0.052158,-260.888806,-0.026867,66.182512
8.4674,0.001465,-0.000358,0.003781,-0.002989,0.000244,-0.000433,0.003515,-0.510433,0.00413,-0.052158,-260.888806,-0.026867,66.182512
8.4875,0.001467,-0.000269,0.002477,-0.003002,0.000273,-0.000577,0.003515,-0.510433,0.00413,-0.052158,-260.888806,-0.026867,66.182512
8.5071,0.001303,-0.00017,0.004669,-0.003002,0.000273,-0.000577,0.002623,-0.510261,0.002469,-0.021464,-260.889836,-0.101737,66.181475
8.5272,0.000892,-6.4e-05,0.00392,-0.002894,0.000213,-0.00043,0.003049,-0.510221,0.003379,-0.021464,-260.889836,-0.101737,66.181475
8.547,0.001379,-0.000356,0.002713,-0.002856,0.000192,-0.000385,0.002814,-0.510054,0.003907,0.026372,-260.890808,-0.176908,66.180483
8.5672,0.001225,-0.000104,0.004048,-0.002774,0.000203,-0.000183,0.002764,-0.510326,0.00282,0.026372,-260.890808,-0.176908,66.180483
8.5872,0.001207,-0.000115,0.003087,-0.002711,0.000212,-4e-05,0.002764,-0.510326,0.00282,0.026372,-260.890808,-0.176908,66.180483
8.6072,0.001603,-0.000372,0.00397,-0.002711,0.000212,-4e-05,0.002663,-0.510105,0.003071,0.01529,-260.891935,-0.14847,66.179343
8.627,0.000986,-0.000264,0.004568,-0.002711,0.000169,-0.000182,0.003047,-0.510212,0.003439,0.01529,-260.891935,-0.14847,66.179343
8.6473,0.001206,-0.00036,0.003155,-0.002711,0.000155,-0.000224,0.003244,-0.510253,0.004567,-0.059848,-260.892847,-0.08694,66.178431
8.6676,0.001123,-0.000232,0.001827,-0.002676,0.000184,-0.00021,0.00285,-0.510348,0.003283,-0.059848,-260.892847,-0.08694,66.178431
8.6878,0.000778,-0.000287,0.00325,-0.002649,0.000206,-0.000201,0.00285,-0.510348,0.003283,-0.059848,-260.892847,-0.08694,66.178431
8.7076,0.000835,-0.000576,0.004264,-0.002649,0.000206,-0.000201,0.002328,-0.510279,0.003241,-0.006635,-260.893877,-0.10737,66.177394
8.7275,0.000684,-0.000188,0.004295,-0.002516,0.000272,-0.000384,0.002597,-0.510399,0.003662,-0.006635,-260.893877,-0.10737,66.177394
8.7474,0.000752,-5.8e-05,0.002888,-0.00247,0.000295,-0.000438,0.002791,-0.510177,0.004289,-0.031346,-260.894923,-0.123207,66.176341
8.7676,0.000627,-0.000396,0.003862,-0.002361,0.000203,-0.000296,0.002269,-0.510066,0.003008,-0.031346,-260.894923,-0.123207,66.176341
8.7873,0.000491,-0.00048,0.004422,-0.002276,0.000132,-0.000194,0.002269,-0.510066,0.003008,-0.031346,-260.894923,-0.123207,66.176341
8.8076,0.000614,-0.000393,0.00285,-0.002276,0.000132,-0.000194,0.002659,-0.510466,0.004408,-0.011169,-260.895757,-0.198214,66.175485
8.8276,0.000481,-0.000288,0.003549,-0.002211,0.000249,-0.000428,0.002407,-0.510434,0.003769,-0.011169,-260.895757,-0.198214,66.175485
8.847,0.000539,-3.4e-05,0.00198,-0.002188,0.00029,-0.000499,0.002228,-0.510281,0.003542,-0.005894,-260.896559,-0.123245,66.174679
8.8672,0.000435,-0.000292,0.003227,-0.001964,0.00018,-3.4e-05,0.001607,-0.510055,0.002119,-0.005894,-260.896559,-0.123245,66.174679
8.8872,0.000636,-0.000139,0.003713,-0.001792,9.5e-05,0.000291,0.001607,-0.510055,0.002119,-0.005894,-260.896559,-0.123245,66.174679
8.9071,8.6e-05,-0.000399,0.003943,-0.001792,9.5e-05,0.000291,0.002462,-0.510129,0.003701,0.006903,-260.897191,-0.198185,66.174024
8.9271,0.000672,-0.000523,0.002675,-0.00187,0.000115,-0.000193,0.002304,-0.510238,0.003799,0.006903,-260.897191,-0.198185,66.174024
8.9473,0.000434,-0.000368,0.005162,-0.001897,0.000123,-0.000341,0.002022,-0.51052,0.002674,-0.068172,-260.897376,-0.12311,66.173841
8.9672,-0.000137,-0.000355,0.003415,-0.002042,0.000164,-0.000678,0.002972,-0.510375,0.004937,-0.068172,-260.897376,-0.12311,66.173841
8.9874,0.000599,-0.000153,0.003308,-0.002158,0.0002,-0.000929,0.002972,-0.510375,0.004937,-0.068172,-260.897376,-0.12311,66.173841
9.0076,0.000428,-0.000276,0.00344,-0.002158,0.0002,-0.000929,0.002224,-0.510145,0.003299,0.006719,-260.897972,-0.172739,66.173236
9.0273,0.000479,5.3e-05,0.003397,-0.002057,0.000156,-0.000607,0.0022,-0.510198,0.003356,0.006719,-260.897972,-0.172739,66.173236
9.0477,0.000577,-0.000454,0.003541,-0.002024,0.000141,-0.000511,0.002183,-0.509942,0.003389,0.081896,-260.898334,-0.247916,66.172857
9.0674,-1.4e-05,-0.000351,0.001669,-0.002036,0.000195,-0.000483,0.002364,-0.510407,0.003527,0.081896,-260.898334,-0.247916,66.172857
9.0876,0.00057,-0.000513,0.002291,-0.002045,0.000238,-0.000465,0.002364,-0.510407,0.003527,0.081896,-260.898334,-0.247916,66.172857
9.1076,0.000255,-0.000477,0.002892,-0.002045,0.000238,-0.000465,0.001654,-0.510506,0.002269,0.084538,-260.899135,-0.220027,66.172039
9.1277,0.000264,3e-06,0.003492,-0.001753,0.000346,8.2e-05,0.001676,-0.510493,0.002521,0.084538,-260.899135,-0.220027,66.172039
9.1476,0.000515,-0.000348,0.002683,-0.001656,0.000382,0.000239,0.001984,-0.509987,0.003478,0.022642,-260.899894,-0.249815,66.171256
9.1674,0.000258,-0.000513,0.003632,-0.001638,0.00035,0.00027,0.001889,-0.510313,0.002754,0.022642,-260.899894,-0.249815,66.171256
9.1876,-0.000189,-0.000479,0.001573,-0.001624,0.000325,0.000291,0.001889,-0.510313,0.002754,0.022642,-260.899894,-0.249815,66.171256
9.2073,5.5e-05,-0.000526,0.002463,-0.001624,0.000325,0.000291,0.000603,-0.510477,0.001572,-0.052367,-260.89999,-0.174806,66.171164
9.2274,-4e-05,-0.000159,0.003102,-0.001057,0.000406,0.000807,0.00089,-0.510496,0.001934,-0.052367,-260.89999,-0.174806,66.171164
9.2476,5.4e-05,5e-06,0.001222,-0.000868,0.000432,0.000956,0.001524,-0.510155,0.003102,-0.12747,-260.900215,-0.099703,66.170948
9.2673,0.000387,-0.000416,0.002104,-0.000674,0.000258,0.001269,0.000759,-0.51001,0.001408,-0.12747,-260.900215,-0.099703,66.170948
9.2876,-2.4e-05,-0.000333,0.003844,-0.000525,0.000122,0.00149,0.000759,-0.51001,0.001408,-0.12747,-260.900215,-0.099703,66.170948
9.3071,-0.000166,-0.000237,0.003853,-0.000525,0.000122,0.00149,0.001937,-0.510329,0.003844,-0.202463,-260.900215,-0.024711,66.170948
9.3271,-3.2e-05,-0.000257,0.003426,-0.000913,0.000151,0.000436,0.00188,-0.51029,0.003848,-0.202463,-260.900215,-0.024711,66.170948
9.3474,8e-06,-0.00019,0.002897,-0.001046,0.000165,0.000104,0.001715,-0.510254,0.003426,-0.277532,-260.900215,0.050359,66.170948
9.3672,0.00014,-0.00044,0.002525,0.0,0.0,0.0,0.001506,-0.510194,0.002945,-0.277532,-260.900215,0.050359,66.170948
