mach0312/omni-docking-bench/src/icros_test_setup/results/MPPI_sample/timeseries/trial_129.csv
t,x,y,yaw,vx,vy,wz,bl_x,bl_y,bl_yaw,front_steering_joint,front_wheel_joint,rear_steering_joint,rear_wheel_joint
0.0,-0.021312,-0.029165,0.032694,0.006886,-0.002705,0.003764,-0.004354,-0.538821,0.034451,-0.05894,-259.187314,-0.628443,69.598838
0.0003,-0.02109,-0.029279,0.033031,0.006763,-0.002657,0.003697,-0.004639,-0.538891,0.033375,-0.05894,-259.184517,-0.628443,69.602289
0.0006,-0.020844,-0.0296,0.0321,0.006605,-0.002595,0.00361,-0.004665,-0.538883,0.033245,-0.05894,-259.1817,-0.628443,69.605766
0.0009,-0.021004,-0.029569,0.033975,0.006411,-0.002519,0.003505,-0.004665,-0.538883,0.033245,-0.05894,-259.178942,-0.628443,69.609169
0.0011,-0.021145,-0.029257,0.033915,0.006183,-0.002429,0.00338,-0.003739,-0.538943,0.034428,-0.05894,-259.176376,-0.628443,69.612336
0.0014,-0.020263,-0.029095,0.034029,0.005918,-0.002325,0.003235,-0.003739,-0.538943,0.034428,-0.05894,-259.174004,-0.628443,69.615263
0.0016,-0.02067,-0.029565,0.03329,0.005619,-0.002208,0.003072,-0.004233,-0.538885,0.034183,-0.05894,-259.174004,-0.628443,69.615263
0.0019,-0.020496,-0.029812,0.032221,0.005284,-0.002076,0.002888,-0.004233,-0.538885,0.034183,-0.05894,-259.174004,-0.628443,69.615263
0.0021,-0.02046,-0.029594,0.034222,0.004913,-0.00193,0.002686,-0.004233,-0.538885,0.034183,-0.05894,-259.174004,-0.628443,69.615263
0.017,-0.020266,-0.029556,0.033445,0.0,0.0,0.0,-0.004006,-0.539533,0.032333,-0.05894,-259.174004,-0.628443,69.615263
0.0373,-0.020372,-0.029794,0.034565,0.0,0.0,0.0,-0.003003,-0.539345,0.033557,-0.05894,-259.172036,-0.628443,69.617692
0.057,-0.02031,-0.029784,0.034082,0.0,0.0,0.0,-0.002875,-0.539412,0.03398,-0.05894,-259.172036,-0.628443,69.617692
0.0768,-0.020405,-0.029846,0.032115,0.0,0.0,0.0,-0.002932,-0.539488,0.034082,-0.05894,-259.172036,-0.628443,69.617692
0.0972,-0.020337,-0.029801,0.034176,0.0,0.0,0.0,-0.003932,-0.539574,0.032289,-0.05894,-259.172036,-0.628443,69.617692
0.117,-0.02055,-0.029325,0.033992,0.000764,0.000564,-0.009876,-0.003932,-0.539574,0.032289,-0.05894,-259.172036,-0.628443,69.617692
0.1374,-0.020517,-0.029688,0.032781,0.000789,0.000602,-0.010566,-0.003218,-0.53903,0.033992,-0.05894,-259.172036,-0.628443,69.617692
0.1572,-0.020137,-0.029741,0.034186,0.000786,0.000635,-0.01113,-0.003454,-0.539186,0.033502,-0.05894,-259.172036,-0.628443,69.617692
0.1771,-0.020276,-0.029705,0.03191,0.000773,0.000661,-0.011574,-0.002706,-0.539443,0.034186,-0.133848,-259.172036,-0.70335,69.617692
0.1973,-0.020202,-0.029926,0.034316,0.000765,0.000675,-0.011951,-0.003888,-0.539445,0.032115,-0.133848,-259.172036,-0.70335,69.617692
0.2171,-0.020348,-0.03,0.033442,0.000749,0.000686,-0.012248,-0.003888,-0.539445,0.032115,-0.133848,-259.172036,-0.70335,69.617692
0.237,-0.020299,-0.029551,0.034305,0.00073,0.000693,-0.012482,-0.003295,-0.539715,0.033442,-0.208855,-259.172036,-0.778358,69.617692
0.257,-0.020348,-0.030033,0.034493,0.000683,0.000706,-0.012696,-0.003095,-0.539524,0.033797,-0.208855,-259.172036,-0.778358,69.617692
0.2765,-0.020345,-0.029753,0.035015,0.000639,0.000715,-0.012866,-0.00276,-0.539729,0.034493,-0.283977,-259.172036,-0.85348,69.617692
0.2966,-0.020269,-0.029698,0.035759,0.000581,0.000727,-0.013031,-0.002514,-0.539465,0.03497,-0.283977,-259.172036,-0.85348,69.617692
0.317,-0.020088,-0.029873,0.034689,0.000528,0.000735,-0.013163,-0.002514,-0.539465,0.03497,-0.283977,-259.172036,-0.85348,69.617692
0.3369,-0.019934,-0.029661,0.03402,0.000481,0.00074,-0.013267,-0.0024,-0.539566,0.034689,-0.358963,-259.172036,-0.928465,69.617692
0.3567,-0.020305,-0.029628,0.033728,0.000437,0.000744,-0.013384,-0.002476,-0.539485,0.034417,-0.358963,-259.172036,-0.928465,69.617692
0.3769,-0.020386,-0.029547,0.033786,0.000398,0.000746,-0.013476,-0.003107,-0.539338,0.033728,-0.433847,-259.172036,-1.003349,69.617692
0.3968,-0.020346,-0.029972,0.032407,0.000387,0.000739,-0.013657,-0.003154,-0.539263,0.033781,-0.433847,-259.172036,-1.003349,69.617692
0.4171,-0.020731,-0.029928,0.035265,0.000375,0.000732,-0.013801,-0.003154,-0.539263,0.033781,-0.433847,-259.172036,-1.003349,69.617692
0.4371,-0.02052,-0.029737,0.034337,0.000363,0.000726,-0.013916,-0.00275,-0.539611,0.035265,-0.50892,-259.172036,-1.078422,69.617692
0.4572,-0.020294,-0.029884,0.033789,0.000342,0.000724,-0.014007,-0.002856,-0.53954,0.034888,-0.50892,-259.172036,-1.078422,69.617692
0.4774,-0.020802,-0.029698,0.033574,0.000323,0.000722,-0.014079,-0.003065,-0.539593,0.033789,-0.583861,-259.172036,-1.153364,69.617692
0.4972,-0.020516,-0.02986,0.034469,0.000332,0.000711,-0.014139,-0.003626,-0.539427,0.033594,-0.583861,-259.172036,-1.153364,69.617692
0.5166,-0.020444,-0.02972,0.034906,0.000338,0.000702,-0.014187,-0.003626,-0.539427,0.033594,-0.583861,-259.172036,-1.153364,69.617692
0.5371,-0.01999,-0.029777,0.03392,0.000342,0.000694,-0.014225,-0.002646,-0.53941,0.034906,-0.658841,-259.172036,-1.228343,69.617692
0.5572,-0.02022,-0.029668,0.035326,0.000313,0.000698,-0.014254,-0.002666,-0.539441,0.034495,-0.658841,-259.172036,-1.228343,69.617692
0.5765,-0.02044,-0.029611,0.034297,0.000287,0.000701,-0.014277,-0.002207,-0.53935,0.035326,-0.734158,-259.172035,-1.303661,69.617692
0.5973,-0.020039,-0.02988,0.035446,0.000273,0.000701,-0.014296,-0.002885,-0.539315,0.03439,-0.734158,-259.172035,-1.303661,69.617692
0.6177,-0.02072,-0.030031,0.034311,0.000261,0.000701,-0.014312,-0.002885,-0.539315,0.03439,-0.734158,-259.172035,-1.303661,69.617692
0.6367,-0.020076,-0.029699,0.033829,0.00025,0.0007,-0.014325,-0.003225,-0.53973,0.034311,-0.808846,-259.172035,-1.378349,69.617692
0.6568,-0.019931,-0.030008,0.032056,0.000244,0.000698,-0.014336,-0.003064,-0.5396,0.034117,-0.808846,-259.172035,-1.378349,69.617692
0.6765,-0.020851,-0.029866,0.033889,0.00024,0.000696,-0.014345,-0.003585,-0.539746,0.032056,-0.883865,-259.172035,-1.453368,69.617691
0.6972,-0.020211,-0.029571,0.032852,0.000252,0.000689,-0.014353,-0.003572,-0.539588,0.033732,-0.883865,-259.172035,-1.453368,69.617691
0.717,-0.020093,-0.029989,0.032542,0.000261,0.000683,-0.01436,-0.003572,-0.539588,0.033732,-0.883865,-259.172035,-1.453368,69.617691
0.7371,-0.020206,-0.029392,0.033806,0.000269,0.000679,-0.014366,-0.003499,-0.539719,0.032542,-0.95896,-259.172034,-1.528463,69.61769
0.7569,-0.020038,-0.029852,0.034128,0.000265,0.000679,-0.01437,-0.003283,-0.539467,0.033057,-0.95896,-259.172034,-1.528463,69.61769
0.7768,-0.020238,-0.029633,0.034854,0.000262,0.000679,-0.014373,-0.002635,-0.539555,0.034127,-1.033945,-259.172023,-1.599258,69.617677
0.7971,-0.020359,-0.029608,0.032673,0.000234,0.000686,-0.014374,-0.002481,-0.539343,0.034791,-1.033945,-259.172023,-1.599258,69.617677
0.8174,-0.02053,-0.02994,0.034295,0.000211,0.000692,-0.014374,-0.002481,-0.539343,0.034791,-1.033945,-259.172023,-1.599258,69.617677
0.8367,-0.020388,-0.029939,0.033238,0.000191,0.000697,-0.014375,-0.003042,-0.53964,0.034287,-1.10894,-259.171977,-1.598515,69.617624
0.8568,-0.020395,-0.029719,0.035251,0.000197,0.000693,-0.014378,-0.003203,-0.539647,0.03386,-1.10894,-259.171977,-1.598515,69.617624
0.8769,-0.020117,-0.030097,0.033785,0.000201,0.00069,-0.014381,-0.002419,-0.539401,0.035232,-1.183856,-259.171842,-1.590961,69.617465
0.8971,-0.020293,-0.029878,0.034052,0.000193,0.000691,-0.014381,-0.002851,-0.539773,0.033904,-1.183856,-259.171842,-1.590961,69.617465
0.9172,-0.020111,-0.029636,0.035705,0.000185,0.000693,-0.014382,-0.002851,-0.539773,0.033904,-1.183856,-259.171842,-1.590961,69.617465
0.9368,-0.020167,-0.029933,0.034807,0.000179,0.000693,-0.014383,-0.001899,-0.539307,0.035637,-1.259064,-259.171463,-1.592049,69.617022
0.9574,-0.020174,-0.02939,0.034005,0.000152,0.000701,-0.014382,-0.002113,-0.539437,0.035287,-1.259064,-259.171463,-1.592049,69.617022
0.9772,-0.019699,-0.029772,0.033485,0.000128,0.000706,-0.014381,-0.002827,-0.539089,0.033887,-1.333966,-259.170635,-1.589714,69.616052
0.9971,-0.019909,-0.030004,0.033949,0.000125,0.000705,-0.014383,-0.002646,-0.539443,0.033521,-1.333966,-259.170635,-1.589714,69.616052
1.0169,-0.020285,-0.029876,0.035439,0.000123,0.000704,-0.014384,-0.002646,-0.539443,0.033521,-1.333966,-259.170635,-1.589714,69.616052
1.0369,-0.019862,-0.029644,0.034195,0.00012,0.000704,-0.014385,-0.002202,-0.539541,0.035165,-1.408849,-259.169166,-1.584324,69.614326
1.0571,-0.019648,-0.029682,0.032683,0.000107,0.000706,-0.014483,-0.002289,-0.539462,0.034751,-1.408849,-259.169166,-1.584324,69.614326
1.0768,-0.019479,-0.029714,0.031934,9.6e-05,0.000708,-0.014561,-0.002974,-0.539393,0.03236,-1.483842,-259.166878,-1.583478,69.61164
1.0974,-0.019936,-0.029462,0.032,0.000113,0.000701,-0.014698,-0.003175,-0.539448,0.031956,-1.483842,-259.166878,-1.583478,69.61164
1.1169,-0.019701,-0.02972,0.033315,0.000128,0.000695,-0.014806,-0.003175,-0.539448,0.031956,-1.483842,-259.166878,-1.583478,69.61164
1.1369,-0.019294,-0.029556,0.031081,0.000139,0.00069,-0.014892,-0.002711,-0.53941,0.032759,-1.558962,-259.163887,-1.58078,69.608132
1.1568,-0.01955,-0.029833,0.033251,0.000143,0.000689,-0.015043,-0.003012,-0.539366,0.032005,-1.558962,-259.163887,-1.58078,69.608132
1.1767,-0.018897,-0.030007,0.02935,0.000146,0.000687,-0.015165,-0.002592,-0.539529,0.032778,-1.554239,-259.160532,-1.585017,69.604226
1.1969,-0.018825,-0.029825,0.031485,0.000171,0.000679,-0.015349,-0.00381,-0.539763,0.029633,-1.554239,-259.160532,-1.585017,69.604226
1.2171,-0.019182,-0.029335,0.033438,0.000191,0.000672,-0.015498,-0.00381,-0.539763,0.029633,-1.554239,-259.160532,-1.585017,69.604226
1.2368,-0.018609,-0.029322,0.029597,0.000207,0.000667,-0.015616,-0.002126,-0.539021,0.032803,-1.553733,-259.157092,-1.585504,69.600234
1.2569,-0.018426,-0.029673,0.029316,0.000188,0.000674,-0.015794,-0.002704,-0.53905,0.031397,-1.553733,-259.157092,-1.585504,69.600234
1.2767,-0.018194,-0.029774,0.029896,0.000171,0.00068,-0.015936,-0.003471,-0.539433,0.028821,-1.547442,-259.153548,-1.591098,69.596157
1.297,-0.018398,-0.029424,0.028926,0.000163,0.000682,-0.016128,-0.002992,-0.539536,0.029784,-1.547442,-259.153548,-1.591098,69.596157
1.3173,-0.018314,-0.028965,0.031433,0.000155,0.000684,-0.016284,-0.002992,-0.539536,0.029784,-1.547442,-259.153548,-1.591098,69.596157
1.3369,-0.017373,-0.029261,0.028874,0.000148,0.000686,-0.016411,-0.00228,-0.538685,0.030768,-1.551915,-259.149932,-1.587213,69.591998
1.3567,-0.017473,-0.029481,0.028714,0.000125,0.000693,-0.016581,-0.002431,-0.538831,0.029913,-1.551915,-259.149932,-1.587213,69.591998
1.3768,-0.017404,-0.029723,0.028023,0.000105,0.000697,-0.01672,-0.002827,-0.539249,0.028193,-1.554932,-259.146198,-1.584628,69.587715
1.3969,-0.017332,-0.029397,0.028401,0.000106,0.000696,-0.016899,-0.003089,-0.539499,0.028012,-1.554932,-259.146198,-1.584628,69.587715
1.4172,-0.017558,-0.029389,0.028326,0.000107,0.000695,-0.017045,-0.003089,-0.539499,0.028012,-1.554932,-259.146198,-1.584628,69.587715
1.4373,-0.016572,-0.029089,0.028171,0.000106,0.000694,-0.017165,-0.00311,-0.539155,0.027627,-1.559711,-259.1424,-1.580464,69.583362
1.4569,-0.017065,-0.029478,0.027989,9.5e-05,0.000697,-0.017317,-0.002743,-0.539043,0.027767,-1.559711,-259.1424,-1.580464,69.583362
1.4765,-0.016334,-0.029506,0.025984,8.5e-05,0.000699,-0.017441,-0.00279,-0.539256,0.02744,-1.559938,-259.138476,-1.580307,69.578881
1.4969,-0.016241,-0.029145,0.027848,8.5e-05,0.000699,-0.017589,-0.003059,-0.539326,0.026081,-1.559938,-259.138476,-1.580307,69.578881
1.5166,-0.016683,-0.029324,0.026602,8.4e-05,0.000698,-0.01771,-0.003059,-0.539326,0.026081,-1.559938,-259.138476,-1.580307,69.578881
1.5371,-0.01575,-0.028861,0.026188,8.2e-05,0.000699,-0.01781,-0.003115,-0.539114,0.025874,-1.562216,-259.134503,-1.57832,69.57435
1.5568,-0.016295,-0.029333,0.026243,7.4e-05,0.000701,-0.017925,-0.002821,-0.538936,0.025918,-1.562216,-259.134503,-1.57832,69.57435
1.5768,-0.015618,-0.029011,0.023572,6.7e-05,0.000703,-0.01802,-0.002911,-0.539135,0.025676,-1.562702,-259.13043,-1.577914,69.569718
1.5971,-0.015549,-0.029192,0.025168,8.3e-05,0.000698,-0.018123,-0.003537,-0.538891,0.023729,-1.562702,-259.13043,-1.577914,69.569718
1.6166,-0.015904,-0.028959,0.025719,9.6e-05,0.000694,-0.018207,-0.003537,-0.538891,0.023729,-1.562702,-259.13043,-1.577914,69.569718
1.6369,-0.014973,-0.029168,0.023172,0.000107,0.000691,-0.018277,-0.002786,-0.538761,0.024966,-1.564303,-259.126309,-1.57651,69.565035
1.6566,-0.014985,-0.029212,0.023803,9.5e-05,0.000696,-0.018345,-0.002939,-0.538869,0.024138,-1.564303,-259.126309,-1.57651,69.565035
1.6765,-0.014401,-0.02917,0.023634,8.5e-05,0.0007,-0.018402,-0.002844,-0.539045,0.023223,-1.560595,-259.122124,-1.579808,69.560297
1.6971,-0.01455,-0.029165,0.022647,5.7e-05,0.000709,-0.018456,-0.002394,-0.539028,0.023566,-1.560595,-259.122124,-1.579808,69.560297
1.7169,-0.014528,-0.029502,0.022092,3.3e-05,0.000716,-0.0185,-0.002394,-0.539028,0.023566,-1.560595,-259.122124,-1.579808,69.560297
1.7365,-0.014068,-0.029021,0.021947,1.2e-05,0.000722,-0.018538,-0.003259,-0.539348,0.021322,-1.562698,-259.117907,-1.577946,69.55552
1.7569,-0.014107,-0.029094,0.022807,1.7e-05,0.00072,-0.018579,-0.003102,-0.53916,0.021489,-1.562698,-259.117907,-1.577946,69.55552
1.7765,-0.013632,-0.0292,0.020712,2.1e-05,0.000718,-0.018614,-0.002477,-0.538939,0.022218,-1.569627,-259.113664,-1.571826,69.550699
1.7967,-0.013745,-0.028508,0.021526,2e-05,0.000719,-0.018649,-0.003021,-0.539077,0.020808,-1.569627,-259.113664,-1.571826,69.550699
1.8166,-0.013746,-0.029082,0.02223,2e-05,0.000719,-0.018679,-0.003021,-0.539077,0.020808,-1.569627,-259.113664,-1.571826,69.550699
1.837,-0.013158,-0.029189,0.019778,1.9e-05,0.000719,-0.018703,-0.002409,-0.538926,0.021454,-1.568856,-259.109414,-1.572506,69.545876
1.8569,-0.013358,-0.029387,0.020374,7e-06,0.000723,-0.018729,-0.002679,-0.538989,0.020681,-1.568856,-259.109414,-1.572506,69.545876
1.8766,-0.01243,-0.028779,0.018634,-3e-06,0.000726,-0.018751,-0.002968,-0.539258,0.019779,-1.568986,-259.105133,-1.572392,69.54102
1.8969,-0.013017,-0.02896,0.019756,-5e-06,0.000727,-0.018772,-0.002931,-0.53874,0.018705,-1.568986,-259.105133,-1.572392,69.54102
1.9169,-0.012429,-0.0289,0.016974,-6e-06,0.000727,-0.018789,-0.002931,-0.53874,0.018705,-1.568986,-259.105133,-1.572392,69.54102
1.9368,-0.012382,-0.028864,0.018406,-8e-06,0.000728,-0.018803,-0.003773,-0.538796,0.016188,-1.571094,-259.100843,-1.570534,69.536149
1.9572,-0.012051,-0.028969,0.018236,5e-06,0.000725,-0.018813,-0.003457,-0.538785,0.016999,-1.571094,-259.100843,-1.570534,69.536149
1.9766,-0.011532,-0.029165,0.018296,1.6e-05,0.000722,-0.018821,-0.002751,-0.538861,0.017635,-1.57153,-259.09654,-1.57015,69.531264
1.9968,-0.012105,-0.028938,0.019287,-1.5e-05,0.000732,-0.018835,-0.002251,-0.539059,0.018206,-1.57153,-259.09654,-1.57015,69.531264
2.0166,-0.011759,-0.029051,0.018293,-4.1e-05,0.00074,-0.018847,-0.002251,-0.539059,0.018206,-1.57153,-259.09654,-1.57015,69.531264
2.0366,-0.01132,-0.02868,0.015749,-6.3e-05,0.000746,-0.018857,-0.00243,-0.538936,0.017506,-1.569325,-259.092232,-1.572094,69.526378
2.0573,-0.01129,-0.028931,0.017445,-6.6e-05,0.000746,-0.018861,-0.002781,-0.538802,0.016696,-1.569325,-259.092232,-1.572094,69.526378
2.0765,-0.010834,-0.029027,0.015673,-6.8e-05,0.000746,-0.018865,-0.002396,-0.53883,0.016844,-1.576641,-259.08793,-1.565663,69.52148
2.097,-0.010702,-0.028749,0.014884,-7.2e-05,0.000747,-0.01886,-0.002801,-0.538951,0.015748,-1.576641,-259.08793,-1.565663,69.52148
2.117,-0.010926,-0.028764,0.015163,-7.6e-05,0.000748,-0.018855,-0.002801,-0.538951,0.015748,-1.576641,-259.08793,-1.565663,69.52148
2.1367,-0.010235,-0.028821,0.014302,-7.9e-05,0.000749,-0.018852,-0.003196,-0.538675,0.014374,-1.577086,-259.083615,-1.565272,69.516568
2.1567,-0.010346,-0.02892,0.013564,-7.6e-05,0.000747,-0.018822,-0.003092,-0.53871,0.014253,-1.577086,-259.083615,-1.565272,69.516568
2.1766,-0.00942,-0.028479,0.012677,-7.3e-05,0.000745,-0.018798,-0.003431,-0.53885,0.012965,-1.57809,-259.079314,-1.564393,69.511668
2.1967,-0.009636,-0.028953,0.013893,-8.1e-05,0.000745,-0.018714,-0.002998,-0.538473,0.012672,-1.57809,-259.079314,-1.564393,69.511668
2.2167,-0.010159,-0.028982,0.012869,-8.7e-05,0.000743,-0.018649,-0.002998,-0.538473,0.012672,-1.57809,-259.079314,-1.564393,69.511668
2.2369,-0.009316,-0.028263,0.011958,-9.1e-05,0.000742,-0.018597,-0.003599,-0.538908,0.012083,-1.577616,-259.075019,-1.564808,69.506778
2.2567,-0.009577,-0.028443,0.014168,-8.3e-05,0.000735,-0.018512,-0.003443,-0.538625,0.011941,-1.577616,-259.075019,-1.564808,69.506778
2.2767,-0.009104,-0.028626,0.011261,-7.5e-05,0.00073,-0.018446,-0.002355,-0.538368,0.013576,-1.579358,-259.070767,-1.563284,69.501932
2.2967,-0.008576,-0.028816,0.010631,-7.7e-05,0.000726,-0.018354,-0.003272,-0.538572,0.011437,-1.579358,-259.070767,-1.563284,69.501932
2.317,-0.009296,-0.028827,0.011038,-7.7e-05,0.000723,-0.018283,-0.003272,-0.538572,0.011437,-1.579358,-259.070767,-1.563284,69.501932
2.3367,-0.008428,-0.028554,0.010559,-7.6e-05,0.00072,-0.018229,-0.00367,-0.538766,0.010266,-1.577897,-259.066559,-1.56456,69.49714
2.3566,-0.008134,-0.028724,0.010852,-8.2e-05,0.000714,-0.01807,-0.003416,-0.538665,0.010296,-1.577897,-259.066559,-1.56456,69.49714
2.3766,-0.007901,-0.028779,0.009692,-8.5e-05,0.000708,-0.01795,-0.002602,-0.538671,0.010271,-1.578113,-259.062393,-1.564368,69.492399
2.3967,-0.007978,-0.028556,0.011373,-0.00011,0.000708,-0.017782,-0.002926,-0.538746,0.009714,-1.578113,-259.062393,-1.564368,69.492399
2.4167,-0.008487,-0.028806,0.009691,-0.000128,0.000706,-0.017657,-0.002926,-0.538746,0.009714,-1.578113,-259.062393,-1.564368,69.492399
2.4372,-0.007334,-0.028702,0.007801,-0.000141,0.000703,-0.017564,-0.003548,-0.538752,0.00894,-1.579043,-259.058291,-1.563551,69.48773
2.4569,-0.00715,-0.02821,0.008506,-0.000149,0.000691,-0.017279,-0.00347,-0.538722,0.00839,-1.579043,-259.058291,-1.563551,69.48773
2.4768,-0.007217,-0.028595,0.007682,-0.000152,0.00068,-0.017072,-0.002816,-0.538169,0.007948,-1.58487,-259.054285,-1.558454,69.483163
2.4967,-0.006885,-0.028431,0.00819,-0.000168,0.000672,-0.016775,-0.003256,-0.538542,0.007678,-1.58487,-259.054285,-1.558454,69.483163
2.5169,-0.006921,-0.028674,0.009281,-0.000177,0.000662,-0.016562,-0.003256,-0.538542,0.007678,-1.58487,-259.054285,-1.558454,69.483163
2.5369,-0.00645,-0.028311,0.007977,-0.000181,0.000653,-0.016407,-0.002195,-0.538624,0.008565,-1.586424,-259.050386,-1.557082,69.478719
2.5567,-0.006749,-0.028149,0.007589,-0.000207,0.000655,-0.016397,-0.002271,-0.538487,0.008245,-1.586424,-259.050386,-1.557082,69.478719
2.5767,-0.0065,-0.028511,0.006472,-0.000229,0.000657,-0.01639,-0.002884,-0.538114,0.007065,-1.590075,-259.04664,-1.553876,69.474451
2.5968,-0.006022,-0.028459,0.006985,-0.000237,0.000646,-0.015997,-0.003171,-0.538464,0.006499,-1.590075,-259.04664,-1.553876,69.474451
2.6169,-0.005977,-0.028673,0.005814,-0.000239,0.000635,-0.015719,-0.003171,-0.538464,0.006499,-1.590075,-259.04664,-1.553876,69.474451
2.6367,-0.00597,-0.028496,0.005552,-0.000238,0.000624,-0.015521,-0.003022,-0.538637,0.005128,-1.595227,-259.042895,-1.549373,69.470181
2.6566,-0.00566,-0.028083,0.004591,-0.000251,0.000619,-0.01499,-0.003071,-0.538573,0.005223,-1.595227,-259.042895,-1.549373,69.470181
2.6766,-0.005546,-0.028113,0.005397,-0.000257,0.00061,-0.014623,-0.003326,-0.538058,0.004098,-1.597658,-259.039353,-1.547252,69.466139
2.6968,-0.005533,-0.02838,0.004214,-0.000262,0.000601,-0.014378,-0.00284,-0.538101,0.00526,-1.597658,-259.039353,-1.547252,69.466139
2.7173,-0.005593,-0.028345,0.005515,-0.000264,0.000593,-0.014208,-0.00284,-0.538101,0.00526,-1.597658,-259.039353,-1.547252,69.466139
2.737,-0.004997,-0.028022,0.004012,-0.000264,0.000584,-0.014089,-0.002791,-0.538312,0.004903,-1.601612,-259.036028,-1.543917,69.462328
2.7568,-0.004873,-0.028317,0.002124,-0.000271,0.00058,-0.013729,-0.002857,-0.53819,0.004472,-1.601612,-259.036028,-1.543917,69.462328
2.7766,-0.004683,-0.028379,0.00345,-0.000272,0.000573,-0.01348,-0.003798,-0.538298,0.001675,-1.603735,-259.032819,-1.542043,69.458652
2.7967,-0.004797,-0.028354,0.00334,-0.000284,0.000576,-0.012798,-0.003003,-0.538368,0.003268,-1.603735,-259.032819,-1.542043,69.458652
2.8172,-0.004361,-0.027896,0.004191,-0.000288,0.000572,-0.012325,-0.003003,-0.538368,0.003268,-1.603735,-259.032819,-1.542043,69.458652
2.8367,-0.004193,-0.028356,0.003122,-0.000285,0.000565,-0.011998,-0.002235,-0.537868,0.003626,-1.606357,-259.029754,-1.539863,69.455128
2.857,-0.004465,-0.028502,0.000884,-0.000298,0.000561,-0.011808,-0.002385,-0.538062,0.003357,-1.606357,-259.029754,-1.539863,69.455128
2.8769,-0.004281,-0.02829,0.003284,-0.000306,0.000555,-0.011676,-0.004023,-0.538484,0.000502,-1.612916,-259.027045,-1.534699,69.451967
2.8968,-0.004159,-0.028067,0.002522,-0.000305,0.000549,-0.011437,-0.002727,-0.538303,0.003029,-1.612916,-259.027045,-1.534699,69.451967
2.9169,-0.004377,-0.028406,0.002217,-0.000301,0.000542,-0.011269,-0.002727,-0.538303,0.003029,-1.612916,-259.027045,-1.534699,69.451967
2.937,-0.004072,-0.028449,0.002085,-0.000295,0.000535,-0.011151,-0.00326,-0.538382,0.00173,-1.61735,-259.024417,-1.530961,69.448897
2.9571,-0.003926,-0.028196,0.002969,-0.000293,0.000534,-0.010456,-0.003159,-0.538406,0.001818,-1.61735,-259.024417,-1.530961,69.448897
2.9772,-0.003985,-0.027861,0.000649,-0.000285,0.000529,-0.009965,-0.002421,-0.538176,0.002613,-1.617791,-259.0219,-1.530635,69.445952
2.9971,-0.003645,-0.028059,1.7e-05,-0.000275,0.000525,-0.009074,-0.003549,-0.537887,0.0008,-1.617791,-259.0219,-1.530635,69.445952
3.0171,-0.003425,-0.028352,0.001145,-0.000258,0.000516,-0.008437,-0.003549,-0.537887,0.0008,-1.617791,-259.0219,-1.530635,69.445952
3.0372,-0.003508,-0.028373,-0.000207,-0.000238,0.000506,-0.007983,-0.002853,-0.53833,0.000728,-1.62203,-259.019674,-1.527752,69.443302
3.0572,-0.003491,-0.028078,0.001193,-0.000242,0.000503,-0.0074,-0.003167,-0.538345,0.000296,-1.62203,-259.019674,-1.527752,69.443302
3.077,-0.003311,-0.028394,0.001305,-0.00024,0.000497,-0.006982,-0.00289,-0.538062,0.00094,-1.625302,-259.017923,-1.526525,69.441147
3.0972,-0.003235,-0.027802,0.001576,-0.000232,0.000489,-0.0072,-0.002666,-0.538366,0.001263,-1.625302,-259.017923,-1.526525,69.441147
3.1169,-0.003483,-0.028193,-0.000472,-0.000227,0.000483,-0.007352,-0.002666,-0.538366,0.001263,-1.625302,-259.017923,-1.526525,69.441147
3.137,-0.002831,-0.027946,0.000778,-0.000224,0.000478,-0.007458,-0.003734,-0.538172,-0.000763,-1.634408,-259.016416,-1.52044,69.439244
3.1568,-0.00336,-0.028083,0.001052,-0.000228,0.000478,-0.006797,-0.003195,-0.538076,-0.000156,-1.634408,-259.016416,-1.52044,69.439244
3.1772,-0.002713,-0.028395,-0.001331,-0.000226,0.000474,-0.006319,-0.00283,-0.538067,0.000816,-1.625706,-259.014787,-1.526305,69.437234
3.1973,-0.002863,-0.028045,-0.002546,-0.000233,0.00048,-0.005558,-0.003342,-0.538364,-0.001152,-1.625706,-259.014787,-1.526305,69.437234
3.2169,-0.002705,-0.02785,-0.000726,-0.000232,0.000479,-0.005005,-0.003342,-0.538364,-0.001152,-1.625706,-259.014787,-1.526305,69.437234
3.2372,-0.002794,-0.028104,-0.00257,-0.000227,0.000473,-0.004603,-0.003085,-0.53783,-0.000989,-1.637409,-259.013434,-1.518726,69.435503
3.2569,-0.002734,-0.027751,-0.000541,-0.000219,0.000469,-0.004119,-0.003506,-0.53794,-0.00167,-1.637409,-259.013434,-1.518726,69.435503
3.2767,-0.002697,-0.027595,-0.000917,-0.000207,0.000463,-0.003767,-0.003018,-0.537736,-0.000685,-1.667547,-259.012513,-1.501787,69.434213
3.2969,-0.002194,-0.027477,-0.002589,-0.000191,0.000447,-0.003801,-0.003152,-0.537606,-0.000904,-1.667547,-259.012513,-1.501787,69.434213
3.3169,-0.002634,-0.028021,-0.002475,-0.000178,0.000434,-0.003818,-0.003152,-0.537606,-0.000904,-1.667547,-259.012513,-1.501787,69.434213
3.337,-0.002703,-0.028113,-0.001127,-0.000167,0.000424,-0.003824,-0.003904,-0.538,-0.002632,-1.682983,-259.011776,-1.495994,69.433109
3.3566,-0.002308,-0.027893,-0.000951,-0.00016,0.000426,-0.003396,-0.003648,-0.538044,-0.002031,-1.682983,-259.011776,-1.495994,69.433109
3.3764,-0.002507,-0.027636,-0.002126,-0.000151,0.000424,-0.003086,-0.002798,-0.537879,-0.001071,-1.658018,-259.011019,-1.510285,69.432019
3.397,-0.00302,-0.027859,0.000182,-0.000142,0.00042,-0.002851,-0.00352,-0.537656,-0.002038,-1.658018,-259.011019,-1.510285,69.432019
3.4173,-0.00221,-0.027693,-0.001754,-0.000132,0.000414,-0.002679,-0.00352,-0.537656,-0.002038,-1.658018,-259.011019,-1.510285,69.432019
3.4367,-0.001805,-0.028096,-0.001728,-0.000123,0.000409,-0.002552,-0.003111,-0.537674,-0.001884,-1.673726,-259.010433,-1.505526,69.431096
3.4573,-0.00233,-0.028091,-0.002593,-0.000131,0.000406,-0.002524,-0.002939,-0.537844,-0.001835,-1.673726,-259.010433,-1.505526,69.431096
3.477,-0.002001,-0.027885,0.000338,-0.000139,0.000404,-0.002498,-0.003656,-0.538076,-0.002674,-1.677083,-259.009971,-1.508498,69.430308
3.4968,-0.0022,-0.027635,-0.00201,-0.000143,0.000399,-0.003357,-0.001985,-0.537901,7.7e-05,-1.677083,-259.009971,-1.508498,69.430308
3.5171,-0.002101,-0.02794,-0.001128,-0.000153,0.000398,-0.003959,-0.001985,-0.537901,7.7e-05,-1.677083,-259.009971,-1.508498,69.430308
3.5374,-0.001971,-0.027897,-0.001079,-0.000167,0.000399,-0.004381,-0.002682,-0.537923,-0.001232,-1.693627,-259.009522,-1.499115,69.42954
3.5568,-0.002149,-0.027817,-0.001606,-0.000184,0.000404,-0.004068,-0.002618,-0.537911,-0.001182,-1.693627,-259.009522,-1.499115,69.42954
3.5771,-0.002118,-0.027998,-0.002088,-0.000196,0.000406,-0.003839,-0.002973,-0.537804,-0.00174,-1.644044,-259.008648,-1.516534,69.428361
3.5972,-0.002177,-0.027885,-0.001881,-0.000199,0.000414,-0.003335,-0.003164,-0.537978,-0.002064,-1.644044,-259.008648,-1.516534,69.428361
3.6175,-0.00233,-0.027579,-0.001474,-0.000198,0.000415,-0.002968,-0.003164,-0.537978,-0.002064,-1.644044,-259.008648,-1.516534,69.428361
3.6369,-0.002266,-0.028106,-0.003731,-0.000193,0.000414,-0.0027,-0.00309,-0.537562,-0.001632,-1.671474,-259.007882,-1.499712,69.427277
3.657,-0.002228,-0.027553,-0.002964,-0.00018,0.000413,-0.002356,-0.00353,-0.53778,-0.002506,-1.671474,-259.007882,-1.499712,69.427277
3.6765,-0.002091,-0.028198,-0.000259,-0.000166,0.00041,-0.002107,-0.003746,-0.537538,-0.003046,-1.726168,-259.007409,-1.47729,69.426493
3.697,-0.001718,-0.02758,-0.001334,-0.000159,0.000399,-0.002756,-0.002363,-0.538137,-0.00052,-1.726168,-259.007409,-1.47729,69.426493
3.7168,-0.00218,-0.027889,-0.00202,-0.000158,0.000393,-0.00321,-0.002363,-0.538137,-0.00052,-1.726168,-259.007409,-1.47729,69.426493
3.7369,-0.001904,-0.027772,-0.001522,-0.000162,0.00039,-0.003527,-0.003211,-0.537888,-0.00202,-1.651163,-259.007409,-1.473359,69.426493
3.757,-0.001789,-0.027659,-0.002372,-0.000168,0.000395,-0.003176,-0.002994,-0.53784,-0.001817,-1.651163,-259.007409,-1.473359,69.426493
3.7772,-0.001734,-0.027571,-0.002373,-0.000171,0.000396,-0.002922,-0.003004,-0.537645,-0.002482,-1.662406,-259.006713,-1.507188,69.425492
3.7969,-0.001826,-0.027608,-0.002937,-0.000181,0.000405,-0.002533,-0.002949,-0.537575,-0.002387,-1.662406,-259.006713,-1.507188,69.425492
3.8174,-0.001528,-0.027796,-0.002329,-0.000186,0.000408,-0.002251,-0.002949,-0.537575,-0.002387,-1.662406,-259.006713,-1.507188,69.425492
3.8375,-0.001505,-0.027887,-0.003956,-0.000188,0.000408,-0.002047,-0.002723,-0.537778,-0.002449,-1.69366,-259.006165,-1.492343,69.424634
3.857,-0.001483,-0.027751,-0.00228,-0.000194,0.000416,-0.001678,-0.003051,-0.537819,-0.003079,-1.69366,-259.006165,-1.492343,69.424634
3.8768,-0.001653,-0.027511,-0.002918,-0.000196,0.000419,-0.001412,-0.002646,-0.53775,-0.00228,-1.618702,-259.006165,-1.458019,69.424634
3.8973,-0.001565,-0.027487,-0.003937,-0.000189,0.000415,-0.001286,-0.003097,-0.537531,-0.002861,-1.618702,-259.006165,-1.458019,69.424634
3.9169,-0.002016,-0.02844,-0.001077,-0.000181,0.00041,-0.001194,-0.003097,-0.537531,-0.002861,-1.618702,-259.006165,-1.458019,69.424634
3.9375,-0.001865,-0.02788,-0.003092,-0.000174,0.000405,-0.001127,-0.002565,-0.538439,-0.001077,-1.5438,-259.006165,-1.418789,69.424634
3.9575,-0.001735,-0.02778,-0.002324,-0.00016,0.000391,-0.001418,-0.00293,-0.538206,-0.001916,-1.5438,-259.006165,-1.418789,69.424634
3.977,-0.001789,-0.027762,-0.00073,-0.000152,0.000381,-0.00162,-0.00292,-0.537778,-0.002324,-1.468639,-259.006165,-1.413104,69.424634
3.9974,-0.001853,-0.02783,-0.002783,-0.00015,0.000374,-0.002228,-0.002224,-0.537764,-0.000863,-1.468639,-259.006165,-1.413104,69.424634
4.0168,-0.001807,-0.027946,-0.003645,-0.000155,0.000372,-0.002653,-0.002224,-0.537764,-0.000863,-1.468639,-259.006165,-1.413104,69.424634
4.037,-0.001865,-0.027776,-0.002658,-0.000162,0.000371,-0.002948,-0.003666,-0.537943,-0.003645,-1.393637,-259.006165,-1.460537,69.424634
4.0572,-0.001526,-0.027806,-0.001366,-0.000165,0.000393,-0.002273,-0.003483,-0.537873,-0.003239,-1.393637,-259.006165,-1.460537,69.424634
4.0769,-0.001532,-0.02762,-0.00418,-0.000163,0.000404,-0.00178,-0.002223,-0.537802,-0.00139,-1.468599,-259.006022,-1.496124,69.424417
4.0971,-0.001915,-0.027634,-0.003002,-0.00016,0.000419,-0.001236,-0.003531,-0.537632,-0.003925,-1.468599,-259.006022,-1.496124,69.424417
4.1171,-0.001757,-0.027411,-0.001055,-0.000154,0.000426,-0.000836,-0.003531,-0.537632,-0.003925,-1.468599,-259.006022,-1.496124,69.424417
4.1374,-0.001928,-0.027965,-0.002968,-0.000146,0.000427,-0.000543,-0.002295,-0.537411,-0.001055,-1.39375,-259.006022,-1.462152,69.424417
4.157,-0.00161,-0.028082,-0.003188,-0.00013,0.000406,-0.001029,-0.00277,-0.53764,-0.001848,-1.39375,-259.006022,-1.462152,69.424417
4.1768,-0.001951,-0.028207,-0.002143,-0.000122,0.000391,-0.001362,-0.003236,-0.538079,-0.003188,-1.318458,-259.006022,-1.386861,69.424417
4.1969,-0.001916,-0.027705,-0.002282,-0.000118,0.000383,-0.001443,-0.003058,-0.538196,-0.002219,-1.318458,-259.006022,-1.386861,69.424417
4.217,-0.001945,-0.027942,-0.002922,-0.000115,0.000378,-0.001496,-0.003058,-0.538196,-0.002219,-1.318458,-259.006022,-1.386861,69.424417
4.237,-0.001586,-0.028169,-0.002874,-0.000114,0.000374,-0.00153,-0.003435,-0.53794,-0.002922,-1.243233,-259.006022,-1.462086,69.424417
4.2573,-0.002065,-0.027713,-0.003839,-0.000116,0.000378,-0.001311,-0.00328,-0.538032,-0.002902,-1.243233,-259.006022,-1.462086,69.424417
4.2768,-0.00191,-0.028081,-0.002725,-0.000116,0.00038,-0.001154,-0.004023,-0.537709,-0.003839,-1.168603,-259.006022,-1.483615,69.424417
4.2972,-0.001815,-0.027942,-0.001992,-0.00011,0.000378,-0.001066,-0.003365,-0.538046,-0.002825,-1.168603,-259.006022,-1.483615,69.424417
4.3169,-0.00171,-0.027879,-0.003049,-0.000104,0.000376,-0.001003,-0.003365,-0.538046,-0.002825,-1.168603,-259.006022,-1.483615,69.424417
4.337,-0.001806,-0.027931,-0.002744,-9.9e-05,0.000373,-0.000957,-0.003264,-0.537877,-0.003049,-1.093733,-259.006022,-1.464508,69.424417
4.3572,-0.00193,-0.027931,-0.002351,-9.9e-05,0.000374,-0.00089,-0.00324,-0.537898,-0.002925,-1.093733,-259.006022,-1.464508,69.424417
4.3767,-0.001602,-0.028037,-0.004368,-9.9e-05,0.000373,-0.000842,-0.003128,-0.53793,-0.002351,-1.01874,-259.006022,-1.46781,69.424416
4.397,-0.001878,-0.027605,-0.002086,-9.6e-05,0.000388,-0.000443,-0.003768,-0.538023,-0.00419,-1.01874,-259.006022,-1.46781,69.424416
4.4167,-0.002016,-0.027798,-0.003481,-9e-05,0.000396,-0.000153,-0.003768,-0.538023,-0.00419,-1.01874,-259.006022,-1.46781,69.424416
4.4371,-0.001893,-0.027569,-0.002446,-8.2e-05,0.000399,5.7e-05,-0.003791,-0.537794,-0.003481,-0.943716,-259.006022,-1.459684,69.424416
4.4571,-0.001719,-0.027627,-0.00269,-6.4e-05,0.000385,-0.000133,-0.003526,-0.537702,-0.003059,-0.943716,-259.006022,-1.459684,69.424416
4.4774,-0.001614,-0.027945,-0.001637,-5.2e-05,0.000375,-0.000266,-0.003091,-0.537624,-0.00269,-1.018692,-259.006028,-1.384708,69.424411
4.4971,-0.001734,-0.027491,-0.001999,-5.7e-05,0.000364,-0.000856,-0.002515,-0.537912,-0.001746,-1.018692,-259.006028,-1.384708,69.424411
4.5171,-0.00189,-0.027567,-0.001933,-6.7e-05,0.000359,-0.001267,-0.002515,-0.537912,-0.001746,-1.018692,-259.006028,-1.384708,69.424411
4.5369,-0.001787,-0.027664,-0.003239,-8.1e-05,0.000356,-0.001553,-0.002876,-0.537564,-0.001935,-1.093674,-259.006043,-1.45969,69.424373
4.557,-0.001979,-0.028016,-0.002203,-8.5e-05,0.000359,-0.001475,-0.003103,-0.537603,-0.002462,-1.093674,-259.006043,-1.45969,69.424373
4.5768,-0.001738,-0.027869,-0.002919,-8.7e-05,0.00036,-0.001417,-0.003103,-0.538015,-0.002203,-1.168669,-259.006043,-1.509108,69.424372
4.5972,-0.001718,-0.028412,-0.00228,-9.3e-05,0.000366,-0.001241,-0.003216,-0.53788,-0.002855,-1.168669,-259.006043,-1.509108,69.424372
4.6173,-0.001794,-0.027507,-0.001987,-9.6e-05,0.000369,-0.001114,-0.003216,-0.53788,-0.002855,-1.168669,-259.006043,-1.509108,69.424372
4.6373,-0.001677,-0.027595,-0.003287,-9.8e-05,0.00037,-0.001024,-0.002807,-0.537506,-0.001987,-1.243693,-259.006042,-1.499576,69.42437
4.6571,-0.00176,-0.027866,-0.003103,-9.8e-05,0.000367,-0.001079,-0.003026,-0.537541,-0.002508,-1.243693,-259.006042,-1.499576,69.42437
4.6776,-0.001728,-0.02737,-0.002132,-9.9e-05,0.000365,-0.001118,-0.003342,-0.537864,-0.003103,-1.168715,-259.006042,-1.472791,69.42437
4.6973,-0.001923,-0.028214,-0.002015,-0.000101,0.000362,-0.001247,-0.002871,-0.537421,-0.002235,-1.168715,-259.006042,-1.472791,69.42437
4.7171,-0.001433,-0.027803,-0.001971,-0.000103,0.00036,-0.001337,-0.002871,-0.537421,-0.002235,-1.168715,-259.006042,-1.472791,69.42437
4.7368,-0.001325,-0.02796,-0.003109,-0.000107,0.000359,-0.0014,-0.002438,-0.537802,-0.001971,-1.093718,-259.006042,-1.476561,69.42437
4.7572,-0.001936,-0.027644,-0.003184,-0.000124,0.000364,-0.001369,-0.00263,-0.537865,-0.002433,-1.093718,-259.006042,-1.476561,69.42437
4.777,-0.001629,-0.027754,-0.003733,-0.000138,0.000368,-0.001347,-0.00356,-0.537641,-0.003184,-1.018714,-259.006042,-1.483102,69.42437
4.797,-0.002059,-0.027582,-0.002507,-0.000134,0.000381,-0.000939,-0.003536,-0.537741,-0.003683,-1.018714,-259.006042,-1.483102,69.42437
4.8171,-0.001729,-0.027518,-0.003158,-0.000128,0.000388,-0.000644,-0.003536,-0.537741,-0.003683,-1.018714,-259.006042,-1.483102,69.42437
4.8372,-0.001644,-0.027802,-0.003909,-0.000119,0.00039,-0.000433,-0.00334,-0.537515,-0.003158,-0.943692,-259.006042,-1.455053,69.42437
4.8567,-0.001628,-0.027583,-0.004152,-0.000109,0.000387,-0.000347,-0.003461,-0.53763,-0.003463,-0.943692,-259.006042,-1.455053,69.42437
4.8767,-0.001785,-0.027965,-0.002347,-0.0001,0.000384,-0.000286,-0.003749,-0.53757,-0.004162,-0.868696,-259.006091,-1.390118,69.424183
4.897,-0.001577,-0.027481,-0.002626,-9.3e-05,0.000373,-0.000563,-0.00305,-0.537929,-0.002508,-0.868696,-259.006091,-1.390118,69.424183
4.9175,-0.001417,-0.027785,-0.00181,-9e-05,0.000366,-0.000757,-0.00305,-0.537929,-0.002508,-0.868696,-259.006091,-1.390118,69.424183
4.9371,-0.001699,-0.027835,-0.002106,-8.9e-05,0.000362,-0.000893,-0.002342,-0.537779,-0.001814,-0.943706,-259.006123,-1.393636,69.424105
4.9574,-0.001599,-0.027908,-0.001015,-9.9e-05,0.000358,-0.001212,-0.00251,-0.5378,-0.001928,-0.943706,-259.006123,-1.393636,69.424105
4.9767,-0.001537,-0.027576,-0.003051,-0.00011,0.000356,-0.001434,-0.002116,-0.537908,-0.001015,-0.868713,-259.006123,-1.46863,69.424105
4.9976,-0.001566,-0.027727,-0.002179,-0.000118,0.000364,-0.001251,-0.003,-0.537606,-0.002857,-0.868713,-259.006123,-1.46863,69.424105
5.0167,-0.001404,-0.027492,-0.001502,-0.000124,0.000369,-0.00112,-0.003,-0.537606,-0.002857,-0.868713,-259.006123,-1.46863,69.424105
5.0369,-0.001649,-0.027963,-0.002376,-0.000128,0.000371,-0.001027,-0.00217,-0.537491,-0.001502,-0.793714,-259.006123,-1.481789,69.424105
5.0568,-0.001885,-0.028027,-0.001423,-0.000133,0.000366,-0.001332,-0.002454,-0.537685,-0.001861,-0.793714,-259.006123,-1.481789,69.424105
5.0765,-0.002011,-0.027433,-0.001229,-0.000141,0.000363,-0.001544,-0.002611,-0.538027,-0.001423,-0.71856,-259.006123,-1.443605,69.424105
5.0969,-0.001814,-0.027968,-0.001774,-0.00013,0.000355,-0.001966,-0.002635,-0.537482,-0.001245,-0.71856,-259.006123,-1.443605,69.424105
5.1167,-0.001809,-0.028166,-0.00297,-0.000125,0.000352,-0.00226,-0.002635,-0.537482,-0.001245,-0.71856,-259.006123,-1.443605,69.424105
5.1373,-0.002119,-0.027318,-0.001167,-0.000125,0.000351,-0.002466,-0.003324,-0.538163,-0.00297,-0.643499,-259.006123,-1.463235,69.424105
5.1574,-0.001983,-0.027551,-0.00424,-0.00013,0.000358,-0.002202,-0.003077,-0.53782,-0.002238,-0.643499,-259.006123,-1.463235,69.424105
5.1769,-0.002125,-0.027759,-0.002545,-0.000132,0.000363,-0.002014,-0.004145,-0.537547,-0.00424,-0.718267,-259.006123,-1.503717,69.424105
5.1972,-0.00141,-0.027694,-0.000734,-0.000125,0.000368,-0.001722,-0.003484,-0.537739,-0.002689,-0.718267,-259.006123,-1.503717,69.424105
5.2169,-0.001629,-0.027451,-0.003631,-0.000115,0.000369,-0.001513,-0.003484,-0.537739,-0.002689,-0.718267,-259.006123,-1.503717,69.424105
5.2372,-0.001362,-0.027506,-0.003433,-0.000106,0.000368,-0.001364,-0.003481,-0.537448,-0.003631,-0.793419,-259.006123,-1.488006,69.424105
5.257,-0.00176,-0.027519,-0.003725,-0.000113,0.000382,-0.000988,-0.003332,-0.53747,-0.003551,-0.793419,-259.006123,-1.488006,69.424105
5.2771,-0.001486,-0.027698,-0.002662,-0.000115,0.000389,-0.000717,-0.00366,-0.537515,-0.003725,-0.718445,-259.006123,-1.482981,69.424105
5.2972,-0.001529,-0.027743,-0.00275,-0.000119,0.000385,-0.000779,-0.002909,-0.537682,-0.002747,-0.718445,-259.006123,-1.482981,69.424105
5.3171,-0.001978,-0.027758,-0.00398,-0.000123,0.000382,-0.000822,-0.002909,-0.537682,-0.002747,-0.718445,-259.006123,-1.482981,69.424105
5.337,-0.001876,-0.027787,-0.003493,-0.000126,0.00038,-0.000852,-0.004007,-0.537754,-0.00398,-0.643335,-259.006123,-1.432782,69.424105
5.357,-0.001806,-0.027456,-0.003745,-0.000109,0.000384,-0.000556,-0.003864,-0.537766,-0.003781,-0.643335,-259.006123,-1.432782,69.424105
5.3774,-0.001567,-0.02775,-0.002933,-9.3e-05,0.000384,-0.000343,-0.003716,-0.537452,-0.003745,-0.56838,-259.006123,-1.431684,69.424105
5.3971,-0.001882,-0.027495,-0.002772,-9.3e-05,0.000379,-0.00043,-0.003118,-0.537723,-0.003002,-0.56838,-259.006123,-1.431684,69.424105
5.4175,-0.002002,-0.027666,-0.003089,-9.3e-05,0.000376,-0.000491,-0.003118,-0.537723,-0.003002,-0.56838,-259.006123,-1.431684,69.424105
5.4375,-0.001759,-0.027537,-0.001607,-9.4e-05,0.000373,-0.000534,-0.003577,-0.537664,-0.00309,-0.643467,-259.006124,-1.415568,69.424102
5.4581,-0.001343,-0.027796,-0.003414,-8.4e-05,0.000364,-0.000748,-0.003166,-0.537611,-0.002479,-0.643467,-259.006124,-1.415568,69.424102
5.4766,-0.002016,-0.027979,-0.003877,-7.8e-05,0.000358,-0.000897,-0.003086,-0.537786,-0.003425,-0.56863,-259.006148,-1.437651,69.423934
5.4967,-0.00209,-0.02777,-0.002725,-6.9e-05,0.000368,-0.000574,-0.003912,-0.537957,-0.003837,-0.56863,-259.006148,-1.437651,69.423934
5.5169,-0.001904,-0.02769,-0.00225,-5.9e-05,0.000373,-0.00034,-0.003912,-0.537957,-0.003837,-0.56863,-259.006148,-1.437651,69.423934
5.5372,-0.00147,-0.027771,-0.002331,-4.8e-05,0.000374,-0.000173,-0.003051,-0.537689,-0.00225,-0.49358,-259.006148,-1.48492,69.423934
5.5572,-0.001709,-0.027816,-0.002059,-4.8e-05,0.000363,-0.000571,-0.002896,-0.537721,-0.002282,-0.49358,-259.006148,-1.48492,69.423934
5.5767,-0.001865,-0.027652,-0.003095,-5.3e-05,0.000357,-0.000849,-0.002759,-0.537815,-0.002059,-0.568417,-259.006149,-1.471705,69.423934
5.597,-0.001763,-0.027629,-0.002819,-5.3e-05,0.000359,-0.000789,-0.003382,-0.537664,-0.003003,-0.568417,-259.006149,-1.471705,69.423934
5.6169,-0.001915,-0.027935,-0.003849,-5.3e-05,0.00036,-0.000746,-0.003382,-0.537664,-0.003003,-0.568417,-259.006149,-1.471705,69.423934
5.6369,-0.001392,-0.027727,-0.002749,-5.3e-05,0.00036,-0.000715,-0.003878,-0.537931,-0.003849,-0.493373,-259.006149,-1.510749,69.423934
5.657,-0.001797,-0.027685,-0.003482,-5.7e-05,0.000366,-0.000567,-0.003434,-0.537847,-0.003399,-0.493373,-259.006149,-1.510749,69.423934
5.6771,-0.001708,-0.028002,-0.001206,-5.9e-05,0.000369,-0.000461,-0.003573,-0.537681,-0.003482,-0.41836,-259.006149,-1.504856,69.423934
5.6972,-0.001926,-0.027612,-0.002406,-6.2e-05,0.00036,-0.00114,-0.002434,-0.537974,-0.001408,-0.41836,-259.006149,-1.504856,69.423934
5.7172,-0.002009,-0.027935,-0.005248,-7.1e-05,0.000355,-0.001613,-0.002434,-0.537974,-0.001408,-0.41836,-259.006149,-1.504856,69.423934
5.7369,-0.001708,-0.027502,-0.001525,-8.3e-05,0.000354,-0.001942,-0.004686,-0.537928,-0.005248,-0.49335,-259.006149,-1.480988,69.423933
5.7568,-0.002024,-0.027956,-0.002246,-8.3e-05,0.000375,-0.001367,-0.00379,-0.537755,-0.003733,-0.49335,-259.006149,-1.480988,69.423933
5.7771,-0.001853,-0.027978,-0.003292,-7.9e-05,0.000385,-0.000947,-0.003169,-0.537955,-0.002246,-0.568354,-259.006149,-1.516725,69.423933
5.7972,-0.0021,-0.027809,-0.003004,-7.6e-05,0.000385,-0.000798,-0.003502,-0.537973,-0.003204,-0.568354,-259.006149,-1.516725,69.423933
5.8169,-0.0015,-0.027781,-0.002282,-7.3e-05,0.000383,-0.00069,-0.003502,-0.537973,-0.003204,-0.568354,-259.006149,-1.516725,69.423933
5.837,-0.001917,-0.027374,-0.003973,-6.9e-05,0.000381,-0.000612,-0.002664,-0.53778,-0.002282,-0.493255,-259.006149,-1.489172,69.423932
5.8568,-0.001623,-0.027401,-0.002895,-7.1e-05,0.000378,-0.000628,-0.003193,-0.53761,-0.002982,-0.493255,-259.006149,-1.489172,69.423932
5.8766,-0.001818,-0.027759,-0.003018,-7.3e-05,0.000375,-0.000639,-0.003099,-0.537398,-0.002896,-0.418264,-259.006151,-1.479494,69.423907
5.8969,-0.001713,-0.027689,-0.00362,-7.1e-05,0.000373,-0.000638,-0.003335,-0.537726,-0.003008,-0.418264,-259.006151,-1.479494,69.423907
5.9175,-0.001927,-0.027307,-0.003287,-6.9e-05,0.00037,-0.000636,-0.003335,-0.537726,-0.003008,-0.418264,-259.006151,-1.479494,69.423907
5.9369,-0.001912,-0.027585,-0.000941,-6.7e-05,0.000368,-0.000635,-0.003603,-0.537304,-0.003287,-0.343297,-259.006151,-1.47558,69.423907
5.9569,-0.001821,-0.0276,-0.001269,-6.1e-05,0.00036,-0.000872,-0.003112,-0.537418,-0.002336,-0.343297,-259.006151,-1.47558,69.423907
5.9769,-0.001781,-0.027723,-0.003513,-5.8e-05,0.000354,-0.001037,-0.002468,-0.5376,-0.001269,-0.268234,-259.006151,-1.482664,69.423906
5.9969,-0.001327,-0.027933,-0.003185,-6.1e-05,0.000362,-0.000823,-0.003474,-0.537709,-0.003313,-0.268234,-259.006151,-1.482664,69.423906
6.0169,-0.001788,-0.02755,-0.003825,-6.2e-05,0.000367,-0.000671,-0.003474,-0.537709,-0.003313,-0.268234,-259.006151,-1.482664,69.423906
6.0369,-0.001618,-0.027903,-0.002325,-6.1e-05,0.000369,-0.000562,-0.003739,-0.537546,-0.003825,-0.193402,-259.006151,-1.51168,69.423906
6.0572,-0.002041,-0.027779,-0.002051,-6.2e-05,0.000369,-0.000516,-0.003356,-0.537692,-0.003211,-0.193402,-259.006151,-1.51168,69.423906
6.0767,-0.001459,-0.027998,-0.00249,-6.2e-05,0.000369,-0.000484,-0.003088,-0.537772,-0.00206,-0.268487,-259.006164,-1.485345,69.423763
6.097,-0.001686,-0.027474,-0.002818,-7.3e-05,0.000365,-0.00072,-0.00276,-0.537977,-0.002454,-0.268487,-259.006164,-1.485345,69.423763
6.117,-0.00177,-0.027772,-0.002703,-8.4e-05,0.000364,-0.000885,-0.00276,-0.537977,-0.002454,-0.268487,-259.006164,-1.485345,69.423763
6.1369,-0.002029,-0.027535,-0.002412,-9.5e-05,0.000363,-0.001001,-0.003148,-0.53777,-0.002703,-0.343513,-259.006164,-1.477729,69.423762
6.1567,-0.001546,-0.027456,-0.001852,-9.1e-05,0.00036,-0.001037,-0.003193,-0.537674,-0.002584,-0.343513,-259.006164,-1.477729,69.423762
6.1771,-0.001753,-0.027791,-0.002617,-8.8e-05,0.000358,-0.001062,-0.00249,-0.537455,-0.001852,-0.268568,-259.006165,-1.473593,69.423762
6.1967,-0.002191,-0.02756,-0.004698,-9.1e-05,0.000358,-0.001092,-0.003032,-0.537758,-0.002545,-0.268568,-259.006165,-1.473593,69.423762
6.217,-0.002003,-0.027608,-0.003598,-9.4e-05,0.000359,-0.001113,-0.003032,-0.537758,-0.002545,-0.268568,-259.006165,-1.473593,69.423762
6.2367,-0.002154,-0.027486,-0.003053,-9.7e-05,0.000359,-0.001128,-0.003838,-0.537605,-0.003598,-0.193399,-259.006165,-1.484095,69.423762
6.2567,-0.001821,-0.027547,-0.002662,-8.4e-05,0.000363,-0.000871,-0.003785,-0.537554,-0.003371,-0.193399,-259.006165,-1.484095,69.423762
6.2766,-0.001978,-0.027687,-0.003805,-7e-05,0.000364,-0.000687,-0.003179,-0.537545,-0.002662,-0.118288,-259.006165,-1.478348,69.423762
6.2968,-0.00146,-0.027582,-0.002719,-6e-05,0.000369,-0.000459,-0.003852,-0.537671,-0.003702,-0.118288,-259.006165,-1.478348,69.423762
6.317,-0.001684,-0.027825,-0.001225,-4.9e-05,0.00037,-0.000295,-0.003852,-0.537671,-0.003702,-0.118288,-259.006165,-1.478348,69.423762
6.3367,-0.001751,-0.027668,-0.0034,-3.8e-05,0.000369,-0.000179,-0.002309,-0.537825,-0.001225,-0.043645,-259.006165,-1.481513,69.423762
6.3566,-0.001925,-0.027658,-0.002978,-4.1e-05,0.000359,-0.000641,-0.00279,-0.53776,-0.002114,-0.043645,-259.006165,-1.481513,69.423762
6.3765,-0.001876,-0.027733,-0.002259,-4.9e-05,0.000354,-0.000963,-0.003444,-0.537655,-0.002978,-0.118685,-259.006165,-1.491673,69.423762
6.3966,-0.001457,-0.027923,-0.002709,-5.2e-05,0.000351,-0.001108,-0.003064,-0.537725,-0.002322,-0.118685,-259.006165,-1.491673,69.423762
6.417,-0.001585,-0.027457,-0.003285,-5.6e-05,0.00035,-0.001209,-0.003064,-0.537725,-0.002322,-0.118685,-259.006165,-1.491673,69.423762
6.4368,-0.002065,-0.02748,-0.004055,-6.1e-05,0.00035,-0.001279,-0.00326,-0.537454,-0.003285,-0.04366,-259.006165,-1.519085,69.423762
6.457,-0.001577,-0.027776,-0.002673,-6.3e-05,0.000364,-0.000913,-0.003621,-0.537463,-0.003603,-0.04366,-259.006165,-1.519085,69.423762
6.4769,-0.00171,-0.027643,-0.003988,-6.1e-05,0.000371,-0.000649,-0.00294,-0.537774,-0.002673,0.031465,-259.006165,-1.517128,69.423762
6.4969,-0.001406,-0.027814,-0.003298,-6e-05,0.000379,-0.000385,-0.003671,-0.537651,-0.003868,0.031465,-259.006165,-1.517128,69.423762
6.5167,-0.00203,-0.027994,-0.002586,-5.7e-05,0.000382,-0.000196,-0.003671,-0.537651,-0.003868,0.031465,-259.006165,-1.517128,69.423762
6.5369,-0.00146,-0.027623,-0.002139,-5.2e-05,0.000383,-6e-05,-0.003349,-0.537991,-0.002589,0.106289,-259.006168,-1.491024,69.423727
6.5571,-0.001956,-0.027876,-0.003701,-4.8e-05,0.00037,-0.000445,-0.003024,-0.537841,-0.002406,0.106289,-259.006168,-1.491024,69.423727
6.5767,-0.001765,-0.027645,-0.002606,-4.9e-05,0.000363,-0.000714,-0.003844,-0.537872,-0.003701,0.031289,-259.006168,-1.44771,69.423727
6.5968,-0.001633,-0.027644,-0.003738,-5.2e-05,0.000361,-0.000794,-0.003161,-0.537664,-0.002704,0.031289,-259.006168,-1.44771,69.423727
6.6168,-0.001564,-0.02759,-0.002173,-5.5e-05,0.000359,-0.00085,-0.003161,-0.537664,-0.002704,0.031289,-259.006168,-1.44771,69.423727
6.637,-0.001361,-0.027308,-0.003183,-5.9e-05,0.000359,-0.000889,-0.002673,-0.537589,-0.002173,0.10628,-259.006168,-1.509174,69.423727
6.6568,-0.001877,-0.027523,-0.000686,-7.3e-05,0.00036,-0.000957,-0.0028,-0.537474,-0.002584,0.10628,-259.006168,-1.509174,69.423727
6.6769,-0.001665,-0.027807,-0.002703,-8.5e-05,0.000362,-0.001004,-0.002227,-0.537522,-0.000686,0.18131,-259.006168,-1.50572,69.423727
6.6969,-0.001604,-0.027647,-0.002984,-9e-05,0.000361,-0.001056,-0.002975,-0.537781,-0.002534,0.18131,-259.006168,-1.50572,69.423727
6.7169,-0.001464,-0.027822,-0.002755,-9.5e-05,0.000361,-0.001092,-0.002975,-0.537781,-0.002534,0.18131,-259.006168,-1.50572,69.423727
6.7366,-0.002353,-0.027599,-0.001463,-9.9e-05,0.000361,-0.001117,-0.002869,-0.53782,-0.002755,0.256485,-259.006168,-1.484044,69.423727
6.7567,-0.001827,-0.027625,-0.002978,-9.8e-05,0.000358,-0.001247,-0.002962,-0.53773,-0.00223,0.256485,-259.006168,-1.484044,69.423727
6.7767,-0.001927,-0.027576,-0.002066,-9.9e-05,0.000356,-0.001339,-0.003346,-0.537623,-0.002978,0.331271,-259.006168,-1.476061,69.423727
6.7967,-0.002119,-0.027563,-0.002057,-9.7e-05,0.000353,-0.001437,-0.003011,-0.537579,-0.002141,0.331271,-259.006168,-1.476061,69.423727
6.8167,-0.002042,-0.02774,-0.0016,-9.6e-05,0.000351,-0.001507,-0.003011,-0.537579,-0.002141,0.331271,-259.006168,-1.476061,69.423727
6.8371,-0.001931,-0.027681,-0.002613,-9.6e-05,0.000351,-0.001555,-0.002858,-0.537739,-0.0016,0.406492,-259.006168,-1.486414,69.423727
6.8568,-0.001399,-0.027731,-0.001863,-9.5e-05,0.000349,-0.001637,-0.003025,-0.537715,-0.002017,0.406492,-259.006168,-1.486414,69.423727
6.8767,-0.001635,-0.028101,-0.003505,-9.5e-05,0.000349,-0.001695,-0.002349,-0.53773,-0.001863,0.481371,-259.006168,-1.496959,69.423727
6.897,-0.001396,-0.027753,-0.002548,-0.000106,0.000367,-0.001277,-0.003335,-0.538068,-0.00337,0.481371,-259.006168,-1.496959,69.423727
6.9168,-0.001523,-0.028076,-0.002772,-0.000112,0.000377,-0.000977,-0.003335,-0.538068,-0.00337,0.481371,-259.006168,-1.496959,69.423727
6.9369,-0.001675,-0.027665,-0.002421,-0.000115,0.000383,-0.000762,-0.002937,-0.538074,-0.002772,0.556489,-259.006168,-1.502451,69.423727
6.957,-0.00127,-0.027806,-0.002823,-0.000117,0.000379,-0.000851,-0.002926,-0.537906,-0.002629,0.556489,-259.006168,-1.502451,69.423727
6.9767,-0.001639,-0.027597,-0.003217,-0.00012,0.000376,-0.000913,-0.002713,-0.537794,-0.002844,0.622341,-259.006217,-1.436443,69.423429
6.9969,-0.001685,-0.027945,-0.002179,-0.000119,0.000378,-0.000773,-0.003231,-0.537611,-0.003186,0.622341,-259.006217,-1.436443,69.423429
7.017,-0.001605,-0.027633,-0.005803,-0.000117,0.000379,-0.000673,-0.003231,-0.537611,-0.003186,0.622341,-259.006217,-1.436443,69.423429
7.0367,-0.001521,-0.027943,-0.002386,-0.000114,0.000379,-0.000602,-0.004565,-0.537623,-0.005807,0.697425,-259.006227,-1.442818,69.423386
7.0568,-0.001763,-0.027875,-0.002268,-0.000105,0.000392,-0.000226,-0.003793,-0.537757,-0.004363,0.697425,-259.006227,-1.442818,69.423386
7.0765,-0.001692,-0.027796,-0.003939,-9.5e-05,0.000398,4.8e-05,-0.00292,-0.537874,-0.002268,0.622083,-259.006227,-1.419248,69.423386
7.0969,-0.00193,-0.027508,-0.003416,-8.2e-05,0.000393,9.1e-05,-0.003632,-0.5378,-0.003791,0.622083,-259.006227,-1.419248,69.423386
7.1167,-0.001945,-0.027619,-0.001623,-7.1e-05,0.000388,0.000122,-0.003632,-0.5378,-0.003791,0.622083,-259.006227,-1.419248,69.423386
7.1369,-0.001729,-0.027731,-0.002431,-6.1e-05,0.000383,0.000143,-0.002772,-0.537618,-0.001623,0.547512,-259.006227,-1.344678,69.423386
7.1566,-0.001453,-0.027423,-0.003357,-5.1e-05,0.000366,-0.000488,-0.002852,-0.537663,-0.001951,0.547512,-259.006227,-1.344678,69.423386
7.1765,-0.001662,-0.027572,-0.00347,-4.8e-05,0.000356,-0.000927,-0.003165,-0.537421,-0.003357,0.62245,-259.006227,-1.36692,69.423386
7.1967,-0.001787,-0.027551,-0.003516,-5.4e-05,0.000364,-0.000705,-0.003408,-0.537555,-0.00346,0.62245,-259.006227,-1.36692,69.423386
7.2167,-0.001981,-0.027368,-0.002089,-5.7e-05,0.000369,-0.000545,-0.003408,-0.537555,-0.00346,0.62245,-259.006227,-1.36692,69.423386
7.2365,-0.001727,-0.028106,-0.001583,-5.9e-05,0.000372,-0.000431,-0.003047,-0.537367,-0.002089,0.697481,-259.006227,-1.441951,69.423386
7.2567,-0.001869,-0.027331,-0.002647,-5.4e-05,0.00036,-0.000913,-0.002839,-0.537667,-0.001883,0.697481,-259.006227,-1.441951,69.423386
7.2768,-0.001891,-0.027571,-0.002954,-5.6e-05,0.000352,-0.001249,-0.003219,-0.537329,-0.002647,0.622514,-259.006227,-1.478646,69.423386
7.2967,-0.002007,-0.027691,-0.003835,-5.7e-05,0.000357,-0.0011,-0.003382,-0.537547,-0.002926,0.622514,-259.006227,-1.478646,69.423386
7.3168,-0.001895,-0.027756,-0.003105,-5.8e-05,0.000359,-0.000993,-0.003382,-0.537547,-0.002926,0.622514,-259.006227,-1.478646,69.423386
7.3369,-0.001919,-0.027688,-0.001569,-5.7e-05,0.00036,-0.000916,-0.003479,-0.537753,-0.003105,0.697538,-259.006227,-1.521067,69.423386
7.3569,-0.001812,-0.027809,-0.003029,-5.7e-05,0.000357,-0.001019,-0.003165,-0.537726,-0.002471,0.697538,-259.006227,-1.521067,69.423386
7.3765,-0.001642,-0.027881,-0.0047,-5.9e-05,0.000355,-0.00109,-0.003357,-0.537807,-0.003029,0.772647,-259.006227,-1.508853,69.423385
7.3972,-0.001783,-0.028042,-0.003315,-5.7e-05,0.00038,-0.000544,-0.003981,-0.537869,-0.004556,0.772647,-259.006227,-1.508853,69.423385
7.417,-0.001898,-0.027839,-0.003355,-5.3e-05,0.000395,-0.000142,-0.003981,-0.537869,-0.004556,0.772647,-259.006227,-1.508853,69.423385
7.4367,-0.001909,-0.027809,-0.003342,-4.5e-05,0.000402,0.000153,-0.003609,-0.537836,-0.003355,0.847622,-259.006227,-1.513077,69.423385
7.4569,-0.00128,-0.027753,-0.003803,-3.4e-05,0.00039,2.9e-05,-0.003611,-0.537824,-0.00335,0.847622,-259.006227,-1.513077,69.423385
7.477,-0.001721,-0.027601,-0.003528,-2.6e-05,0.000381,-5.9e-05,-0.00322,-0.537749,-0.003803,0.922652,-259.006227,-1.438046,69.423385
7.4973,-0.002018,-0.027902,-0.004009,-2.5e-05,0.000379,-5.6e-05,-0.003493,-0.537611,-0.003553,0.922652,-259.006227,-1.438046,69.423385
7.517,-0.002309,-0.027567,-0.00221,-2.5e-05,0.000377,-5.4e-05,-0.003493,-0.537611,-0.003553,0.922652,-259.006227,-1.438046,69.423385
7.5371,-0.001713,-0.02775,-0.003699,-2.5e-05,0.000375,-5.3e-05,-0.003436,-0.537566,-0.00221,0.997524,-259.006227,-1.509469,69.423385
7.5569,-0.001649,-0.027603,-0.002753,-1.3e-05,0.000363,-0.000294,-0.003502,-0.537639,-0.002815,0.997524,-259.006227,-1.509469,69.423385
7.5771,-0.002051,-0.027692,-0.002513,-6e-06,0.000355,-0.000462,-0.003053,-0.537601,-0.002753,1.072525,-259.006227,-1.509472,69.423384
7.5969,-0.001748,-0.027567,-0.001869,-5e-06,0.00035,-0.000679,-0.003308,-0.537683,-0.002535,1.072525,-259.006227,-1.509472,69.423384
7.6168,-0.001819,-0.027537,-0.002961,-6e-06,0.000346,-0.00083,-0.003308,-0.537683,-0.002535,1.072525,-259.006227,-1.509472,69.423384
7.6367,-0.002167,-0.027742,-0.002656,-9e-06,0.000345,-0.000936,-0.003329,-0.537534,-0.002961,1.14762,-259.006227,-1.560925,69.423384
7.6568,-0.001661,-0.027844,-0.002308,-1.3e-05,0.000347,-0.000905,-0.003407,-0.537619,-0.002836,1.14762,-259.006227,-1.560925,69.423384
7.6772,-0.001946,-0.027668,-0.001858,-1.7e-05,0.000349,-0.000882,-0.002838,-0.537841,-0.00231,1.222643,-259.006235,-1.561276,69.423351
7.6972,-0.001805,-0.027695,-0.003192,-2.3e-05,0.000344,-0.001217,-0.002889,-0.537682,-0.001898,1.222643,-259.006235,-1.561276,69.423351
7.7171,-0.002111,-0.027695,-0.003734,-3.1e-05,0.000342,-0.00145,-0.002889,-0.537682,-0.001898,1.222643,-259.006235,-1.561276,69.423351
7.7365,-0.001527,-0.027665,-0.003554,-4.1e-05,0.000342,-0.001613,-0.004016,-0.537687,-0.003746,1.297613,-259.00626,-1.551888,69.423233
7.7571,-0.001241,-0.027796,-0.001414,-4.6e-05,0.000362,-0.001138,-0.003739,-0.537676,-0.003669,1.297613,-259.00626,-1.551888,69.423233
7.7766,-0.001918,-0.02761,-0.003957,-4.7e-05,0.000373,-0.000793,-0.001963,-0.53779,-0.001439,1.372514,-259.006387,-1.54001,69.422971
7.7972,-0.001646,-0.027724,-0.002924,-4.4e-05,0.000379,-0.000521,-0.003777,-0.537621,-0.003755,1.372514,-259.006387,-1.54001,69.422971
7.8172,-0.001869,-0.027829,-0.00384,-3.9e-05,0.000381,-0.000325,-0.003777,-0.537621,-0.003755,1.372514,-259.006387,-1.54001,69.422971
7.837,-0.001619,-0.027306,-0.003537,-3.3e-05,0.000381,-0.000185,-0.003828,-0.537817,-0.003857,1.297212,-259.006412,-1.51579,69.422793
7.8571,-0.001706,-0.027701,-0.003126,-3e-05,0.000381,-9.3e-05,-0.00366,-0.537603,-0.003727,1.297212,-259.006412,-1.51579,69.422793
7.8771,-0.001761,-0.027878,-0.0027,-2.6e-05,0.000379,-2.7e-05,-0.0033,-0.537698,-0.003126,1.37202,-259.006404,-1.503836,69.422779
7.8973,-0.002011,-0.028116,-0.000972,-2.7e-05,0.00037,-0.000301,-0.003152,-0.537861,-0.002736,1.37202,-259.006404,-1.503836,69.422779
7.9177,-0.00216,-0.027575,-0.003349,-3.1e-05,0.000364,-0.000493,-0.003152,-0.537861,-0.002736,1.37202,-259.006404,-1.503836,69.422779
7.9369,-0.001591,-0.027675,-0.003164,-3.6e-05,0.000361,-0.000627,-0.003868,-0.537567,-0.00335,1.447062,-259.00636,-1.504297,69.422731
7.9569,-0.00152,-0.027527,-0.002484,-3.2e-05,0.000362,-0.000544,-0.003601,-0.537609,-0.003275,1.447062,-259.00636,-1.504297,69.422731
7.9767,-0.001933,-0.027803,-0.003092,-2.8e-05,0.000362,-0.000485,-0.002787,-0.537525,-0.002484,1.372209,-259.00636,-1.52262,69.422731
7.9968,-0.001943,-0.027793,-0.001647,-2.8e-05,0.00036,-0.000519,-0.003444,-0.537775,-0.003037,1.372209,-259.00636,-1.52262,69.422731
8.0168,-0.001539,-0.028001,-0.002269,-2.8e-05,0.000359,-0.000543,-0.003444,-0.537775,-0.003037,1.372209,-259.00636,-1.52262,69.422731
8.0368,-0.001338,-0.02786,-0.003228,-2.8e-05,0.000358,-0.00056,-0.002696,-0.537999,-0.002269,1.297201,-259.00636,-1.527598,69.42273
8.057,-0.001708,-0.027671,-0.002907,-4.6e-05,0.000359,-0.000698,-0.002814,-0.537942,-0.00266,1.297201,-259.00636,-1.527598,69.42273
8.0769,-0.001602,-0.02748,-0.002733,-6.2e-05,0.00036,-0.000795,-0.003191,-0.537669,-0.002907,1.222213,-259.00636,-1.530737,69.42273
8.0971,-0.001805,-0.027789,-0.001171,-6.9e-05,0.000361,-0.000834,-0.003013,-0.537495,-0.002749,1.222213,-259.00636,-1.530737,69.42273
8.1175,-0.001578,-0.027501,-0.003703,-7.5e-05,0.000361,-0.00086,-0.003013,-0.537495,-0.002749,1.222213,-259.00636,-1.530737,69.42273
8.1369,-0.001374,-0.027611,-0.003853,-8.1e-05,0.000362,-0.000879,-0.003468,-0.537486,-0.003729,1.147156,-259.006405,-1.497462,69.422458
8.1568,-0.002069,-0.027504,-0.003166,-8.6e-05,0.000374,-0.000572,-0.003416,-0.537534,-0.003783,1.147156,-259.006405,-1.497462,69.422458
8.1765,-0.001495,-0.027969,-0.002534,-8.7e-05,0.000381,-0.000353,-0.003686,-0.53749,-0.003194,1.137011,-259.006482,-1.48095,69.422097
8.1971,-0.001402,-0.027778,-0.002608,-9.1e-05,0.000374,-0.000579,-0.00286,-0.537929,-0.002588,1.137011,-259.006482,-1.48095,69.422097
8.217,-0.002123,-0.02759,-0.002309,-9.6e-05,0.00037,-0.000739,-0.00286,-0.537929,-0.002588,1.137011,-259.006482,-1.48095,69.422097
8.2369,-0.001656,-0.027104,-0.003534,-0.000102,0.000368,-0.00085,-0.003301,-0.537589,-0.002309,1.061727,-259.006482,-1.425353,69.422097
8.2566,-0.001497,-0.027737,-0.001372,-9e-05,0.000363,-0.000852,-0.003366,-0.537387,-0.002814,1.061727,-259.006482,-1.425353,69.422097
8.2768,-0.001554,-0.027631,-0.002784,-8.1e-05,0.00036,-0.000852,-0.0022,-0.537726,-0.001396,0.986922,-259.006547,-1.456754,69.421782
8.2967,-0.002017,-0.027456,-0.002812,-8.9e-05,0.000361,-0.000904,-0.002905,-0.537637,-0.002662,0.986922,-259.006547,-1.456754,69.421782
8.3168,-0.001801,-0.027621,-0.003487,-9.6e-05,0.000362,-0.000939,-0.002905,-0.537637,-0.002662,0.986922,-259.006547,-1.456754,69.421782
8.3368,-0.001867,-0.027493,-0.0025,-0.000103,0.000362,-0.000964,-0.003582,-0.537606,-0.003515,1.061828,-259.006604,-1.478938,69.421499
8.357,-0.001074,-0.027831,-0.003137,-9.7e-05,0.000364,-0.000836,-0.003403,-0.537557,-0.003103,1.061828,-259.006604,-1.478938,69.421499
8.3767,-0.001282,-0.027608,-0.002492,-9.1e-05,0.000365,-0.000745,-0.002676,-0.537818,-0.003164,1.136816,-259.006693,-1.462975,69.421157
8.397,-0.001747,-0.027674,-0.002152,-0.000107,0.000366,-0.000865,-0.002564,-0.537625,-0.002554,1.136816,-259.006693,-1.462975,69.421157
8.417,-0.001361,-0.027655,-0.003112,-0.000122,0.000367,-0.000949,-0.002564,-0.537625,-0.002554,1.136816,-259.006693,-1.462975,69.421157
8.4367,-0.001874,-0.027899,-0.003648,-0.000135,0.000369,-0.001008,-0.002948,-0.53765,-0.003116,1.061841,-259.0067,-1.460472,69.421116
8.4571,-0.001498,-0.027863,-0.003523,-0.000133,0.000374,-0.000795,-0.00327,-0.53775,-0.003334,1.061841,-259.0067,-1.460472,69.421116
8.4768,-0.001727,-0.027692,-0.003082,-0.00013,0.000377,-0.000643,-0.003299,-0.537849,-0.003554,1.070022,-259.006811,-1.434247,69.420723
8.497,-0.001475,-0.027864,-0.002905,-0.000121,0.000375,-0.000601,-0.003298,-0.537703,-0.003126,1.070022,-259.006811,-1.434247,69.420723
8.5168,-0.001785,-0.027418,-0.003475,-0.000114,0.000373,-0.000571,-0.003298,-0.537703,-0.003126,1.070022,-259.006811,-1.434247,69.420723
8.5367,-0.001587,-0.027716,-0.003277,-0.000107,0.00037,-0.00055,-0.003557,-0.537415,-0.003475,0.995013,-259.006811,-1.40363,69.420723
8.5566,-0.000781,-0.027487,-0.002702,-9.9e-05,0.000371,-0.000451,-0.003434,-0.537538,-0.003393,0.995013,-259.006811,-1.40363,69.420723
8.5769,-0.001693,-0.027741,-0.004609,-9.2e-05,0.00037,-0.000381,-0.002159,-0.537485,-0.002702,0.919854,-259.006811,-1.420221,69.420723
8.5973,-0.001602,-0.027295,-0.002936,-8.2e-05,0.000382,-4.8e-05,-0.003874,-0.537713,-0.004437,0.919854,-259.006811,-1.420221,69.420723
8.6172,-0.001325,-0.027356,-0.003581,-7.1e-05,0.000388,0.000195,-0.003874,-0.537713,-0.004437,0.919854,-259.006811,-1.420221,69.420723
8.6373,-0.001708,-0.027757,-0.002498,-5.9e-05,0.000391,0.00037,-0.003151,-0.537353,-0.003581,0.844975,-259.006811,-1.420028,69.420723
8.6574,-0.002161,-0.027969,-0.004007,-5.7e-05,0.00038,0.000116,-0.003083,-0.537514,-0.003145,0.844975,-259.006811,-1.420028,69.420723
8.6771,-0.001516,-0.027697,-0.00362,-5.8e-05,0.000374,-6.2e-05,-0.004205,-0.537965,-0.004007,0.919972,-259.006811,-1.345031,69.420723
8.697,-0.001568,-0.027538,-0.003339,-5.6e-05,0.000374,-2.8e-05,-0.003439,-0.537718,-0.003655,0.919972,-259.006811,-1.345031,69.420723
8.7171,-0.001841,-0.027635,-0.004125,-5.4e-05,0.000373,-4e-06,-0.003439,-0.537718,-0.003655,0.919972,-259.006811,-1.345031,69.420723
8.7368,-0.001785,-0.02753,-0.003229,-5.2e-05,0.000372,1.3e-05,-0.003945,-0.53763,-0.004125,0.994973,-259.006811,-1.420032,69.420723
8.7569,-0.001461,-0.02751,-0.004367,-4e-05,0.000369,5.6e-05,-0.003738,-0.537589,-0.003764,0.994973,-259.006811,-1.420032,69.420723
8.7769,-0.001459,-0.027719,-0.002728,-3e-05,0.000367,8.8e-05,-0.003688,-0.537505,-0.004367,1.070014,-259.006811,-1.428319,69.420723
8.7969,-0.001334,-0.027445,-0.00232,-3.8e-05,0.000362,-0.000173,-0.002926,-0.537698,-0.002876,1.070014,-259.006811,-1.428319,69.420723
8.8172,-0.001408,-0.027556,-0.003956,-4.7e-05,0.000359,-0.000356,-0.002926,-0.537698,-0.002876,1.070014,-259.006811,-1.428319,69.420723
8.8372,-0.001571,-0.027509,-0.003574,-5.7e-05,0.000359,-0.000484,-0.003425,-0.537552,-0.003956,1.144973,-259.00681,-1.475523,69.420722
8.8571,-0.001965,-0.027892,-0.003544,-6.2e-05,0.000367,-0.000286,-0.003412,-0.537533,-0.0038,1.144973,-259.00681,-1.475523,69.420722
8.8772,-0.001446,-0.027163,-0.002199,-6.3e-05,0.000373,-0.000145,-0.003772,-0.537889,-0.003544,1.069959,-259.00681,-1.483709,69.420722
8.8969,-0.001948,-0.027576,-0.003147,-6.6e-05,0.000363,-0.000539,-0.002674,-0.537227,-0.002318,1.069959,-259.00681,-1.483709,69.420722
8.9167,-0.001629,-0.027509,-0.004181,-7.3e-05,0.000358,-0.000814,-0.002674,-0.537227,-0.002318,1.069959,-259.00681,-1.483709,69.420722
8.9365,-0.001741,-0.027489,-0.003509,-8.2e-05,0.000356,-0.001005,-0.003761,-0.537505,-0.004181,0.99482,-259.00681,-1.434199,69.420722
8.9567,-0.001507,-0.027986,-0.003144,-7.9e-05,0.000369,-0.000634,-0.003667,-0.537497,-0.003905,0.99482,-259.00681,-1.434199,69.420722
8.9765,-0.001409,-0.027931,-0.005199,-7.3e-05,0.000376,-0.000367,-0.003111,-0.53798,-0.003153,1.06978,-259.006842,-1.486665,69.420607
8.9967,-0.002147,-0.027712,-0.005409,-6.7e-05,0.000397,8.6e-05,-0.003973,-0.537929,-0.005013,1.06978,-259.006842,-1.486665,69.420607
9.0173,-0.001574,-0.027607,-0.003769,-5.9e-05,0.000408,0.00042,-0.003973,-0.537929,-0.005013,1.06978,-259.006842,-1.486665,69.420607
9.0368,-0.001848,-0.027446,-0.004161,-4.8e-05,0.000414,0.000665,-0.003496,-0.537603,-0.003769,0.99489,-259.006842,-1.4492,69.420607
9.0567,-0.001924,-0.027524,-0.002648,-3.3e-05,0.000401,0.000565,-0.003687,-0.537538,-0.003927,0.99489,-259.006842,-1.4492,69.420607
9.077,-0.001642,-0.027642,-0.002457,-2.1e-05,0.000392,0.000494,-0.003275,-0.537522,-0.002648,1.069887,-259.006842,-1.374202,69.420607
9.0972,-0.001462,-0.027852,-0.004093,-1.8e-05,0.000375,-4e-05,-0.002926,-0.537631,-0.002473,1.069887,-259.006842,-1.374202,69.420607
9.117,-0.00128,-0.027612,-0.001575,-2.1e-05,0.000365,-0.000412,-0.002926,-0.537631,-0.002473,1.069887,-259.006842,-1.374202,69.420607
9.1374,-0.001925,-0.027716,-0.001313,-2.8e-05,0.000359,-0.00067,-0.002083,-0.537611,-0.001575,1.145082,-259.00684,-1.338045,69.420607
9.1571,-0.001752,-0.027684,-0.003169,-4.2e-05,0.000354,-0.001261,-0.002293,-0.537654,-0.001467,1.145082,-259.00684,-1.338045,69.420607
9.1765,-0.001472,-0.02743,-0.003497,-5.9e-05,0.000353,-0.001672,-0.003369,-0.537676,-0.003179,1.070154,-259.006851,-1.412973,69.420461
9.197,-0.001756,-0.027435,-0.002535,-7.4e-05,0.00037,-0.00124,-0.003266,-0.537449,-0.003469,1.070154,-259.006851,-1.412973,69.420461
9.2166,-0.001407,-0.027682,-0.004481,-8.3e-05,0.000381,-0.000928,-0.003266,-0.537449,-0.003469,1.070154,-259.006851,-1.412973,69.420461
9.2366,-0.001573,-0.027654,-0.003124,-8.9e-05,0.000386,-0.000703,-0.003692,-0.537676,-0.004484,1.14503,-259.006864,-1.487849,69.420434
9.2566,-0.001614,-0.027697,-0.004048,-9e-05,0.000394,-0.00041,-0.003477,-0.537666,-0.003929,1.14503,-259.006864,-1.487849,69.420434
9.2768,-0.001662,-0.027455,-0.00497,-8.9e-05,0.000397,-0.000199,-0.003678,-0.537692,-0.004048,1.070029,-259.006864,-1.462628,69.420434
9.297,-0.001226,-0.027425,-0.003384,-7e-05,0.000407,0.000183,-0.004153,-0.53747,-0.004891,1.070029,-259.006864,-1.462628,69.420434
9.317,-0.001381,-0.027504,-0.002237,-5e-05,0.00041,0.000464,-0.004153,-0.53747,-0.004891,1.070029,-259.006864,-1.462628,69.420434
9.3366,-0.001346,-0.02766,-0.003411,-3.1e-05,0.00041,0.00067,-0.002522,-0.537503,-0.002237,0.994923,-259.006864,-1.400498,69.420434
9.3567,-0.001459,-0.027592,-0.003823,-3.4e-05,0.000394,0.000174,-0.002753,-0.537566,-0.002718,0.994923,-259.006864,-1.400498,69.420434
9.3769,-0.001141,-0.027753,-0.004039,-4.3e-05,0.000383,-0.000172,-0.003409,-0.537589,-0.003823,1.069855,-259.006864,-1.325566,69.420434
9.3971,-0.001916,-0.027707,-0.004075,-5.7e-05,0.000391,-4e-06,-0.00322,-0.537734,-0.00402,1.069855,-259.006864,-1.325566,69.420434
9.4172,-0.001737,-0.027384,-0.003004,-6.6e-05,0.000395,0.000116,-0.00322,-0.537734,-0.00402,1.069855,-259.006864,-1.325566,69.420434
9.4369,-0.001598,-0.027609,-0.003014,-7.3e-05,0.000397,0.000203,-0.003269,-0.537381,-0.003004,1.144815,-259.006864,-1.400526,69.420434
9.4569,-0.001527,-0.027653,-0.002405,-6.3e-05,0.000383,-5e-05,-0.003214,-0.537473,-0.003008,1.144815,-259.006864,-1.400526,69.420434
9.4766,-0.001445,-0.027319,-0.003632,-5.7e-05,0.000374,-0.000227,-0.002754,-0.537652,-0.002405,1.219846,-259.006863,-1.325495,69.420434
9.4969,-0.00135,-0.027265,-0.003601,-6e-05,0.000375,-0.000185,-0.00325,-0.537345,-0.003524,1.219846,-259.006863,-1.325495,69.420434
9.5175,-0.001428,-0.027519,-0.002515,-6.2e-05,0.000375,-0.000155,-0.00325,-0.537345,-0.003524,1.219846,-259.006863,-1.325495,69.420434
9.5367,-0.001361,-0.02784,-0.004001,-6.3e-05,0.000375,-0.000133,-0.002711,-0.537518,-0.002515,1.144746,-259.006863,-1.400595,69.420434
9.5568,-0.001446,-0.027822,-0.003055,-6.9e-05,0.000372,-0.000251,-0.002983,-0.537643,-0.003102,1.144746,-259.006863,-1.400595,69.420434
9.5769,-0.001419,-0.027698,-0.002805,-7.5e-05,0.00037,-0.000334,-0.003004,-0.53782,-0.003055,1.069878,-259.006863,-1.433879,69.420434
9.5969,-0.001788,-0.027299,-0.002681,-8.2e-05,0.000367,-0.000483,-0.002866,-0.537709,-0.002831,1.069878,-259.006863,-1.433879,69.420434
9.6169,-0.001359,-0.027376,-0.002138,-8.9e-05,0.000366,-0.000588,-0.002866,-0.537709,-0.002831,1.069878,-259.006863,-1.433879,69.420434
9.6367,-0.001205,-0.02741,-0.002462,-9.7e-05,0.000365,-0.000661,-0.002449,-0.537375,-0.002138,0.994752,-259.006863,-1.440242,69.420434
9.657,-0.001275,-0.027746,-0.003579,-0.000108,0.000362,-0.000914,-0.002454,-0.537389,-0.002272,0.994752,-259.006863,-1.440242,69.420434
9.6767,-0.001475,-0.027602,-0.002996,-0.00012,0.000361,-0.001091,-0.0031,-0.537743,-0.003579,0.919757,-259.006863,-1.445882,69.420433
9.697,-0.001862,-0.027445,-0.001655,-0.000125,0.000367,-0.000945,-0.003012,-0.537612,-0.003046,0.919757,-259.006863,-1.445882,69.420433
9.717,-0.001612,-0.027482,-0.003829,-0.000128,0.00037,-0.000841,-0.003012,-0.537612,-0.003046,0.919757,-259.006863,-1.445882,69.420433
9.7368,-0.001638,-0.02779,-0.003192,-0.00013,0.000372,-0.000767,-0.003567,-0.537473,-0.003842,0.994782,-259.006901,-1.454336,69.420313
9.7571,-0.001628,-0.027502,-0.003016,-0.000123,0.000376,-0.000553,-0.003443,-0.537603,-0.003575,0.994782,-259.006901,-1.454336,69.420313
9.7769,-0.001552,-0.027602,-0.003491,-0.000114,0.000378,-0.0004,-0.003167,-0.537498,-0.00302,0.919805,-259.006909,-1.417245,69.420271
9.7972,-0.001289,-0.027546,-0.005411,-0.000109,0.000377,-0.000328,-0.003318,-0.53759,-0.00345,0.919805,-259.006909,-1.417245,69.420271
9.8168,-0.001685,-0.027402,-0.003093,-0.000103,0.000376,-0.000276,-0.003318,-0.53759,-0.00345,0.919805,-259.006909,-1.417245,69.420271
9.8365,-0.001546,-0.02749,-0.003471,-9.8e-05,0.000375,-0.00024,-0.003263,-0.537399,-0.003093,0.844834,-259.006909,-1.389117,69.420271
9.8564,-0.001524,-0.027854,-0.004512,-9.1e-05,0.000371,-0.000278,-0.003284,-0.537435,-0.003248,0.844834,-259.006909,-1.389117,69.420271
9.8767,-0.001558,-0.027369,-0.001497,-8.5e-05,0.000368,-0.000305,-0.003825,-0.537848,-0.004512,0.769835,-259.006909,-1.385514,69.420271
9.8966,-0.001469,-0.027768,-0.003986,-8.6e-05,0.000358,-0.000878,-0.002452,-0.53741,-0.001757,0.769835,-259.006909,-1.385514,69.420271
9.9169,-0.001719,-0.027906,-0.004475,-9.2e-05,0.000352,-0.001276,-0.002452,-0.53741,-0.001757,0.769835,-259.006909,-1.385514,69.420271
9.9368,-0.001746,-0.0273,-0.001733,-0.000102,0.00035,-0.001554,-0.004001,-0.537901,-0.004475,0.694847,-259.006909,-1.418435,69.420271
9.957,-0.001462,-0.027534,-0.001172,-0.000103,0.000362,-0.001189,-0.003437,-0.537654,-0.003346,0.694847,-259.006909,-1.418435,69.420271
9.9766,-0.001592,-0.027577,-0.004058,-0.000101,0.000369,-0.000926,-0.00206,-0.537533,-0.001172,0.769865,-259.006909,-1.492727,69.420271
9.9974,-0.001849,-0.027492,-0.005104,-0.0001,0.000379,-0.000606,-0.003518,-0.537569,-0.003798,0.769865,-259.006909,-1.492727,69.420271
10.0166,-0.001527,-0.027777,-0.003249,-9.6e-05,0.000384,-0.000375,-0.003518,-0.537569,-0.003798,0.769865,-259.006909,-1.492727,69.420271
10.0369,-0.001666,-0.027673,-0.002959,-9.1e-05,0.000386,-0.00021,-0.003185,-0.537772,-0.003256,0.844772,-259.006925,-1.462999,69.420204
10.0571,-0.001635,-0.027255,-0.002014,-8.8e-05,0.00038,-0.000294,-0.003181,-0.53773,-0.003135,0.844772,-259.006925,-1.462999,69.420204
10.0771,-0.00151,-0.026938,-0.003127,-8.7e-05,0.000376,-0.000353,-0.002663,-0.537254,-0.002014,0.769784,-259.006925,-1.396297,69.420204
10.097,-0.001437,-0.027281,-0.00312,-8.5e-05,0.000372,-0.000432,-0.003064,-0.536965,-0.003023,0.769784,-259.006925,-1.396297,69.420204
10.1169,-0.001278,-0.027836,-0.003687,-8.4e-05,0.000369,-0.000487,-0.003064,-0.536965,-0.003023,0.769784,-259.006925,-1.396297,69.420204
10.137,-0.00166,-0.027817,-0.001971,-8.4e-05,0.000367,-0.000526,-0.003158,-0.537833,-0.003687,0.694781,-259.006925,-1.425298,69.420204
10.1566,-0.001809,-0.027504,-0.003613,-9.2e-05,0.000367,-0.000564,-0.002957,-0.537826,-0.002988,0.694781,-259.006925,-1.425298,69.420204
10.1766,-0.00135,-0.027302,-0.003178,-9.9e-05,0.000368,-0.00059,-0.003651,-0.5375,-0.003613,0.619777,-259.006925,-1.448644,69.420204
10.1969,-0.001579,-0.027762,-0.002832,-0.000104,0.000371,-0.000534,-0.003032,-0.537318,-0.003217,0.619777,-259.006925,-1.448644,69.420204
10.2168,-0.001709,-0.027611,-0.00418,-0.000107,0.000372,-0.000495,-0.003032,-0.537318,-0.003217,0.619777,-259.006925,-1.448644,69.420204
10.237,-0.001662,-0.027459,-0.002816,-0.000109,0.000373,-0.000467,-0.003841,-0.537606,-0.00418,0.544771,-259.006925,-1.435389,69.420204
10.2569,-0.00165,-0.027861,-0.003342,-9.9e-05,0.000374,-0.000325,-0.003537,-0.537545,-0.003622,0.544771,-259.006925,-1.435389,69.420204
10.2768,-0.001329,-0.027752,-0.004666,-8.9e-05,0.000374,-0.000224,-0.003354,-0.537858,-0.003342,0.469693,-259.006925,-1.406468,69.420204
10.2967,-0.001589,-0.027681,-0.003488,-8.6e-05,0.000388,9.5e-05,-0.003679,-0.537756,-0.004554,0.469693,-259.006925,-1.406468,69.420204
10.317,-0.001505,-0.02741,-0.002681,-8.1e-05,0.000395,0.000327,-0.003679,-0.537756,-0.004554,0.469693,-259.006925,-1.406468,69.420204
10.337,-0.00163,-0.027383,-0.002007,-7.4e-05,0.000399,0.000494,-0.002872,-0.537409,-0.002681,0.394624,-259.006925,-1.398086,69.420204
10.3567,-0.001496,-0.027475,-0.004167,-6.6e-05,0.00038,-6.5e-05,-0.002782,-0.537398,-0.002402,0.394624,-259.006925,-1.398086,69.420204
10.3764,-0.001334,-0.027607,-0.00195,-6.5e-05,0.000369,-0.000455,-0.003622,-0.537471,-0.004167,0.469573,-259.006925,-1.323137,69.420204
10.397,-0.001846,-0.027845,-0.003502,-7.8e-05,0.000363,-0.000826,-0.00244,-0.537594,-0.002141,0.469573,-259.006925,-1.323137,69.420204
10.4173,-0.001818,-0.027749,-0.002889,-9.3e-05,0.00036,-0.001084,-0.00244,-0.537594,-0.002141,0.469573,-259.006925,-1.323137,69.420204
10.4366,-0.001955,-0.02762,-0.003487,-0.000108,0.00036,-0.001263,-0.003292,-0.537747,-0.002889,0.394591,-259.006925,-1.398119,69.420204
10.4571,-0.001605,-0.027734,-0.003481,-0.000101,0.000364,-0.001044,-0.00347,-0.537695,-0.003131,0.394591,-259.006925,-1.398119,69.420204
10.477,-0.00161,-0.027653,-0.00421,-9.4e-05,0.000366,-0.000888,-0.00338,-0.537731,-0.003481,0.469657,-259.006925,-1.473186,69.420204
10.4971,-0.00177,-0.027745,-0.00505,-9e-05,0.000381,-0.000488,-0.003725,-0.537656,-0.004147,0.469657,-259.006925,-1.473186,69.420204
10.5174,-0.001659,-0.027515,-0.00216,-8.3e-05,0.000388,-0.000197,-0.003725,-0.537656,-0.004147,0.469657,-259.006925,-1.473186,69.420204
10.5367,-0.001493,-0.027992,-0.004292,-7.5e-05,0.000391,1.2e-05,-0.002761,-0.537514,-0.00216,0.54461,-259.006925,-1.467597,69.420203
10.5567,-0.001477,-0.027734,-0.002611,-7.2e-05,0.000382,-0.000172,-0.003138,-0.537708,-0.003033,0.54461,-259.006925,-1.467597,69.420203
10.5767,-0.001461,-0.027034,-0.003699,-7.2e-05,0.000376,-0.000302,-0.002809,-0.537732,-0.002611,0.469706,-259.006925,-1.392693,69.420203
10.5971,-0.001343,-0.02764,-0.002924,-7.1e-05,0.000377,-0.000212,-0.003302,-0.53709,-0.003606,0.469706,-259.006925,-1.392693,69.420203
10.617,-0.001509,-0.027889,-0.004094,-7e-05,0.000377,-0.000149,-0.003302,-0.53709,-0.003606,0.469706,-259.006925,-1.392693,69.420203
10.637,-0.001545,-0.027496,-0.004043,-6.9e-05,0.000377,-0.000103,-0.003597,-0.537885,-0.004094,0.394582,-259.006925,-1.443694,69.420203
10.6566,-0.001856,-0.02762,-0.002993,-6.6e-05,0.000381,6.1e-05,-0.003601,-0.537722,-0.004073,0.394582,-259.006925,-1.443694,69.420203
10.6766,-0.001143,-0.027308,-0.003719,-6.1e-05,0.000383,0.00018,-0.003382,-0.537618,-0.002993,0.319577,-259.006925,-1.4156,69.420203
10.6967,-0.001867,-0.027798,-0.00342,-6.8e-05,0.000382,0.000146,-0.003069,-0.537332,-0.003657,0.319577,-259.006925,-1.4156,69.420203
10.7166,-0.001513,-0.027758,-0.002719,-7.3e-05,0.000381,0.000121,-0.003069,-0.537332,-0.003657,0.319577,-259.006925,-1.4156,69.420203
10.7366,-0.001565,-0.02768,-0.001721,-7.8e-05,0.000381,0.000104,-0.002899,-0.537756,-0.002719,0.394545,-259.006925,-1.350473,69.420203
10.7567,-0.001737,-0.027724,-0.003858,-7.6e-05,0.000368,-0.00037,-0.002713,-0.537725,-0.002313,0.394545,-259.006925,-1.350473,69.420203
10.7768,-0.001512,-0.027685,-0.00281,-8e-05,0.000361,-0.000699,-0.003704,-0.53772,-0.003858,0.469435,-259.006925,-1.329395,69.420203
10.7969,-0.001269,-0.027879,-0.004257,-8.5e-05,0.000361,-0.000722,-0.003001,-0.537685,-0.002888,0.469435,-259.006925,-1.329395,69.420203
10.8168,-0.001315,-0.027681,-0.002691,-9e-05,0.000362,-0.000738,-0.003001,-0.537685,-0.002888,0.469435,-259.006925,-1.329395,69.420203
10.8367,-0.001276,-0.027515,-0.003535,-9.5e-05,0.000363,-0.000748,-0.002688,-0.537675,-0.0027,0.54494,-259.006939,-1.4049,69.420101
10.8568,-0.001666,-0.027704,-0.004178,-0.000107,0.000367,-0.000702,-0.002849,-0.537607,-0.003045,0.54494,-259.006939,-1.4049,69.420101
10.8772,-0.001402,-0.027569,-0.003968,-0.000116,0.00037,-0.000669,-0.003798,-0.537695,-0.004187,0.619554,-259.006959,-1.455807,69.419975
10.8966,-0.001255,-0.027514,-0.002087,-0.000114,0.000381,-0.000368,-0.00346,-0.537577,-0.003988,0.619554,-259.006959,-1.455807,69.419975
10.9167,-0.001445,-0.02754,-0.002441,-0.00011,0.000386,-0.000151,-0.00346,-0.537577,-0.003988,0.619554,-259.006959,-1.455807,69.419975
10.937,-0.001383,-0.027533,-0.002502,-0.000104,0.000388,5e-06,-0.002691,-0.537535,-0.002448,0.544669,-259.00697,-1.422825,69.419903
10.9566,-0.001676,-0.027409,-0.002744,-0.000103,0.000376,-0.000376,-0.002678,-0.537533,-0.002471,0.544669,-259.00697,-1.422825,69.419903
10.9765,-0.001597,-0.027264,-0.003773,-0.000106,0.00037,-0.000642,-0.003075,-0.537408,-0.002744,0.469565,-259.00697,-1.347721,69.419903
10.9969,-0.001526,-0.0277,-0.002765,-9.9e-05,0.000374,-0.000434,-0.003482,-0.537274,-0.003681,0.469565,-259.00697,-1.347721,69.419903
11.017,-0.00171,-0.027702,-0.003332,-9.1e-05,0.000376,-0.000286,-0.003482,-0.537274,-0.003681,0.469565,-259.00697,-1.347721,69.419903
11.0372,-0.001818,-0.027451,-0.002964,-8.3e-05,0.000376,-0.00018,-0.003411,-0.537695,-0.00334,0.394659,-259.006983,-1.422628,69.419814
11.0569,-0.001566,-0.02742,-0.003016,-7.4e-05,0.000369,-0.000257,-0.003378,-0.537593,-0.003186,0.394659,-259.006983,-1.422628,69.419814
11.0769,-0.001311,-0.027446,-0.004353,-6.7e-05,0.000365,-0.000312,-0.003105,-0.537417,-0.003016,0.319533,-259.006983,-1.401912,69.419814
11.0967,-0.001464,-0.027439,-0.003739,-7e-05,0.000377,-4.7e-05,-0.003493,-0.537439,-0.004233,0.319533,-259.006983,-1.401912,69.419814
11.1169,-0.001586,-0.028034,-0.003472,-7e-05,0.000384,0.000145,-0.003493,-0.537439,-0.004233,0.319533,-259.006983,-1.401912,69.419814
11.1365,-0.001456,-0.027501,-0.002099,-6.8e-05,0.000388,0.000282,-0.003356,-0.538031,-0.003472,0.244663,-259.006983,-1.451298,69.419814
11.1565,-0.001757,-0.027501,-0.004387,-6.5e-05,0.000376,-2.4e-05,-0.003019,-0.537815,-0.002914,0.244663,-259.006983,-1.451298,69.419814
11.1769,-0.001813,-0.027184,-0.003376,-6.6e-05,0.000369,-0.000239,-0.003994,-0.537496,-0.004387,0.319661,-259.006983,-1.376299,69.419814
11.1971,-0.001523,-0.027568,-0.001814,-5.4e-05,0.000366,-0.000212,-0.003576,-0.537209,-0.003466,0.319661,-259.006983,-1.376299,69.419814
11.2173,-0.001601,-0.027423,-0.006011,-4.4e-05,0.000363,-0.000193,-0.003576,-0.537209,-0.003466,0.319661,-259.006983,-1.376299,69.419814
11.2371,-0.0015,-0.027681,-0.003082,-3.6e-05,0.000361,-0.000178,-0.004667,-0.537414,-0.006011,0.244666,-259.006983,-1.44274,69.419813
11.2572,-0.001963,-0.027281,-0.003131,-2.9e-05,0.000378,0.000185,-0.004019,-0.537522,-0.004821,0.244666,-259.006983,-1.44274,69.419813
11.2769,-0.001483,-0.027572,-0.003256,-2e-05,0.000387,0.000452,-0.00356,-0.537279,-0.003131,0.319662,-259.006983,-1.494969,69.419813
11.2974,-0.0013,-0.027912,-0.002126,-2.1e-05,0.000378,0.000205,-0.003179,-0.537545,-0.003246,0.319662,-259.006983,-1.494969,69.419813
11.3172,-0.001364,-0.027581,-0.004143,-2.4e-05,0.000372,3.2e-05,-0.003179,-0.537545,-0.003246,0.319662,-259.006983,-1.494969,69.419813
11.3368,-0.00116,-0.02753,-0.003718,-2.9e-05,0.000368,-9e-05,-0.003477,-0.537577,-0.004143,0.394834,-259.006983,-1.419797,69.419813
11.3569,-0.001501,-0.02771,-0.003516,-4e-05,0.000375,4.3e-05,-0.003306,-0.537556,-0.003971,0.394834,-259.006983,-1.419797,69.419813
11.3767,-0.001559,-0.027253,-0.00197,-4.7e-05,0.00038,0.000137,-0.003293,-0.537707,-0.003516,0.469662,-259.006983,-1.494625,69.419813
11.3969,-0.001427,-0.027648,-0.00254,-4.7e-05,0.000366,-0.000427,-0.00263,-0.537293,-0.00211,0.469662,-259.006983,-1.494625,69.419813
11.417,-0.001846,-0.027416,-0.003057,-5.3e-05,0.000358,-0.00082,-0.00263,-0.537293,-0.00211,0.469662,-259.006983,-1.494625,69.419813
11.4367,-0.001755,-0.027097,-0.002494,-6.3e-05,0.000354,-0.001093,-0.003405,-0.537413,-0.003057,0.544653,-259.006983,-1.419634,69.419813
11.4572,-0.001537,-0.027498,-0.00385,-6.3e-05,0.000355,-0.001024,-0.00325,-0.537283,-0.002825,0.544653,-259.006983,-1.419634,69.419813
11.4769,-0.001581,-0.027336,-0.004348,-6.3e-05,0.000356,-0.000973,-0.003501,-0.537494,-0.00385,0.619758,-259.006983,-1.494739,69.419813
11.497,-0.001275,-0.027317,-0.004861,-6.2e-05,0.000376,-0.000514,-0.003772,-0.537346,-0.004303,0.619758,-259.006983,-1.494739,69.419813
11.5169,-0.001464,-0.027273,-0.003257,-5.8e-05,0.000387,-0.000178,-0.003772,-0.537346,-0.004303,0.619758,-259.006983,-1.494739,69.419813
11.5373,-0.001501,-0.027502,-0.003908,-5.1e-05,0.000392,6.5e-05,-0.003125,-0.53727,-0.003257,0.694671,-259.006983,-1.50501,69.419813
11.5571,-0.001612,-0.027562,-0.004001,-5.2e-05,0.000387,2.1e-05,-0.003274,-0.537362,-0.003519,0.694671,-259.006983,-1.50501,69.419813
11.5768,-0.001525,-0.027398,-0.003143,-5.2e-05,0.000384,-1e-05,-0.003653,-0.537558,-0.004001,0.769668,-259.006983,-1.430012,69.419813
11.5969,-0.001912,-0.027399,-0.003255,-5.3e-05,0.000378,-0.000127,-0.003173,-0.53741,-0.003218,0.769668,-259.006983,-1.430012,69.419813
11.6171,-0.00143,-0.027249,-0.002342,-5.4e-05,0.000374,-0.000209,-0.003173,-0.53741,-0.003218,0.769668,-259.006983,-1.430012,69.419813
11.6367,-0.00114,-0.027732,-0.00224,-5.7e-05,0.000371,-0.000267,-0.002624,-0.537247,-0.002342,0.844751,-259.006983,-1.437474,69.419813
11.6567,-0.001403,-0.027706,-0.002081,-7e-05,0.000365,-0.00063,-0.002484,-0.537445,-0.0023,0.844751,-259.006983,-1.437474,69.419813
11.6769,-0.001569,-0.027533,-0.002515,-8.5e-05,0.000362,-0.000883,-0.002464,-0.537705,-0.002081,0.769734,-259.006983,-1.465068,69.419813
11.697,-0.00158,-0.027625,-0.001884,-9.1e-05,0.000361,-0.000994,-0.002818,-0.537547,-0.002477,0.769734,-259.006983,-1.465068,69.419813
11.7169,-0.001996,-0.027718,-0.003176,-9.8e-05,0.00036,-0.001071,-0.002818,-0.537547,-0.002477,0.769734,-259.006983,-1.465068,69.419813
11.7371,-0.001326,-0.027385,-0.002781,-0.000104,0.00036,-0.001125,-0.003617,-0.537714,-0.003181,0.844721,-259.006993,-1.477309,69.419767
11.7572,-0.001705,-0.027487,-0.003206,-0.000103,0.000364,-0.000978,-0.003261,-0.537579,-0.003018,0.844721,-259.006993,-1.477309,69.419767
11.7769,-0.001581,-0.027564,-0.002763,-0.000101,0.000366,-0.000874,-0.003341,-0.537484,-0.003208,0.919629,-259.007,-1.471679,69.419743
11.7967,-0.001825,-0.027203,-0.003197,-0.000103,0.000366,-0.00087,-0.003021,-0.537555,-0.002803,0.919629,-259.007,-1.471679,69.419743
11.8169,-0.001721,-0.02727,-0.004549,-0.000105,0.000366,-0.000868,-0.003021,-0.537555,-0.002803,0.919629,-259.007,-1.471679,69.419743
11.8367,-0.001573,-0.027724,-0.002633,-0.000107,0.000366,-0.000866,-0.004044,-0.537252,-0.004579,0.994627,-259.007065,-1.459406,69.419447
11.8569,-0.001385,-0.027462,-0.003617,-0.000102,0.000375,-0.000563,-0.003583,-0.537443,-0.003787,0.994627,-259.007065,-1.459406,69.419447
11.8764,-0.00152,-0.027463,-0.002674,-9.4e-05,0.000379,-0.000346,-0.003234,-0.537447,-0.003645,0.988943,-259.007143,-1.451314,69.419087
11.8969,-0.001237,-0.027477,-0.004448,-9.5e-05,0.000373,-0.000514,-0.002914,-0.537459,-0.00276,0.988943,-259.007143,-1.451314,69.419087
11.9167,-0.001381,-0.027646,-0.00327,-9.8e-05,0.000369,-0.000633,-0.002914,-0.537459,-0.00276,0.988943,-259.007143,-1.451314,69.419087
11.9369,-0.001716,-0.027537,-0.002844,-0.000101,0.000367,-0.000716,-0.003048,-0.537643,-0.00327,0.913857,-259.007143,-1.41261,69.419087
11.9569,-0.001501,-0.027476,-0.003097,-0.000104,0.000369,-0.000663,-0.003097,-0.537599,-0.003094,0.913857,-259.007143,-1.41261,69.419087
11.9769,-0.001336,-0.027827,-0.002215,-0.000106,0.00037,-0.000625,-0.003081,-0.537471,-0.003102,0.838857,-259.007153,-1.44563,69.419018
11.997,-0.001363,-0.027379,-0.002331,-0.000116,0.000366,-0.000878,-0.002523,-0.537793,-0.002297,0.838857,-259.007153,-1.44563,69.419018
12.0169,-0.001242,-0.028019,-0.003205,-0.000127,0.000364,-0.001054,-0.002523,-0.537793,-0.002297,0.838857,-259.007153,-1.44563,69.419018
12.0366,-0.001549,-0.027871,-0.003289,-0.000138,0.000364,-0.001178,-0.002876,-0.538016,-0.003205,0.763935,-259.007153,-1.430948,69.419018
12.0569,-0.001774,-0.027549,-0.003931,-0.000146,0.000374,-0.000946,-0.00302,-0.537955,-0.003239,0.763935,-259.007153,-1.430948,69.419018
12.0769,-0.00144,-0.027603,-0.003059,-0.00015,0.000379,-0.000779,-0.003779,-0.537545,-0.003933,0.839022,-259.00716,-1.444277,69.418999
12.0968,-0.00164,-0.027496,-0.003315,-0.000148,0.00038,-0.000695,-0.003067,-0.537595,-0.003134,0.839022,-259.00716,-1.444277,69.418999
12.1168,-0.001526,-0.027925,-0.004171,-0.000145,0.000379,-0.000635,-0.003067,-0.537595,-0.003134,0.839022,-259.00716,-1.444277,69.418999
12.1367,-0.001454,-0.027508,-0.002213,-0.000141,0.000378,-0.000592,-0.003655,-0.537916,-0.004182,0.763994,-259.007181,-1.397011,69.418894
12.1568,-0.001728,-0.027687,-0.003643,-0.000137,0.00038,-0.000484,-0.003219,-0.537749,-0.003382,0.763994,-259.007181,-1.397011,69.418894
12.1765,-0.001515,-0.02788,-0.003465,-0.000132,0.00038,-0.000408,-0.003586,-0.537684,-0.003643,0.689108,-259.007181,-1.381978,69.418894
12.1972,-0.001456,-0.027492,-0.003196,-0.000126,0.00038,-0.000323,-0.003309,-0.53786,-0.003481,0.689108,-259.007181,-1.381978,69.418894
12.2173,-0.001499,-0.027642,-0.00294,-0.00012,0.000379,-0.000264,-0.003309,-0.53786,-0.003481,0.689108,-259.007181,-1.381978,69.418894
12.237,-0.001187,-0.027501,-0.002973,-0.000114,0.000378,-0.000221,-0.002999,-0.53764,-0.00294,0.614106,-259.007181,-1.363452,69.418894
12.2569,-0.001536,-0.027559,-0.003668,-0.000115,0.000373,-0.000361,-0.00288,-0.537583,-0.002953,0.614106,-259.007181,-1.363452,69.418894
12.2771,-0.001229,-0.027328,-0.003327,-0.000118,0.00037,-0.000459,-0.003407,-0.537556,-0.003668,0.539065,-259.007181,-1.351914,69.418894
12.2972,-0.001531,-0.027754,-0.002163,-0.000122,0.000374,-0.000398,-0.002969,-0.537346,-0.003358,0.539065,-259.007181,-1.351914,69.418894
12.3177,-0.00151,-0.0275,-0.003935,-0.000125,0.000375,-0.000354,-0.002969,-0.537346,-0.003358,0.539065,-259.007181,-1.351914,69.418894
12.337,-0.001377,-0.02747,-0.003466,-0.000127,0.000377,-0.000324,-0.003517,-0.537496,-0.003935,0.464106,-259.007181,-1.391944,69.418894
12.3572,-0.001671,-0.027392,-0.004264,-0.00012,0.000379,-0.000186,-0.003369,-0.537485,-0.003749,0.464106,-259.007181,-1.391944,69.418894
12.377,-0.001574,-0.02733,-0.00238,-0.000113,0.000379,-8.8e-05,-0.003845,-0.537387,-0.004264,0.389114,-259.007181,-1.35244,69.418894
12.3972,-0.001531,-0.027513,-0.002649,-0.000104,0.000368,-0.000413,-0.002881,-0.537334,-0.002545,0.389114,-259.007181,-1.35244,69.418894
12.4174,-0.001406,-0.028008,-0.003535,-0.000101,0.000361,-0.000641,-0.002881,-0.537334,-0.002545,0.389114,-259.007181,-1.35244,69.418894
12.4371,-0.001647,-0.02729,-0.00408,-0.0001,0.000357,-0.0008,-0.003209,-0.538005,-0.003535,0.314004,-259.007181,-1.316121,69.418894
12.4572,-0.001297,-0.027776,-0.002713,-0.000101,0.000368,-0.000526,-0.003419,-0.537713,-0.003756,0.314004,-259.007181,-1.316121,69.418894
12.4772,-0.001596,-0.027429,-0.002898,-0.0001,0.000375,-0.000329,-0.002681,-0.537774,-0.002713,0.388983,-259.007181,-1.3911,69.418893
12.4968,-0.001696,-0.027943,-0.003853,-9.7e-05,0.000369,-0.000463,-0.003035,-0.537462,-0.00288,0.388983,-259.007181,-1.3911,69.418893
12.5171,-0.001516,-0.02761,-0.003487,-9.6e-05,0.000365,-0.000557,-0.003035,-0.537462,-0.00288,0.388983,-259.007181,-1.3911,69.418893
12.537,-0.001505,-0.027872,-0.004559,-9.6e-05,0.000363,-0.000623,-0.003295,-0.537607,-0.003487,0.314065,-259.007181,-1.399084,69.418893
12.5572,-0.00174,-0.027521,-0.004178,-9.5e-05,0.000373,-0.000351,-0.003515,-0.537714,-0.003929,0.314065,-259.007181,-1.399084,69.418893
12.5773,-0.001728,-0.027512,-0.003265,-9.1e-05,0.000379,-0.000155,-0.003873,-0.537509,-0.004192,0.238943,-259.007209,-1.442865,69.418677
12.5973,-0.001504,-0.027344,-0.005324,-8.1e-05,0.000373,-0.000188,-0.003435,-0.537508,-0.003347,0.238943,-259.007209,-1.442865,69.418677
12.6168,-0.000954,-0.027609,-0.003384,-7.2e-05,0.000369,-0.000211,-0.003435,-0.537508,-0.003347,0.238943,-259.007209,-1.442865,69.418677
12.6367,-0.001295,-0.027438,-0.002709,-6.4e-05,0.000366,-0.000227,-0.00268,-0.537606,-0.003384,0.163975,-259.007209,-1.380137,69.418677
12.6567,-0.001373,-0.027327,-0.003873,-8.3e-05,0.000368,-0.000312,-0.002679,-0.537537,-0.00311,0.163975,-259.007209,-1.380137,69.418677
12.6765,-0.001751,-0.027749,-0.004586,-9.9e-05,0.000371,-0.000373,-0.003348,-0.537324,-0.003873,0.089064,-259.00721,-1.443719,69.418677
12.6968,-0.001578,-0.027645,-0.003846,-8.3e-05,0.000382,-2.3e-05,-0.004026,-0.537707,-0.004525,0.089064,-259.00721,-1.443719,69.418677
12.7168,-0.001581,-0.027587,-0.004039,-6.6e-05,0.000387,0.000232,-0.004026,-0.537707,-0.004525,0.089064,-259.00721,-1.443719,69.418677
12.737,-0.001318,-0.028053,-0.004342,-4.9e-05,0.000389,0.000417,-0.003641,-0.537583,-0.004039,0.013973,-259.00721,-1.406487,69.418677
12.7568,-0.001293,-0.027382,-0.00274,-4.5e-05,0.000387,0.000458,-0.003597,-0.537772,-0.004162,0.013973,-259.00721,-1.406487,69.418677
12.777,-0.001428,-0.027772,-0.003717,-4e-05,0.000385,0.000486,-0.00269,-0.53738,-0.00274,-0.060928,-259.00721,-1.331585,69.418677
12.7975,-0.001385,-0.027139,-0.003153,-4e-05,0.000379,0.000352,-0.003267,-0.537733,-0.003629,-0.060928,-259.00721,-1.331585,69.418677
12.8167,-0.001786,-0.027327,-0.00329,-4.2e-05,0.000375,0.000257,-0.003267,-0.537733,-0.003629,-0.060928,-259.00721,-1.331585,69.418677
12.8372,-0.001494,-0.027593,-0.004546,-4.4e-05,0.000373,0.00019,-0.003464,-0.537325,-0.00329,-0.135938,-259.00721,-1.256576,69.418677
12.857,-0.001547,-0.027589,-0.002788,-3.5e-05,0.00037,0.000192,-0.003605,-0.537431,-0.003799,-0.135938,-259.00721,-1.256576,69.418677
12.8769,-0.001609,-0.027541,-0.003862,-2.8e-05,0.000367,0.000193,-0.002969,-0.537587,-0.002788,-0.210937,-259.00721,-1.331576,69.418677
12.8971,-0.001642,-0.02749,-0.005389,-2.5e-05,0.000366,0.000187,-0.003528,-0.537541,-0.003772,-0.210937,-259.00721,-1.331576,69.418677
12.9171,-0.001209,-0.02759,-0.004106,-2.2e-05,0.000365,0.000183,-0.003528,-0.537541,-0.003772,-0.210937,-259.00721,-1.331576,69.418677
12.9368,-0.001794,-0.027558,-0.002953,-2e-05,0.000364,0.00018,-0.003303,-0.537585,-0.004106,-0.28607,-259.00721,-1.406709,69.418677
12.9571,-0.001788,-0.027506,-0.004133,-2.5e-05,0.000364,0.000138,-0.003302,-0.537573,-0.003638,-0.28607,-259.00721,-1.406709,69.418677
12.9769,-0.00145,-0.027276,-0.005044,-2.9e-05,0.000365,0.000109,-0.003896,-0.537501,-0.004133,-0.360929,-259.00721,-1.481568,69.418677
12.997,-0.001329,-0.027533,-0.003709,-2e-05,0.000379,0.000427,-0.004012,-0.53729,-0.004964,-0.360929,-259.00721,-1.481568,69.418677
13.0167,-0.00154,-0.027194,-0.003358,-1e-05,0.000387,0.00066,-0.004012,-0.53729,-0.004964,-0.360929,-259.00721,-1.481568,69.418677
13.0366,-0.001516,-0.027687,-0.004722,1e-06,0.000391,0.00083,-0.003253,-0.537192,-0.003358,-0.435995,-259.00721,-1.473718,69.418677
13.0574,-0.001633,-0.027496,-0.002964,6e-06,0.000383,0.000679,-0.003527,-0.537391,-0.003914,-0.435995,-259.00721,-1.473718,69.418677
13.0768,-0.001479,-0.027346,-0.002954,9e-06,0.000377,0.000572,-0.003145,-0.537494,-0.002964,-0.510932,-259.00721,-1.548655,69.418677
13.0969,-0.001544,-0.027653,-0.003038,5e-06,0.000366,0.000189,-0.003,-0.537357,-0.002955,-0.510932,-259.00721,-1.548655,69.418677
13.1171,-0.00163,-0.027484,-0.003783,-2e-06,0.00036,-7.8e-05,-0.003,-0.537357,-0.002955,-0.510932,-259.00721,-1.548655,69.418677
13.137,-0.001773,-0.027499,-0.001964,-1.2e-05,0.000357,-0.000265,-0.00356,-0.53748,-0.003783,-0.585935,-259.00721,-1.473652,69.418677
13.1567,-0.001262,-0.02787,-0.002383,-1.6e-05,0.000355,-0.000365,-0.003242,-0.537487,-0.003047,-0.585935,-259.00721,-1.473652,69.418677
13.1765,-0.001589,-0.027729,-0.002075,-2e-05,0.000354,-0.000435,-0.002477,-0.537869,-0.002383,-0.66093,-259.00721,-1.547385,69.418677
13.1967,-0.001427,-0.027674,-0.002402,-3.3e-05,0.000349,-0.000826,-0.002632,-0.53774,-0.002102,-0.66093,-259.00721,-1.547385,69.418677
13.217,-0.001585,-0.0277,-0.002834,-4.7e-05,0.000348,-0.001098,-0.002632,-0.53774,-0.002102,-0.66093,-259.00721,-1.547385,69.418677
13.2369,-0.001471,-0.027295,-0.003083,-6.2e-05,0.000348,-0.001287,-0.00303,-0.537698,-0.002834,-0.735979,-259.00721,-1.538134,69.418677
13.257,-0.001574,-0.0272,-0.001388,-7.5e-05,0.000357,-0.001122,-0.003035,-0.537533,-0.002935,-0.735979,-259.00721,-1.538134,69.418677
13.2772,-0.001151,-0.027143,-0.002141,-8.5e-05,0.000362,-0.001004,-0.002282,-0.5372,-0.001388,-0.810936,-259.00721,-1.516178,69.418677
13.2973,-0.001407,-0.027485,-0.002813,-0.000105,0.000362,-0.001228,-0.002246,-0.537147,-0.002076,-0.810936,-259.00721,-1.516178,69.418677
13.3171,-0.001579,-0.027867,-0.003299,-0.000125,0.000363,-0.001385,-0.002246,-0.537147,-0.002076,-0.810936,-259.00721,-1.516178,69.418677
13.337,-0.00137,-0.02743,-0.003602,-0.000143,0.000364,-0.001495,-0.003262,-0.537864,-0.003299,-0.735844,-259.00721,-1.484183,69.418677
13.3571,-0.001609,-0.027577,-0.002932,-0.000146,0.000377,-0.001119,-0.003239,-0.537684,-0.003424,-0.735844,-259.00721,-1.484183,69.418677
13.3771,-0.001523,-0.027613,-0.004758,-0.000145,0.000384,-0.000849,-0.003104,-0.537575,-0.002932,-0.660841,-259.00721,-1.459218,69.418677
13.3973,-0.001688,-0.027703,-0.004437,-0.00013,0.000401,-0.000359,-0.003871,-0.537605,-0.004588,-0.660841,-259.00721,-1.459218,69.418677
13.417,-0.001461,-0.027347,-0.002817,-0.000115,0.000409,1e-06,-0.003871,-0.537605,-0.004588,-0.660841,-259.00721,-1.459218,69.418677
13.4368,-0.001689,-0.027463,-0.002778,-9.9e-05,0.000412,0.000264,-0.002897,-0.537345,-0.002817,-0.585903,-259.00721,-1.411371,69.418677
13.4569,-0.001629,-0.027569,-0.005288,-8.9e-05,0.000395,-7.7e-05,-0.002982,-0.537392,-0.002801,-0.585903,-259.00721,-1.411371,69.418677
13.4767,-0.001302,-0.02775,-0.003148,-8.5e-05,0.000384,-0.000316,-0.004326,-0.537562,-0.005288,-0.660901,-259.00721,-1.336373,69.418677
13.497,-0.00121,-0.027296,-0.003697,-9.2e-05,0.000384,-0.000304,-0.003036,-0.537731,-0.003341,-0.660901,-259.00721,-1.336373,69.418677
13.517,-0.001411,-0.027313,-0.002777,-9.8e-05,0.000384,-0.000295,-0.003036,-0.537731,-0.003341,-0.660901,-259.00721,-1.336373,69.418677
13.5369,-0.001186,-0.027437,-0.005218,-0.000102,0.000384,-0.000288,-0.002827,-0.537311,-0.002777,-0.735874,-259.007211,-1.411347,69.418673
13.5569,-0.001455,-0.027561,-0.001634,-0.000103,0.000386,-0.000155,-0.003242,-0.537359,-0.00377,-0.735874,-259.007211,-1.411347,69.418673
13.577,-0.001189,-0.027518,-0.003538,-0.000102,0.000387,-6e-05,-0.002289,-0.537559,-0.001635,-0.810893,-259.00722,-1.389697,69.418651
13.597,-0.001617,-0.027511,-0.003104,-0.000107,0.000385,-0.000115,-0.002928,-0.537519,-0.003363,-0.810893,-259.00722,-1.389697,69.418651
13.6171,-0.001678,-0.027711,-0.002937,-0.000111,0.000383,-0.000153,-0.002928,-0.537519,-0.003363,-0.810893,-259.00722,-1.389697,69.418651
13.6365,-0.00148,-0.027315,-0.003693,-0.000115,0.000382,-0.000181,-0.003176,-0.537709,-0.002937,-0.885892,-259.007223,-1.334971,69.418647
13.6569,-0.001378,-0.027263,-0.00503,-0.000106,0.000376,-0.00024,-0.003251,-0.537548,-0.003242,-0.885892,-259.007223,-1.334971,69.418647
13.6766,-0.001661,-0.027483,-0.003462,-9.8e-05,0.000372,-0.000281,-0.003945,-0.537254,-0.005032,-0.960893,-259.007255,-1.340425,69.418592
13.6969,-0.001608,-0.027268,-0.003891,-8.9e-05,0.000371,-0.000199,-0.003473,-0.53746,-0.003602,-0.960893,-259.007255,-1.340425,69.418592
13.7169,-0.001562,-0.027417,-0.002941,-8e-05,0.00037,-0.000141,-0.003473,-0.53746,-0.003602,-0.960893,-259.007255,-1.340425,69.418592
13.7367,-0.001251,-0.027451,-0.004105,-7.3e-05,0.000369,-0.0001,-0.003064,-0.537404,-0.002949,-1.035888,-259.007314,-1.391491,69.418446
13.7569,-0.001375,-0.027445,-0.005005,-7.4e-05,0.000368,-0.000124,-0.003179,-0.53742,-0.003422,-1.035888,-259.007314,-1.391491,69.418446
13.7765,-0.001527,-0.027185,-0.002085,-7.5e-05,0.000368,-0.000142,-0.003929,-0.537436,-0.005005,-1.11104,-259.007343,-1.403413,69.418407
13.7971,-0.000968,-0.027704,-0.003614,-7.5e-05,0.000359,-0.000526,-0.002711,-0.537206,-0.002347,-1.11104,-259.007343,-1.403413,69.418407
13.8168,-0.001321,-0.027413,-0.002713,-7.9e-05,0.000354,-0.000793,-0.002711,-0.537206,-0.002347,-1.11104,-259.007343,-1.403413,69.418407
13.8369,-0.001439,-0.027667,-0.003501,-8.6e-05,0.000352,-0.00098,-0.002706,-0.537403,-0.002716,-1.18591,-259.007404,-1.407685,69.41831
13.8569,-0.001524,-0.02731,-0.004939,-9.8e-05,0.00036,-0.00087,-0.002916,-0.537508,-0.003034,-1.18591,-259.007404,-1.407685,69.41831
13.8768,-0.00136,-0.027706,-0.003448,-0.000108,0.000365,-0.000792,-0.004043,-0.537304,-0.004939,-1.110769,-259.007404,-1.480606,69.41831
13.8966,-0.00192,-0.027672,-0.004034,-0.000113,0.000374,-0.000568,-0.003202,-0.537667,-0.003583,-1.110769,-259.007404,-1.480606,69.41831
13.9173,-0.001473,-0.0272,-0.003416,-0.000115,0.000379,-0.000408,-0.003202,-0.537667,-0.003583,-1.110769,-259.007404,-1.480606,69.41831
13.9368,-0.001389,-0.027524,-0.00341,-0.000116,0.000381,-0.000294,-0.003215,-0.537197,-0.003416,-1.035939,-259.007404,-1.444524,69.41831
13.957,-0.001321,-0.027394,-0.00341,-0.000112,0.00038,-0.000264,-0.003179,-0.537331,-0.003414,-1.035939,-259.007404,-1.444524,69.41831
13.9771,-0.001957,-0.027705,-0.001275,-0.000108,0.000378,-0.000242,-0.003064,-0.53738,-0.003419,-1.051072,-259.007488,-1.36917,69.418103
13.9968,-0.001471,-0.027028,-0.005302,-9.2e-05,0.000363,-0.000969,-0.002646,-0.537677,-0.001457,-1.051072,-259.007488,-1.36917,69.418103
14.0169,-0.001069,-0.027239,-0.004379,-8.6e-05,0.000354,-0.001474,-0.002646,-0.537677,-0.001457,-1.051072,-259.007488,-1.36917,69.418103
14.037,-0.001611,-0.027324,-0.004035,-8.7e-05,0.000349,-0.001826,-0.003306,-0.53722,-0.004388,-1.125853,-259.007579,-1.368368,69.41791
14.0569,-0.001136,-0.027388,-0.004776,-9.8e-05,0.000381,-0.001162,-0.003455,-0.537259,-0.004244,-1.125853,-259.007579,-1.368368,69.41791
14.0769,-0.001541,-0.027283,-0.002282,-0.000104,0.0004,-0.000671,-0.003572,-0.537382,-0.004777,-1.200696,-259.007578,-1.443212,69.417907
14.0972,-0.001345,-0.027171,-0.00317,-0.000106,0.000391,-0.000843,-0.002781,-0.53729,-0.0025,-1.200696,-259.007578,-1.443212,69.417907
14.1167,-0.001233,-0.027738,-0.004352,-0.00011,0.000385,-0.000961,-0.002781,-0.53729,-0.0025,-1.200696,-259.007578,-1.443212,69.417907
14.1371,-0.001891,-0.027471,-0.003824,-0.000114,0.00038,-0.001042,-0.003452,-0.537733,-0.004352,-1.125615,-259.007578,-1.443637,69.417907
14.1568,-0.001687,-0.027246,-0.002428,-0.000112,0.000395,-0.000605,-0.00361,-0.537625,-0.004137,-1.125615,-259.007578,-1.443637,69.417907
14.177,-0.001363,-0.027209,-0.003685,-0.000107,0.000403,-0.000285,-0.002926,-0.537244,-0.002428,-1.050688,-259.007578,-1.459163,69.417907
14.1972,-0.001397,-0.02745,-0.003125,-0.000105,0.0004,-0.000213,-0.003213,-0.537209,-0.003568,-1.050688,-259.007578,-1.459163,69.417907
14.2169,-0.001529,-0.027403,-0.002915,-0.000102,0.000397,-0.000162,-0.003213,-0.537209,-0.003568,-1.050688,-259.007578,-1.459163,69.417907
14.2368,-0.001767,-0.027624,-0.00248,-9.9e-05,0.000393,-0.000125,-0.003019,-0.537387,-0.002925,-1.1257,-259.007661,-1.388142,69.417714
14.2569,-0.001582,-0.02736,-0.00383,-9.2e-05,0.000382,-0.000368,-0.003024,-0.537482,-0.002744,-1.1257,-259.007661,-1.388142,69.417714
14.2766,-0.001584,-0.0271,-0.003735,-8.9e-05,0.000374,-0.000538,-0.003538,-0.537348,-0.003833,-1.200731,-259.007757,-1.362825,69.417576
14.2968,-0.001595,-0.027388,-0.002887,-8.3e-05,0.000378,-0.000342,-0.003493,-0.537117,-0.003743,-1.200731,-259.007757,-1.362825,69.417576
14.3166,-0.001526,-0.027413,-0.003814,-7.7e-05,0.00038,-0.000202,-0.003493,-0.537117,-0.003743,-1.200731,-259.007757,-1.362825,69.417576
14.3366,-0.00109,-0.027059,-0.003159,-7e-05,0.000379,-0.000102,-0.003471,-0.537409,-0.003814,-1.125651,-259.007757,-1.437905,69.417576
14.3566,-0.001693,-0.02758,-0.004207,-7.4e-05,0.000379,-8.7e-05,-0.003156,-0.537265,-0.003546,-1.125651,-259.007757,-1.437905,69.417576
14.3766,-0.001627,-0.027504,-0.005457,-7.6e-05,0.000379,-7.7e-05,-0.00384,-0.53757,-0.004208,-1.200528,-259.007812,-1.413355,69.4175
14.3967,-0.00117,-0.027296,-0.004088,-5.3e-05,0.000395,0.000364,-0.00436,-0.537502,-0.005349,-1.200528,-259.007812,-1.413355,69.4175
14.4169,-0.001337,-0.027017,-0.002888,-3e-05,0.000404,0.000692,-0.00436,-0.537502,-0.005349,-1.200528,-259.007812,-1.413355,69.4175
14.4369,-0.001247,-0.027606,-0.0025,-8e-06,0.000408,0.000935,-0.002812,-0.537004,-0.00289,-1.275615,-259.007909,-1.393366,69.417376
14.4571,-0.001671,-0.027547,-0.004436,-1.2e-05,0.000391,0.00036,-0.002693,-0.53725,-0.00273,-1.275615,-259.007909,-1.393366,69.417376
14.4767,-0.001304,-0.026962,-0.003519,-2.3e-05,0.00038,-4e-05,-0.003934,-0.53754,-0.004433,-1.350619,-259.007954,-1.468371,69.417384
14.4967,-0.001305,-0.027241,-0.00371,-3e-05,0.00038,-3.4e-05,-0.00317,-0.537008,-0.003597,-1.350619,-259.007954,-1.468371,69.417384
14.5167,-0.001507,-0.027315,-0.003409,-3.7e-05,0.00038,-2.9e-05,-0.00317,-0.537008,-0.003597,-1.350619,-259.007954,-1.468371,69.417384
14.5369,-0.001594,-0.027325,-0.002872,-4.3e-05,0.00038,-2.4e-05,-0.003247,-0.537302,-0.00341,-1.425663,-259.008047,-1.515076,69.417279
14.5568,-0.001675,-0.026959,-0.004369,-4.3e-05,0.000374,-0.000148,-0.00317,-0.537309,-0.00319,-1.425663,-259.008047,-1.515076,69.417279
14.5769,-0.001331,-0.027209,-0.00452,-4.5e-05,0.00037,-0.000235,-0.003904,-0.536943,-0.00437,-1.45459,-259.008186,-1.463279,69.417129
14.5968,-0.001417,-0.027245,-0.00349,-4.5e-05,0.000383,7.4e-05,-0.003661,-0.537179,-0.004507,-1.45459,-259.008186,-1.463279,69.417129
14.6167,-0.001415,-0.027225,-0.00402,-4.3e-05,0.000391,0.000298,-0.003661,-0.537179,-0.004507,-1.45459,-259.008186,-1.463279,69.417129
14.6371,-0.001331,-0.02747,-0.002604,-3.8e-05,0.000394,0.000461,-0.003467,-0.537207,-0.004029,-1.3796,-259.008269,-1.483347,69.416943
