mach0312/omni-docking-bench/src/icros_test_setup/results/MPPI_sample/timeseries/trial_115.csv
t,x,y,yaw,vx,vy,wz,bl_x,bl_y,bl_yaw,front_steering_joint,front_wheel_joint,rear_steering_joint,rear_wheel_joint
0.0,-0.069803,-0.002864,0.067386,0.0,0.0,0.0,-0.035142,-0.511185,0.067642,0.895261,-261.629692,0.30514,69.321221
0.0004,-0.069708,-0.00266,0.067751,0.0,0.0,0.0,-0.035041,-0.511629,0.067856,0.895261,-261.629692,0.30514,69.321221
0.0007,-0.06955,-0.002347,0.067703,0.0,0.0,0.0,-0.035041,-0.511629,0.067856,0.895261,-261.629692,0.30514,69.321221
0.001,-0.069456,-0.002743,0.068641,0.0,0.0,0.0,-0.035041,-0.511629,0.067856,0.895261,-261.629692,0.30514,69.321221
0.0013,-0.069457,-0.002704,0.067469,0.0,0.0,0.0,-0.035419,-0.511643,0.068023,0.895261,-261.629692,0.30514,69.321221
0.0016,-0.069545,-0.002909,0.067441,0.0,0.0,0.0,-0.035243,-0.511697,0.067995,0.820458,-261.629692,0.292704,69.321221
0.0019,-0.069812,-0.002925,0.066867,9.6e-05,2.9e-05,0.0,-0.035243,-0.511697,0.067995,0.820458,-261.629692,0.292704,69.321221
0.0021,-0.069693,-0.002714,0.068159,9.6e-05,2.9e-05,0.0,-0.034247,-0.511251,0.069872,0.820458,-261.629692,0.292704,69.321221
0.0024,-0.069772,-0.002825,0.067143,9.6e-05,2.9e-05,0.0,-0.034247,-0.511251,0.069872,0.820458,-261.629692,0.292704,69.321221
0.0169,-0.070039,-0.002792,0.066933,0.0,0.0,0.0,-0.035501,-0.511663,0.067234,0.820458,-261.629692,0.292704,69.321221
0.0373,-0.069806,-0.002698,0.068415,0.0,0.0,0.0,-0.035501,-0.511663,0.067234,0.820458,-261.629692,0.292704,69.321221
0.0568,-0.069329,-0.002841,0.069335,0.0,0.0,0.0,-0.034942,-0.511505,0.068415,0.745474,-261.629692,0.292704,69.321221
0.0769,-0.069904,-0.003117,0.068239,0.0,0.0,0.0,-0.034554,-0.51155,0.068792,0.745474,-261.629692,0.292704,69.321221
0.0972,-0.069832,-0.00258,0.066801,0.0,0.0,0.0,-0.035129,-0.511931,0.068239,0.745474,-261.629692,0.292704,69.321221
0.1169,-0.06941,-0.002791,0.0687,0.005204,0.002764,0.000155,-0.035729,-0.511487,0.066932,0.745474,-261.629692,0.292704,69.321221
0.1373,-0.069314,-0.002951,0.067162,0.005707,0.002976,0.000147,-0.035729,-0.511487,0.066932,0.745474,-261.629692,0.292704,69.321221
0.1568,-0.069619,-0.002691,0.066845,0.006141,0.00315,0.00014,-0.035087,-0.511801,0.067162,0.745474,-261.629692,0.292704,69.321221
0.1768,-0.069532,-0.002398,0.067618,0.006515,0.003297,0.000133,-0.03528,-0.511698,0.067031,0.745474,-261.629692,0.292704,69.321221
0.1968,-0.069487,-0.002722,0.069258,0.006838,0.003418,0.000126,-0.035036,-0.511207,0.067628,0.670454,-261.629111,0.367724,69.321795
0.217,-0.069635,-0.002541,0.067517,0.007117,0.00351,0.000118,-0.034263,-0.511473,0.069119,0.670454,-261.629111,0.367724,69.321795
0.2369,-0.069623,-0.002709,0.066242,0.007357,0.003585,0.00011,-0.034263,-0.511473,0.069119,0.670454,-261.629111,0.367724,69.321795
0.2569,-0.07001,-0.002397,0.067029,0.007564,0.003646,0.000101,-0.035739,-0.511508,0.066259,0.595467,-261.627663,0.442711,69.32323
0.2769,-0.069342,-0.002587,0.069209,0.007744,0.003695,9.1e-05,-0.03577,-0.511393,0.066576,0.595467,-261.627663,0.442711,69.32323
0.2968,-0.068902,-0.002469,0.067563,0.0079,0.003736,8.1e-05,-0.033908,-0.511264,0.069221,0.520474,-261.625201,0.442561,69.325676
0.3169,-0.068904,-0.002507,0.067107,0.008034,0.003766,7.1e-05,-0.034414,-0.511297,0.067707,0.520474,-261.625201,0.442561,69.325676
0.3368,-0.069035,-0.002925,0.068363,0.008151,0.003792,6.1e-05,-0.034414,-0.511297,0.067707,0.520474,-261.625201,0.442561,69.325676
0.357,-0.068869,-0.002093,0.068104,0.008252,0.003812,5.2e-05,-0.033905,-0.51157,0.068366,0.44684,-261.621991,0.436557,69.328871
0.3769,-0.068534,-0.002224,0.069322,0.008339,0.003829,4.2e-05,-0.033977,-0.511281,0.068259,0.44684,-261.621991,0.436557,69.328871
0.3971,-0.068493,-0.002391,0.068862,0.008415,0.003843,3.4e-05,-0.032956,-0.51086,0.069324,0.435925,-261.618351,0.429622,69.332501
0.4173,-0.068503,-0.001893,0.067339,0.00848,0.003848,2.5e-05,-0.033353,-0.51115,0.068899,0.435925,-261.618351,0.429622,69.332501
0.4372,-0.068141,-0.001709,0.067355,0.008536,0.003853,1.6e-05,-0.033353,-0.51115,0.068899,0.435925,-261.618351,0.429622,69.332501
0.4572,-0.067983,-0.001796,0.068159,0.008585,0.003857,9e-06,-0.033476,-0.510369,0.067357,0.430365,-261.614662,0.426337,69.336183
0.4772,-0.068157,-0.001872,0.067493,0.008626,0.00384,-0.0,-0.033344,-0.510447,0.067685,0.430365,-261.614662,0.426337,69.336183
0.497,-0.067854,-0.001943,0.067367,0.008662,0.003826,-8e-06,-0.033497,-0.51057,0.067493,0.422744,-261.610883,0.421693,69.33996
0.5171,-0.067519,-0.001996,0.067271,0.008693,0.003823,-1.3e-05,-0.033509,-0.510763,0.067377,0.422744,-261.610883,0.421693,69.33996
0.5382,-0.06734,-0.001628,0.068261,0.008721,0.00382,-1.8e-05,-0.033509,-0.510763,0.067377,0.422744,-261.610883,0.421693,69.33996
0.5572,-0.067442,-0.001312,0.068317,0.008745,0.003818,-2.3e-05,-0.032199,-0.510254,0.068261,0.415476,-261.60712,0.416371,69.343724
0.5772,-0.067054,-0.001406,0.066072,0.008764,0.003798,-2.9e-05,-0.032324,-0.510184,0.068282,0.415476,-261.60712,0.416371,69.343724
0.5969,-0.067205,-0.001726,0.068139,0.00878,0.003781,-3.4e-05,-0.033112,-0.510153,0.066072,0.410337,-261.603293,0.413011,69.347556
0.6176,-0.066766,-0.000923,0.067987,0.008796,0.003776,-3.7e-05,-0.032519,-0.510505,0.067973,0.410337,-261.603293,0.413011,69.347556
0.6375,-0.067045,-0.000898,0.069026,0.00881,0.003772,-3.9e-05,-0.032519,-0.510505,0.067973,0.410337,-261.603293,0.413011,69.347556
0.6572,-0.066416,-0.000956,0.066586,0.008821,0.003768,-4.2e-05,-0.031515,-0.509501,0.069024,0.404615,-261.59949,0.408572,69.351365
0.6772,-0.066368,-0.001308,0.067251,0.008828,0.003737,-4.7e-05,-0.031864,-0.509611,0.068042,0.404615,-261.59949,0.408572,69.351365
0.6969,-0.065754,-0.001154,0.066518,0.008834,0.003711,-5.1e-05,-0.031823,-0.510016,0.06725,0.401282,-261.595644,0.406189,69.355219
0.7175,-0.066144,-0.000766,0.067767,0.008842,0.003702,-5.2e-05,-0.03184,-0.510019,0.066577,0.401282,-261.595644,0.406189,69.355219
0.7375,-0.066184,-0.000943,0.066863,0.008848,0.003695,-5.3e-05,-0.03184,-0.510019,0.066577,0.401282,-261.595644,0.406189,69.355219
0.7569,-0.065321,-0.000352,0.068605,0.008853,0.003689,-5.4e-05,-0.031752,-0.509624,0.066861,0.394655,-261.591829,0.40062,69.359044
0.7769,-0.065635,-0.000636,0.067153,0.008856,0.003663,-5.8e-05,-0.03114,-0.50941,0.067575,0.394655,-261.591829,0.40062,69.359044
0.797,-0.065183,-0.000498,0.068487,0.008858,0.00364,-6e-05,-0.03114,-0.50935,0.067151,0.39158,-261.587998,0.397983,69.362885
0.8169,-0.064942,-0.000243,0.066679,0.008859,0.003616,-6.2e-05,-0.030341,-0.5093,0.068373,0.39158,-261.587998,0.397983,69.362885
0.8369,-0.065145,-0.000123,0.067752,0.00886,0.003596,-6.4e-05,-0.030341,-0.5093,0.068373,0.39158,-261.587998,0.397983,69.362885
0.8569,-0.064658,-0.000467,0.06647,0.008861,0.003579,-6.5e-05,-0.030259,-0.508776,0.067749,0.386404,-261.584182,0.393478,69.366712
0.8774,-0.064934,-0.000128,0.068232,0.008861,0.003556,-6.7e-05,-0.030431,-0.508986,0.067228,0.386404,-261.584182,0.393478,69.366712
0.8971,-0.064411,4.6e-05,0.06901,0.008861,0.003536,-6.8e-05,-0.029889,-0.508808,0.068229,0.380022,-261.58037,0.38772,69.370536
0.9173,-0.064387,-0.000433,0.066936,0.008859,0.003507,-7e-05,-0.029287,-0.50874,0.06894,0.380022,-261.58037,0.38772,69.370536
0.937,-0.064302,0.000278,0.068101,0.008858,0.003483,-7.1e-05,-0.029287,-0.50874,0.06894,0.380022,-261.58037,0.38772,69.370536
0.9577,-0.063392,3.4e-05,0.066108,0.008857,0.003463,-7.1e-05,-0.029238,-0.508367,0.068098,0.375638,-261.576562,0.383671,69.374356
0.9774,-0.063569,0.00023,0.067826,0.008855,0.003441,-7.2e-05,-0.029385,-0.508544,0.067288,0.375638,-261.576562,0.383671,69.374356
0.9968,-0.06362,0.000586,0.069048,0.008854,0.003422,-7.3e-05,-0.02873,-0.508468,0.067823,0.368407,-261.572771,0.376958,69.378161
1.0173,-0.063292,0.000312,0.068293,0.008851,0.003392,-7.4e-05,-0.028446,-0.508216,0.068937,0.368407,-261.572771,0.376958,69.378161
1.0377,-0.063306,0.000652,0.068901,0.008848,0.003366,-7.5e-05,-0.028446,-0.508216,0.068937,0.368407,-261.572771,0.376958,69.378161
1.0575,-0.062972,0.000437,0.068029,0.008846,0.003344,-7.6e-05,-0.027831,-0.507968,0.068898,0.364468,-261.568977,0.373172,69.381967
1.0769,-0.063149,0.000917,0.067809,0.008843,0.003321,-7.7e-05,-0.027977,-0.508113,0.068555,0.364468,-261.568977,0.373172,69.381967
1.097,-0.062288,0.001034,0.067987,0.008841,0.003302,-7.7e-05,-0.02832,-0.507786,0.067807,0.356825,-261.565206,0.36599,69.385751
1.1174,-0.062755,0.000993,0.067338,0.008837,0.003273,-7.8e-05,-0.027687,-0.507781,0.067971,0.356825,-261.565206,0.36599,69.385751
1.1371,-0.06254,0.000723,0.067561,0.008834,0.00325,-7.9e-05,-0.027687,-0.507781,0.067971,0.356825,-261.565206,0.36599,69.385751
1.1572,-0.061947,0.001192,0.068609,0.008831,0.00323,-7.9e-05,-0.027751,-0.507951,0.067557,0.35277,-261.561445,0.36207,69.389525
1.1769,-0.06242,0.000997,0.067824,0.008829,0.003212,-7.8e-05,-0.027398,-0.507792,0.067985,0.35277,-261.561445,0.36207,69.389525
1.1973,-0.06166,0.001242,0.065691,0.008827,0.003198,-7.8e-05,-0.027583,-0.507709,0.067822,0.345789,-261.557691,0.355377,69.393292
1.2174,-0.061851,0.001323,0.067573,0.008826,0.003185,-7.7e-05,-0.028117,-0.507656,0.065874,0.345789,-261.557691,0.355377,69.393292
1.2376,-0.06161,0.00146,0.06921,0.008825,0.003174,-7.7e-05,-0.028117,-0.507656,0.065874,0.345789,-261.557691,0.355377,69.393292
1.2571,-0.061415,0.001802,0.066469,0.008824,0.003166,-7.6e-05,-0.02598,-0.507159,0.069206,0.342763,-261.553943,0.352313,69.397053
1.2771,-0.06134,0.001537,0.066633,0.008817,0.003129,-7.9e-05,-0.026569,-0.507106,0.068102,0.342763,-261.553943,0.352313,69.397053
1.297,-0.061144,0.001599,0.06727,0.008811,0.003099,-8.1e-05,-0.02711,-0.507212,0.06663,0.339785,-261.550199,0.349101,69.40081
1.3172,-0.061037,0.001678,0.068322,0.008808,0.003081,-8.1e-05,-0.02687,-0.507239,0.067216,0.339785,-261.550199,0.349101,69.40081
1.3372,-0.060915,0.001783,0.068578,0.008805,0.003066,-8.1e-05,-0.02687,-0.507239,0.067216,0.339785,-261.550199,0.349101,69.40081
1.3573,-0.060495,0.002052,0.066992,0.008803,0.003053,-8e-05,-0.02561,-0.506864,0.068575,0.333227,-261.546475,0.343197,69.404547
1.3778,-0.060557,0.00175,0.067137,0.008797,0.003021,-8.3e-05,-0.025874,-0.506821,0.067926,0.333227,-261.546475,0.343197,69.404547
1.3971,-0.059729,0.001679,0.066655,0.008791,0.002994,-8.4e-05,-0.026066,-0.506983,0.067134,0.328867,-261.542749,0.338805,69.408286
1.4174,-0.060086,0.001937,0.067503,0.00879,0.002986,-8.3e-05,-0.025773,-0.507166,0.066694,0.328867,-261.542749,0.338805,69.408286
1.4373,-0.060324,0.001685,0.066739,0.008789,0.002979,-8.2e-05,-0.025773,-0.507166,0.066694,0.328867,-261.542749,0.338805,69.408286
1.4573,-0.059415,0.002326,0.067559,0.008788,0.002974,-8.2e-05,-0.025953,-0.50703,0.066735,0.323057,-261.539058,0.333517,69.41199
1.4772,-0.059822,0.002083,0.06785,0.008783,0.002953,-8.3e-05,-0.025525,-0.506805,0.067065,0.323057,-261.539058,0.333517,69.41199
1.4972,-0.059161,0.002508,0.068705,0.00878,0.002936,-8.4e-05,-0.024972,-0.50663,0.067848,0.321186,-261.535349,0.33137,69.415711
1.5175,-0.059061,0.00196,0.065918,0.008769,0.002892,-8.8e-05,-0.024208,-0.506313,0.068629,0.321186,-261.535349,0.33137,69.415711
1.5372,-0.058846,0.002292,0.066636,0.00876,0.002855,-9.1e-05,-0.024208,-0.506313,0.068629,0.321186,-261.535349,0.33137,69.415711
1.5572,-0.058641,0.002599,0.066486,0.008753,0.002825,-9.3e-05,-0.024529,-0.506429,0.066632,0.317438,-261.531659,0.327926,69.419415
1.5771,-0.059012,0.002095,0.065625,0.008748,0.002805,-9.3e-05,-0.024581,-0.506349,0.066572,0.317438,-261.531659,0.327926,69.419415
1.5967,-0.058113,0.002657,0.068032,0.008745,0.002789,-9.3e-05,-0.025296,-0.506699,0.065622,0.30627,-261.527999,0.318022,69.423088
1.6171,-0.058215,0.002666,0.068183,0.008738,0.002761,-9.5e-05,-0.023595,-0.506206,0.067817,0.30627,-261.527999,0.318022,69.423088
1.6373,-0.058148,0.002661,0.066582,0.008732,0.002738,-9.6e-05,-0.023595,-0.506206,0.067817,0.30627,-261.527999,0.318022,69.423088
1.6571,-0.05791,0.003122,0.067735,0.008727,0.002718,-9.6e-05,-0.023856,-0.506067,0.066578,0.302815,-261.524329,0.314583,69.426772
1.677,-0.057833,0.002852,0.067208,0.00872,0.002691,-9.8e-05,-0.02363,-0.505908,0.067041,0.302815,-261.524329,0.314583,69.426772
1.6969,-0.057409,0.002897,0.067571,0.008715,0.002668,-9.8e-05,-0.023312,-0.505892,0.067205,0.29582,-261.520686,0.308081,69.430429
1.7172,-0.057315,0.002941,0.06755,0.008708,0.002644,-9.9e-05,-0.022989,-0.50593,0.06754,0.29582,-261.520686,0.308081,69.430429
1.7371,-0.057018,0.002813,0.06773,0.008703,0.002624,-0.0001,-0.022989,-0.50593,0.06754,0.29582,-261.520686,0.308081,69.430429
1.7573,-0.056921,0.003371,0.068241,0.008699,0.002607,-0.0001,-0.022145,-0.505881,0.067726,0.290755,-261.51705,0.303349,69.434079
1.777,-0.056937,0.00322,0.06845,0.008689,0.002574,-0.000103,-0.022104,-0.505688,0.067934,0.290755,-261.51705,0.303349,69.434079
1.7968,-0.05655,0.00358,0.068111,0.008681,0.002547,-0.000104,-0.021785,-0.505484,0.068447,0.284718,-261.513426,0.297596,69.437717
1.8169,-0.056423,0.003479,0.067507,0.008668,0.002502,-0.000108,-0.021823,-0.505253,0.068139,0.284718,-261.513426,0.297596,69.437717
1.8369,-0.056497,0.003476,0.0679,0.008656,0.002464,-0.000111,-0.021823,-0.505253,0.068139,0.284718,-261.513426,0.297596,69.437717
1.8569,-0.056346,0.003557,0.067885,0.008647,0.002433,-0.000112,-0.02154,-0.505218,0.067896,0.278578,-261.509822,0.292089,69.441336
1.8771,-0.055863,0.003797,0.068241,0.008638,0.002403,-0.000113,-0.021586,-0.505223,0.067891,0.278578,-261.509822,0.292089,69.441336
1.897,-0.055675,0.003658,0.068237,0.008631,0.002378,-0.000113,-0.020818,-0.50492,0.068238,0.266902,-261.506256,0.281539,69.444917
1.9171,-0.05548,0.003525,0.068162,0.00862,0.002345,-0.000115,-0.02088,-0.505129,0.068237,0.266902,-261.506256,0.281539,69.444917
1.9374,-0.055582,0.003404,0.068469,0.008611,0.002317,-0.000117,-0.02088,-0.505129,0.068237,0.266902,-261.506256,0.281539,69.444917
1.9571,-0.055381,0.003372,0.067525,0.008604,0.002294,-0.000117,-0.020336,-0.505278,0.068464,0.261408,-261.502678,0.27632,69.448509
1.9772,-0.0554,0.003875,0.067805,0.008599,0.002282,-0.000116,-0.020556,-0.505341,0.068077,0.261408,-261.502678,0.27632,69.448509
1.998,-0.054309,0.004042,0.067933,0.008596,0.002271,-0.000116,-0.020579,-0.504862,0.067802,0.252844,-261.499135,0.268358,69.452067
2.0173,-0.054639,0.003747,0.069347,0.00858,0.002226,-0.000121,-0.019753,-0.504784,0.067921,0.252844,-261.499135,0.268358,69.452067
2.0377,-0.054595,0.004049,0.068453,0.008566,0.002188,-0.000124,-0.019753,-0.504784,0.067921,0.252844,-261.499135,0.268358,69.452067
2.0572,-0.054599,0.004174,0.067929,0.008555,0.002157,-0.000125,-0.019358,-0.504637,0.068448,0.250591,-261.49559,0.265957,69.455626
2.077,-0.053993,0.003923,0.067013,0.008542,0.00212,-0.000128,-0.019569,-0.504628,0.068238,0.250591,-261.49559,0.265957,69.455626
2.0968,-0.054186,0.004013,0.068545,0.008531,0.00209,-0.000129,-0.019575,-0.504846,0.067009,0.238505,-261.492079,0.255337,69.459153
2.1172,-0.054378,0.00403,0.067149,0.008523,0.002068,-0.000129,-0.01927,-0.50479,0.06841,0.238505,-261.492079,0.255337,69.459153
2.1372,-0.054127,0.004115,0.069207,0.008517,0.00205,-0.000129,-0.01927,-0.50479,0.06841,0.238505,-261.492079,0.255337,69.459153
2.1573,-0.053147,0.004357,0.066036,0.008511,0.002035,-0.000128,-0.018508,-0.504551,0.069201,0.231533,-261.488577,0.248956,69.46267
2.1773,-0.053684,0.00453,0.068823,0.008499,0.002005,-0.000131,-0.018864,-0.504531,0.067929,0.231533,-261.488577,0.248956,69.46267
2.1969,-0.053104,0.004201,0.06926,0.008489,0.001979,-0.000132,-0.018346,-0.504179,0.068819,0.226009,-261.485088,0.243442,69.466173
2.2169,-0.052826,0.004515,0.064813,0.008473,0.001941,-0.000136,-0.017843,-0.504538,0.069222,0.226009,-261.485088,0.243442,69.466173
2.2371,-0.053069,0.004864,0.066829,0.00846,0.001909,-0.000138,-0.017843,-0.504538,0.069222,0.226009,-261.485088,0.243442,69.466173
2.257,-0.052866,0.004808,0.06698,0.008449,0.001882,-0.00014,-0.018663,-0.503892,0.066823,0.220034,-261.481611,0.238034,69.469664
2.277,-0.052903,0.004712,0.066989,0.008435,0.001846,-0.000141,-0.018651,-0.503944,0.066887,0.220034,-261.481611,0.238034,69.469664
2.297,-0.052592,0.004958,0.068398,0.008423,0.001816,-0.000141,-0.0185,-0.504067,0.066985,0.209518,-261.478167,0.228753,69.473123
2.317,-0.052428,0.005087,0.066672,0.008404,0.001771,-0.000145,-0.017791,-0.503865,0.068273,0.209518,-261.478167,0.228753,69.473123
2.3375,-0.052567,0.004938,0.067398,0.008388,0.001734,-0.000147,-0.017791,-0.503865,0.068273,0.209518,-261.478167,0.228753,69.473123
2.3568,-0.051969,0.004888,0.065774,0.008375,0.001703,-0.000148,-0.017874,-0.503805,0.067392,0.202577,-261.474732,0.22217,69.476572
2.3769,-0.051933,0.004967,0.065876,0.008367,0.001684,-0.000146,-0.01807,-0.503877,0.066728,0.202577,-261.474732,0.22217,69.476572
2.3968,-0.051696,0.005418,0.067095,0.008361,0.001669,-0.000145,-0.0181,-0.503856,0.065871,0.190233,-261.471341,0.210924,69.479978
2.4175,-0.051461,0.005029,0.067668,0.008342,0.001626,-0.000148,-0.017543,-0.503469,0.066986,0.190233,-261.471341,0.210924,69.479978
2.437,-0.051664,0.005158,0.068284,0.008326,0.00159,-0.00015,-0.017543,-0.503469,0.066986,0.190233,-261.471341,0.210924,69.479978
2.4568,-0.051039,0.005156,0.067403,0.008312,0.001561,-0.000151,-0.016522,-0.50356,0.068278,0.186868,-261.467938,0.207181,69.483395
2.4769,-0.05047,0.005042,0.069273,0.008293,0.001522,-0.000154,-0.016551,-0.503601,0.06792,0.186868,-261.467938,0.207181,69.483395
2.4972,-0.051167,0.005032,0.067739,0.008277,0.001489,-0.000156,-0.01491,-0.503667,0.069268,0.174886,-261.464576,0.196276,69.48677
2.5173,-0.050807,0.004832,0.069301,0.008268,0.001471,-0.000156,-0.016478,-0.503783,0.067875,0.174886,-261.464576,0.196276,69.48677
2.5372,-0.050352,0.005234,0.06853,0.00826,0.001455,-0.000155,-0.016478,-0.503783,0.067875,0.174886,-261.464576,0.196276,69.48677
2.5574,-0.050345,0.005182,0.066331,0.008254,0.001442,-0.000154,-0.015088,-0.503483,0.068524,0.166832,-261.46122,0.189139,69.49014
2.5775,-0.050265,0.005395,0.068214,0.008233,0.001401,-0.000159,-0.015642,-0.50356,0.067627,0.166832,-261.46122,0.189139,69.49014
2.597,-0.050121,0.005449,0.066708,0.008215,0.001368,-0.000162,-0.015243,-0.503355,0.068209,0.161945,-261.457875,0.184038,69.493498
2.6173,-0.04961,0.00578,0.067472,0.008202,0.001341,-0.000162,-0.016029,-0.503407,0.066847,0.161945,-261.457875,0.184038,69.493498
2.6373,-0.049922,0.005426,0.067318,0.008191,0.00132,-0.000162,-0.016029,-0.503407,0.066847,0.161945,-261.457875,0.184038,69.493498
2.6571,-0.049409,0.005251,0.066823,0.008182,0.001302,-0.000161,-0.015278,-0.503338,0.067311,0.153239,-261.454561,0.176651,69.496825
2.677,-0.04912,0.00592,0.067015,0.008165,0.00127,-0.000164,-0.015271,-0.50344,0.067111,0.153239,-261.454561,0.176651,69.496825
2.6969,-0.048842,0.00538,0.068146,0.00815,0.001245,-0.000166,-0.014712,-0.502877,0.06701,0.14603,-261.451257,0.169512,69.500141
2.7169,-0.049004,0.005431,0.066371,0.008119,0.00119,-0.000174,-0.014153,-0.503385,0.068048,0.14603,-261.451257,0.169512,69.500141
2.7376,-0.049098,0.005741,0.067854,0.008092,0.001144,-0.000179,-0.014153,-0.503385,0.068048,0.14603,-261.451257,0.169512,69.500141
2.7572,-0.04857,0.005564,0.068333,0.00807,0.001107,-0.000182,-0.014181,-0.503009,0.067847,0.139365,-261.447969,0.163636,69.503441
2.7771,-0.04881,0.00557,0.06702,0.00804,0.001055,-0.000187,-0.013969,-0.503095,0.068041,0.139365,-261.447969,0.163636,69.503441
2.7979,-0.048172,0.005642,0.06848,0.008014,0.001012,-0.00019,-0.014403,-0.503233,0.067014,0.122753,-261.444745,0.149794,69.506677
2.8171,-0.048022,0.005475,0.066051,0.007983,0.000962,-0.000194,-0.013362,-0.503167,0.068349,0.122753,-261.444745,0.149794,69.506677
2.838,-0.048084,0.005803,0.067808,0.007958,0.000921,-0.000197,-0.013362,-0.503167,0.068349,0.122753,-261.444745,0.149794,69.506677
2.8574,-0.047325,0.005617,0.066621,0.007936,0.000887,-0.000197,-0.013195,-0.50296,0.0678,0.111336,-261.441532,0.139772,69.509902
2.8774,-0.047567,0.005804,0.067647,0.007913,0.00085,-0.000199,-0.013228,-0.503067,0.067336,0.111336,-261.441532,0.139772,69.509902
2.8969,-0.047288,0.006076,0.067662,0.007894,0.00082,-0.000198,-0.012844,-0.502985,0.067641,0.096272,-261.438362,0.126258,69.513082
2.9173,-0.047467,0.005817,0.067183,0.007858,0.000765,-0.000204,-0.012798,-0.502775,0.06766,0.096272,-261.438362,0.126258,69.513082
2.9372,-0.047381,0.005725,0.067683,0.007828,0.000719,-0.000206,-0.012798,-0.502775,0.06766,0.096272,-261.438362,0.126258,69.513082
2.9573,-0.047033,0.006076,0.068104,0.007803,0.000682,-0.000206,-0.012563,-0.503051,0.067675,0.088325,-261.435199,0.118698,69.516255
2.977,-0.046827,0.006134,0.067893,0.007779,0.000647,-0.000208,-0.012429,-0.502918,0.067849,0.088325,-261.435199,0.118698,69.516255
2.997,-0.046876,0.005911,0.066558,0.007759,0.000618,-0.000207,-0.011983,-0.502653,0.067886,0.071138,-261.432092,0.103204,69.519371
3.0172,-0.046525,0.006287,0.067307,0.007754,0.000611,-0.000202,-0.01286,-0.502932,0.066673,0.071138,-261.432092,0.103204,69.519371
3.0373,-0.046778,0.00658,0.067633,0.00775,0.000606,-0.000197,-0.01286,-0.502932,0.066673,0.071138,-261.432092,0.103204,69.519371
3.0572,-0.046386,0.006186,0.067774,0.007746,0.000601,-0.000193,-0.011989,-0.502206,0.067624,0.063281,-261.428993,0.095701,69.522478
3.0771,-0.046153,0.005936,0.066424,0.007697,0.000532,-0.000204,-0.011896,-0.502376,0.067683,0.063281,-261.428993,0.095701,69.522478
3.0966,-0.046045,0.006221,0.067409,0.007656,0.000475,-0.00021,-0.012056,-0.502903,0.066418,0.062242,-261.425889,0.092553,69.525589
3.1168,-0.045659,0.006149,0.067616,0.007629,0.00044,-0.000212,-0.011712,-0.502644,0.067322,0.062242,-261.425889,0.092553,69.525589
3.137,-0.045633,0.006203,0.067881,0.007607,0.000411,-0.000212,-0.011712,-0.502644,0.067322,0.062242,-261.425889,0.092553,69.525589
3.1567,-0.04543,0.006325,0.067594,0.007589,0.000387,-0.000212,-0.010724,-0.502581,0.067872,0.045235,-261.422847,0.078632,69.528638
3.177,-0.045492,0.006295,0.066575,0.00754,0.000326,-0.000221,-0.010794,-0.502548,0.067757,0.045235,-261.422847,0.078632,69.528638
3.1972,-0.044957,0.006287,0.068645,0.007499,0.000276,-0.000226,-0.011325,-0.502547,0.066569,0.033962,-261.419822,0.06794,69.531668
3.2172,-0.045277,0.006117,0.067881,0.007437,0.000202,-0.000237,-0.010086,-0.502513,0.068457,0.033962,-261.419822,0.06794,69.531668
3.2374,-0.045097,0.00646,0.068871,0.007385,0.000143,-0.000244,-0.010086,-0.502513,0.068457,0.033962,-261.419822,0.06794,69.531668
3.2571,-0.044853,0.006313,0.067394,0.007342,9.4e-05,-0.000246,-0.009689,-0.502298,0.068862,0.018339,-261.416841,0.055138,69.534653
3.2771,-0.044682,0.006084,0.067046,0.007298,4.4e-05,-0.000249,-0.009988,-0.502389,0.068262,0.018339,-261.416841,0.055138,69.534653
3.2972,-0.044429,0.006639,0.06793,0.007261,3e-06,-0.000249,-0.010286,-0.502752,0.067038,-0.007695,-261.413958,0.033293,69.537538
3.3172,-0.044521,0.0059,0.065784,0.007218,-4.5e-05,-0.000251,-0.009843,-0.502235,0.067848,-0.007695,-261.413958,0.033293,69.537538
3.3375,-0.044713,0.006674,0.067212,0.007182,-8.3e-05,-0.00025,-0.009843,-0.502235,0.067848,-0.007695,-261.413958,0.033293,69.537538
3.357,-0.043689,0.006314,0.06633,0.007152,-0.000115,-0.000248,-0.010158,-0.502154,0.067201,-0.020572,-261.411063,0.021332,69.540432
3.3769,-0.043872,0.006407,0.068941,0.00714,-0.000127,-0.000242,-0.010012,-0.50232,0.066844,-0.020572,-261.411063,0.021332,69.540432
3.3968,-0.043592,0.006162,0.067236,0.007129,-0.000138,-0.000237,-0.008515,-0.50237,0.068933,-0.037222,-261.408229,0.005111,69.543265
3.4175,-0.043913,0.006246,0.067375,0.007102,-0.000163,-0.00024,-0.009242,-0.502656,0.067389,-0.037222,-261.408229,0.005111,69.543265
3.4375,-0.043591,0.006596,0.066834,0.007079,-0.000183,-0.000242,-0.009242,-0.502656,0.067389,-0.037222,-261.408229,0.005111,69.543265
3.4571,-0.043817,0.006217,0.066993,0.007061,-0.000199,-0.000242,-0.009231,-0.502251,0.066824,-0.039598,-261.405376,0.001015,69.546116
3.4775,-0.043482,0.006388,0.067924,0.00704,-0.00022,-0.000242,-0.009374,-0.502404,0.06689,-0.039598,-261.405376,0.001015,69.546116
3.4968,-0.042894,0.006254,0.06678,0.007023,-0.000237,-0.000241,-0.008642,-0.502427,0.067916,-0.049141,-261.402556,-0.007252,69.548933
3.5171,-0.042956,0.006165,0.066704,0.006991,-0.000265,-0.000246,-0.00883,-0.502592,0.066882,-0.049141,-261.402556,-0.007252,69.548933
3.5375,-0.042877,0.006394,0.066842,0.006966,-0.000289,-0.000248,-0.00883,-0.502592,0.066882,-0.049141,-261.402556,-0.007252,69.548933
3.5569,-0.042665,0.00636,0.067173,0.006944,-0.000308,-0.00025,-0.008519,-0.502457,0.066831,-0.054585,-261.399745,-0.012715,69.551739
3.5769,-0.042839,0.006172,0.06854,0.0069,-0.000348,-0.000256,-0.00845,-0.502469,0.066969,-0.054585,-261.399745,-0.012715,69.551739
3.5967,-0.042131,0.006553,0.066438,0.006864,-0.000381,-0.00026,-0.00769,-0.502625,0.068533,-0.066156,-261.396971,-0.022313,69.554508
3.617,-0.042296,0.006418,0.068212,0.006816,-0.000426,-0.000266,-0.008209,-0.502348,0.066626,-0.066156,-261.396971,-0.022313,69.554508
3.6371,-0.042306,0.006401,0.06633,0.006776,-0.000462,-0.000269,-0.008209,-0.502348,0.066626,-0.066156,-261.396971,-0.022313,69.554508
3.657,-0.041539,0.006641,0.067816,0.006742,-0.00049,-0.00027,-0.008215,-0.502474,0.066319,-0.07852,-261.394228,-0.032362,69.557244
3.6772,-0.041936,0.006543,0.067284,0.006684,-0.000541,-0.000278,-0.007682,-0.502358,0.066924,-0.07852,-261.394228,-0.032362,69.557244
3.6973,-0.041571,0.006358,0.068729,0.006635,-0.000581,-0.000282,-0.007434,-0.502304,0.067275,-0.096937,-261.391544,-0.048206,69.559918
3.7169,-0.041534,0.005928,0.066492,0.006523,-0.000668,-0.000299,-0.006616,-0.502426,0.068598,-0.096937,-261.391544,-0.048206,69.559918
3.7374,-0.041888,0.00673,0.068382,0.00643,-0.000737,-0.00031,-0.006616,-0.502426,0.068598,-0.096937,-261.391544,-0.048206,69.559918
3.7571,-0.041035,0.00649,0.064868,0.006354,-0.000793,-0.000316,-0.006764,-0.502083,0.06837,-0.113013,-261.388888,-0.061463,69.562562
3.7773,-0.041092,0.006843,0.069069,0.006328,-0.000812,-0.000311,-0.007231,-0.50223,0.066927,-0.113013,-261.388888,-0.061463,69.562562
3.7971,-0.040586,0.006221,0.066662,0.006306,-0.000827,-0.000306,-0.005699,-0.501952,0.069059,-0.153921,-261.386426,-0.094037,69.565006
3.8173,-0.040696,0.006578,0.067664,0.006255,-0.00086,-0.00031,-0.006524,-0.502586,0.066871,-0.153921,-261.386426,-0.094037,69.565006
3.837,-0.040757,0.006715,0.06748,0.006213,-0.000886,-0.000313,-0.006524,-0.502586,0.066871,-0.153921,-261.386426,-0.094037,69.565006
3.8572,-0.04057,0.00655,0.06811,0.006179,-0.000907,-0.000314,-0.006102,-0.502141,0.067467,-0.159376,-261.383874,-0.101191,69.567539
3.8769,-0.0402,0.006493,0.066798,0.006085,-0.000971,-0.000322,-0.005974,-0.502194,0.067725,-0.159376,-261.383874,-0.101191,69.567539
3.8972,-0.039764,0.006383,0.068292,0.006008,-0.001023,-0.000327,-0.005962,-0.502385,0.066789,-0.175971,-261.381386,-0.115275,69.570004
3.9173,-0.040033,0.006173,0.067356,0.00587,-0.001103,-0.00034,-0.005044,-0.502425,0.068153,-0.175971,-261.381386,-0.115275,69.570004
3.9372,-0.039924,0.006269,0.066783,0.005756,-0.001166,-0.000347,-0.005044,-0.502425,0.068153,-0.175971,-261.381386,-0.115275,69.570004
3.957,-0.040014,0.006513,0.065916,0.005663,-0.001216,-0.000351,-0.00564,-0.50262,0.066769,-0.200658,-261.378974,-0.136145,69.57239
3.977,-0.039186,0.006114,0.067895,0.005675,-0.001202,-0.00034,-0.005929,-0.502525,0.06642,-0.200658,-261.378974,-0.136145,69.57239
3.997,-0.039613,0.00628,0.065354,0.005685,-0.00119,-0.000331,-0.004413,-0.502736,0.067885,-0.247483,-261.376773,-0.175079,69.574558
4.0173,-0.039746,0.006231,0.067033,0.005716,-0.001163,-0.000321,-0.006126,-0.502642,0.065583,-0.247483,-261.376773,-0.175079,69.574558
4.0379,-0.0395,0.006608,0.067599,0.005742,-0.001142,-0.000313,-0.006126,-0.502642,0.065583,-0.247483,-261.376773,-0.175079,69.574558
4.0572,-0.039041,0.006061,0.068237,0.005763,-0.001125,-0.000308,-0.004809,-0.502262,0.067585,-0.240191,-261.374431,-0.172091,69.576866
4.0769,-0.039425,0.005511,0.067113,0.005622,-0.001204,-0.000325,-0.004565,-0.502462,0.067845,-0.240191,-261.374431,-0.172091,69.576866
4.097,-0.03892,0.005899,0.066963,0.005506,-0.001267,-0.000336,-0.005039,-0.503365,0.067103,-0.22396,-261.372079,-0.161069,69.579189
4.117,-0.038807,0.005981,0.068484,0.005464,-0.001281,-0.00034,-0.004806,-0.502994,0.066974,-0.22396,-261.372079,-0.161069,69.579189
4.1372,-0.038974,0.006538,0.066389,0.005431,-0.001291,-0.000343,-0.004806,-0.502994,0.066974,-0.22396,-261.372079,-0.161069,69.579189
4.157,-0.038779,0.006299,0.066049,0.005403,-0.001299,-0.000344,-0.004916,-0.502375,0.066375,-0.261327,-261.369885,-0.190463,69.581348
4.1771,-0.038408,0.006381,0.067715,0.005371,-0.001318,-0.000341,-0.004972,-0.502466,0.066242,-0.261327,-261.369885,-0.190463,69.581348
4.1971,-0.038571,0.006313,0.067621,0.005346,-0.001333,-0.000339,-0.003726,-0.50248,0.067704,-0.27242,-261.367649,-0.198915,69.583545
4.2169,-0.038678,0.006388,0.064101,0.00523,-0.001388,-0.000347,-0.004065,-0.502519,0.067628,-0.27242,-261.367649,-0.198915,69.583545
4.2371,-0.038368,0.006503,0.066672,0.005136,-0.001431,-0.00035,-0.004065,-0.502519,0.067628,-0.27242,-261.367649,-0.198915,69.583545
4.257,-0.03787,0.006141,0.067988,0.005059,-0.001464,-0.000351,-0.004163,-0.502405,0.066658,-0.280447,-261.365428,-0.207656,69.585726
4.2771,-0.038214,0.005877,0.066645,0.004961,-0.001504,-0.000353,-0.00376,-0.50252,0.06719,-0.280447,-261.365428,-0.207656,69.585726
4.2969,-0.037981,0.005715,0.064843,0.004881,-0.001535,-0.000352,-0.004093,-0.503025,0.066635,-0.320363,-261.363386,-0.242141,69.587722
4.317,-0.038483,0.005925,0.067014,0.004975,-0.001467,-0.000335,-0.004854,-0.503199,0.064998,-0.320363,-261.363386,-0.242141,69.587722
4.3368,-0.037729,0.005895,0.066049,0.005052,-0.001413,-0.000325,-0.004854,-0.503199,0.064998,-0.320363,-261.363386,-0.242141,69.587722
4.3575,-0.037231,0.006082,0.067123,0.005114,-0.001372,-0.000318,-0.003864,-0.503043,0.066035,-0.34425,-261.36135,-0.264018,69.589708
4.3774,-0.037586,0.006323,0.067433,0.00499,-0.001424,-0.000332,-0.003498,-0.502937,0.066477,-0.34425,-261.36135,-0.264018,69.589708
4.3971,-0.037376,0.006195,0.067005,0.004889,-0.001465,-0.000341,-0.003065,-0.502549,0.067424,-0.297152,-261.359331,-0.226235,69.591688
4.4168,-0.037358,0.005978,0.067688,0.004759,-0.001519,-0.000347,-0.003206,-0.502652,0.067042,-0.297152,-261.359331,-0.226235,69.591688
4.4373,-0.037622,0.005793,0.067228,0.004653,-0.001561,-0.000349,-0.003206,-0.502652,0.067042,-0.297152,-261.359331,-0.226235,69.591688
4.4569,-0.037347,0.00613,0.066943,0.004566,-0.001594,-0.000349,-0.003159,-0.503102,0.067214,-0.329786,-261.35732,-0.251672,69.593653
4.477,-0.036997,0.005951,0.069788,0.004502,-0.001611,-0.000348,-0.003165,-0.502956,0.067103,-0.329786,-261.35732,-0.251672,69.593653
4.4975,-0.036891,0.005584,0.067073,0.004449,-0.001623,-0.000345,-0.001295,-0.502846,0.069778,-0.376845,-261.355477,-0.293771,69.595443
4.517,-0.037077,0.006102,0.066243,0.004328,-0.001645,-0.000348,-0.002557,-0.503228,0.067348,-0.376845,-261.355477,-0.293771,69.595443
4.5371,-0.037048,0.00604,0.066623,0.00423,-0.001661,-0.000348,-0.002557,-0.503228,0.067348,-0.376845,-261.355477,-0.293771,69.595443
4.5569,-0.036706,0.006024,0.067737,0.00415,-0.001672,-0.000347,-0.002905,-0.502884,0.066609,-0.390904,-261.353564,-0.307221,69.597299
4.5771,-0.036535,0.005969,0.067104,0.004081,-0.001691,-0.000342,-0.002596,-0.502859,0.067059,-0.390904,-261.353564,-0.307221,69.597299
4.5972,-0.036692,0.005702,0.065564,0.004025,-0.001706,-0.000337,-0.002207,-0.502926,0.067094,-0.42611,-261.351805,-0.338336,69.598998
4.6171,-0.03659,0.005582,0.066534,0.004074,-0.001678,-0.000327,-0.003176,-0.50318,0.065701,-0.42611,-261.351805,-0.338336,69.598998
4.6372,-0.036768,0.005934,0.067715,0.004114,-0.001657,-0.00032,-0.003176,-0.50318,0.065701,-0.42611,-261.351805,-0.338336,69.598998
4.6571,-0.036075,0.005767,0.067028,0.004146,-0.001641,-0.000316,-0.002089,-0.502956,0.067701,-0.443454,-261.35004,-0.356762,69.600698
4.6772,-0.036401,0.00586,0.066241,0.003993,-0.001677,-0.000321,-0.001999,-0.503016,0.067424,-0.443454,-261.35004,-0.356762,69.600698
4.6972,-0.036085,0.005401,0.06773,0.00387,-0.001705,-0.000322,-0.002511,-0.503064,0.066231,-0.416384,-261.348258,-0.33597,69.602425
4.7173,-0.035825,0.005359,0.067696,0.00372,-0.00172,-0.000325,-0.001644,-0.5034,0.0676,-0.416384,-261.348258,-0.33597,69.602425
4.737,-0.036132,0.005795,0.066114,0.003599,-0.001729,-0.000324,-0.001644,-0.5034,0.0676,-0.416384,-261.348258,-0.33597,69.602425
4.7574,-0.035943,0.00543,0.065835,0.003501,-0.001734,-0.000322,-0.00228,-0.503148,0.066102,-0.456819,-261.346612,-0.371706,69.60401
4.7773,-0.035843,0.005561,0.067953,0.003528,-0.001722,-0.000313,-0.002307,-0.503286,0.06599,-0.456819,-261.346612,-0.371706,69.60401
4.7972,-0.035843,0.005235,0.067578,0.003549,-0.001712,-0.000307,-0.001106,-0.503307,0.067944,-0.504076,-261.345114,-0.41391,69.605443
4.8172,-0.035991,0.005228,0.066354,0.003418,-0.001716,-0.000309,-0.001372,-0.503576,0.067611,-0.504076,-261.345114,-0.41391,69.605443
4.8375,-0.035506,0.005235,0.066328,0.003313,-0.001718,-0.000308,-0.001372,-0.503576,0.067611,-0.504076,-261.345114,-0.41391,69.605443
4.8574,-0.035388,0.005146,0.067052,0.003228,-0.001717,-0.000306,-0.00155,-0.503706,0.066316,-0.491334,-261.34351,-0.405659,69.606982
4.8772,-0.035746,0.005676,0.0666,0.003169,-0.001708,-0.000303,-0.0014,-0.503714,0.066606,-0.491334,-261.34351,-0.405659,69.606982
4.8967,-0.035427,0.005272,0.068631,0.00312,-0.001699,-0.0003,-0.001703,-0.503239,0.066591,-0.532903,-261.342084,-0.442722,69.608342
4.917,-0.035366,0.005266,0.066195,0.002937,-0.001708,-0.000297,-0.00056,-0.503503,0.068447,-0.532903,-261.342084,-0.442722,69.608342
4.937,-0.035157,0.005682,0.065619,0.002789,-0.001713,-0.000292,-0.00056,-0.503503,0.068447,-0.532903,-261.342084,-0.442722,69.608342
4.9569,-0.03493,0.005152,0.067244,0.002669,-0.001715,-0.000286,-0.00158,-0.503282,0.065607,-0.542942,-261.34063,-0.452252,69.609725
4.9768,-0.034927,0.004996,0.066713,0.002682,-0.001711,-0.000277,-0.001194,-0.503456,0.066266,-0.542942,-261.34063,-0.452252,69.609725
4.9967,-0.034886,0.005093,0.068316,0.002692,-0.001707,-0.000269,-0.000854,-0.503911,0.066705,-0.616075,-261.339523,-0.523502,69.610768
5.0171,-0.03507,0.005122,0.066245,0.002519,-0.001696,-0.000266,-0.000138,-0.503737,0.068171,-0.616075,-261.339523,-0.523502,69.610768
5.0372,-0.03501,0.004962,0.065486,0.00238,-0.001685,-0.00026,-0.000138,-0.503737,0.068171,-0.616075,-261.339523,-0.523502,69.610768
5.0571,-0.03469,0.004892,0.065119,0.002267,-0.001675,-0.000254,-0.001519,-0.504009,0.065475,-0.607454,-261.338214,-0.520283,69.612008
5.077,-0.034834,0.00442,0.06552,0.002425,-0.001631,-0.000243,-0.001499,-0.504024,0.06533,-0.607454,-261.338214,-0.520283,69.612008
5.097,-0.034572,0.004658,0.066881,0.002551,-0.001599,-0.000238,-0.001378,-0.504527,0.065513,-0.679001,-261.337221,-0.590428,69.612938
5.1171,-0.034909,0.00541,0.06646,0.00248,-0.001578,-0.000241,-0.000566,-0.504233,0.066756,-0.679001,-261.337221,-0.590428,69.612938
5.1371,-0.034889,0.005025,0.066757,0.002424,-0.00156,-0.000243,-0.000566,-0.504233,0.066756,-0.679001,-261.337221,-0.590428,69.612938
5.157,-0.034347,0.005048,0.06687,0.002378,-0.001545,-0.000243,-0.000776,-0.503889,0.066748,-0.603957,-261.336194,-0.517931,69.613914
5.1771,-0.034859,0.005169,0.067122,0.002344,-0.001552,-0.000242,-0.000559,-0.503863,0.066797,-0.603957,-261.336194,-0.517931,69.613914
5.1983,-0.034765,0.004873,0.066579,0.002315,-0.001557,-0.00024,-0.000574,-0.503727,0.067114,-0.618726,-261.335033,-0.530783,69.61501
5.2175,-0.034578,0.004793,0.066157,0.002339,-0.001552,-0.000237,-0.000807,-0.503974,0.066627,-0.618726,-261.335033,-0.530783,69.61501
5.237,-0.034456,0.004857,0.066981,0.002358,-0.001549,-0.000236,-0.000807,-0.503974,0.066627,-0.618726,-261.335033,-0.530783,69.61501
5.2573,-0.034702,0.004445,0.067343,0.002372,-0.001547,-0.000235,-0.000221,-0.504058,0.066971,-0.634217,-261.333893,-0.547116,69.616086
5.277,-0.034371,0.004903,0.067111,0.002287,-0.001534,-0.000235,-0.000275,-0.504203,0.067121,-0.634217,-261.333893,-0.547116,69.616086
5.2969,-0.034408,0.004726,0.068339,0.002218,-0.001523,-0.000235,-9.1e-05,-0.503993,0.067104,-0.619003,-261.332735,-0.534245,69.617181
5.3173,-0.0342,0.005132,0.066826,0.002049,-0.001513,-0.000233,0.000376,-0.504078,0.068228,-0.619003,-261.332735,-0.534245,69.617181
5.3374,-0.034158,0.004458,0.067371,0.001912,-0.001504,-0.000228,0.000376,-0.504078,0.068228,-0.619003,-261.332735,-0.534245,69.617181
5.3571,-0.033982,0.004311,0.065494,0.001802,-0.001495,-0.000223,0.00027,-0.504441,0.067361,-0.644389,-261.331645,-0.556332,69.618207
5.3777,-0.033911,0.004909,0.066511,0.001791,-0.001464,-0.00022,-7.3e-05,-0.50451,0.066603,-0.644389,-261.331645,-0.556332,69.618207
5.3967,-0.033908,0.004187,0.066233,0.001782,-0.001438,-0.000218,3.2e-05,-0.503997,0.066506,-0.719377,-261.330897,-0.631321,69.618902
5.4171,-0.033878,0.005032,0.066698,0.001788,-0.001408,-0.000217,-0.000135,-0.504633,0.066257,-0.719377,-261.330897,-0.631321,69.618902
5.4373,-0.034056,0.004574,0.065674,0.001791,-0.001383,-0.000217,-0.000135,-0.504633,0.066257,-0.719377,-261.330897,-0.631321,69.618902
5.4571,-0.033924,0.00473,0.065389,0.001794,-0.001363,-0.000217,-0.000508,-0.504382,0.065665,-0.722542,-261.329947,-0.632074,69.619785
5.4773,-0.03395,0.00479,0.066527,0.001877,-0.001366,-0.000215,-0.000536,-0.504306,0.065552,-0.722542,-261.329947,-0.632074,69.619785
5.4971,-0.033784,0.004463,0.065388,0.001943,-0.00137,-0.000214,1.2e-05,-0.50412,0.06652,-0.694792,-261.329037,-0.601152,69.620633
5.5173,-0.034074,0.004328,0.067514,0.001973,-0.001368,-0.000214,-0.000414,-0.504419,0.065491,-0.694792,-261.329037,-0.601152,69.620633
5.5372,-0.033944,0.004209,0.06841,0.001997,-0.001367,-0.000215,-0.000414,-0.504419,0.065491,-0.694792,-261.329037,-0.601152,69.620633
5.5569,-0.033889,0.004303,0.064908,0.002016,-0.001366,-0.000217,0.001,-0.504647,0.068401,-0.657568,-261.328092,-0.567867,69.62152
5.5769,-0.033607,0.004665,0.067776,0.001899,-0.001346,-0.000219,0.000257,-0.504643,0.066948,-0.657568,-261.328092,-0.567867,69.62152
5.5968,-0.033938,0.004793,0.065046,0.001805,-0.00133,-0.00022,0.000999,-0.504202,0.067769,-0.639106,-261.327097,-0.549086,69.622456
5.6171,-0.03371,0.004087,0.066149,0.001907,-0.001347,-0.000216,-0.000643,-0.504136,0.065262,-0.639106,-261.327097,-0.549086,69.622456
5.6371,-0.033936,0.00453,0.067282,0.001988,-0.001363,-0.000214,-0.000643,-0.504136,0.065262,-0.639106,-261.327097,-0.549086,69.622456
5.6569,-0.034225,0.004619,0.067183,0.002053,-0.001378,-0.000213,0.000427,-0.504364,0.067273,-0.681374,-261.326214,-0.584767,69.623279
5.6771,-0.033523,0.004185,0.066566,0.001934,-0.001379,-0.000214,0.000266,-0.504315,0.067235,-0.681374,-261.326214,-0.584767,69.623279
5.6971,-0.033156,0.00422,0.065683,0.001839,-0.001379,-0.000213,0.000464,-0.504722,0.06656,-0.633709,-261.325255,-0.546227,69.624183
5.7172,-0.033408,0.0038,0.0658,0.001743,-0.001352,-0.000214,0.000335,-0.504685,0.065759,-0.633709,-261.325255,-0.546227,69.624183
5.7369,-0.033499,0.00425,0.066254,0.001667,-0.001328,-0.000213,0.000335,-0.504685,0.065759,-0.633709,-261.325255,-0.546227,69.624183
5.757,-0.033499,0.004156,0.065934,0.001606,-0.001309,-0.000212,0.000339,-0.50468,0.066246,-0.687288,-261.324382,-0.596593,69.624998
5.777,-0.033277,0.003919,0.067494,0.001573,-0.001291,-0.000211,0.000251,-0.504708,0.066117,-0.687288,-261.324382,-0.596593,69.624998
5.7972,-0.033063,0.003883,0.065821,0.001546,-0.001276,-0.00021,0.00117,-0.504956,0.067488,-0.730429,-261.323563,-0.633275,69.625755
5.8174,-0.033457,0.00412,0.067971,0.00146,-0.001235,-0.000211,0.00055,-0.505009,0.065981,-0.730429,-261.323563,-0.633275,69.625755
5.837,-0.032941,0.004183,0.067751,0.001392,-0.0012,-0.000211,0.00055,-0.505009,0.065981,-0.730429,-261.323563,-0.633275,69.625755
5.8573,-0.033154,0.003861,0.06645,0.001337,-0.001171,-0.00021,0.001653,-0.504695,0.067742,-0.737488,-261.322728,-0.638703,69.626525
5.8778,-0.033522,0.004042,0.06601,0.001166,-0.00114,-0.000207,0.001274,-0.504832,0.06721,-0.737488,-261.322728,-0.638703,69.626525
5.8975,-0.03327,0.003549,0.067827,0.001027,-0.001114,-0.000201,0.000163,-0.504881,0.066004,-0.771431,-261.322003,-0.662605,69.627185
5.9173,-0.033292,0.004159,0.066069,0.000912,-0.001057,-0.000198,0.001201,-0.505246,0.067671,-0.771431,-261.322003,-0.662605,69.627185
5.9377,-0.033028,0.003656,0.066492,0.000819,-0.00101,-0.000194,0.001201,-0.505246,0.067671,-0.771431,-261.322003,-0.662605,69.627185
5.9568,-0.033361,0.004214,0.064795,0.000743,-0.000972,-0.00019,0.000891,-0.505246,0.066486,-0.846454,-261.321552,-0.737627,69.627585
5.9769,-0.033058,0.004298,0.066019,0.000853,-0.000978,-0.000186,0.000383,-0.505029,0.065781,-0.846454,-261.321552,-0.737627,69.627585
5.9972,-0.033017,0.004054,0.066015,0.000939,-0.000984,-0.000183,0.000604,-0.504609,0.066015,-0.921584,-261.321225,-0.812757,69.627867
6.0172,-0.033013,0.003911,0.067644,0.000965,-0.001003,-0.00018,0.000625,-0.504815,0.066015,-0.921584,-261.321225,-0.812757,69.627867
6.0371,-0.032735,0.004155,0.066342,0.000985,-0.001019,-0.000178,0.000625,-0.504815,0.066015,-0.921584,-261.321225,-0.812757,69.627867
6.0572,-0.032963,0.003766,0.066118,0.001001,-0.001032,-0.000176,0.001112,-0.504757,0.066335,-0.862143,-261.320714,-0.748095,69.62832
6.0772,-0.033124,0.003592,0.066079,0.000948,-0.001028,-0.000174,0.00096,-0.50491,0.066245,-0.862143,-261.320714,-0.748095,69.62832
6.097,-0.033005,0.003834,0.065938,0.000906,-0.001025,-0.000171,0.000585,-0.505325,0.066074,-0.850036,-261.320109,-0.745965,69.628864
6.1172,-0.033139,0.004353,0.065646,0.000939,-0.001015,-0.000171,0.0006,-0.505084,0.06595,-0.850036,-261.320109,-0.745965,69.628864
6.1371,-0.03301,0.003507,0.067695,0.000964,-0.001008,-0.000172,0.0006,-0.505084,0.06595,-0.850036,-261.320109,-0.745965,69.628864
6.157,-0.032694,0.003685,0.067895,0.000985,-0.001002,-0.000173,0.001526,-0.505362,0.067689,-0.894641,-261.319568,-0.793016,69.629347
6.1769,-0.032582,0.003905,0.065439,0.000795,-0.00094,-0.000174,0.001687,-0.505275,0.067773,-0.894641,-261.319568,-0.793016,69.629347
6.1971,-0.032809,0.003461,0.068367,0.000642,-0.000891,-0.000173,0.000799,-0.50503,0.065434,-0.843932,-261.319026,-0.738437,69.629833
6.2172,-0.03273,0.004331,0.065584,0.000478,-0.000833,-0.000171,0.001923,-0.505321,0.068107,-0.843932,-261.319026,-0.738437,69.629833
6.2369,-0.032621,0.003666,0.066801,0.000345,-0.000787,-0.000167,0.001923,-0.505321,0.068107,-0.843932,-261.319026,-0.738437,69.629833
6.2569,-0.032615,0.003793,0.066919,0.000237,-0.00075,-0.000161,0.001438,-0.505212,0.066798,-0.918857,-261.318798,-0.813362,69.630029
6.2772,-0.03276,0.003665,0.065505,0.000249,-0.000763,-0.000154,0.001461,-0.505154,0.066847,-0.918857,-261.318798,-0.813362,69.630029
6.2969,-0.032768,0.003625,0.069111,0.000257,-0.000773,-0.000147,0.000624,-0.505242,0.065505,-0.993857,-261.318796,-0.888362,69.63003
6.3172,-0.032755,0.003713,0.067017,0.000127,-0.00074,-0.000142,0.002288,-0.505165,0.06879,-0.993857,-261.318796,-0.888362,69.63003
6.3369,-0.032547,0.003897,0.067117,2e-05,-0.000714,-0.000136,0.002288,-0.505165,0.06879,-0.993857,-261.318796,-0.888362,69.63003
6.3569,-0.033038,0.003566,0.065501,-6.7e-05,-0.000693,-0.000129,0.001658,-0.504956,0.067117,-1.068863,-261.318778,-0.963368,69.630044
6.377,-0.032873,0.003539,0.067761,6.7e-05,-0.000727,-0.000122,0.001129,-0.505111,0.066466,-1.068863,-261.318778,-0.963368,69.630044
6.3967,-0.032728,0.003581,0.066393,0.000173,-0.000755,-0.000118,0.001658,-0.505291,0.067761,-1.143816,-261.318778,-1.038321,69.630044
6.4168,-0.032499,0.003697,0.065386,0.000246,-0.000762,-0.000117,0.001159,-0.505295,0.066518,-1.143816,-261.318778,-1.038321,69.630044
6.4371,-0.032693,0.00408,0.065516,0.000304,-0.000768,-0.000117,0.001159,-0.505295,0.066518,-1.143816,-261.318778,-1.038321,69.630044
6.457,-0.033,0.003765,0.065922,0.00035,-0.000773,-0.000119,0.000698,-0.504829,0.065516,-1.21882,-261.318737,-1.113325,69.630079
6.4771,-0.032927,0.003396,0.066991,0.000496,-0.000816,-0.000118,0.000656,-0.504951,0.065682,-1.21882,-261.318737,-1.113325,69.630079
6.4971,-0.032839,0.003478,0.067909,0.000612,-0.000853,-0.00012,0.001225,-0.505484,0.066987,-1.178431,-261.318381,-1.107517,69.630384
6.5168,-0.032836,0.003407,0.066661,0.000492,-0.000814,-0.000124,0.001719,-0.50536,0.067825,-1.178431,-261.318381,-1.107517,69.630384
6.5374,-0.032708,0.003781,0.065778,0.000396,-0.000783,-0.000126,0.001719,-0.50536,0.067825,-1.178431,-261.318381,-1.107517,69.630384
6.5571,-0.032879,0.003801,0.066154,0.000319,-0.000759,-0.000127,0.000821,-0.505126,0.065777,-1.103482,-261.318253,-1.032567,69.630498
6.5769,-0.032806,0.003591,0.0677,0.000435,-0.00079,-0.000127,0.000828,-0.50511,0.065931,-1.103482,-261.318253,-1.032567,69.630498
6.5968,-0.033051,0.003788,0.067112,0.000527,-0.000816,-0.000128,0.001704,-0.505257,0.067697,-1.178587,-261.317996,-1.107673,69.630714
6.617,-0.03298,0.003432,0.066635,0.000528,-0.000831,-0.000128,0.0012,-0.505082,0.067164,-1.178587,-261.317996,-1.107673,69.630714
6.6372,-0.032727,0.003473,0.067481,0.000529,-0.000844,-0.000129,0.0012,-0.505082,0.067164,-1.178587,-261.317996,-1.107673,69.630714
6.6571,-0.032842,0.003577,0.066218,0.00053,-0.000854,-0.000129,0.001672,-0.505383,0.067478,-1.103692,-261.317792,-1.032778,69.630892
6.6769,-0.032768,0.003455,0.066423,0.000492,-0.000832,-0.000131,0.00136,-0.505353,0.066963,-1.103692,-261.317792,-1.032778,69.630892
6.6972,-0.032737,0.003626,0.067047,0.000462,-0.000815,-0.000132,0.0011,-0.505444,0.066419,-1.054005,-261.317403,-0.971086,69.631232
6.7172,-0.032206,0.003611,0.065988,0.000433,-0.000809,-0.000133,0.001404,-0.505248,0.066993,-1.054005,-261.317403,-0.971086,69.631232
6.7369,-0.032556,0.003704,0.065779,0.00041,-0.000804,-0.000132,0.001404,-0.505248,0.066993,-1.054005,-261.317403,-0.971086,69.631232
6.7571,-0.032655,0.003051,0.066134,0.000392,-0.0008,-0.000132,0.000987,-0.505224,0.065773,-1.095012,-261.31702,-1.009454,69.631562
6.7772,-0.032565,0.0033,0.066506,0.000446,-0.000787,-0.000135,0.001015,-0.50548,0.065922,-1.095012,-261.31702,-1.009454,69.631562
6.7968,-0.032597,0.003368,0.066051,0.000489,-0.000776,-0.000138,0.001341,-0.505595,0.066502,-1.151902,-261.316676,-1.0718,69.631854
6.817,-0.032687,0.003506,0.067278,0.000506,-0.000761,-0.000142,0.001089,-0.505527,0.066089,-1.151902,-261.316676,-1.0718,69.631854
6.8374,-0.032742,0.003471,0.067796,0.000521,-0.000749,-0.000145,0.001089,-0.505527,0.066089,-1.151902,-261.316676,-1.0718,69.631854
6.8571,-0.032906,0.003031,0.066257,0.000532,-0.000739,-0.000148,0.001823,-0.505379,0.067792,-1.076924,-261.316402,-0.996821,69.632089
6.8774,-0.032617,0.003413,0.066731,0.000472,-0.000714,-0.00015,0.001438,-0.505571,0.067175,-1.076924,-261.316402,-0.996821,69.632089
6.8972,-0.03258,0.00333,0.065458,0.000423,-0.000693,-0.000152,0.001404,-0.505469,0.066728,-1.001907,-261.316111,-0.921805,69.632337
6.917,-0.032705,0.003484,0.066998,0.000507,-0.000695,-0.000154,0.000835,-0.505569,0.065569,-1.001907,-261.316111,-0.921805,69.632337
6.9374,-0.032514,0.003769,0.064926,0.000573,-0.000698,-0.000157,0.000835,-0.505569,0.065569,-1.001907,-261.316111,-0.921805,69.632337
6.9572,-0.032614,0.003404,0.065281,0.000626,-0.0007,-0.00016,0.000592,-0.505181,0.06492,-1.076739,-261.315791,-0.956957,69.6326
6.9772,-0.032575,0.003381,0.065851,0.000718,-0.00073,-0.000162,0.000621,-0.505319,0.065068,-1.076739,-261.315791,-0.956957,69.6326
6.9971,-0.032661,0.003481,0.068124,0.000792,-0.000756,-0.000164,0.000991,-0.505521,0.065849,-1.001736,-261.315649,-0.881954,69.632721
7.0173,-0.03259,0.003931,0.066034,0.000603,-0.000723,-0.000165,0.001966,-0.505352,0.067932,-1.001736,-261.315649,-0.881954,69.632721
7.0377,-0.032546,0.003216,0.0682,0.000449,-0.000697,-0.000164,0.001966,-0.505352,0.067932,-1.001736,-261.315649,-0.881954,69.632721
7.0573,-0.032765,0.003488,0.067042,0.000324,-0.000677,-0.00016,0.00222,-0.505609,0.068198,-0.926692,-261.315493,-0.80691,69.632859
7.0771,-0.033013,0.003634,0.065736,0.000228,-0.000649,-0.000156,0.001884,-0.505511,0.067722,-0.926692,-261.315493,-0.80691,69.632859
7.0971,-0.032487,0.003617,0.066285,0.000151,-0.000626,-0.000152,0.000491,-0.505267,0.065735,-1.001656,-261.31545,-0.881874,69.632893
7.1173,-0.032606,0.003452,0.066419,0.000219,-0.000658,-0.000146,0.001225,-0.505264,0.066238,-1.001656,-261.31545,-0.881874,69.632893
7.1373,-0.033058,0.003263,0.06631,0.000273,-0.000684,-0.000142,0.001225,-0.505264,0.066238,-1.001656,-261.31545,-0.881874,69.632893
7.1573,-0.032535,0.003582,0.06764,0.000315,-0.000705,-0.000139,0.000735,-0.505616,0.06631,-1.076647,-261.315447,-0.956865,69.632895
7.1773,-0.03267,0.003323,0.065998,0.000341,-0.000703,-0.000138,0.001225,-0.505467,0.066853,-1.076647,-261.315447,-0.956865,69.632895
7.1971,-0.032276,0.003404,0.066142,0.000362,-0.000702,-0.000138,0.000972,-0.505579,0.065995,-1.151526,-261.31525,-1.031744,69.633057
7.2173,-0.032757,0.003461,0.06714,0.000347,-0.000693,-0.000138,0.00139,-0.50549,0.066129,-1.151526,-261.31525,-1.031744,69.633057
7.2374,-0.032616,0.003655,0.067488,0.000335,-0.000686,-0.000138,0.00139,-0.50549,0.066129,-1.151526,-261.31525,-1.031744,69.633057
7.2569,-0.032443,0.003544,0.06506,0.000326,-0.00068,-0.000138,0.001794,-0.505213,0.067482,-1.138819,-261.314905,-1.039935,69.633342
7.2768,-0.032177,0.003773,0.066501,0.000332,-0.000696,-0.000137,0.001357,-0.505283,0.066496,-1.138819,-261.314905,-1.039935,69.633342
7.2972,-0.032409,0.003062,0.063688,0.000336,-0.00071,-0.000135,0.001725,-0.50512,0.066497,-1.168067,-261.314582,-1.070218,69.633606
7.3169,-0.032567,0.003356,0.067561,0.000579,-0.000683,-0.000137,0.000199,-0.505836,0.063937,-1.168067,-261.314582,-1.070218,69.633606
7.3373,-0.032411,0.003652,0.06509,0.00077,-0.000666,-0.000144,0.000199,-0.505836,0.063937,-1.168067,-261.314582,-1.070218,69.633606
7.357,-0.032315,0.003448,0.06584,0.00092,-0.000655,-0.000154,0.000777,-0.505297,0.065084,-1.169437,-261.314238,-1.078534,69.63389
7.3772,-0.032808,0.003257,0.066921,0.000882,-0.000684,-0.00016,0.000969,-0.505362,0.065395,-1.169437,-261.314238,-1.078534,69.63389
7.3968,-0.032362,0.003445,0.066449,0.000851,-0.000708,-0.000164,0.001296,-0.505602,0.066921,-1.094397,-261.314238,-1.003494,69.63389
7.4169,-0.032863,0.002979,0.066316,0.000727,-0.000701,-0.000166,0.001483,-0.505445,0.066491,-1.094397,-261.314238,-1.003494,69.63389
7.4377,-0.032809,0.00313,0.066844,0.000628,-0.000694,-0.000167,0.001483,-0.505445,0.066491,-1.094397,-261.314238,-1.003494,69.63389
7.4568,-0.032303,0.00315,0.066565,0.000548,-0.000689,-0.000166,0.001256,-0.505731,0.066844,-1.019494,-261.314231,-0.928591,69.633897
7.4771,-0.032273,0.003318,0.065855,0.000487,-0.000658,-0.000167,0.001402,-0.505727,0.066732,-1.019494,-261.314231,-0.928591,69.633897
7.497,-0.032416,0.003234,0.067703,0.000438,-0.000633,-0.000167,0.001303,-0.505594,0.065851,-0.964983,-261.313926,-0.853603,69.634151
7.5169,-0.032683,0.003141,0.066472,0.000296,-0.000596,-0.000165,0.002017,-0.505598,0.067537,-0.964983,-261.313926,-0.853603,69.634151
7.5371,-0.032295,0.00356,0.065854,0.000181,-0.000566,-0.000162,0.002017,-0.505598,0.067537,-0.964983,-261.313926,-0.853603,69.634151
7.5574,-0.032314,0.003207,0.066797,8.7e-05,-0.000542,-0.000158,0.001285,-0.505357,0.065848,-1.033312,-261.313612,-0.881133,69.634404
7.5773,-0.032327,0.003568,0.067891,0.000114,-0.000561,-0.000152,0.001468,-0.505481,0.066234,-1.033312,-261.313612,-0.881133,69.634404
7.5972,-0.032376,0.003178,0.067276,0.000135,-0.000576,-0.000147,0.002271,-0.505257,0.067891,-1.108274,-261.313612,-0.956095,69.634404
7.6172,-0.032449,0.003348,0.065555,6e-05,-0.00055,-0.000144,0.00194,-0.505632,0.067329,-1.108274,-261.313612,-0.956095,69.634404
7.6373,-0.032712,0.003256,0.066821,-1e-06,-0.000529,-0.00014,0.00194,-0.505632,0.067329,-1.108274,-261.313612,-0.956095,69.634404
7.6572,-0.031997,0.003485,0.067294,-5.1e-05,-0.000512,-0.000136,0.001342,-0.505607,0.06682,-1.183353,-261.313599,-1.031174,69.634413
7.677,-0.032886,0.002922,0.068092,-4.9e-05,-0.000521,-0.000132,0.001732,-0.505507,0.067014,-1.183353,-261.313599,-1.031174,69.634413
7.6969,-0.032449,0.003071,0.066206,-4.7e-05,-0.000529,-0.000127,0.001814,-0.505896,0.068092,-1.258276,-261.313599,-1.106096,69.634413
7.7171,-0.032338,0.003169,0.067403,1.8e-05,-0.000517,-0.000128,0.001334,-0.505818,0.066361,-1.258276,-261.313599,-1.106096,69.634413
7.7369,-0.032544,0.003222,0.06619,6.9e-05,-0.000507,-0.00013,0.001334,-0.505818,0.066361,-1.258276,-261.313599,-1.106096,69.634413
7.7573,-0.032383,0.003251,0.067129,0.00011,-0.000499,-0.000132,0.001189,-0.505661,0.06619,-1.333497,-261.313599,-1.181317,69.634414
7.7771,-0.032356,0.003476,0.066883,0.000126,-0.000509,-0.000132,0.001452,-0.505636,0.066577,-1.333497,-261.313599,-1.181317,69.634414
7.7968,-0.032497,0.003729,0.066815,0.000139,-0.000517,-0.000133,0.001733,-0.505395,0.06688,-1.382783,-261.313427,-1.256178,69.634539
7.8169,-0.032724,0.002941,0.067188,0.000147,-0.000565,-0.000129,0.00157,-0.505157,0.066821,-1.382783,-261.313427,-1.256178,69.634539
7.8376,-0.032363,0.003528,0.066234,0.000153,-0.000604,-0.000125,0.00157,-0.505157,0.066821,-1.382783,-261.313427,-1.256178,69.634539
7.8568,-0.032436,0.003356,0.067508,0.000157,-0.000636,-0.000121,0.001399,-0.505375,0.066229,-1.341957,-261.313188,-1.261575,69.634718
7.8769,-0.03253,0.003355,0.066786,0.00014,-0.000635,-0.00012,0.001626,-0.50542,0.066737,-1.341957,-261.313188,-1.261575,69.634718
7.897,-0.032199,0.002964,0.067027,0.000126,-0.000635,-0.000118,0.001512,-0.505528,0.066783,-1.352952,-261.312904,-1.298168,69.634946
7.9171,-0.032337,0.002905,0.066534,4.4e-05,-0.000571,-0.000121,0.00192,-0.505859,0.067005,-1.352952,-261.312904,-1.298168,69.634946
7.9373,-0.03248,0.003171,0.067765,-2.2e-05,-0.000519,-0.000123,0.00192,-0.505859,0.067005,-1.352952,-261.312904,-1.298168,69.634946
7.9573,-0.032281,0.002941,0.066718,-7.5e-05,-0.000478,-0.000124,0.00206,-0.505683,0.06776,-1.394672,-261.312636,-1.350727,69.635161
7.9776,-0.032247,0.003239,0.06549,-0.000115,-0.000454,-0.000124,0.001922,-0.505784,0.067334,-1.394672,-261.312636,-1.350727,69.635161
7.9969,-0.032274,0.002845,0.066073,-0.000147,-0.000434,-0.000123,0.001129,-0.505667,0.06549,-1.469748,-261.312636,-1.275651,69.635161
8.0171,-0.032535,0.003249,0.066155,-7.7e-05,-0.000415,-0.000126,0.001377,-0.506011,0.066025,-1.469748,-261.312636,-1.275651,69.635161
8.037,-0.032616,0.003102,0.065169,-2.1e-05,-0.0004,-0.00013,0.001377,-0.506011,0.066025,-1.469748,-261.312636,-1.275651,69.635161
8.0569,-0.032367,0.003306,0.06692,2.2e-05,-0.000388,-0.000134,0.000597,-0.505815,0.065169,-1.394678,-261.312636,-1.200582,69.635161
8.0771,-0.032203,0.003328,0.063413,0.000132,-0.000423,-0.000137,0.001066,-0.505707,0.065889,-1.394678,-261.312636,-1.200582,69.635161
8.0967,-0.032286,0.003052,0.066265,0.000218,-0.000452,-0.000139,0.000117,-0.505649,0.063412,-1.46962,-261.312602,-1.275524,69.635183
8.1171,-0.03242,0.003255,0.0673,0.000222,-0.000454,-0.000142,0.001371,-0.505814,0.066029,-1.46962,-261.312602,-1.275524,69.635183
8.1368,-0.032587,0.002965,0.067532,0.000225,-0.000456,-0.000144,0.001371,-0.505814,0.066029,-1.46962,-261.312602,-1.275524,69.635183
8.157,-0.032593,0.003464,0.066898,0.000228,-0.000458,-0.000146,0.001829,-0.505874,0.067531,-1.394557,-261.312577,-1.200461,69.635201
8.177,-0.032474,0.003188,0.066985,0.000174,-0.00046,-0.000146,0.001693,-0.505676,0.067269,-1.394557,-261.312577,-1.200461,69.635201
8.1967,-0.032296,0.002897,0.06637,0.000131,-0.000462,-0.000145,0.001665,-0.505672,0.066984,-1.319599,-261.312513,-1.125502,69.635248
8.2171,-0.032286,0.003001,0.064994,0.000115,-0.000439,-0.000147,0.001539,-0.505955,0.06642,-1.319599,-261.312513,-1.125502,69.635248
8.2371,-0.032015,0.002966,0.066106,0.000102,-0.00042,-0.000148,0.001539,-0.505955,0.06642,-1.319599,-261.312513,-1.125502,69.635248
8.2569,-0.032079,0.003033,0.066978,9.1e-05,-0.000405,-0.000149,0.001681,-0.505935,0.066101,-1.336774,-261.312326,-1.200577,69.635379
8.2769,-0.032261,0.002955,0.067569,3e-05,-0.000386,-0.000149,0.001837,-0.505891,0.066466,-1.336774,-261.312326,-1.200577,69.635379
8.2968,-0.032728,0.002725,0.065521,-1.9e-05,-0.000371,-0.000148,0.002176,-0.505892,0.067565,-1.388665,-261.312155,-1.275574,69.63549
8.3171,-0.032482,0.002945,0.066726,0.000152,-0.000362,-0.000152,0.00079,-0.506157,0.065691,-1.388665,-261.312155,-1.275574,69.63549
8.3373,-0.032455,0.002762,0.067677,0.000285,-0.000357,-0.000158,0.00079,-0.506157,0.065691,-1.388665,-261.312155,-1.275574,69.63549
8.3568,-0.032318,0.002811,0.065701,0.000391,-0.000355,-0.000165,0.002034,-0.506071,0.067677,-1.463627,-261.312145,-1.350535,69.635496
8.3772,-0.032524,0.003134,0.06654,0.000292,-0.00033,-0.000169,0.001678,-0.506078,0.066867,-1.463627,-261.312145,-1.350535,69.635496
8.3976,-0.03201,0.003094,0.06631,0.000213,-0.00031,-0.000171,0.001387,-0.505737,0.06654,-1.388717,-261.312145,-1.275626,69.635496
8.4174,-0.032619,0.002887,0.066318,0.00015,-0.000327,-0.000169,0.001749,-0.505781,0.06633,-1.388717,-261.312145,-1.275626,69.635496
8.4376,-0.032481,0.003103,0.066836,9.9e-05,-0.000341,-0.000166,0.001749,-0.505781,0.06633,-1.388717,-261.312145,-1.275626,69.635496
8.4573,-0.032155,0.002986,0.065474,5.8e-05,-0.000351,-0.000163,0.00158,-0.505758,0.066836,-1.313682,-261.312145,-1.20059,69.635496
8.4777,-0.032602,0.003137,0.066436,8.3e-05,-0.000369,-0.00016,0.00143,-0.505825,0.066278,-1.313682,-261.312145,-1.20059,69.635496
8.4975,-0.031864,0.003493,0.0654,0.000103,-0.000383,-0.000158,0.001257,-0.505744,0.066433,-1.388702,-261.312045,-1.275611,69.635553
8.5173,-0.03234,0.003568,0.067736,0.00013,-0.000434,-0.000153,0.001448,-0.505445,0.065488,-1.388702,-261.312045,-1.275611,69.635553
8.5372,-0.032591,0.003077,0.065782,0.000152,-0.000475,-0.000148,0.001448,-0.505445,0.065488,-1.388702,-261.312045,-1.275611,69.635553
8.5568,-0.03226,0.002999,0.065594,0.000169,-0.000509,-0.000144,0.000939,-0.505835,0.065775,-1.359511,-261.311858,-1.226049,69.635668
8.5768,-0.032121,0.002994,0.066704,0.000251,-0.000505,-0.000145,0.001035,-0.505866,0.065699,-1.359511,-261.311858,-1.226049,69.635668
8.5971,-0.032248,0.0032,0.06557,0.000317,-0.000502,-0.000148,0.001879,-0.505886,0.0667,-1.294662,-261.311632,-1.189068,69.635834
8.6172,-0.032196,0.003264,0.06565,0.000333,-0.000511,-0.00015,0.001232,-0.505721,0.065671,-1.294662,-261.311632,-1.189068,69.635834
8.6372,-0.03216,0.003024,0.067722,0.000346,-0.000518,-0.000151,0.001232,-0.505721,0.065671,-1.294662,-261.311632,-1.189068,69.635834
8.6569,-0.032388,0.002783,0.067454,0.000356,-0.000524,-0.000153,0.002354,-0.50581,0.067721,-1.219733,-261.311594,-1.114139,69.635863
8.6772,-0.032066,0.003359,0.066557,0.000184,-0.000457,-0.000156,0.002203,-0.505912,0.067611,-1.219733,-261.311594,-1.114139,69.635863
8.6969,-0.032377,0.003008,0.067475,4.4e-05,-0.000404,-0.000156,0.001856,-0.505516,0.066556,-1.144724,-261.311521,-1.039129,69.63592
8.7172,-0.032422,0.003219,0.066751,-3.1e-05,-0.000387,-0.000153,0.001996,-0.505805,0.067396,-1.144724,-261.311521,-1.039129,69.63592
8.7372,-0.032796,0.003082,0.067038,-9.1e-05,-0.000374,-0.000149,0.001996,-0.505805,0.067396,-1.144724,-261.311521,-1.039129,69.63592
8.7569,-0.032238,0.003064,0.066722,-0.000141,-0.000363,-0.000146,0.001368,-0.505773,0.067038,-1.219713,-261.311519,-1.114118,69.635922
8.7771,-0.032404,0.003177,0.066257,-9.5e-05,-0.000378,-0.000142,0.001533,-0.505785,0.066907,-1.219713,-261.311519,-1.114118,69.635922
8.7968,-0.032822,0.002744,0.066667,-5.9e-05,-0.00039,-0.00014,0.001362,-0.505704,0.066257,-1.144685,-261.311519,-1.039091,69.635922
8.8173,-0.032342,0.002957,0.06628,3.4e-05,-0.000377,-0.000143,0.001171,-0.506088,0.066632,-1.144685,-261.311519,-1.039091,69.635922
8.8375,-0.032245,0.003179,0.067306,0.000107,-0.000367,-0.000147,0.001171,-0.506088,0.066632,-1.144685,-261.311519,-1.039091,69.635922
8.8574,-0.032498,0.003046,0.066631,0.000165,-0.000359,-0.000152,0.002055,-0.505666,0.067306,-1.219672,-261.311519,-0.964104,69.635922
8.8768,-0.03242,0.00311,0.065415,0.0001,-0.000368,-0.000151,0.001813,-0.505729,0.067032,-1.219672,-261.311519,-0.964104,69.635922
8.8969,-0.032193,0.00313,0.067515,4.8e-05,-0.000376,-0.000149,0.000924,-0.50581,0.065411,-1.22047,-261.311335,-1.016119,69.636042
8.9171,-0.032433,0.002566,0.066758,-4.1e-05,-0.000368,-0.000147,0.002099,-0.505717,0.067328,-1.22047,-261.311335,-1.016119,69.636042
8.9372,-0.032751,0.002961,0.066853,-0.000114,-0.000362,-0.000143,0.002099,-0.505717,0.067328,-1.22047,-261.311335,-1.016119,69.636042
8.9571,-0.031979,0.003058,0.065298,-0.000173,-0.000357,-0.000139,0.001319,-0.5059,0.066852,-1.29534,-261.311329,-1.090989,69.636046
8.9771,-0.032367,0.003114,0.065007,-8e-05,-0.00037,-0.000138,0.001311,-0.505882,0.066212,-1.29534,-261.311329,-1.090989,69.636046
8.9971,-0.032683,0.003133,0.064902,-6e-06,-0.000381,-0.000138,0.000763,-0.505808,0.065007,-1.220205,-261.311329,-1.015854,69.636046
9.0175,-0.032132,0.002853,0.067167,0.000251,-0.000416,-0.000138,0.000425,-0.505795,0.064911,-1.220205,-261.311329,-1.015854,69.636046
9.0373,-0.032464,0.002939,0.067461,0.000453,-0.000447,-0.000141,0.000425,-0.505795,0.064911,-1.220205,-261.311329,-1.015854,69.636046
9.0572,-0.032192,0.002884,0.066891,0.000613,-0.000476,-0.000147,0.001915,-0.505901,0.067461,-1.295224,-261.311329,-1.090874,69.636046
9.0773,-0.0324,0.00314,0.067065,0.000438,-0.000432,-0.000154,0.001908,-0.505932,0.067229,-1.295224,-261.311329,-1.090874,69.636046
9.0976,-0.032283,0.003336,0.067001,0.000296,-0.000397,-0.000158,0.001777,-0.505714,0.067065,-1.220362,-261.311329,-1.016012,69.636046
9.1172,-0.032262,0.002934,0.065545,0.00021,-0.000418,-0.000155,0.001852,-0.505541,0.067008,-1.220362,-261.311329,-1.016012,69.636046
9.1371,-0.032276,0.002869,0.066076,0.00014,-0.000435,-0.000152,0.001852,-0.505541,0.067008,-1.220362,-261.311329,-1.016012,69.636046
9.157,-0.0324,0.003015,0.067034,8.3e-05,-0.000449,-0.000148,0.001401,-0.506022,0.066074,-1.145202,-261.311272,-0.940851,69.636088
9.177,-0.032224,0.002762,0.066636,7.6e-05,-0.000429,-0.000147,0.001547,-0.505949,0.066461,-1.145202,-261.311272,-0.940851,69.636088
9.1968,-0.032461,0.00345,0.064845,7e-05,-0.000412,-0.000148,0.001735,-0.506106,0.066635,-1.220186,-261.311267,-1.015835,69.636091
9.2172,-0.032353,0.00317,0.06727,0.000256,-0.000467,-0.000146,0.00069,-0.505535,0.065006,-1.220186,-261.311267,-1.015835,69.636091
9.2372,-0.032361,0.00302,0.068119,0.000403,-0.000514,-0.000146,0.00069,-0.505535,0.065006,-1.220186,-261.311267,-1.015835,69.636091
9.2583,-0.03241,0.003004,0.06592,0.00052,-0.000553,-0.000148,0.002354,-0.505799,0.068119,-1.295022,-261.311252,-1.090671,69.6361
9.2772,-0.032454,0.003036,0.066841,0.00037,-0.000508,-0.000152,0.001891,-0.505834,0.067249,-1.295022,-261.311252,-1.090671,69.6361
9.2975,-0.032392,0.002582,0.066312,0.000249,-0.000472,-0.000153,0.001609,-0.505826,0.066841,-1.220028,-261.31125,-1.015677,69.636102
9.3176,-0.032138,0.003172,0.066691,0.000223,-0.000413,-0.000158,0.001421,-0.506254,0.06636,-1.220028,-261.31125,-1.015677,69.636102
9.3379,-0.032347,0.003226,0.066819,0.000202,-0.000366,-0.000164,0.001421,-0.506254,0.06636,-1.220028,-261.31125,-1.015677,69.636102
9.357,-0.03224,0.003027,0.065488,0.000185,-0.000329,-0.000169,0.001717,-0.505654,0.066813,-1.156398,-261.31102,-0.989617,69.636271
9.377,-0.032348,0.003068,0.066953,0.000178,-0.000358,-0.000167,0.001484,-0.505747,0.066281,-1.156398,-261.31102,-0.989617,69.636271
9.3969,-0.032355,0.002899,0.06598,0.000172,-0.000382,-0.000165,0.001778,-0.505798,0.066948,-1.166337,-261.310864,-0.914528,69.636368
9.4175,-0.031864,0.003105,0.066648,0.000192,-0.000381,-0.000166,0.001315,-0.505975,0.066065,-1.166337,-261.310864,-0.914528,69.636368
9.4373,-0.031997,0.002506,0.06572,0.000208,-0.000381,-0.000167,0.001315,-0.505975,0.066065,-1.166337,-261.310864,-0.914528,69.636368
9.4572,-0.032664,0.002976,0.066761,0.000221,-0.00038,-0.000168,0.001503,-0.506405,0.065715,-1.228637,-261.310704,-0.989446,69.636471
9.477,-0.032349,0.002893,0.066459,0.000196,-0.000346,-0.000171,0.001445,-0.506198,0.066136,-1.228637,-261.310704,-0.989446,69.636471
9.4972,-0.03211,0.003039,0.066596,0.000177,-0.000319,-0.000174,0.001527,-0.50599,0.066455,-1.153708,-261.310538,-0.914517,69.636582
9.5173,-0.03242,0.002983,0.067717,0.000108,-0.000324,-0.000171,0.001805,-0.505844,0.066584,-1.153708,-261.310538,-0.914517,69.636582
9.5369,-0.032162,0.002607,0.065771,5.2e-05,-0.000328,-0.000168,0.001805,-0.505844,0.066584,-1.153708,-261.310538,-0.914517,69.636582
9.557,-0.03219,0.003051,0.067171,7e-06,-0.000331,-0.000164,0.001365,-0.506303,0.065764,-1.175604,-261.31036,-0.875913,69.636689
9.5774,-0.032199,0.002772,0.066273,-1e-05,-0.00031,-0.000163,0.001645,-0.506096,0.066343,-1.175604,-261.31036,-0.875913,69.636689
9.597,-0.031848,0.003288,0.066916,-2.4e-05,-0.000293,-0.000163,0.001575,-0.506109,0.066273,-1.25042,-261.31036,-0.95073,69.636689
9.6172,-0.032216,0.002726,0.065999,-0.000109,-0.000307,-0.000157,0.002194,-0.505618,0.066859,-1.25042,-261.31036,-0.95073,69.636689
9.6376,-0.032494,0.002341,0.067505,-0.000178,-0.000319,-0.000151,0.002194,-0.505618,0.066859,-1.25042,-261.31036,-0.95073,69.636689
9.6569,-0.032431,0.002897,0.065433,-0.000235,-0.000328,-0.000144,0.001907,-0.506497,0.067505,-1.325302,-261.31036,-1.025612,69.636689
9.6774,-0.032261,0.002712,0.065327,-0.000185,-0.000285,-0.000145,0.001507,-0.506301,0.066667,-1.325302,-261.31036,-1.025612,69.636689
9.6968,-0.032313,0.003204,0.067348,-0.000145,-0.000251,-0.000147,0.001032,-0.5062,0.065327,-1.250352,-261.31036,-0.950662,69.636689
9.7175,-0.03225,0.002899,0.065989,-0.000167,-0.00028,-0.000143,0.001919,-0.505692,0.067162,-1.250352,-261.31036,-0.950662,69.636689
9.7376,-0.032316,0.002975,0.066523,-0.000185,-0.000303,-0.000139,0.001919,-0.505692,0.067162,-1.250352,-261.31036,-0.950662,69.636689
9.7572,-0.032363,0.003216,0.066038,-0.000199,-0.000321,-0.000134,0.001585,-0.505897,0.066523,-1.175359,-261.31036,-0.875669,69.636689
9.7771,-0.032355,0.003207,0.066082,-0.000132,-0.000343,-0.000132,0.001467,-0.505806,0.066327,-1.175359,-261.31036,-0.875669,69.636689
9.797,-0.032219,0.003074,0.067042,-7.8e-05,-0.000361,-0.000131,0.001322,-0.50568,0.066082,-1.099828,-261.31036,-0.800138,69.636689
9.8172,-0.032434,0.002885,0.064999,-0.000112,-0.000361,-0.000129,0.001891,-0.505771,0.066956,-1.099828,-261.31036,-0.800138,69.636689
9.8372,-0.032058,0.003002,0.066634,-0.00014,-0.000361,-0.000127,0.001891,-0.505771,0.066956,-1.099828,-261.31036,-0.800138,69.636689
9.8569,-0.032248,0.003051,0.066914,-0.000162,-0.00036,-0.000125,0.0019,-0.505866,0.066634,-1.174308,-261.31036,-0.725658,69.636689
9.8773,-0.032226,0.003109,0.065194,-0.000181,-0.000353,-0.000124,0.001881,-0.505842,0.066748,-1.174308,-261.31036,-0.725658,69.636689
9.8968,-0.032389,0.002998,0.066465,-0.000197,-0.000346,-0.000123,0.001,-0.505807,0.065194,-1.099151,-261.31036,-0.650501,69.636689
9.9174,-0.031995,0.003019,0.065787,-0.000127,-0.000358,-0.000124,0.001442,-0.50587,0.066357,-1.099151,-261.31036,-0.650501,69.636689
9.9372,-0.032349,0.003017,0.065361,-7.1e-05,-0.000367,-0.000125,0.001442,-0.50587,0.066357,-1.099151,-261.31036,-0.650501,69.636689
9.9572,-0.032137,0.003076,0.066125,-2.7e-05,-0.000374,-0.000127,0.000961,-0.505894,0.065361,-1.024173,-261.31036,-0.575523,69.636689
9.9772,-0.032299,0.002757,0.066412,5.8e-05,-0.00039,-0.00013,0.001204,-0.50586,0.06567,-1.024173,-261.31036,-0.575523,69.636689
9.9969,-0.032065,0.003093,0.06556,0.000125,-0.000403,-0.000133,0.001546,-0.506118,0.066412,-1.09902,-261.31036,-0.650371,69.636689
10.0171,-0.032111,0.003283,0.065781,0.000147,-0.000411,-0.000136,0.001366,-0.505841,0.065641,-1.09902,-261.31036,-0.650371,69.636689
10.0369,-0.032289,0.002793,0.067749,0.000165,-0.000417,-0.000139,0.001366,-0.505841,0.065641,-1.09902,-261.31036,-0.650371,69.636689
10.0571,-0.03206,0.003019,0.06683,0.000179,-0.000423,-0.000141,0.002237,-0.506037,0.067749,-1.174183,-261.310359,-0.725533,69.636689
10.0769,-0.032009,0.002611,0.065109,4.7e-05,-0.000373,-0.000144,0.002139,-0.505957,0.067374,-1.174183,-261.310359,-0.725533,69.636689
10.0971,-0.032304,0.002892,0.065607,-6e-05,-0.000334,-0.000145,0.001174,-0.50631,0.065108,-1.231909,-261.310333,-0.800521,69.636708
10.117,-0.032349,0.002894,0.066275,4.3e-05,-0.00034,-0.000147,0.001135,-0.506036,0.065566,-1.231909,-261.310333,-0.800521,69.636708
10.1368,-0.032533,0.00261,0.065788,0.000125,-0.000345,-0.000151,0.001135,-0.506036,0.065566,-1.231909,-261.310333,-0.800521,69.636708
10.1572,-0.032212,0.003013,0.064365,0.000189,-0.000349,-0.000155,0.000994,-0.506287,0.065788,-1.307,-261.310333,-0.725429,69.636708
10.177,-0.032187,0.002884,0.066091,0.000307,-0.000348,-0.000161,0.000828,-0.50614,0.0652,-1.307,-261.310333,-0.725429,69.636708
10.1971,-0.031779,0.002739,0.066479,0.000399,-0.000349,-0.000168,0.001497,-0.506007,0.066089,-1.232131,-261.310262,-0.800298,69.636755
10.2169,-0.032202,0.003103,0.066251,0.000234,-0.000297,-0.000172,0.002049,-0.506124,0.066445,-1.232131,-261.310262,-0.800298,69.636755
10.237,-0.032596,0.002893,0.066892,0.0001,-0.000257,-0.000173,0.002049,-0.506124,0.066445,-1.232131,-261.310262,-0.800298,69.636755
10.2573,-0.031998,0.003018,0.066693,-9e-06,-0.000225,-0.000173,0.001493,-0.505967,0.066891,-1.157116,-261.310254,-0.725283,69.636761
10.277,-0.032228,0.003268,0.068034,-2.5e-05,-0.000245,-0.00017,0.001696,-0.505919,0.066811,-1.157116,-261.310254,-0.725283,69.636761
10.297,-0.032491,0.002954,0.065817,-3.8e-05,-0.00026,-0.000166,0.002442,-0.505552,0.068034,-1.232016,-261.310254,-0.800183,69.636761
10.3171,-0.03188,0.003273,0.066952,5.7e-05,-0.000294,-0.000165,0.001169,-0.505909,0.066006,-1.232016,-261.310254,-0.800183,69.636761
10.3371,-0.032584,0.002894,0.067792,0.000132,-0.000321,-0.000164,0.001169,-0.505909,0.066006,-1.232016,-261.310254,-0.800183,69.636761
10.3568,-0.032129,0.002917,0.066128,0.000191,-0.000344,-0.000164,0.001963,-0.505935,0.067792,-1.307121,-261.310254,-0.725079,69.636761
10.377,-0.032026,0.002863,0.065667,0.000114,-0.00033,-0.000163,0.001802,-0.505948,0.067107,-1.307121,-261.310254,-0.725079,69.636761
10.3971,-0.032077,0.002887,0.066781,5.1e-05,-0.000319,-0.000161,0.001444,-0.506043,0.065665,-1.232119,-261.310172,-0.80008,69.636813
10.4169,-0.032129,0.002865,0.06589,-1.8e-05,-0.000301,-0.000159,0.001906,-0.505983,0.066671,-1.232119,-261.310172,-0.80008,69.636813
10.4371,-0.032271,0.003361,0.066759,-7.4e-05,-0.000287,-0.000157,0.001906,-0.505983,0.066671,-1.232119,-261.310172,-0.80008,69.636813
10.4569,-0.031937,0.003153,0.06499,-0.00012,-0.000275,-0.000155,0.001751,-0.505503,0.066759,-1.30711,-261.310171,-0.875071,69.636814
10.4773,-0.032527,0.002591,0.066375,-6.9e-05,-0.000326,-0.000149,0.001521,-0.505612,0.06604,-1.30711,-261.310171,-0.875071,69.636814
10.4967,-0.032338,0.002544,0.066737,-2.9e-05,-0.000367,-0.000145,0.001299,-0.506286,0.066375,-1.232213,-261.310171,-0.800174,69.636814
10.517,-0.032646,0.002776,0.067368,-4.8e-05,-0.000307,-0.000148,0.001638,-0.506318,0.066704,-1.232213,-261.310171,-0.800174,69.636814
10.5369,-0.032259,0.002926,0.06551,-6.3e-05,-0.00026,-0.000151,0.001638,-0.506318,0.066704,-1.232213,-261.310171,-0.800174,69.636814
10.5573,-0.032291,0.002659,0.06678,-7.6e-05,-0.000223,-0.000155,0.001128,-0.50598,0.06551,-1.307163,-261.310171,-0.875124,69.636814
10.5773,-0.032185,0.002812,0.065605,-2.3e-05,-0.000237,-0.000157,0.001378,-0.506071,0.066028,-1.307163,-261.310171,-0.875124,69.636814
10.5972,-0.032168,0.00313,0.066942,1.8e-05,-0.000249,-0.000159,0.001249,-0.506091,0.065605,-1.232091,-261.310171,-0.800052,69.636814
10.6175,-0.032484,0.002963,0.066778,-3.2e-05,-0.000271,-0.000156,0.001888,-0.505759,0.066829,-1.232091,-261.310171,-0.800052,69.636814
10.6376,-0.031981,0.002807,0.068159,-7.3e-05,-0.00029,-0.000152,0.001888,-0.505759,0.066829,-1.232091,-261.310171,-0.800052,69.636814
10.6569,-0.032513,0.002871,0.068062,-0.000106,-0.000305,-0.000148,0.002753,-0.506009,0.068159,-1.307211,-261.310171,-0.875172,69.636814
10.6768,-0.031944,0.002825,0.066492,-0.000243,-0.000252,-0.000147,0.00251,-0.505984,0.068118,-1.307211,-261.310171,-0.875172,69.636814
10.697,-0.032177,0.00281,0.064044,-0.000355,-0.00021,-0.000145,0.001942,-0.506048,0.066492,-1.232075,-261.310171,-0.800036,69.636814
10.7168,-0.032023,0.002853,0.066478,-6.4e-05,-0.000233,-0.000142,0.000588,-0.506136,0.064251,-1.232075,-261.310171,-0.800036,69.636814
10.7368,-0.032331,0.002975,0.067407,0.000163,-0.000255,-0.000145,0.000588,-0.506136,0.064251,-1.232075,-261.310171,-0.800036,69.636814
10.7569,-0.032358,0.002713,0.066696,0.000341,-0.000275,-0.000151,0.00202,-0.505867,0.067407,-1.157208,-261.310171,-0.725169,69.636814
10.7773,-0.032352,0.002896,0.066946,0.000223,-0.000266,-0.000155,0.00186,-0.505985,0.067113,-1.157208,-261.310171,-0.725169,69.636814
10.7975,-0.032232,0.002805,0.065912,0.000128,-0.000259,-0.000157,0.001765,-0.505962,0.066945,-1.082261,-261.310157,-0.650222,69.636824
10.8176,-0.032455,0.002966,0.066325,0.000135,-0.000266,-0.000159,0.001401,-0.506075,0.06602,-1.082261,-261.310157,-0.650222,69.636824
10.8377,-0.032143,0.002617,0.066646,0.00014,-0.000271,-0.000162,0.001401,-0.506075,0.06602,-1.082261,-261.310157,-0.650222,69.636824
10.857,-0.032027,0.003042,0.065857,0.000145,-0.000275,-0.000164,0.001824,-0.506253,0.066645,-1.157291,-261.310121,-0.725252,69.636844
10.8772,-0.032559,0.002717,0.063826,8.9e-05,-0.000262,-0.000165,0.001705,-0.506089,0.066321,-1.157291,-261.310121,-0.725252,69.636844
10.8972,-0.03223,0.002916,0.066233,4.4e-05,-0.000252,-0.000165,-2.7e-05,-0.50625,0.063822,-1.202127,-261.310014,-0.800241,69.636905
10.9172,-0.032242,0.002981,0.067023,7.3e-05,-0.000271,-0.000165,0.001392,-0.50599,0.066028,-1.202127,-261.310014,-0.800241,69.636905
10.9368,-0.032379,0.002919,0.067309,9.6e-05,-0.000285,-0.000165,0.001392,-0.50599,0.066028,-1.202127,-261.310014,-0.800241,69.636905
10.9571,-0.032264,0.003095,0.065744,0.000114,-0.000297,-0.000165,0.001922,-0.505926,0.067309,-1.277185,-261.310013,-0.875298,69.636905
10.9771,-0.032212,0.003333,0.064956,8.4e-05,-0.00031,-0.000163,0.001643,-0.505876,0.066666,-1.277185,-261.310013,-0.875298,69.636905
10.9968,-0.03239,0.003155,0.066928,6e-05,-0.000319,-0.000161,0.000895,-0.505597,0.064953,-1.292109,-261.309909,-0.950228,69.636962
11.0172,-0.032514,0.002627,0.066894,4.7e-05,-0.000348,-0.000156,0.001647,-0.505694,0.066758,-1.292109,-261.309909,-0.950228,69.636962
11.0373,-0.032632,0.002703,0.066788,3.7e-05,-0.000371,-0.000152,0.001647,-0.505694,0.066758,-1.292109,-261.309909,-0.950228,69.636962
11.0571,-0.031971,0.002853,0.065694,2.9e-05,-0.000389,-0.000148,0.001405,-0.506161,0.066787,-1.367145,-261.309894,-1.025264,69.63697
11.0774,-0.032559,0.003102,0.064852,4.4e-05,-0.000362,-0.00015,0.001448,-0.506114,0.066335,-1.367145,-261.309894,-1.025264,69.63697
11.0972,-0.03216,0.002852,0.065267,5.7e-05,-0.000341,-0.000152,0.000492,-0.505826,0.064852,-1.442205,-261.309889,-1.100324,69.636973
11.1173,-0.032333,0.003034,0.066672,0.000154,-0.000348,-0.000155,0.001052,-0.506043,0.065232,-1.442205,-261.309889,-1.100324,69.636973
11.1371,-0.032026,0.002697,0.066174,0.00023,-0.000353,-0.000159,0.001052,-0.506043,0.065232,-1.442205,-261.309889,-1.100324,69.636973
11.1573,-0.032141,0.003031,0.065361,0.000291,-0.000358,-0.000163,0.0017,-0.506192,0.066171,-1.440703,-261.309823,-1.175307,69.637012
11.1775,-0.032667,0.002678,0.066124,0.00025,-0.000344,-0.000166,0.001481,-0.506064,0.065836,-1.440703,-261.309823,-1.175307,69.637012
11.1973,-0.031983,0.002908,0.067687,0.000218,-0.000333,-0.000168,0.001032,-0.506207,0.066124,-1.365731,-261.309823,-1.100334,69.637012
11.2176,-0.032696,0.002813,0.067721,4.3e-05,-0.000286,-0.00017,0.002386,-0.505948,0.067554,-1.365731,-261.309823,-1.100334,69.637012
11.2374,-0.032298,0.003139,0.067048,-0.0001,-0.00025,-0.000168,0.002386,-0.505948,0.067554,-1.365731,-261.309823,-1.100334,69.637012
11.2572,-0.032336,0.002926,0.06754,-0.000216,-0.000222,-0.000164,0.001871,-0.505717,0.067047,-1.290754,-261.309805,-1.025358,69.637023
11.2776,-0.032274,0.003014,0.06673,-0.000234,-0.000243,-0.000157,0.001959,-0.505797,0.06725,-1.290754,-261.309805,-1.025358,69.637023
11.2974,-0.032575,0.00288,0.066087,-0.00025,-0.000259,-0.00015,0.001733,-0.505851,0.06673,-1.215745,-261.309805,-0.950349,69.637023
11.3169,-0.032612,0.002507,0.066716,-0.000111,-0.000282,-0.000148,0.001156,-0.505994,0.06614,-1.215745,-261.309805,-0.950349,69.637023
11.3369,-0.032032,0.002693,0.064507,-2e-06,-0.000301,-0.000149,0.001156,-0.505994,0.06614,-1.215745,-261.309805,-0.950349,69.637023
11.3572,-0.032294,0.003089,0.065807,8.4e-05,-0.000316,-0.00015,0.000844,-0.506246,0.064507,-1.140648,-261.309805,-0.875251,69.637023
11.3775,-0.0326,0.003024,0.064271,0.000183,-0.000325,-0.000154,0.001008,-0.506066,0.065041,-1.140648,-261.309805,-0.875251,69.637023
11.397,-0.032333,0.002569,0.06469,0.000262,-0.000333,-0.000159,0.000156,-0.505924,0.064271,-1.215508,-261.309794,-0.950111,69.63703
11.417,-0.032316,0.003107,0.067019,0.000417,-0.000316,-0.000166,0.000593,-0.506324,0.064652,-1.215508,-261.309794,-0.950111,69.63703
11.4372,-0.032119,0.002782,0.066022,0.000539,-0.000304,-0.000175,0.000593,-0.506324,0.064652,-1.215508,-261.309794,-0.950111,69.63703
11.4569,-0.032152,0.002939,0.065879,0.000635,-0.000296,-0.000185,0.00153,-0.50611,0.06602,-1.140611,-261.309742,-0.875215,69.637066
11.4771,-0.032258,0.002893,0.066619,0.000527,-0.000297,-0.00019,0.001486,-0.506047,0.065962,-1.140611,-261.309742,-0.875215,69.637066
11.4969,-0.032336,0.002704,0.06552,0.00044,-0.000298,-0.000192,0.001693,-0.505976,0.066619,-1.065529,-261.309742,-0.800132,69.637066
11.5169,-0.0322,0.002781,0.06706,0.000444,-0.000297,-0.000196,0.001107,-0.506183,0.06561,-1.065529,-261.309742,-0.800132,69.637066
11.5378,-0.032105,0.002428,0.06433,0.000447,-0.000296,-0.0002,0.001107,-0.506183,0.06561,-1.065529,-261.309742,-0.800132,69.637066
11.5573,-0.032298,0.002939,0.064392,0.000449,-0.000295,-0.000203,0.00068,-0.506517,0.06433,-0.990377,-261.309739,-0.72498,69.637069
11.577,-0.032362,0.002584,0.066856,0.000562,-0.000291,-0.000207,0.000615,-0.506308,0.064355,-0.990377,-261.309739,-0.72498,69.637069
11.5969,-0.032066,0.003195,0.066974,0.000651,-0.000289,-0.000213,0.001709,-0.506277,0.066856,-0.915598,-261.309727,-0.650201,69.637078
11.6174,-0.032474,0.002784,0.068403,0.000463,-0.000301,-0.000211,0.002036,-0.505713,0.066964,-0.915598,-261.309727,-0.650201,69.637078
11.637,-0.032507,0.002644,0.067319,0.00031,-0.000311,-0.000205,0.002036,-0.505713,0.066964,-0.915598,-261.309727,-0.650201,69.637078
11.6569,-0.031994,0.003213,0.066523,0.000185,-0.00032,-0.000198,0.0018,-0.506201,0.067319,-0.840467,-261.309724,-0.57507,69.63708
11.677,-0.031861,0.002995,0.066284,0.000103,-0.000307,-0.000192,0.001844,-0.505979,0.066993,-0.840467,-261.309724,-0.57507,69.63708
11.6969,-0.032491,0.002626,0.067345,3.6e-05,-0.000296,-0.000186,0.001919,-0.505885,0.066284,-0.915351,-261.309713,-0.649954,69.637087
11.7171,-0.032288,0.00305,0.06524,-2.6e-05,-0.00026,-0.000182,0.001836,-0.50619,0.067255,-0.915351,-261.309713,-0.649954,69.637087
11.737,-0.032156,0.002699,0.06572,-7.6e-05,-0.000231,-0.000179,0.001836,-0.50619,0.067255,-0.915351,-261.309713,-0.649954,69.637087
11.757,-0.032218,0.002618,0.066865,-0.000117,-0.000208,-0.000176,0.001338,-0.5062,0.06572,-0.990472,-261.309713,-0.725075,69.637087
11.7769,-0.032231,0.003015,0.066079,-9.6e-05,-0.000199,-0.000174,0.001553,-0.506217,0.066195,-0.990472,-261.309713,-0.725075,69.637087
11.7969,-0.032271,0.002547,0.065025,-7.9e-05,-0.000192,-0.000173,0.001445,-0.505872,0.066079,-0.9154,-261.309713,-0.650003,69.637087
11.817,-0.032274,0.003038,0.066573,7e-05,-0.000193,-0.000176,0.000917,-0.506332,0.065115,-0.9154,-261.309713,-0.650003,69.637087
11.8368,-0.032144,0.002882,0.064923,0.000187,-0.000195,-0.00018,0.000917,-0.506332,0.065115,-0.9154,-261.309713,-0.650003,69.637087
11.8573,-0.032035,0.002593,0.067191,0.000279,-0.000197,-0.000185,0.000944,-0.506043,0.064923,-0.84048,-261.309713,-0.575083,69.637087
11.8772,-0.032227,0.002982,0.066703,0.00024,-0.000206,-0.000187,0.001468,-0.506132,0.065865,-0.84048,-261.309713,-0.575083,69.637087
11.8972,-0.032123,0.002908,0.063556,0.000209,-0.000213,-0.000187,0.001768,-0.505885,0.066701,-0.837837,-261.309668,-0.499943,69.637118
11.9177,-0.032465,0.002877,0.066814,0.000427,-0.000255,-0.000187,0.000393,-0.506048,0.063817,-0.837837,-261.309668,-0.499943,69.637118
11.9372,-0.032275,0.002972,0.066249,0.000598,-0.000293,-0.00019,0.000393,-0.506048,0.063817,-0.837837,-261.309668,-0.499943,69.637118
11.9574,-0.032104,0.002831,0.06566,0.000734,-0.000325,-0.000195,0.001493,-0.505914,0.066244,-0.912762,-261.309573,-0.440628,69.637175
11.9771,-0.031878,0.002718,0.066816,0.000618,-0.00033,-0.000197,0.001438,-0.505979,0.066002,-0.912762,-261.309573,-0.440628,69.637175
11.997,-0.032183,0.002392,0.06687,0.000526,-0.000335,-0.000198,0.002174,-0.506145,0.066815,-0.837801,-261.309549,-0.365667,69.637196
12.0171,-0.032415,0.002762,0.067296,0.000345,-0.00025,-0.000201,0.001919,-0.506441,0.066866,-0.837801,-261.309549,-0.365667,69.637196
12.037,-0.03222,0.003051,0.06635,0.000199,-0.000182,-0.000203,0.001919,-0.506441,0.066866,-0.837801,-261.309549,-0.365667,69.637196
12.057,-0.032175,0.002675,0.066848,8.1e-05,-0.000129,-0.000203,0.001611,-0.505837,0.066343,-0.762776,-261.309332,-0.38693,69.637373
12.0773,-0.032339,0.002795,0.067005,4e-05,-0.000159,-0.000198,0.001729,-0.505982,0.06655,-0.762776,-261.309332,-0.38693,69.637373
12.0966,-0.031919,0.00272,0.06529,7e-06,-0.000182,-0.000193,0.001808,-0.506061,0.067005,-0.837797,-261.309332,-0.311909,69.637373
12.1171,-0.032229,0.002592,0.066317,3.8e-05,-0.000191,-0.000191,0.001394,-0.506182,0.065436,-0.837797,-261.309332,-0.311909,69.637373
12.137,-0.031886,0.002939,0.066107,6.2e-05,-0.000197,-0.000189,0.001394,-0.506182,0.065436,-0.837797,-261.309332,-0.311909,69.637373
12.1572,-0.032357,0.002951,0.066412,8.1e-05,-0.000203,-0.000188,0.001805,-0.505947,0.066107,-0.912706,-261.309332,-0.386818,69.637373
12.1771,-0.031772,0.002529,0.064799,5e-05,-0.000225,-0.000183,0.001675,-0.505938,0.066232,-0.912706,-261.309332,-0.386818,69.637373
12.1968,-0.032263,0.002827,0.067718,2.5e-05,-0.000242,-0.000179,0.001252,-0.5064,0.064799,-0.987672,-261.309332,-0.461783,69.637373
12.217,-0.032154,0.002852,0.066613,-8.4e-05,-0.000217,-0.000175,0.002154,-0.506041,0.067446,-0.987672,-261.309332,-0.461783,69.637373
12.2372,-0.031944,0.002428,0.065534,-0.000172,-0.000197,-0.00017,0.002154,-0.506041,0.067446,-0.987672,-261.309332,-0.461783,69.637373
12.2572,-0.032122,0.002472,0.06582,-0.000244,-0.000181,-0.000165,0.001454,-0.506477,0.065534,-1.062577,-261.309332,-0.536688,69.637373
12.277,-0.032295,0.003178,0.06641,-0.000182,-0.000148,-0.000166,0.001441,-0.506455,0.065651,-1.062577,-261.309332,-0.536688,69.637373
12.2971,-0.032431,0.002787,0.066631,-0.000134,-0.000122,-0.000169,0.001549,-0.505698,0.06641,-0.987416,-261.309332,-0.461527,69.637373
12.3175,-0.032127,0.002691,0.065725,-0.0001,-0.000152,-0.000167,0.001528,-0.506049,0.066612,-0.987416,-261.309332,-0.461527,69.637373
12.3375,-0.032087,0.003126,0.066477,-7.3e-05,-0.000176,-0.000166,0.001528,-0.506049,0.066612,-0.987416,-261.309332,-0.461527,69.637373
12.3573,-0.032477,0.002961,0.066114,-5.2e-05,-0.000195,-0.000164,0.001791,-0.505747,0.066477,-0.912451,-261.309332,-0.386562,69.637373
12.3775,-0.032131,0.002809,0.065711,-3.2e-05,-0.000236,-0.000161,0.001559,-0.505819,0.066331,-0.912451,-261.309332,-0.386562,69.637373
12.397,-0.03253,0.003204,0.066772,-1.6e-05,-0.00027,-0.000157,0.001357,-0.50609,0.065711,-0.837442,-261.309332,-0.311553,69.637373
12.4175,-0.03218,0.002574,0.067155,1.6e-05,-0.000313,-0.000153,0.001486,-0.505698,0.066677,-0.837442,-261.309332,-0.311553,69.637373
12.4378,-0.032485,0.003043,0.066619,4.1e-05,-0.000348,-0.000149,0.001486,-0.505698,0.066677,-0.837442,-261.309332,-0.311553,69.637373
12.4573,-0.032617,0.002743,0.066741,6.1e-05,-0.000376,-0.000146,0.001466,-0.505826,0.066619,-0.912324,-261.309332,-0.386435,69.637373
12.4775,-0.032313,0.00307,0.065853,7.7e-05,-0.000373,-0.000146,0.001437,-0.505948,0.06667,-0.912324,-261.309332,-0.386435,69.637373
12.4972,-0.031933,0.003266,0.067061,9e-05,-0.00037,-0.000147,0.001248,-0.505825,0.065853,-0.987441,-261.309332,-0.461552,69.637373
12.5172,-0.032226,0.002697,0.068323,-1.3e-05,-0.000371,-0.000145,0.00217,-0.505605,0.066973,-0.987441,-261.309332,-0.461552,69.637373
12.5374,-0.032664,0.003104,0.067251,-9.7e-05,-0.000372,-0.00014,0.00217,-0.505605,0.066973,-0.987441,-261.309332,-0.461552,69.637373
12.5571,-0.032422,0.002755,0.066594,-0.000165,-0.000374,-0.000136,0.001608,-0.505743,0.067251,-1.062812,-261.309332,-0.536923,69.637373
12.5773,-0.03254,0.003048,0.064983,-0.000127,-0.000372,-0.000133,0.00157,-0.505894,0.066984,-1.062812,-261.309332,-0.536923,69.637373
12.5969,-0.03222,0.002979,0.065525,-9.7e-05,-0.00037,-0.000133,0.000578,-0.505876,0.064983,-0.988304,-261.309332,-0.462416,69.637373
12.617,-0.031821,0.002832,0.066996,1.8e-05,-0.000382,-0.000134,0.001125,-0.505922,0.06548,-0.988304,-261.309332,-0.462416,69.637373
12.6372,-0.032232,0.002957,0.067312,0.000109,-0.000392,-0.000137,0.001125,-0.505922,0.06548,-0.988304,-261.309332,-0.462416,69.637373
12.657,-0.032275,0.002683,0.067388,0.000182,-0.0004,-0.000141,0.002071,-0.505888,0.067312,-0.913138,-261.309332,-0.38725,69.637373
12.6769,-0.032227,0.003009,0.066184,5.8e-05,-0.000354,-0.000144,0.002069,-0.505998,0.067343,-0.913138,-261.309332,-0.38725,69.637373
12.6976,-0.032654,0.002779,0.067256,-4.2e-05,-0.000317,-0.000145,0.001502,-0.505874,0.066184,-0.987964,-261.309332,-0.462076,69.637373
12.7173,-0.032273,0.002894,0.06769,-4.3e-05,-0.000306,-0.000146,0.00161,-0.506051,0.067165,-0.987964,-261.309332,-0.462076,69.637373
12.7371,-0.032286,0.002817,0.066038,-4.3e-05,-0.000296,-0.000147,0.00161,-0.506051,0.067165,-0.987964,-261.309332,-0.462076,69.637373
12.757,-0.03211,0.002805,0.065717,-4.4e-05,-0.000289,-0.000149,0.001369,-0.506071,0.066038,-1.063116,-261.309332,-0.386923,69.637373
12.7771,-0.032407,0.00308,0.065299,3e-06,-0.000289,-0.000151,0.001374,-0.506081,0.065904,-1.063116,-261.309332,-0.386923,69.637373
12.7968,-0.031872,0.002915,0.06616,4e-05,-0.00029,-0.000154,0.000872,-0.505833,0.065299,-1.138172,-261.309332,-0.311867,69.637373
12.8171,-0.032236,0.00274,0.065651,-1e-06,-0.000288,-0.000153,0.001762,-0.505957,0.066087,-1.138172,-261.309332,-0.311867,69.637373
12.8367,-0.031947,0.002706,0.066176,-3.4e-05,-0.000287,-0.000153,0.001762,-0.505957,0.066087,-1.138172,-261.309332,-0.311867,69.637373
12.8571,-0.032251,0.002681,0.067921,-6e-05,-0.000286,-0.000152,0.001779,-0.506178,0.066176,-1.21307,-261.309332,-0.386765,69.637373
12.8772,-0.032001,0.002811,0.066124,-0.000136,-0.000244,-0.000152,0.002017,-0.506164,0.066889,-1.21307,-261.309332,-0.386765,69.637373
12.8971,-0.031839,0.002781,0.067966,-0.000198,-0.000211,-0.000152,0.001697,-0.506075,0.066124,-1.287971,-261.309332,-0.311864,69.637373
12.9169,-0.032083,0.002729,0.067795,-0.000348,-0.000156,-0.000152,0.002709,-0.506044,0.067818,-1.287971,-261.309332,-0.311864,69.637373
12.937,-0.031835,0.003294,0.066761,-0.00047,-0.000113,-0.00015,0.002709,-0.506044,0.067818,-1.287971,-261.309332,-0.311864,69.637373
12.9568,-0.031834,0.002793,0.065753,-0.000571,-7.8e-05,-0.000146,0.002188,-0.50557,0.066761,-1.212692,-261.309332,-0.236585,69.637373
12.9772,-0.032189,0.002574,0.066256,-0.000523,-0.000126,-0.000137,0.001979,-0.505789,0.066349,-1.212692,-261.309332,-0.236585,69.637373
12.9968,-0.03227,0.002893,0.067699,-0.000486,-0.000164,-0.00013,0.001576,-0.506307,0.066256,-1.137877,-261.309332,-0.16177,69.637373
13.0172,-0.031894,0.003223,0.06632,-0.0005,-0.000161,-0.000125,0.002174,-0.505971,0.067576,-1.137877,-261.309332,-0.16177,69.637373
13.0374,-0.032381,0.00309,0.067135,-0.000512,-0.000159,-0.00012,0.002174,-0.505971,0.067576,-1.137877,-261.309332,-0.16177,69.637373
13.0572,-0.032002,0.002893,0.066959,-0.000522,-0.000157,-0.000117,0.001833,-0.505762,0.067135,-1.062823,-261.309332,-0.086716,69.637373
13.0772,-0.032199,0.002651,0.065982,-0.000484,-0.000183,-0.000113,0.00195,-0.505844,0.067064,-1.062823,-261.309332,-0.086716,69.637373
13.097,-0.031857,0.002728,0.066456,-0.000455,-0.000204,-0.000109,0.001427,-0.506239,0.065982,-0.987977,-261.309332,-0.01187,69.637373
13.1173,-0.032318,0.002939,0.066635,-0.000447,-0.000182,-0.00011,0.001961,-0.506154,0.066415,-0.987977,-261.309332,-0.01187,69.637373
13.1378,-0.032083,0.002861,0.066713,-0.00044,-0.000164,-0.000111,0.001961,-0.506154,0.066415,-0.987977,-261.309332,-0.01187,69.637373
13.1573,-0.03225,0.00266,0.06488,-0.000435,-0.000149,-0.000113,0.001916,-0.506004,0.066713,-0.91274,-261.309332,0.063367,69.637373
13.1775,-0.03208,0.002554,0.067619,-0.000333,-0.000166,-0.000116,0.001474,-0.50611,0.065976,-0.91274,-261.309332,0.063367,69.637373
13.1968,-0.032217,0.003034,0.066081,-0.000253,-0.00018,-0.00012,0.00238,-0.50628,0.067619,-0.837762,-261.309332,0.138346,69.637373
13.2172,-0.032369,0.002958,0.065489,-0.000193,-0.000215,-0.000121,0.001535,-0.505888,0.066208,-0.837762,-261.309332,0.138346,69.637373
13.2373,-0.032482,0.002806,0.064814,-0.000145,-0.000244,-0.000123,0.001535,-0.505888,0.066208,-0.837762,-261.309332,0.138346,69.637373
13.2571,-0.031996,0.002865,0.066033,-0.000107,-0.000268,-0.000124,0.00055,-0.506124,0.064814,-0.762755,-261.309332,0.213352,69.637373
13.2771,-0.032223,0.002812,0.065194,3.2e-05,-0.000282,-0.00013,0.000999,-0.506083,0.065309,-0.762755,-261.309332,0.213352,69.637373
13.2972,-0.032115,0.002939,0.067741,0.000141,-0.000295,-0.000137,0.001002,-0.506104,0.065194,-0.687816,-261.309332,0.288291,69.637373
13.3172,-0.032056,0.00264,0.067799,-6e-06,-0.000265,-0.00014,0.002287,-0.50591,0.067524,-0.687816,-261.309332,0.288291,69.637373
13.337,-0.032336,0.002881,0.06717,-0.000125,-0.000242,-0.000142,0.002287,-0.50591,0.067524,-0.687816,-261.309332,0.288291,69.637373
13.3571,-0.031778,0.002998,0.068253,-0.000221,-0.000225,-0.00014,0.001895,-0.505969,0.06717,-0.762802,-261.309332,0.213305,69.637373
13.377,-0.032324,0.003028,0.065076,-0.000309,-0.000209,-0.000138,0.002347,-0.505906,0.067611,-0.762802,-261.309332,0.213305,69.637373
13.3976,-0.032453,0.002655,0.066262,-0.00038,-0.000196,-0.000135,0.000841,-0.505892,0.065076,-0.687874,-261.309332,0.288233,69.637373
13.4173,-0.032403,0.002755,0.067199,-0.000244,-0.000202,-0.000136,0.001261,-0.506188,0.066126,-0.687874,-261.309332,0.288233,69.637373
13.4375,-0.032021,0.003122,0.06671,-0.000138,-0.000207,-0.000139,0.001261,-0.506188,0.066126,-0.687874,-261.309332,0.288233,69.637373
13.4575,-0.031918,0.002582,0.067157,-5.3e-05,-0.000213,-0.000143,0.001976,-0.505744,0.06671,-0.612947,-261.309332,0.290265,69.637373
13.4776,-0.032338,0.002716,0.067708,-0.000139,-0.000204,-0.000143,0.002115,-0.505965,0.066898,-0.612947,-261.309332,0.290265,69.637373
13.4974,-0.032321,0.002586,0.065845,-0.000208,-0.000198,-0.000142,0.002167,-0.506116,0.067708,-0.537525,-261.309332,0.365687,69.637373
13.5176,-0.032214,0.002716,0.067199,-0.000123,-0.000189,-0.000146,0.001313,-0.506292,0.066001,-0.537525,-261.309332,0.365687,69.637373
13.5377,-0.032268,0.00294,0.066326,-5.6e-05,-0.000182,-0.000151,0.001313,-0.506292,0.066001,-0.537525,-261.309332,0.365687,69.637373
13.5573,-0.032381,0.002976,0.065661,-3e-06,-0.000177,-0.000156,0.001533,-0.505939,0.066326,-0.462683,-261.309332,0.440529,69.637373
13.5774,-0.032231,0.002701,0.066398,4.4e-05,-0.000218,-0.000157,0.001349,-0.505933,0.066055,-0.462683,-261.309332,0.440529,69.637373
13.5967,-0.03199,0.002681,0.066381,8.2e-05,-0.00025,-0.000157,0.001607,-0.506175,0.066398,-0.537525,-261.309332,0.515372,69.637373
13.6171,-0.032116,0.002439,0.066013,1.1e-05,-0.000222,-0.000159,0.001819,-0.506194,0.066382,-0.537525,-261.309332,0.515372,69.637373
13.637,-0.032398,0.003067,0.066718,-4.5e-05,-0.000199,-0.00016,0.001819,-0.506194,0.066382,-0.537525,-261.309332,0.515372,69.637373
13.657,-0.032072,0.003016,0.066501,-9.1e-05,-0.000181,-0.000161,0.001603,-0.505798,0.066718,-0.612549,-261.309332,0.440348,69.637373
13.677,-0.032097,0.002744,0.066056,-8.8e-05,-0.000219,-0.000158,0.001692,-0.505822,0.066629,-0.612549,-261.309332,0.440348,69.637373
13.6971,-0.032136,0.002645,0.066648,-8.5e-05,-0.00025,-0.000154,0.001567,-0.506143,0.066056,-0.537495,-261.309332,0.515402,69.637373
13.7175,-0.032014,0.002679,0.067355,-0.000122,-0.000219,-0.000154,0.001807,-0.506216,0.066599,-0.537495,-261.309332,0.515402,69.637373
13.7373,-0.032468,0.003044,0.066837,-0.000151,-0.000195,-0.000155,0.001807,-0.506216,0.066599,-0.537495,-261.309332,0.515402,69.637373
13.7573,-0.032209,0.002818,0.066097,-0.000175,-0.000175,-0.000155,0.001593,-0.505817,0.066837,-0.4625,-261.309332,0.590397,69.637373
13.7771,-0.03194,0.003021,0.066889,-0.000132,-0.000209,-0.000153,0.001545,-0.505921,0.066534,-0.4625,-261.309332,0.590397,69.637373
13.7967,-0.032275,0.003034,0.065893,-9.7e-05,-0.000237,-0.000151,0.002148,-0.505838,0.066889,-0.387536,-261.309332,0.515434,69.637373
13.8168,-0.032331,0.002634,0.064381,-3.4e-05,-0.000272,-0.00015,0.001378,-0.505857,0.065979,-0.387536,-261.309332,0.515434,69.637373
13.8369,-0.031746,0.002906,0.068334,1.7e-05,-0.000302,-0.000149,0.001378,-0.505857,0.065979,-0.387536,-261.309332,0.515434,69.637373
13.8569,-0.032192,0.002688,0.066529,5.7e-05,-0.000326,-0.000148,0.003077,-0.505904,0.068334,-0.312517,-261.309332,0.590453,69.637373
13.8769,-0.032171,0.002848,0.066362,-0.000112,-0.000262,-0.00015,0.002516,-0.506019,0.067592,-0.312517,-261.309332,0.590453,69.637373
13.8968,-0.032033,0.002882,0.067544,-0.00025,-0.000212,-0.00015,0.001649,-0.506029,0.066362,-0.387492,-261.309332,0.515478,69.637373
13.9172,-0.032284,0.002938,0.068207,-0.000331,-0.000193,-0.000146,0.002322,-0.505962,0.067438,-0.387492,-261.309332,0.515478,69.637373
13.9371,-0.032255,0.002747,0.066424,-0.000396,-0.000178,-0.000142,0.002322,-0.505962,0.067438,-0.387492,-261.309332,0.515478,69.637373
13.9574,-0.031923,0.003162,0.066129,-0.00045,-0.000166,-0.000137,0.001597,-0.506129,0.066424,-0.312629,-261.309332,0.449797,69.637373
13.9774,-0.031992,0.002739,0.066138,-0.000377,-0.000191,-0.000133,0.001672,-0.505961,0.066302,-0.312629,-261.309332,0.449797,69.637373
13.9971,-0.032413,0.002926,0.066554,-0.00032,-0.00021,-0.00013,0.001714,-0.506146,0.066138,-0.237284,-261.309332,0.374453,69.637373
14.0175,-0.032291,0.002803,0.065389,-0.000246,-0.000232,-0.000129,0.001522,-0.505962,0.066519,-0.237284,-261.309332,0.374453,69.637373
14.0372,-0.03212,0.003127,0.066555,-0.000187,-0.00025,-0.000129,0.001522,-0.505962,0.066519,-0.237284,-261.309332,0.374453,69.637373
14.0573,-0.032442,0.002795,0.06594,-0.000139,-0.000265,-0.00013,0.001798,-0.505744,0.066555,-0.162469,-261.309332,0.388035,69.637373
14.0772,-0.031819,0.003111,0.066528,-0.000103,-0.000285,-0.00013,0.001543,-0.505886,0.066308,-0.162469,-261.309332,0.388035,69.637373
14.0971,-0.032309,0.00301,0.066015,-7.3e-05,-0.000301,-0.000131,0.002085,-0.505761,0.066528,-0.087644,-261.309332,0.462861,69.637373
14.1173,-0.032126,0.002871,0.066758,-2e-05,-0.000322,-0.000132,0.001399,-0.505869,0.066059,-0.087644,-261.309332,0.462861,69.637373
14.1376,-0.032297,0.00315,0.066466,2.2e-05,-0.00034,-0.000134,0.001399,-0.505869,0.066059,-0.087644,-261.309332,0.462861,69.637373
14.157,-0.032134,0.003002,0.066089,5.6e-05,-0.000354,-0.000135,0.001576,-0.505723,0.066466,-0.0125,-261.309332,0.538005,69.637373
14.1769,-0.031991,0.002716,0.066256,5.4e-05,-0.000368,-0.000136,0.001564,-0.50579,0.066312,-0.0125,-261.309332,0.538005,69.637373
14.1969,-0.032074,0.003065,0.067792,5.3e-05,-0.00038,-0.000136,0.001774,-0.506165,0.066256,-0.087537,-261.309332,0.462967,69.637373
14.217,-0.032118,0.002867,0.0668,-9e-05,-0.000341,-0.000137,0.002416,-0.505797,0.067666,-0.087537,-261.309332,0.462967,69.637373
14.237,-0.031977,0.00273,0.068047,-0.000207,-0.000311,-0.000136,0.002416,-0.505797,0.067666,-0.087537,-261.309332,0.462967,69.637373
14.257,-0.032079,0.002825,0.066771,-0.000302,-0.000287,-0.000133,0.002701,-0.506089,0.068047,-0.162578,-261.309332,0.387926,69.637373
14.2769,-0.032191,0.003078,0.066283,-0.000389,-0.000236,-0.000131,0.00239,-0.506068,0.06752,-0.162578,-261.309332,0.387926,69.637373
14.2975,-0.032388,0.002892,0.067099,-0.00046,-0.000195,-0.000129,0.001588,-0.505802,0.066283,-0.087631,-261.309332,0.462873,69.637373
14.3176,-0.031977,0.00269,0.065186,-0.000407,-0.000211,-0.000126,0.001788,-0.505947,0.067029,-0.087631,-261.309332,0.462873,69.637373
14.3373,-0.032308,0.003138,0.067258,-0.000366,-0.000223,-0.000123,0.001788,-0.505947,0.067029,-0.087631,-261.309332,0.462873,69.637373
14.3571,-0.032377,0.002502,0.066912,-0.000334,-0.000233,-0.000122,0.001968,-0.505709,0.067258,-0.012661,-261.309332,0.387903,69.637373
14.3773,-0.03209,0.002708,0.064658,-0.000324,-0.000234,-0.000121,0.001868,-0.505971,0.067118,-0.012661,-261.309332,0.387903,69.637373
14.3969,-0.032181,0.002974,0.06783,-0.000316,-0.000234,-0.00012,0.000862,-0.506227,0.064658,0.06219,-261.309332,0.44364,69.637373
14.4171,-0.032075,0.002887,0.066174,-0.000374,-0.000223,-0.000119,0.00227,-0.505882,0.067589,0.06219,-261.309332,0.44364,69.637373
14.4376,-0.031974,0.003059,0.066949,-0.000421,-0.000215,-0.000117,0.00227,-0.505882,0.067589,0.06219,-261.309332,0.44364,69.637373
14.4573,-0.032256,0.002558,0.066909,-0.000459,-0.000208,-0.000115,0.002144,-0.505798,0.066949,0.137659,-261.309332,0.470943,69.637373
14.4772,-0.031902,0.003123,0.06704,-0.000454,-0.000202,-0.000113,0.002021,-0.506003,0.066933,0.137659,-261.309332,0.470943,69.637373
14.497,-0.032256,0.002977,0.067053,-0.000449,-0.000197,-0.000112,0.002263,-0.505731,0.067041,0.212631,-261.309341,0.395971,69.637365
14.5173,-0.03231,0.002911,0.065658,-0.000426,-0.000213,-0.00011,0.001945,-0.505865,0.067052,0.212631,-261.309341,0.395971,69.637365
14.5374,-0.032253,0.002789,0.066632,-0.000408,-0.000226,-0.000108,0.001945,-0.505865,0.067052,0.212631,-261.309341,0.395971,69.637365
14.5573,-0.032052,0.00336,0.067322,-0.000393,-0.000237,-0.000107,0.001701,-0.50608,0.066632,0.287353,-261.309372,0.321249,69.637337
14.5773,-0.032072,0.00268,0.066681,-0.000377,-0.00025,-0.000106,0.001926,-0.505839,0.066911,0.287353,-261.309372,0.321249,69.637337
14.597,-0.032114,0.002347,0.066897,-0.000364,-0.00026,-0.000105,0.001909,-0.506187,0.066681,0.362321,-261.309391,0.396216,69.637321
14.6173,-0.032129,0.003454,0.065554,-0.00039,-0.000178,-0.000111,0.001972,-0.506482,0.066878,0.362321,-261.309391,0.396216,69.637321
14.6372,-0.032118,0.002662,0.064883,-0.00041,-0.000114,-0.000117,0.001972,-0.506482,0.066878,0.362321,-261.309391,0.396216,69.637321
14.6575,-0.032148,0.003087,0.064953,-0.000427,-6.3e-05,-0.000124,0.000948,-0.506265,0.064883,0.437214,-261.30941,0.471109,69.637305
14.6774,-0.03158,0.003079,0.065162,-0.000211,-0.000114,-0.000128,0.000951,-0.506093,0.064911,0.437214,-261.30941,0.471109,69.637305
14.697,-0.03241,0.003096,0.067291,-4e-05,-0.000157,-0.000133,0.001629,-0.505839,0.065162,0.362197,-261.309412,0.396092,69.637303
14.7173,-0.032027,0.002666,0.065257,-7.7e-05,-0.000197,-0.000134,0.00186,-0.505757,0.067107,0.362197,-261.309412,0.396092,69.637303
14.7374,-0.032025,0.002749,0.065737,-0.000107,-0.00023,-0.000133,0.00186,-0.505757,0.067107,0.362197,-261.309412,0.396092,69.637303
14.7575,-0.032042,0.00303,0.066421,-0.00013,-0.000257,-0.000132,0.001477,-0.50615,0.065737,0.437308,-261.309412,0.471203,69.637303
14.7774,-0.032096,0.002654,0.066271,-0.000114,-0.000259,-0.000133,0.001612,-0.506026,0.066016,0.437308,-261.309412,0.471203,69.637303
14.7968,-0.032204,0.002719,0.065769,-0.0001,-0.00026,-0.000135,0.001678,-0.506226,0.066271,0.512183,-261.309412,0.546079,69.637303
14.8173,-0.032103,0.003091,0.066874,-4.1e-05,-0.000253,-0.000139,0.001343,-0.506182,0.065809,0.512183,-261.309412,0.546079,69.637303
14.8376,-0.032394,0.003407,0.065032,7e-06,-0.000248,-0.000144,0.001343,-0.506182,0.065809,0.512183,-261.309412,0.546079,69.637303
14.8569,-0.032058,0.002754,0.066345,4.5e-05,-0.000244,-0.000149,0.000748,-0.505515,0.065032,0.587457,-261.309412,0.621352,69.637303
14.8777,-0.031876,0.002814,0.065925,0.000126,-0.000296,-0.00015,0.001162,-0.505766,0.065573,0.587457,-261.309412,0.621352,69.637303
14.8972,-0.032052,0.002918,0.067793,0.000192,-0.000339,-0.000151,0.001722,-0.506078,0.065925,0.662317,-261.309412,0.546492,69.637303
14.9173,-0.032359,0.003124,0.065514,1.5e-05,-0.00029,-0.000154,0.00243,-0.505925,0.067635,0.662317,-261.309412,0.546492,69.637303
14.9375,-0.032339,0.002976,0.065956,-0.000129,-0.000252,-0.000154,0.00243,-0.505925,0.067635,0.662317,-261.309412,0.546492,69.637303
