mach0312/omni-docking-bench/src/icros_test_setup/results/MPPI_sample/timeseries/trial_039.csv
t,x,y,yaw,vx,vy,wz,bl_x,bl_y,bl_yaw,front_steering_joint,front_wheel_joint,rear_steering_joint,rear_wheel_joint
0.0,-0.048028,-0.000851,0.030381,-0.012866,0.001631,0.016269,-0.030743,-0.510548,0.030046,-0.732304,-262.418245,0.573194,71.461867
0.0005,-0.048361,-0.000546,0.03103,-0.007935,0.001006,0.010034,-0.031266,-0.510701,0.029186,-0.732304,-262.425161,0.573194,71.455746
0.0008,-0.049159,-0.000792,0.031778,-0.00701,0.000889,0.008864,-0.031266,-0.510701,0.029186,-0.732304,-262.431373,0.573194,71.450248
0.001,-0.049107,-0.000487,0.031746,-0.006014,0.000763,0.007605,-0.030216,-0.510796,0.031821,-0.732304,-262.436911,0.573194,71.445346
0.0013,-0.049195,-0.000991,0.032166,-0.004902,0.000622,0.006199,-0.031391,-0.510866,0.030579,-0.732304,-262.441172,0.573194,71.441575
0.0016,-0.050001,-0.000743,0.03149,-0.003822,0.000485,0.004832,-0.031391,-0.510866,0.030579,-0.732304,-262.444408,0.573194,71.438711
0.0018,-0.049618,-0.001257,0.032573,-0.00262,0.000332,0.003313,-0.031391,-0.510866,0.030579,-0.732304,-262.44582,0.573194,71.437461
0.0021,-0.050065,-0.001077,0.032478,-0.00135,0.000171,0.001707,-0.033563,-0.510876,0.028965,-0.732304,-262.44582,0.573194,71.437461
0.0024,-0.050402,-0.000741,0.032055,-1.3e-05,2e-06,1.7e-05,-0.033563,-0.510876,0.028965,-0.732304,-262.44582,0.573194,71.437461
0.0026,-0.050299,-0.000977,0.031854,0.0,0.0,0.0,-0.033193,-0.510763,0.029622,-0.732304,-262.44582,0.573194,71.437461
0.0081,-0.05064,-0.000803,0.032584,0.0,0.0,0.0,-0.034166,-0.510708,0.031992,-0.732304,-262.44582,0.573194,71.437461
0.0282,-0.050529,-0.000714,0.033457,0.0,0.0,0.0,-0.03412,-0.510634,0.032253,-0.732304,-262.44582,0.573194,71.437461
0.0477,-0.050307,-0.000682,0.032268,0.0,0.0,0.0,-0.033469,-0.510428,0.033458,-0.732304,-262.445827,0.573194,71.437454
0.0682,-0.050533,-0.000558,0.031614,0.0,0.0,0.0,-0.033819,-0.510418,0.032375,-0.732304,-262.445827,0.573194,71.437454
0.0882,-0.050294,-0.000436,0.032957,0.0,0.0,0.0,-0.033819,-0.510418,0.032375,-0.732304,-262.445827,0.573194,71.437454
0.1079,-0.050478,-0.000833,0.033269,0.0,0.0,0.0,-0.033489,-0.510159,0.032957,-0.732304,-262.445827,0.573194,71.437454
0.128,-0.050485,-0.001309,0.032306,0.000767,-0.000581,-0.00074,-0.033499,-0.510319,0.033085,-0.732304,-262.445827,0.573194,71.437454
0.1479,-0.050544,-0.000809,0.034455,0.000807,-0.000656,-0.00083,-0.034012,-0.511043,0.032306,-0.732304,-262.445827,0.573194,71.437454
0.168,-0.050287,-0.000988,0.033837,0.000839,-0.000718,-0.000992,-0.033067,-0.510554,0.034265,-0.732304,-262.445827,0.573194,71.437454
0.1882,-0.050609,-0.000876,0.03278,0.000865,-0.000776,-0.00112,-0.033067,-0.510554,0.034265,-0.732304,-262.445827,0.573194,71.437454
0.2082,-0.050658,-0.001095,0.033633,0.000865,-0.000776,-0.00112,-0.033894,-0.510602,0.03278,-0.807277,-262.445827,0.498222,71.437454
0.2281,-0.050469,-0.000644,0.031332,0.000903,-0.00087,-0.001446,-0.033741,-0.510683,0.033117,-0.807277,-262.445827,0.498222,71.437454
0.2482,-0.049955,-0.001165,0.03298,0.000916,-0.000911,-0.001562,-0.034492,-0.510394,0.031332,-0.882178,-262.445827,0.42332,71.437455
0.2683,-0.050334,-0.000746,0.032367,0.000926,-0.000943,-0.001723,-0.033274,-0.510838,0.032815,-0.882178,-262.445827,0.42332,71.437455
0.2883,-0.05028,-0.001031,0.033093,0.000935,-0.000973,-0.001852,-0.033274,-0.510838,0.032815,-0.882178,-262.445827,0.42332,71.437455
0.3083,-0.05035,-0.000573,0.032265,0.000935,-0.000973,-0.001852,-0.033404,-0.510753,0.03309,-0.957318,-262.445793,0.34818,71.43747
0.3282,-0.050506,-0.000549,0.032309,0.000949,-0.001039,-0.00214,-0.033604,-0.510572,0.032754,-0.957318,-262.445793,0.34818,71.43747
0.3483,-0.049951,-0.000968,0.033688,0.000955,-0.001067,-0.002245,-0.034021,-0.510292,0.032291,-1.032209,-262.445497,0.273289,71.437591
0.3681,-0.050112,-0.000957,0.031378,0.000959,-0.00109,-0.002378,-0.032886,-0.510644,0.033561,-1.032209,-262.445497,0.273289,71.437591
0.388,-0.050434,-0.001148,0.033412,0.000963,-0.00111,-0.002486,-0.032886,-0.510644,0.033561,-1.032209,-262.445497,0.273289,71.437591
0.4082,-0.05019,-0.00103,0.032449,0.000963,-0.00111,-0.002486,-0.033368,-0.51089,0.033355,-1.107181,-262.444835,0.30881,71.437845
0.428,-0.050046,-0.00115,0.031866,0.000969,-0.001132,-0.002764,-0.033478,-0.51084,0.032975,-1.107181,-262.444835,0.30881,71.437845
0.4483,-0.050214,-0.000457,0.031834,0.000971,-0.001141,-0.002867,-0.033774,-0.510916,0.031811,-1.182309,-262.444038,0.383938,71.438143
0.468,-0.050208,-0.001068,0.030793,0.000975,-0.001165,-0.00295,-0.033962,-0.510265,0.031829,-1.182309,-262.444038,0.383938,71.438143
0.488,-0.049894,-0.000731,0.032461,0.000978,-0.001187,-0.003019,-0.033962,-0.510265,0.031829,-1.182309,-262.444038,0.383938,71.438143
0.5082,-0.049761,-0.000897,0.030594,0.000978,-0.001187,-0.003019,-0.033318,-0.51049,0.032395,-1.246671,-262.443346,0.458812,71.438403
0.5283,-0.05026,-0.000903,0.03123,0.000981,-0.001203,-0.003123,-0.033659,-0.510562,0.031653,-1.246671,-262.443346,0.458812,71.438403
0.5481,-0.050156,-0.000768,0.032506,0.000983,-0.00121,-0.003162,-0.034311,-0.510683,0.031159,-1.258648,-262.44239,0.533941,71.438757
0.5682,-0.049833,-0.00135,0.033738,0.000984,-0.001218,-0.003193,-0.033644,-0.510516,0.032385,-1.258648,-262.44239,0.533941,71.438757
0.5883,-0.05,-0.00094,0.031892,0.000985,-0.001225,-0.003219,-0.033644,-0.510516,0.032385,-1.258648,-262.44239,0.533941,71.438757
0.608,-0.050005,-0.00068,0.031447,0.000985,-0.001225,-0.003219,-0.033701,-0.510723,0.03178,-1.26754,-262.441262,0.608932,71.439174
0.6283,-0.049787,-0.000853,0.03234,0.000986,-0.00123,-0.003315,-0.03381,-0.510604,0.031627,-1.26754,-262.441262,0.608932,71.439174
0.6479,-0.049815,-0.001248,0.031646,0.000987,-0.001232,-0.003351,-0.033264,-0.510624,0.032239,-1.271324,-262.439951,0.644924,71.439658
0.6682,-0.049583,-0.001363,0.030279,0.000987,-0.001222,-0.00339,-0.033646,-0.510967,0.031686,-1.271324,-262.439951,0.644924,71.439658
0.6882,-0.049915,-0.000702,0.033021,0.000986,-0.001215,-0.003422,-0.033646,-0.510967,0.031686,-1.271324,-262.439951,0.644924,71.439658
0.708,-0.049691,-0.001136,0.031692,0.000986,-0.001215,-0.003422,-0.033036,-0.510472,0.032887,-1.278361,-262.438635,0.690062,71.440151
0.728,-0.049741,-0.000807,0.032311,0.000988,-0.001222,-0.003486,-0.033235,-0.510645,0.03238,-1.278361,-262.438635,0.690062,71.440151
0.7481,-0.049783,-0.001056,0.032768,0.000988,-0.001224,-0.003509,-0.033234,-0.510577,0.032205,-1.280725,-262.437281,0.725819,71.440668
0.7682,-0.049421,-0.001047,0.030369,0.000988,-0.001223,-0.003538,-0.033086,-0.510767,0.032717,-1.280725,-262.437281,0.725819,71.440668
0.7879,-0.049562,-0.001113,0.030918,0.000988,-0.001222,-0.003562,-0.033086,-0.510767,0.032717,-1.280725,-262.437281,0.725819,71.440668
0.808,-0.049275,-0.001183,0.03113,0.000988,-0.001222,-0.003562,-0.033754,-0.510918,0.030773,-1.285409,-262.435894,0.749169,71.441201
0.8279,-0.04937,-0.000988,0.031511,0.000988,-0.001208,-0.003614,-0.033606,-0.510931,0.030901,-1.285409,-262.435894,0.749169,71.441201
0.8477,-0.049185,-0.000967,0.030798,0.000988,-0.001203,-0.003633,-0.033269,-0.510772,0.031398,-1.287725,-262.434483,0.767493,71.441749
0.8679,-0.049062,-0.001403,0.029805,0.000988,-0.001203,-0.003656,-0.033462,-0.510731,0.030843,-1.287725,-262.434483,0.767493,71.441749
0.8877,-0.049199,-0.001029,0.032732,0.000988,-0.001202,-0.003675,-0.033462,-0.510731,0.030843,-1.287725,-262.434483,0.767493,71.441749
0.9081,-0.048848,-0.001258,0.032826,0.000988,-0.001202,-0.003675,-0.032466,-0.510803,0.032583,-1.289808,-262.433085,0.799757,71.442306
0.9285,-0.049312,-0.001363,0.031071,0.000988,-0.001195,-0.003714,-0.032315,-0.510883,0.032665,-1.289808,-262.433085,0.799757,71.442306
0.9479,-0.049061,-0.001272,0.030483,0.000988,-0.001192,-0.003729,-0.033436,-0.511154,0.030954,-1.291631,-262.431653,0.812078,71.442879
0.9679,-0.048848,-0.001398,0.03017,0.000987,-0.001183,-0.003746,-0.033508,-0.511047,0.030518,-1.291631,-262.431653,0.812078,71.442879
0.9878,-0.049388,-0.001905,0.030512,0.000987,-0.001176,-0.00376,-0.033508,-0.511047,0.030518,-1.291631,-262.431653,0.812078,71.442879
1.008,-0.048545,-0.001539,0.031078,0.000987,-0.001176,-0.00376,-0.033787,-0.511715,0.030357,-1.293463,-262.430218,0.832423,71.443463
1.0279,-0.048684,-0.001591,0.030363,0.000984,-0.001135,-0.003791,-0.03333,-0.511546,0.030638,-1.293463,-262.430218,0.832423,71.443463
1.0479,-0.048537,-0.001598,0.030932,0.000983,-0.00112,-0.003802,-0.033169,-0.511392,0.030244,-1.293843,-262.428782,0.848691,71.444057
1.0677,-0.048725,-0.001497,0.029252,0.000984,-0.001112,-0.003814,-0.032797,-0.511359,0.030867,-1.293843,-262.428782,0.848691,71.444057
1.0881,-0.048874,-0.001905,0.029482,0.000984,-0.001106,-0.003825,-0.032797,-0.511359,0.030867,-1.293843,-262.428782,0.848691,71.444057
1.1083,-0.048954,-0.001468,0.029968,0.000984,-0.001106,-0.003825,-0.033799,-0.511728,0.029326,-1.292482,-262.42738,0.885009,71.444665
1.128,-0.048946,-0.001565,0.02925,0.000984,-0.001086,-0.003845,-0.033742,-0.511533,0.029572,-1.292482,-262.42738,0.885009,71.444665
1.148,-0.048404,-0.001581,0.029248,0.000984,-0.001078,-0.003852,-0.033998,-0.511381,0.029129,-1.292381,-262.42595,0.896044,71.445294
1.1682,-0.048257,-0.001222,0.030699,0.000984,-0.001076,-0.00386,-0.033531,-0.511366,0.029232,-1.292381,-262.42595,0.896044,71.445294
1.188,-0.048513,-0.001913,0.029304,0.000985,-0.001074,-0.003866,-0.033531,-0.511366,0.029232,-1.292381,-262.42595,0.896044,71.445294
1.2089,-0.047969,-0.001578,0.030037,0.000985,-0.001074,-0.003866,-0.033528,-0.511738,0.029145,-1.291562,-262.42453,0.913505,71.445935
1.2279,-0.048565,-0.001542,0.029658,0.000985,-0.001059,-0.003878,-0.033162,-0.511582,0.029493,-1.291562,-262.42453,0.913505,71.445935
1.2477,-0.048133,-0.001406,0.029821,0.000985,-0.001053,-0.003882,-0.03341,-0.511351,0.029535,-1.291591,-262.423103,0.917501,71.446582
1.268,-0.048171,-0.001782,0.029111,0.000986,-0.00106,-0.003887,-0.03297,-0.511197,0.029788,-1.291591,-262.423103,0.917501,71.446582
1.2877,-0.048169,-0.001865,0.030747,0.000987,-0.001066,-0.003891,-0.03297,-0.511197,0.029788,-1.291591,-262.423103,0.917501,71.446582
1.3078,-0.047828,-0.001542,0.029948,0.000987,-0.001066,-0.003891,-0.032448,-0.511667,0.030585,-1.290817,-262.421672,0.929403,71.447243
1.3277,-0.047929,-0.001706,0.028882,0.000986,-0.001056,-0.003899,-0.032489,-0.511521,0.030295,-1.290817,-262.421672,0.929403,71.447243
1.3476,-0.047495,-0.001433,0.029766,0.000986,-0.001052,-0.003901,-0.033169,-0.511526,0.028759,-1.2916,-262.420246,0.92537,71.447896
1.368,-0.047811,-0.001905,0.029889,0.000987,-0.001057,-0.003904,-0.032386,-0.511235,0.029677,-1.2916,-262.420246,0.92537,71.447896
1.3876,-0.04772,-0.001626,0.030347,0.000987,-0.001061,-0.003907,-0.032386,-0.511235,0.029677,-1.2916,-262.420246,0.92537,71.447896
1.4078,-0.04807,-0.001663,0.029974,0.000987,-0.001061,-0.003907,-0.032203,-0.511434,0.030184,-1.291239,-262.41882,0.933219,71.448557
1.4277,-0.047617,-0.001801,0.029304,0.000987,-0.001057,-0.003912,-0.032437,-0.511439,0.030079,-1.291239,-262.41882,0.933219,71.448557
1.4477,-0.048113,-0.002228,0.028074,0.000987,-0.001055,-0.003914,-0.032642,-0.511615,0.029179,-1.291856,-262.417385,0.930354,71.449218
1.4678,-0.047541,-0.001947,0.02991,0.000985,-0.001036,-0.003917,-0.033695,-0.511993,0.028164,-1.291856,-262.417385,0.930354,71.449218
1.4876,-0.047564,-0.001946,0.028265,0.000984,-0.00102,-0.003919,-0.033695,-0.511993,0.028164,-1.291856,-262.417385,0.930354,71.449218
1.5078,-0.047373,-0.001984,0.025969,0.000984,-0.00102,-0.003919,-0.033108,-0.511785,0.028102,-1.291828,-262.415951,0.934513,71.449882
1.5277,-0.047267,-0.002161,0.030354,0.000983,-0.001005,-0.003923,-0.033526,-0.511801,0.0272,-1.291828,-262.415951,0.934513,71.449882
1.5478,-0.047072,-0.002164,0.028269,0.000983,-0.000999,-0.003924,-0.031757,-0.511957,0.03023,-1.290241,-262.414528,0.949245,71.450559
1.5677,-0.047001,-0.001645,0.029566,0.000983,-0.000988,-0.003925,-0.032581,-0.511961,0.028424,-1.290241,-262.414528,0.949245,71.450559
1.5877,-0.047164,-0.001927,0.029116,0.000982,-0.00098,-0.003926,-0.032581,-0.511961,0.028424,-1.290241,-262.414528,0.949245,71.450559
1.6077,-0.047483,-0.002059,0.028873,0.000982,-0.00098,-0.003926,-0.032275,-0.511751,0.028954,-1.288911,-262.413126,0.957769,71.451237
1.6279,-0.047202,-0.001916,0.029686,0.000983,-0.000977,-0.003928,-0.032467,-0.511794,0.028902,-1.288911,-262.413126,0.957769,71.451237
1.6479,-0.046788,-0.002186,0.027822,0.000983,-0.000975,-0.003929,-0.032032,-0.511721,0.029561,-1.287825,-262.411717,0.965135,71.451928
1.6678,-0.047305,-0.002165,0.028664,0.000983,-0.000968,-0.00393,-0.03255,-0.511967,0.027966,-1.287825,-262.411717,0.965135,71.451928
1.6879,-0.04701,-0.00192,0.027799,0.000983,-0.000962,-0.003931,-0.03255,-0.511967,0.027966,-1.287825,-262.411717,0.965135,71.451928
1.7079,-0.046776,-0.002099,0.028141,0.000983,-0.000962,-0.003931,-0.032792,-0.511762,0.027635,-1.287307,-262.410311,0.966507,71.45262
1.728,-0.046642,-0.002156,0.028428,0.000983,-0.000961,-0.003932,-0.032637,-0.511822,0.027824,-1.287307,-262.410311,0.966507,71.45262
1.7477,-0.046527,-0.002288,0.027834,0.000984,-0.000961,-0.003932,-0.032114,-0.51198,0.028303,-1.286519,-262.408913,0.971603,71.453315
1.7685,-0.046738,-0.002105,0.027854,0.000983,-0.000951,-0.003933,-0.032312,-0.512082,0.02787,-1.286519,-262.408913,0.971603,71.453315
1.7884,-0.046849,-0.002015,0.029308,0.000982,-0.000944,-0.003934,-0.032312,-0.512082,0.02787,-1.286519,-262.408913,0.971603,71.453315
1.808,-0.046484,-0.002172,0.026559,0.000982,-0.000944,-0.003934,-0.031862,-0.511835,0.029144,-1.286193,-262.407509,0.971869,71.454015
1.8284,-0.046509,-0.002453,0.026488,0.000983,-0.000943,-0.003935,-0.032302,-0.511905,0.028058,-1.286193,-262.407509,0.971869,71.454015
1.8482,-0.046294,-0.002311,0.028418,0.000983,-0.000942,-0.003935,-0.03297,-0.512303,0.026363,-1.285297,-262.406118,0.97822,71.454716
1.8686,-0.046184,-0.002245,0.02699,0.000982,-0.000934,-0.003935,-0.031907,-0.512125,0.028226,-1.285297,-262.406118,0.97822,71.454716
1.8879,-0.046236,-0.002449,0.027022,0.000982,-0.000928,-0.003936,-0.031907,-0.512125,0.028226,-1.285297,-262.406118,0.97822,71.454716
1.9078,-0.046054,-0.002203,0.027802,0.000982,-0.000928,-0.003936,-0.032415,-0.512301,0.026857,-1.284977,-262.404721,0.978402,71.455422
1.9284,-0.04596,-0.00208,0.025827,0.000981,-0.000916,-0.003936,-0.032187,-0.512184,0.027228,-1.284977,-262.404721,0.978402,71.455422
1.9481,-0.045988,-0.002091,0.027145,0.000981,-0.000912,-0.003936,-0.032758,-0.511939,0.025702,-1.284187,-262.403332,0.983845,71.456131
1.968,-0.045773,-0.002323,0.028432,0.000982,-0.000916,-0.003936,-0.032197,-0.511908,0.027017,-1.284187,-262.403332,0.983845,71.456131
1.9882,-0.045912,-0.0022,0.026609,0.000983,-0.000921,-0.003936,-0.032197,-0.511908,0.027017,-1.284187,-262.403332,0.983845,71.456131
2.0084,-0.045843,-0.002665,0.027241,0.000983,-0.000921,-0.003936,-0.032301,-0.512056,0.026445,-1.283129,-262.40195,0.989359,71.456844
2.0284,-0.045706,-0.002324,0.027313,0.000982,-0.000907,-0.003937,-0.032153,-0.512233,0.026752,-1.283129,-262.40195,0.989359,71.456844
2.0484,-0.045408,-0.002428,0.02635,0.000981,-0.000902,-0.003937,-0.031746,-0.512162,0.027188,-1.283359,-262.400565,0.985676,71.457555
2.0679,-0.045626,-0.002307,0.026295,0.000981,-0.000896,-0.003937,-0.03195,-0.512245,0.026418,-1.283359,-262.400565,0.985676,71.457555
2.0882,-0.045883,-0.00228,0.026758,0.000981,-0.000892,-0.003938,-0.03195,-0.512245,0.026418,-1.283359,-262.400565,0.985676,71.457555
2.1081,-0.045493,-0.00212,0.026368,0.000981,-0.000892,-0.003938,-0.032196,-0.512134,0.026593,-1.282318,-262.399185,0.992391,71.458274
2.1284,-0.045468,-0.002332,0.024945,0.000982,-0.000896,-0.003937,-0.032129,-0.512059,0.026481,-1.282318,-262.399185,0.992391,71.458274
2.1476,-0.045259,-0.002547,0.026967,0.000982,-0.000898,-0.003937,-0.032716,-0.512201,0.024819,-1.28168,-262.397809,0.995803,71.458995
2.1679,-0.045489,-0.002157,0.025584,0.000981,-0.000889,-0.003938,-0.03161,-0.512349,0.026775,-1.28168,-262.397809,0.995803,71.458995
2.1881,-0.045405,-0.002466,0.026037,0.00098,-0.000882,-0.003938,-0.03161,-0.512349,0.026775,-1.28168,-262.397809,0.995803,71.458995
2.2081,-0.045228,-0.002578,0.025896,0.00098,-0.000882,-0.003938,-0.032086,-0.512329,0.025872,-1.28174,-262.396433,0.993025,71.459713
2.2287,-0.044842,-0.002253,0.026132,0.00098,-0.00087,-0.003938,-0.032055,-0.512365,0.025863,-1.28174,-262.396433,0.993025,71.459713
2.2485,-0.045133,-0.002483,0.025476,0.000979,-0.000866,-0.003938,-0.031485,-0.512106,0.026006,-1.280944,-262.39506,0.998821,71.460438
2.2687,-0.045052,-0.002423,0.024174,0.000979,-0.000864,-0.003938,-0.03208,-0.5123,0.025518,-1.280944,-262.39506,0.998821,71.460438
2.288,-0.044897,-0.002408,0.02709,0.00098,-0.000862,-0.003938,-0.03208,-0.5123,0.025518,-1.280944,-262.39506,0.998821,71.460438
2.3085,-0.04492,-0.002214,0.024848,0.00098,-0.000862,-0.003938,-0.031041,-0.512256,0.026925,-1.279882,-262.393697,1.004298,71.461167
2.3283,-0.044943,-0.002443,0.025518,0.00098,-0.000865,-0.003938,-0.031526,-0.512179,0.026065,-1.279882,-262.393697,1.004298,71.461167
2.3483,-0.044437,-0.002828,0.024665,0.000981,-0.000866,-0.003938,-0.031899,-0.512304,0.025392,-1.279486,-262.392331,1.005238,71.461899
2.3682,-0.044674,-0.002503,0.023627,0.000979,-0.000852,-0.003938,-0.031861,-0.51264,0.024726,-1.279486,-262.392331,1.005238,71.461899
2.3883,-0.044937,-0.002956,0.026763,0.000978,-0.00084,-0.003939,-0.031861,-0.51264,0.024726,-1.279486,-262.392331,1.005238,71.461899
2.4084,-0.045015,-0.002595,0.024225,0.000978,-0.00084,-0.003939,-0.031247,-0.512808,0.026597,-1.279514,-262.390964,1.003227,71.462629
2.4282,-0.044381,-0.002758,0.02664,0.000976,-0.000821,-0.003939,-0.031813,-0.512666,0.025621,-1.279514,-262.390964,1.003227,71.462629
2.4485,-0.044945,-0.003154,0.024844,0.000976,-0.000814,-0.003939,-0.030765,-0.512603,0.026515,-1.278208,-262.389611,1.012671,71.463366
2.468,-0.0448,-0.002758,0.025427,0.000974,-0.000799,-0.003939,-0.032142,-0.512964,0.024984,-1.278208,-262.389611,1.012671,71.463366
2.4881,-0.044444,-0.002784,0.02397,0.000973,-0.000786,-0.003939,-0.032142,-0.512964,0.024984,-1.278208,-262.389611,1.012671,71.463366
2.5077,-0.044684,-0.002842,0.023658,0.000973,-0.000786,-0.003939,-0.032179,-0.51267,0.023806,-1.276583,-262.388261,1.020918,71.464115
2.528,-0.044506,-0.00263,0.02467,0.000974,-0.000781,-0.003938,-0.03236,-0.512686,0.023724,-1.276583,-262.388261,1.020918,71.464115
2.5479,-0.044335,-0.002707,0.025163,0.000974,-0.000779,-0.003938,-0.031895,-0.512499,0.024546,-1.274949,-262.386936,1.029989,71.464865
2.5681,-0.044047,-0.002732,0.025134,0.000975,-0.000782,-0.003937,-0.031537,-0.512543,0.0251,-1.274949,-262.386936,1.029989,71.464865
2.588,-0.044264,-0.002669,0.02461,0.000976,-0.000784,-0.003937,-0.031537,-0.512543,0.0251,-1.274949,-262.386936,1.029989,71.464865
2.6081,-0.044461,-0.003249,0.02525,0.000976,-0.000784,-0.003937,-0.031673,-0.512546,0.024446,-1.273944,-262.385603,1.030979,71.465624
2.6281,-0.044119,-0.002739,0.023975,0.000975,-0.000773,-0.003937,-0.031632,-0.512772,0.024757,-1.273944,-262.385603,1.030979,71.465624
2.648,-0.043903,-0.002794,0.024922,0.000974,-0.000769,-0.003937,-0.031861,-0.512617,0.02385,-1.273863,-262.38427,1.02895,71.46638
2.668,-0.043718,-0.002833,0.024165,0.000975,-0.000769,-0.003937,-0.031253,-0.512636,0.024817,-1.273863,-262.38427,1.02895,71.46638
2.6881,-0.043373,-0.002884,0.026229,0.000975,-0.000769,-0.003937,-0.031253,-0.512636,0.024817,-1.273863,-262.38427,1.02895,71.46638
2.7082,-0.043642,-0.00271,0.023626,0.000975,-0.000769,-0.003937,-0.029956,-0.512739,0.026064,-1.272889,-262.382936,1.033599,71.467145
2.7281,-0.043881,-0.003392,0.024193,0.000975,-0.000764,-0.003937,-0.030637,-0.512671,0.025024,-1.272889,-262.382936,1.033599,71.467145
2.7481,-0.043915,-0.002665,0.025344,0.000974,-0.000762,-0.003937,-0.031513,-0.513267,0.024069,-1.272705,-262.381615,1.033253,71.467903
2.768,-0.04335,-0.0031,0.023311,0.000975,-0.000765,-0.003937,-0.031037,-0.512573,0.02522,-1.272705,-262.381615,1.033253,71.467903
2.7882,-0.043502,-0.002896,0.024707,0.000976,-0.000768,-0.003936,-0.031037,-0.512573,0.02522,-1.272705,-262.381615,1.033253,71.467903
2.8081,-0.04354,-0.002963,0.024291,0.000976,-0.000768,-0.003936,-0.030861,-0.512771,0.024542,-1.272247,-262.38029,1.035273,71.468667
2.8281,-0.043286,-0.002692,0.023039,0.000974,-0.000756,-0.003937,-0.030975,-0.512792,0.024421,-1.272247,-262.38029,1.035273,71.468667
2.8477,-0.043232,-0.003191,0.025499,0.000974,-0.000752,-0.003937,-0.031505,-0.51258,0.022913,-1.272383,-262.378963,1.033208,71.469429
2.8678,-0.04311,-0.002641,0.022589,0.000972,-0.000741,-0.003937,-0.030345,-0.512986,0.025254,-1.272383,-262.378963,1.033208,71.469429
2.888,-0.043413,-0.003021,0.0224,0.000971,-0.000731,-0.003937,-0.030345,-0.512986,0.025254,-1.272383,-262.378963,1.033208,71.469429
2.908,-0.043029,-0.002982,0.023742,0.000971,-0.000731,-0.003937,-0.031948,-0.512924,0.022235,-1.271564,-262.377641,1.038354,71.470196
2.9282,-0.043077,-0.003276,0.024889,0.000971,-0.000725,-0.003937,-0.031525,-0.512892,0.022831,-1.271564,-262.377641,1.038354,71.470196
2.9481,-0.042889,-0.003279,0.023039,0.000971,-0.000722,-0.003937,-0.030353,-0.513141,0.024763,-1.27054,-262.37633,1.045041,71.470969
2.9686,-0.04308,-0.002906,0.02198,0.000969,-0.000711,-0.003937,-0.031068,-0.513145,0.023189,-1.27054,-262.37633,1.045041,71.470969
2.9881,-0.042895,-0.003161,0.023202,0.000968,-0.000701,-0.003937,-0.031068,-0.513145,0.023189,-1.27054,-262.37633,1.045041,71.470969
3.008,-0.042997,-0.002816,0.024278,0.000968,-0.000701,-0.003937,-0.031022,-0.513053,0.023037,-1.26968,-262.375017,1.047305,71.471748
3.0278,-0.042702,-0.00294,0.023086,0.000969,-0.000701,-0.003936,-0.030849,-0.512896,0.023532,-1.26968,-262.375017,1.047305,71.471748
3.048,-0.043067,-0.003328,0.023441,0.00097,-0.000701,-0.003936,-0.030898,-0.512826,0.022961,-1.268523,-262.37372,1.053851,71.472529
3.0683,-0.04279,-0.002975,0.023462,0.000969,-0.000693,-0.003936,-0.031092,-0.513156,0.023391,-1.268523,-262.37372,1.053851,71.472529
3.0885,-0.042457,-0.00315,0.022765,0.000968,-0.000686,-0.003937,-0.031092,-0.513156,0.023391,-1.268523,-262.37372,1.053851,71.472529
3.1084,-0.042288,-0.003397,0.023141,0.000968,-0.000686,-0.003937,-0.030807,-0.513047,0.0226,-1.268081,-262.372419,1.053191,71.473313
3.1285,-0.042233,-0.002724,0.022722,0.000967,-0.000673,-0.003936,-0.030672,-0.513137,0.022801,-1.268081,-262.372419,1.053191,71.473313
3.1482,-0.042447,-0.003475,0.021942,0.000966,-0.000668,-0.003936,-0.030614,-0.512613,0.022597,-1.267212,-262.371124,1.057709,71.474102
3.1681,-0.042524,-0.002956,0.022327,0.000966,-0.00066,-0.003936,-0.031198,-0.513287,0.021995,-1.267212,-262.371124,1.057709,71.474102
3.1879,-0.042365,-0.003248,0.02421,0.000965,-0.000653,-0.003936,-0.031198,-0.513287,0.021995,-1.267212,-262.371124,1.057709,71.474102
3.2083,-0.042527,-0.003105,0.021015,0.000965,-0.000653,-0.003936,-0.029978,-0.513125,0.024045,-1.266044,-262.369838,1.062784,71.474895
3.2282,-0.042323,-0.003135,0.021891,0.000966,-0.000654,-0.003936,-0.030716,-0.513074,0.022799,-1.266044,-262.369838,1.062784,71.474895
3.2481,-0.042103,-0.003313,0.022836,0.000966,-0.000655,-0.003935,-0.031128,-0.513033,0.021765,-1.265078,-262.368555,1.067051,71.475695
3.2682,-0.042168,-0.003248,0.021274,0.000966,-0.000651,-0.003935,-0.030517,-0.513168,0.022732,-1.265078,-262.368555,1.067051,71.475695
3.288,-0.042103,-0.00363,0.021874,0.000966,-0.000648,-0.003935,-0.030517,-0.513168,0.022732,-1.265078,-262.368555,1.067051,71.475695
3.3083,-0.041975,-0.003366,0.021523,0.000966,-0.000648,-0.003935,-0.030907,-0.513535,0.021709,-1.264724,-262.367269,1.065931,71.476496
3.3282,-0.041983,-0.003199,0.02197,0.000963,-0.000629,-0.003935,-0.03094,-0.51342,0.021614,-1.264724,-262.367269,1.065931,71.476496
3.348,-0.041988,-0.003279,0.021641,0.000962,-0.000621,-0.003935,-0.030748,-0.513096,0.021845,-1.264273,-262.365991,1.067768,71.477296
3.3682,-0.041983,-0.003329,0.020592,0.000963,-0.000624,-0.003935,-0.030932,-0.513154,0.021653,-1.264273,-262.365991,1.067768,71.477296
3.3884,-0.041919,-0.002949,0.022797,0.000964,-0.000626,-0.003935,-0.030932,-0.513154,0.021653,-1.264273,-262.365991,1.067768,71.477296
3.4082,-0.041818,-0.003507,0.02018,0.000964,-0.000626,-0.003935,-0.030253,-0.512842,0.022632,-1.262768,-262.364723,1.075674,71.478105
3.4281,-0.041434,-0.00335,0.021279,0.000966,-0.000634,-0.003934,-0.030763,-0.513072,0.021623,-1.262768,-262.364723,1.075674,71.478105
3.4477,-0.041414,-0.003401,0.019628,0.000966,-0.000636,-0.003934,-0.030551,-0.513254,0.021153,-1.262676,-262.363451,1.073665,71.478914
3.4684,-0.041596,-0.003096,0.02051,0.000965,-0.000631,-0.003933,-0.031326,-0.513299,0.019759,-1.262676,-262.363451,1.073665,71.478914
3.488,-0.041486,-0.003417,0.022039,0.000965,-0.000627,-0.003932,-0.031326,-0.513299,0.019759,-1.262676,-262.363451,1.073665,71.478914
3.5081,-0.041496,-0.003646,0.020084,0.000965,-0.000627,-0.003932,-0.030206,-0.513319,0.021874,-1.262935,-262.362176,1.070219,71.479719
3.5283,-0.041328,-0.003289,0.019655,0.000963,-0.000611,-0.003933,-0.030628,-0.513413,0.021126,-1.262935,-262.362176,1.070219,71.479719
3.5481,-0.041062,-0.003325,0.020154,0.000962,-0.000605,-0.003933,-0.031273,-0.51321,0.019529,-1.262295,-262.360905,1.072768,71.480527
3.5682,-0.041309,-0.003179,0.021027,0.000962,-0.000606,-0.003932,-0.030826,-0.513222,0.020092,-1.262295,-262.360905,1.072768,71.480527
3.5882,-0.041131,-0.003474,0.019677,0.000963,-0.000607,-0.003932,-0.030826,-0.513222,0.020092,-1.262295,-262.360905,1.072768,71.480527
3.6083,-0.041113,-0.003273,0.021543,0.000963,-0.000607,-0.003932,-0.031056,-0.513399,0.019512,-1.261255,-262.359643,1.079427,71.481342
3.6282,-0.041003,-0.003473,0.020329,0.000962,-0.000603,-0.003931,-0.030673,-0.513303,0.02032,-1.261255,-262.359643,1.079427,71.481342
3.6485,-0.040732,-0.003238,0.019413,0.000962,-0.000601,-0.003931,-0.030604,-0.513386,0.020204,-1.26107,-262.358378,1.078346,71.482157
3.6683,-0.040835,-0.003359,0.022275,0.000963,-0.000604,-0.00393,-0.03081,-0.513164,0.019478,-1.26107,-262.358378,1.078346,71.482157
3.6882,-0.040987,-0.00379,0.020932,0.000964,-0.000607,-0.003928,-0.03081,-0.513164,0.019478,-1.26107,-262.358378,1.078346,71.482157
3.708,-0.040914,-0.003081,0.019875,0.000964,-0.000607,-0.003928,-0.030271,-0.513702,0.020768,-1.260622,-262.357117,1.079878,71.482973
3.7282,-0.040581,-0.003028,0.020353,0.000962,-0.000595,-0.00393,-0.030474,-0.513409,0.020383,-1.260622,-262.357117,1.079878,71.482973
3.7477,-0.040207,-0.00359,0.018762,0.000961,-0.00059,-0.00393,-0.030171,-0.512941,0.020228,-1.260554,-262.355856,1.077514,71.483786
3.7677,-0.041064,-0.003559,0.018735,0.00096,-0.000584,-0.003928,-0.030596,-0.513451,0.018887,-1.260554,-262.355856,1.077514,71.483786
3.7877,-0.040706,-0.0036,0.019653,0.00096,-0.000579,-0.003926,-0.030596,-0.513451,0.018887,-1.260554,-262.355856,1.077514,71.483786
3.808,-0.04028,-0.003581,0.018232,0.00096,-0.000579,-0.003926,-0.030643,-0.513525,0.019489,-1.25985,-262.3546,1.082752,71.484606
3.8278,-0.040349,-0.003616,0.019452,0.000959,-0.000569,-0.003923,-0.030776,-0.513516,0.018959,-1.25985,-262.3546,1.082752,71.484606
3.848,-0.040422,-0.003469,0.019557,0.000959,-0.000565,-0.003922,-0.030398,-0.513537,0.019327,-1.258853,-262.35335,1.085055,71.485428
3.8681,-0.040271,-0.003495,0.020119,0.000959,-0.000565,-0.003922,-0.030442,-0.513388,0.01953,-1.258853,-262.35335,1.085055,71.485428
3.888,-0.04031,-0.003907,0.018906,0.000959,-0.000565,-0.003922,-0.030442,-0.513388,0.01953,-1.258853,-262.35335,1.085055,71.485428
3.9081,-0.04065,-0.003736,0.019553,0.000959,-0.000565,-0.003922,-0.030628,-0.513839,0.018741,-1.257582,-262.352105,1.088231,71.486255
3.9282,-0.040595,-0.00367,0.019529,0.000956,-0.000543,-0.003921,-0.030644,-0.51376,0.019052,-1.257582,-262.352105,1.088231,71.486255
3.9477,-0.040152,-0.003887,0.020015,0.000955,-0.000535,-0.003921,-0.030605,-0.51359,0.019404,-1.257447,-262.35086,1.08791,71.487081
3.968,-0.039741,-0.00373,0.020044,0.000954,-0.000526,-0.003922,-0.030003,-0.513768,0.019954,-1.257447,-262.35086,1.08791,71.487081
3.9884,-0.040083,-0.003696,0.018643,0.000953,-0.000518,-0.003923,-0.030003,-0.513768,0.019954,-1.257447,-262.35086,1.08791,71.487081
4.0082,-0.039951,-0.003638,0.01892,0.000953,-0.000518,-0.003923,-0.030535,-0.513629,0.018479,-1.255677,-262.349629,1.096317,71.487916
4.0283,-0.040081,-0.003697,0.018962,0.000954,-0.000518,-0.003919,-0.030437,-0.513598,0.018638,-1.255677,-262.349629,1.096317,71.487916
4.048,-0.03953,-0.003919,0.017821,0.000955,-0.000519,-0.003918,-0.03038,-0.513621,0.018837,-1.254867,-262.348403,1.101333,71.488758
4.068,-0.039806,-0.003945,0.018658,0.000954,-0.000511,-0.003915,-0.030434,-0.513819,0.017907,-1.254867,-262.348403,1.101333,71.488758
4.0884,-0.040087,-0.00359,0.018829,0.000954,-0.000504,-0.003913,-0.030434,-0.513819,0.017907,-1.254867,-262.348403,1.101333,71.488758
4.1082,-0.039537,-0.003681,0.017436,0.000954,-0.000504,-0.003913,-0.030444,-0.513521,0.018665,-1.253919,-262.347176,1.099676,71.489601
4.1282,-0.039702,-0.00378,0.018232,0.000956,-0.000511,-0.003911,-0.030522,-0.513557,0.018142,-1.253919,-262.347176,1.099676,71.489601
4.1482,-0.039415,-0.003853,0.017913,0.000957,-0.000513,-0.00391,-0.030373,-0.513711,0.018108,-1.252524,-262.345957,1.102723,71.490446
4.1681,-0.039479,-0.003593,0.01782,0.000956,-0.000507,-0.003909,-0.030287,-0.513767,0.017923,-1.252524,-262.345957,1.102723,71.490446
4.1882,-0.039495,-0.003943,0.017136,0.000956,-0.000502,-0.003908,-0.030287,-0.513767,0.017923,-1.252524,-262.345957,1.102723,71.490446
4.2081,-0.039348,-0.003892,0.018615,0.000956,-0.000502,-0.003908,-0.030716,-0.513889,0.016973,-1.252208,-262.344737,1.098774,71.491286
4.2285,-0.03919,-0.00391,0.017251,0.000954,-0.000489,-0.003905,-0.030363,-0.513857,0.017619,-1.252208,-262.344737,1.098774,71.491286
4.2476,-0.03913,-0.004444,0.017441,0.000954,-0.000484,-0.003904,-0.030361,-0.51385,0.017126,-1.251367,-262.34352,1.101494,71.492131
4.2685,-0.039471,-0.003776,0.018546,0.000951,-0.000464,-0.003903,-0.030246,-0.514321,0.017406,-1.251367,-262.34352,1.101494,71.492131
4.2885,-0.039251,-0.003753,0.018975,0.000948,-0.000447,-0.003902,-0.030246,-0.514321,0.017406,-1.251367,-262.34352,1.101494,71.492131
4.3083,-0.038868,-0.003742,0.016611,0.000948,-0.000447,-0.003902,-0.029534,-0.513681,0.018812,-1.249723,-262.342309,1.10545,71.492983
4.3284,-0.038828,-0.003704,0.016832,0.000952,-0.000458,-0.003901,-0.029885,-0.513679,0.017887,-1.249723,-262.342309,1.10545,71.492983
4.348,-0.038772,-0.004033,0.016363,0.000953,-0.000463,-0.003901,-0.030214,-0.513645,0.016708,-1.247511,-262.341118,1.115474,71.493844
4.368,-0.038553,-0.003857,0.017967,0.000953,-0.000458,-0.003894,-0.030407,-0.513937,0.016387,-1.247511,-262.341118,1.115474,71.493844
4.3884,-0.038759,-0.003975,0.017853,0.000954,-0.000454,-0.003888,-0.030407,-0.513937,0.016387,-1.247511,-262.341118,1.115474,71.493844
4.4078,-0.038394,-0.003668,0.016418,0.000954,-0.000454,-0.003888,-0.029614,-0.513912,0.017689,-1.247639,-262.339919,1.110137,71.4947
4.4282,-0.038505,-0.003767,0.017915,0.000955,-0.000455,-0.003888,-0.029775,-0.513787,0.017154,-1.247639,-262.339919,1.110137,71.4947
4.4478,-0.038676,-0.004113,0.015845,0.000955,-0.000455,-0.003888,-0.029338,-0.513699,0.017791,-1.245648,-262.338725,1.109793,71.495557
4.4685,-0.038688,-0.003824,0.01641,0.000955,-0.000449,-0.003879,-0.03048,-0.514018,0.016015,-1.245648,-262.338725,1.109793,71.495557
4.4883,-0.03825,-0.003888,0.016864,0.000955,-0.000444,-0.003873,-0.03048,-0.514018,0.016015,-1.245648,-262.338725,1.109793,71.495557
4.508,-0.038208,-0.004074,0.016443,0.000955,-0.000444,-0.003873,-0.02961,-0.513834,0.016701,-1.245265,-262.33753,1.109134,71.496416
4.5285,-0.038087,-0.003828,0.018658,0.000955,-0.000438,-0.003871,-0.029692,-0.513906,0.016577,-1.245265,-262.33753,1.109134,71.496416
4.5484,-0.038435,-0.004045,0.015906,0.000954,-0.000435,-0.003871,-0.028541,-0.513753,0.018535,-1.243138,-262.336344,1.109652,71.497273
4.5683,-0.037889,-0.003675,0.017639,0.000955,-0.000433,-0.003867,-0.030159,-0.51396,0.016139,-1.243138,-262.336344,1.109652,71.497273
4.5883,-0.038038,-0.003907,0.016791,0.000955,-0.000431,-0.003863,-0.030159,-0.51396,0.016139,-1.243138,-262.336344,1.109652,71.497273
4.6083,-0.038023,-0.004212,0.016847,0.000955,-0.000431,-0.003863,-0.029435,-0.513853,0.016629,-1.242195,-262.335159,1.111238,71.498135
4.6284,-0.037987,-0.003688,0.015697,0.000954,-0.000423,-0.003866,-0.029429,-0.513973,0.0167,-1.242195,-262.335159,1.111238,71.498135
4.6482,-0.037705,-0.003987,0.018517,0.000953,-0.00042,-0.003867,-0.029951,-0.513638,0.015575,-1.241077,-262.333981,1.110928,71.498994
4.6685,-0.037825,-0.004227,0.015136,0.000952,-0.000417,-0.003874,-0.028413,-0.513877,0.018246,-1.241077,-262.333981,1.110928,71.498994
4.6882,-0.038361,-0.003983,0.017667,0.000951,-0.000414,-0.00388,-0.028413,-0.513877,0.018246,-1.241077,-262.333981,1.110928,71.498994
4.7077,-0.03764,-0.004214,0.016205,0.000951,-0.000414,-0.00388,-0.029311,-0.51392,0.017505,-1.240665,-262.332806,1.114631,71.499859
4.7281,-0.03767,-0.004176,0.01542,0.00095,-0.000408,-0.003879,-0.029333,-0.514014,0.01696,-1.240665,-262.332806,1.114631,71.499859
4.7476,-0.037356,-0.003756,0.016804,0.00095,-0.000406,-0.003879,-0.029775,-0.514128,0.015297,-1.241744,-262.331629,1.118257,71.500729
4.7679,-0.037539,-0.003913,0.016696,0.000951,-0.000412,-0.003877,-0.028874,-0.513725,0.016662,-1.241744,-262.331629,1.118257,71.500729
4.7876,-0.037935,-0.004233,0.017946,0.000953,-0.000416,-0.003875,-0.028874,-0.513725,0.016662,-1.241744,-262.331629,1.118257,71.500729
4.8077,-0.037612,-0.003425,0.014831,0.000953,-0.000416,-0.003875,-0.028743,-0.514167,0.017784,-1.241021,-262.330455,1.120247,71.501602
4.8279,-0.037553,-0.00454,0.01422,0.000954,-0.000419,-0.003871,-0.029277,-0.51384,0.016548,-1.241021,-262.330455,1.120247,71.501602
4.8479,-0.037232,-0.003968,0.015155,0.000954,-0.00042,-0.00387,-0.03027,-0.514501,0.014097,-1.240975,-262.329278,1.116411,71.502471
4.8681,-0.037389,-0.003839,0.016219,0.000955,-0.000416,-0.003852,-0.029566,-0.513959,0.01506,-1.240975,-262.329278,1.116411,71.502471
4.888,-0.037194,-0.003939,0.015932,0.000955,-0.000412,-0.003837,-0.029566,-0.513959,0.01506,-1.240975,-262.329278,1.116411,71.502471
4.908,-0.036914,-0.003845,0.014603,0.000955,-0.000412,-0.003837,-0.029029,-0.513892,0.01577,-1.240548,-262.328103,1.114319,71.503335
4.9283,-0.037499,-0.003697,0.01632,0.000956,-0.00041,-0.003822,-0.029203,-0.513853,0.015277,-1.240548,-262.328103,1.114319,71.503335
4.9485,-0.036972,-0.004071,0.015136,0.000957,-0.00041,-0.003816,-0.029146,-0.513642,0.016198,-1.237039,-262.326937,1.111559,71.504197
4.968,-0.037136,-0.004038,0.014555,0.000956,-0.000405,-0.003811,-0.029242,-0.513979,0.015228,-1.237039,-262.326937,1.111559,71.504197
4.9883,-0.03728,-0.004149,0.014851,0.000956,-0.000401,-0.003807,-0.029242,-0.513979,0.015228,-1.237039,-262.326937,1.111559,71.504197
5.0079,-0.036969,-0.003904,0.015668,0.000956,-0.000401,-0.003807,-0.029667,-0.514109,0.014691,-1.234917,-262.325774,1.108688,71.505057
5.0281,-0.037185,-0.004151,0.013425,0.000956,-0.000394,-0.003797,-0.029378,-0.514001,0.015075,-1.234917,-262.325774,1.108688,71.505057
5.0481,-0.0373,-0.00376,0.014933,0.000956,-0.000391,-0.003793,-0.030308,-0.514117,0.013304,-1.233549,-262.32462,1.109736,71.505915
5.0682,-0.0368,-0.004079,0.015324,0.000958,-0.000399,-0.003785,-0.029739,-0.513741,0.014781,-1.233549,-262.32462,1.109736,71.505915
5.0884,-0.036847,-0.004125,0.013756,0.00096,-0.000405,-0.003778,-0.029739,-0.513741,0.014781,-1.233549,-262.32462,1.109736,71.505915
5.1081,-0.036856,-0.003907,0.016761,0.00096,-0.000405,-0.003778,-0.029792,-0.514093,0.013597,-1.23146,-262.323472,1.110036,71.506775
5.128,-0.036676,-0.003945,0.016747,0.000959,-0.000395,-0.003771,-0.029186,-0.51399,0.014862,-1.23146,-262.323472,1.110036,71.506775
5.148,-0.036453,-0.004168,0.014779,0.000958,-0.000391,-0.003769,-0.028104,-0.513885,0.016627,-1.230507,-262.32232,1.103255,71.507627
5.1678,-0.036403,-0.003961,0.014421,0.000957,-0.000382,-0.003768,-0.028845,-0.514093,0.014931,-1.230507,-262.32232,1.103255,71.507627
5.1879,-0.036559,-0.004077,0.014339,0.000956,-0.000375,-0.003768,-0.028845,-0.514093,0.014931,-1.230507,-262.32232,1.103255,71.507627
5.2078,-0.036799,-0.003995,0.014213,0.000956,-0.000375,-0.003768,-0.029206,-0.51404,0.014182,-1.228846,-262.321178,1.106006,71.508482
5.2281,-0.036134,-0.004343,0.013872,0.000958,-0.000371,-0.003737,-0.029343,-0.514003,0.014176,-1.228846,-262.321178,1.106006,71.508482
5.2479,-0.035932,-0.004257,0.013836,0.000959,-0.000369,-0.003726,-0.029029,-0.514306,0.013752,-1.227839,-262.320041,1.110213,71.509342
5.2681,-0.036227,-0.003816,0.01316,0.000958,-0.000357,-0.003707,-0.028888,-0.514218,0.013822,-1.227839,-262.320041,1.110213,71.509342
5.2879,-0.036181,-0.00454,0.012754,0.000957,-0.000347,-0.003692,-0.028888,-0.514218,0.013822,-1.227839,-262.320041,1.110213,71.509342
5.3078,-0.036418,-0.004428,0.013366,0.000957,-0.000347,-0.003692,-0.029636,-0.514514,0.012598,-1.223022,-262.318918,1.104823,71.510194
5.3279,-0.036029,-0.004207,0.015497,0.000955,-0.000318,-0.003602,-0.029617,-0.514462,0.012893,-1.223022,-262.318918,1.104823,71.510194
5.3479,-0.035605,-0.004105,0.01302,0.000955,-0.000307,-0.003572,-0.028096,-0.514156,0.015379,-1.218347,-262.317809,1.105886,71.511048
5.3679,-0.035772,-0.004031,0.012595,0.000956,-0.000308,-0.003562,-0.028886,-0.514071,0.013224,-1.218347,-262.317809,1.105886,71.511048
5.388,-0.036197,-0.004188,0.013345,0.000958,-0.000309,-0.003555,-0.028886,-0.514071,0.013224,-1.218347,-262.317809,1.105886,71.511048
5.4082,-0.036064,-0.004327,0.01466,0.000958,-0.000309,-0.003555,-0.029351,-0.514155,0.013196,-1.204418,-262.316746,1.099782,71.511887
5.4284,-0.035305,-0.003996,0.013163,0.000957,-0.000307,-0.003582,-0.029031,-0.514205,0.013784,-1.204418,-262.316746,1.099782,71.511887
5.448,-0.035727,-0.004202,0.013171,0.000957,-0.000306,-0.003592,-0.028561,-0.513961,0.013051,-1.202385,-262.315684,1.095713,71.512723
5.468,-0.035954,-0.004174,0.014165,0.000958,-0.000305,-0.003574,-0.028969,-0.514141,0.013154,-1.202385,-262.315684,1.095713,71.512723
5.4877,-0.03581,-0.004663,0.012983,0.000959,-0.000304,-0.003561,-0.028969,-0.514141,0.013154,-1.202385,-262.315684,1.095713,71.512723
5.5082,-0.035409,-0.004286,0.014044,0.000959,-0.000304,-0.003561,-0.029148,-0.514632,0.012833,-1.204914,-262.314614,1.101443,71.513569
5.5282,-0.035762,-0.004115,0.012248,0.000955,-0.00028,-0.003555,-0.028775,-0.514471,0.013312,-1.204914,-262.314614,1.101443,71.513569
5.548,-0.035181,-0.004329,0.013984,0.000954,-0.000272,-0.003552,-0.029485,-0.514087,0.012134,-1.201684,-262.313552,1.09712,71.51441
5.5682,-0.035183,-0.004352,0.013874,0.000953,-0.00027,-0.003568,-0.028176,-0.514262,0.013813,-1.201684,-262.313552,1.09712,71.51441
5.5885,-0.035547,-0.00425,0.012804,0.000953,-0.000268,-0.00358,-0.028176,-0.514262,0.013813,-1.201684,-262.313552,1.09712,71.51441
5.6078,-0.035186,-0.004089,0.012781,0.000953,-0.000268,-0.00358,-0.028978,-0.514219,0.012655,-1.198398,-262.312503,1.105235,71.515259
5.6278,-0.034737,-0.004567,0.012585,0.000957,-0.000274,-0.003512,-0.028846,-0.51415,0.01269,-1.198398,-262.312503,1.105235,71.515259
5.6481,-0.035173,-0.004287,0.011816,0.000958,-0.000276,-0.003489,-0.028288,-0.514535,0.012471,-1.200546,-262.31145,1.109761,71.516116
5.6679,-0.035004,-0.003937,0.013631,0.000959,-0.000271,-0.003422,-0.029072,-0.514276,0.011866,-1.200546,-262.31145,1.109761,71.516116
5.688,-0.035314,-0.004291,0.011762,0.000959,-0.000267,-0.003372,-0.029072,-0.514276,0.011866,-1.200546,-262.31145,1.109761,71.516116
5.708,-0.034533,-0.004373,0.014027,0.000959,-0.000267,-0.003372,-0.029276,-0.514267,0.011617,-1.191975,-262.31042,1.094045,71.516946
5.7277,-0.034909,-0.004324,0.012324,0.000958,-0.000259,-0.003377,-0.028494,-0.514291,0.012588,-1.191975,-262.31042,1.094045,71.516946
5.7479,-0.034484,-0.004075,0.011949,0.000957,-0.000256,-0.003379,-0.028593,-0.514293,0.012218,-1.17974,-262.309419,1.079271,71.517755
5.7677,-0.034677,-0.004327,0.0121,0.000959,-0.00026,-0.003344,-0.028406,-0.51406,0.011967,-1.17974,-262.309419,1.079271,71.517755
5.7884,-0.034902,-0.00451,0.013231,0.000961,-0.000262,-0.003317,-0.028406,-0.51406,0.011967,-1.17974,-262.309419,1.079271,71.517755
5.8078,-0.034699,-0.004336,0.013857,0.000961,-0.000262,-0.003317,-0.028114,-0.514476,0.013088,-1.179418,-262.308417,1.083612,71.518571
5.8281,-0.034815,-0.004784,0.013873,0.000955,-0.000246,-0.003406,-0.02792,-0.514403,0.013376,-1.179418,-262.308417,1.083612,71.518571
5.8482,-0.034725,-0.004197,0.010962,0.000953,-0.000241,-0.003436,-0.027709,-0.514742,0.013768,-1.173358,-262.307426,1.072128,71.519373
5.8682,-0.034136,-0.004567,0.012017,0.000956,-0.00024,-0.003333,-0.029005,-0.514219,0.011209,-1.173358,-262.307426,1.072128,71.519373
5.888,-0.034777,-0.00449,0.012852,0.000959,-0.00024,-0.003254,-0.029005,-0.514219,0.011209,-1.173358,-262.307426,1.072128,71.519373
5.9077,-0.034502,-0.004225,0.011903,0.000959,-0.00024,-0.003254,-0.028184,-0.514458,0.012709,-1.183812,-262.306428,1.096756,71.520198
5.9278,-0.03447,-0.004034,0.012288,0.000957,-0.000232,-0.003283,-0.02828,-0.51435,0.012366,-1.183812,-262.306428,1.096756,71.520198
5.9477,-0.034276,-0.00451,0.011032,0.000956,-0.00023,-0.003293,-0.028174,-0.514002,0.012186,-1.164382,-262.305474,1.069139,71.520982
5.9681,-0.034458,-0.00432,0.011767,0.000957,-0.000221,-0.003218,-0.028607,-0.514438,0.011127,-1.164382,-262.305474,1.069139,71.520982
5.988,-0.034622,-0.00428,0.012899,0.000957,-0.000213,-0.00316,-0.028607,-0.514438,0.011127,-1.164382,-262.305474,1.069139,71.520982
6.0081,-0.03402,-0.004402,0.012935,0.000957,-0.000213,-0.00316,-0.028003,-0.514247,0.012761,-1.167436,-262.304501,1.078198,71.52179
6.0278,-0.034069,-0.004245,0.01073,0.000955,-0.000214,-0.003265,-0.027763,-0.514294,0.012816,-1.167436,-262.304501,1.078198,71.52179
6.0476,-0.033745,-0.004366,0.010978,0.000954,-0.000215,-0.003301,-0.028566,-0.514222,0.010631,-1.150917,-262.303569,1.062443,71.52257
6.0683,-0.033807,-0.004407,0.011856,0.000956,-0.000209,-0.003208,-0.028181,-0.514325,0.010944,-1.150917,-262.303569,1.062443,71.52257
6.0882,-0.033974,-0.004668,0.012028,0.000957,-0.000204,-0.003137,-0.028181,-0.514325,0.010944,-1.150917,-262.303569,1.062443,71.52257
6.1082,-0.034234,-0.004381,0.011032,0.000957,-0.000204,-0.003137,-0.027801,-0.51464,0.011892,-1.166536,-262.30261,1.083535,71.523376
6.1283,-0.034206,-0.004553,0.009911,0.000954,-0.000188,-0.00312,-0.028128,-0.514522,0.011523,-1.166536,-262.30261,1.083535,71.523376
6.1482,-0.033366,-0.004287,0.012919,0.000953,-0.000182,-0.003114,-0.029121,-0.514534,0.009813,-1.146917,-262.301694,1.061059,71.524149
6.1682,-0.033914,-0.00432,0.010111,0.000952,-0.000184,-0.003173,-0.026984,-0.51427,0.012639,-1.146917,-262.301694,1.061059,71.524149
6.1879,-0.033611,-0.004366,0.010851,0.000952,-0.000185,-0.003219,-0.026984,-0.51427,0.012639,-1.146917,-262.301694,1.061059,71.524149
6.2083,-0.033841,-0.004652,0.011219,0.000952,-0.000185,-0.003219,-0.028038,-0.514343,0.010721,-1.141801,-262.300778,1.06454,71.524934
6.2281,-0.034118,-0.004473,0.010285,0.000953,-0.000173,-0.003083,-0.028066,-0.514457,0.010909,-1.141801,-262.300778,1.06454,71.524934
6.2476,-0.033457,-0.004281,0.010824,0.000954,-0.000169,-0.003038,-0.028843,-0.514451,0.010183,-1.154256,-262.299841,1.079938,71.525738
6.2679,-0.033837,-0.004706,0.010063,0.000956,-0.000171,-0.002992,-0.028014,-0.514268,0.010764,-1.154256,-262.299841,1.079938,71.525738
6.2877,-0.033614,-0.004117,0.009796,0.000958,-0.000173,-0.002958,-0.028014,-0.514268,0.010764,-1.154256,-262.299841,1.079938,71.525738
6.3078,-0.033629,-0.004441,0.011461,0.000958,-0.000173,-0.002958,-0.028579,-0.514099,0.009671,-1.130408,-262.298964,1.056028,71.526498
6.3281,-0.033502,-0.004744,0.009979,0.000962,-0.000177,-0.002852,-0.02825,-0.514226,0.010387,-1.130408,-262.298964,1.056028,71.526498
6.3478,-0.033754,-0.004925,0.010453,0.000963,-0.000179,-0.002819,-0.028382,-0.514724,0.009885,-1.120035,-262.298089,1.040441,71.527251
6.368,-0.033177,-0.00461,0.009757,0.000959,-0.000158,-0.002796,-0.028418,-0.514882,0.010396,-1.120035,-262.298089,1.040441,71.527251
6.3883,-0.033109,-0.004639,0.010534,0.000955,-0.00014,-0.002778,-0.028418,-0.514882,0.010396,-1.120035,-262.298089,1.040441,71.527251
6.4076,-0.032961,-0.004525,0.010696,0.000955,-0.00014,-0.002778,-0.027697,-0.514618,0.010418,-1.101799,-262.297251,1.01267,71.527966
6.428,-0.033257,-0.00458,0.009918,0.000953,-0.000126,-0.002774,-0.027615,-0.514569,0.010518,-1.101799,-262.297251,1.01267,71.527966
6.4479,-0.03276,-0.004345,0.010324,0.000953,-0.00012,-0.002773,-0.028169,-0.514559,0.009829,-1.091204,-262.296424,1.020457,71.528696
6.4677,-0.033396,-0.004758,0.009737,0.000954,-0.000123,-0.002749,-0.027551,-0.514339,0.010277,-1.091204,-262.296424,1.020457,71.528696
6.4877,-0.033017,-0.004339,0.012576,0.000956,-0.000125,-0.002731,-0.027551,-0.514339,0.010277,-1.091204,-262.296424,1.020457,71.528696
6.5078,-0.032983,-0.004584,0.009567,0.000956,-0.000125,-0.002731,-0.026564,-0.514303,0.01246,-1.087132,-262.295607,1.026224,71.52943
6.528,-0.032744,-0.004737,0.009461,0.000954,-0.000128,-0.002848,-0.027184,-0.514408,0.011274,-1.087132,-262.295607,1.026224,71.52943
6.548,-0.032534,-0.0041,0.008966,0.000953,-0.000129,-0.002887,-0.027889,-0.514718,0.009374,-1.08107,-262.294795,1.016219,71.530155
6.568,-0.033083,-0.004104,0.010338,0.000962,-0.000137,-0.002682,-0.027953,-0.514134,0.008997,-1.08107,-262.294795,1.016219,71.530155
6.5883,-0.032792,-0.00473,0.010071,0.000969,-0.000142,-0.002534,-0.027953,-0.514134,0.008997,-1.08107,-262.294795,1.016219,71.530155
6.6079,-0.03257,-0.004395,0.009147,0.000969,-0.000142,-0.002534,-0.027617,-0.514709,0.009952,-1.10413,-262.293964,1.04274,71.530897
6.6279,-0.032767,-0.004519,0.010642,0.000965,-0.000122,-0.002477,-0.027731,-0.514571,0.009606,-1.10413,-262.293964,1.04274,71.530897
6.6481,-0.032852,-0.004425,0.011505,0.000963,-0.000114,-0.002459,-0.027313,-0.514494,0.010572,-1.050162,-262.293285,0.967749,71.531492
6.6682,-0.032607,-0.004751,0.008985,0.000961,-0.000117,-0.002598,-0.027011,-0.5144,0.011423,-1.050162,-262.293285,0.967749,71.531492
6.6879,-0.032464,-0.004819,0.011377,0.000958,-0.00012,-0.002704,-0.027011,-0.5144,0.011423,-1.050162,-262.293285,0.967749,71.531492
6.7079,-0.03283,-0.004434,0.007745,0.000958,-0.00012,-0.002704,-0.026621,-0.514791,0.011275,-1.033161,-262.292538,0.964181,71.532163
6.7281,-0.032585,-0.004279,0.008324,0.000956,-0.000101,-0.002611,-0.027535,-0.51464,0.009829,-1.033161,-262.292538,0.964181,71.532163
6.7481,-0.031878,-0.004274,0.009547,0.000955,-9.3e-05,-0.002581,-0.028312,-0.514265,0.008243,-1.074764,-262.291782,1.011635,71.532841
6.7683,-0.032437,-0.004391,0.008147,0.000959,-9.8e-05,-0.002513,-0.027125,-0.514252,0.009425,-1.074764,-262.291782,1.011635,71.532841
6.7882,-0.032536,-0.004467,0.009453,0.000961,-0.000102,-0.002462,-0.027125,-0.514252,0.009425,-1.074764,-262.291782,1.011635,71.532841
6.8081,-0.032244,-0.004442,0.011279,0.000961,-0.000102,-0.002462,-0.027676,-0.514447,0.009346,-1.05117,-262.291021,0.998503,71.533539
6.8284,-0.032283,-0.004348,0.010556,0.000959,-0.0001,-0.002523,-0.027189,-0.514433,0.010121,-1.05117,-262.291021,0.998503,71.533539
6.8482,-0.032191,-0.004056,0.009883,0.000959,-0.0001,-0.002543,-0.026869,-0.514323,0.010479,-1.031415,-262.290287,0.969837,71.534205
6.8683,-0.032235,-0.004044,0.007717,0.000961,-0.000112,-0.002537,-0.027125,-0.514058,0.009932,-1.031415,-262.290287,0.969837,71.534205
6.8883,-0.032322,-0.004269,0.00931,0.000964,-0.000123,-0.002534,-0.027125,-0.514058,0.009932,-1.031415,-262.290287,0.969837,71.534205
6.9081,-0.032097,-0.004414,0.009078,0.000964,-0.000123,-0.002534,-0.027534,-0.51425,0.009204,-1.045182,-262.289528,0.987705,71.534897
6.9282,-0.031925,-0.004561,0.009105,0.000968,-0.00012,-0.002374,-0.027502,-0.514309,0.00914,-1.045182,-262.289528,0.987705,71.534897
6.9481,-0.032286,-0.004877,0.009302,0.00097,-0.000119,-0.002325,-0.027251,-0.514543,0.009024,-1.0475,-262.288759,0.976129,71.535583
6.9681,-0.031593,-0.00412,0.008002,0.000965,-9.9e-05,-0.002305,-0.027515,-0.514828,0.009274,-1.0475,-262.288759,0.976129,71.535583
6.9882,-0.03214,-0.004417,0.008646,0.000962,-8.3e-05,-0.002291,-0.027515,-0.514828,0.009274,-1.0475,-262.288759,0.976129,71.535583
7.0078,-0.031871,-0.004933,0.0085,0.000962,-8.3e-05,-0.002291,-0.027692,-0.514402,0.008554,-1.008577,-262.288071,0.930282,71.536197
7.0279,-0.03163,-0.004731,0.009043,0.000969,-7.1e-05,-0.002098,-0.027623,-0.514615,0.008521,-1.008577,-262.288071,0.930282,71.536197
7.0477,-0.031944,-0.004738,0.007144,0.000971,-6.6e-05,-0.00204,-0.026988,-0.514712,0.00897,-0.995025,-262.287369,0.93958,71.536844
7.0678,-0.031708,-0.004109,0.009041,0.000982,-6e-05,-0.001788,-0.028182,-0.514724,0.007304,-0.995025,-262.287369,0.93958,71.536844
7.0882,-0.032211,-0.004134,0.009156,0.000991,-5.4e-05,-0.001609,-0.028182,-0.514724,0.007304,-0.995025,-262.287369,0.93958,71.536844
7.1077,-0.03144,-0.004374,0.0091,0.000991,-5.4e-05,-0.001609,-0.027505,-0.514114,0.009079,-0.933758,-262.286785,0.881994,71.537391
7.1283,-0.031605,-0.004635,0.007724,0.000987,-7.5e-05,-0.001853,-0.027212,-0.514212,0.009079,-0.933758,-262.286785,0.881994,71.537391
7.1484,-0.031527,-0.004215,0.009227,0.000985,-8.3e-05,-0.001932,-0.027649,-0.51462,0.007692,-0.858673,-262.286445,0.806908,71.537713
7.1684,-0.031539,-0.004427,0.007918,0.000984,-8.6e-05,-0.001987,-0.026913,-0.514241,0.009052,-0.858673,-262.286445,0.806908,71.537713
7.1882,-0.031783,-0.004448,0.007964,0.000982,-8.9e-05,-0.002028,-0.026913,-0.514241,0.009052,-0.858673,-262.286445,0.806908,71.537713
7.2082,-0.031205,-0.004567,0.009434,0.000982,-8.9e-05,-0.002028,-0.027683,-0.514435,0.007887,-0.908148,-262.28584,0.838953,71.53827
7.2285,-0.031295,-0.004294,0.007863,0.000982,-7.8e-05,-0.001956,-0.027156,-0.514479,0.008505,-0.908148,-262.28584,0.838953,71.53827
7.2479,-0.031348,-0.004191,0.007722,0.000982,-7.4e-05,-0.001934,-0.027254,-0.514281,0.007799,-0.933904,-262.285192,0.863549,71.538864
7.2684,-0.031211,-0.004665,0.008058,0.000991,-8.2e-05,-0.001792,-0.027394,-0.514185,0.007726,-0.933904,-262.285192,0.863549,71.538864
7.2886,-0.031114,-0.00444,0.007879,0.000998,-8.8e-05,-0.00169,-0.027394,-0.514185,0.007726,-0.933904,-262.285192,0.863549,71.538864
7.3082,-0.031609,-0.004888,0.009526,0.000998,-8.8e-05,-0.00169,-0.027055,-0.514427,0.007799,-0.906661,-262.284565,0.845069,71.539446
7.3278,-0.03151,-0.004341,0.008507,0.000989,-6.6e-05,-0.001765,-0.02693,-0.514601,0.008476,-0.906661,-262.284565,0.845069,71.539446
7.3479,-0.03104,-0.004348,0.010472,0.000986,-5.7e-05,-0.001788,-0.027146,-0.514325,0.008462,-0.843031,-262.284068,0.770057,71.5399
7.3684,-0.031246,-0.004476,0.00606,0.00098,-6.1e-05,-0.001993,-0.025828,-0.514321,0.010288,-0.843031,-262.284068,0.770057,71.5399
7.3885,-0.031451,-0.004795,0.007702,0.000975,-6.4e-05,-0.002149,-0.025828,-0.514321,0.010288,-0.843031,-262.284068,0.770057,71.5399
7.408,-0.031033,-0.00467,0.007625,0.000975,-6.4e-05,-0.002149,-0.027483,-0.514782,0.007629,-0.861722,-262.28348,0.809532,71.540456
7.4281,-0.031092,-0.004515,0.00772,0.000988,-4.4e-05,-0.001761,-0.02734,-0.514731,0.007619,-0.861722,-262.28348,0.809532,71.540456
7.4477,-0.030783,-0.004333,0.008711,0.000992,-3.6e-05,-0.001644,-0.027132,-0.514501,0.00767,-0.936877,-262.282977,0.884687,71.540928
7.4681,-0.030759,-0.004458,0.008409,0.00099,-4e-05,-0.001711,-0.026413,-0.514331,0.008612,-0.936877,-262.282977,0.884687,71.540928
7.4877,-0.03105,-0.004362,0.005621,0.000988,-4.3e-05,-0.00176,-0.026413,-0.514331,0.008612,-0.936877,-262.282977,0.884687,71.540928
7.5078,-0.031073,-0.00462,0.007215,0.000988,-4.3e-05,-0.00176,-0.028159,-0.514355,0.005575,-0.862034,-262.282614,0.809844,71.541278
7.5278,-0.031196,-0.004682,0.008601,0.001017,-4.5e-05,-0.001078,-0.027845,-0.514458,0.006236,-0.862034,-262.282614,0.809844,71.541278
7.548,-0.030746,-0.004844,0.007837,0.001027,-4.5e-05,-0.00088,-0.026778,-0.514664,0.008545,-0.847224,-262.28202,0.806904,71.541847
7.5684,-0.03065,-0.004663,0.006654,0.001017,-3e-05,-0.001049,-0.02675,-0.514813,0.007898,-0.847224,-262.28202,0.806904,71.541847
7.5883,-0.030829,-0.004415,0.0076,0.00101,-1.8e-05,-0.001175,-0.02675,-0.514813,0.007898,-0.847224,-262.28202,0.806904,71.541847
7.608,-0.030311,-0.004551,0.007439,0.00101,-1.8e-05,-0.001175,-0.026952,-0.5144,0.007599,-0.772219,-262.28201,0.731899,71.541856
7.6281,-0.030326,-0.004467,0.007082,0.00101,-2.2e-05,-0.001231,-0.026772,-0.514456,0.007533,-0.772219,-262.28201,0.731899,71.541856
7.6477,-0.0309,-0.004764,0.006192,0.001011,-2.4e-05,-0.001249,-0.026697,-0.514454,0.007059,-0.697111,-262.281731,0.656791,71.54213
7.6681,-0.030615,-0.004925,0.007155,0.001019,-1.7e-05,-0.001013,-0.027647,-0.514727,0.006269,-0.697111,-262.281731,0.656791,71.54213
7.6883,-0.030842,-0.004655,0.009562,0.001026,-1.2e-05,-0.000845,-0.027647,-0.514727,0.006269,-0.697111,-262.281731,0.656791,71.54213
7.7084,-0.030723,-0.004469,0.008032,0.001026,-1.2e-05,-0.000845,-0.025925,-0.514632,0.009511,-0.661561,-262.281235,0.631057,71.542616
7.7283,-0.030643,-0.003903,0.006758,0.001005,-1.1e-05,-0.00137,-0.026202,-0.51456,0.00891,-0.661561,-262.281235,0.631057,71.542616
7.7477,-0.0305,-0.004835,0.006817,0.000997,-1e-05,-0.001539,-0.027185,-0.513892,0.006747,-0.58657,-262.281073,0.556067,71.542776
7.7683,-0.030756,-0.004468,0.008444,0.001005,-3e-06,-0.001329,-0.027038,-0.514739,0.00681,-0.58657,-262.281073,0.556067,71.542776
7.7883,-0.030313,-0.004383,0.007389,0.001011,2e-06,-0.001179,-0.027038,-0.514739,0.00681,-0.58657,-262.281073,0.556067,71.542776
7.8079,-0.030445,-0.0045,0.008227,0.001011,2e-06,-0.001179,-0.026529,-0.51437,0.00737,-0.661616,-262.28089,0.631113,71.542957
7.8277,-0.031007,-0.0044,0.009091,0.001009,-8e-06,-0.001272,-0.026414,-0.514415,0.007715,-0.661616,-262.28089,0.631113,71.542957
7.848,-0.030692,-0.004595,0.008661,0.001008,-1.2e-05,-0.0013,-0.026339,-0.514378,0.009054,-0.61749,-262.28041,0.620528,71.543438
7.868,-0.030401,-0.004235,0.008623,0.001,-1.1e-05,-0.001456,-0.02628,-0.514558,0.008695,-0.61749,-262.28041,0.620528,71.543438
7.8881,-0.030705,-0.004255,0.008335,0.000994,-1e-05,-0.001571,-0.02628,-0.514558,0.008695,-0.61749,-262.28041,0.620528,71.543438
7.9079,-0.030459,-0.004427,0.005496,0.000994,-1e-05,-0.001571,-0.026415,-0.514237,0.008285,-0.674667,-262.279933,0.659972,71.54391
7.9278,-0.030666,-0.004569,0.006543,0.00101,-2.8e-05,-0.001271,-0.026918,-0.514312,0.007139,-0.674667,-262.279933,0.659972,71.54391
7.9476,-0.030554,-0.00438,0.007816,0.001015,-3.6e-05,-0.001179,-0.027306,-0.514559,0.006507,-0.749716,-262.27953,0.735021,71.544308
7.9677,-0.03037,-0.004631,0.008483,0.001013,-3.8e-05,-0.001209,-0.026631,-0.514381,0.007701,-0.749716,-262.27953,0.735021,71.544308
7.9877,-0.030744,-0.004593,0.007825,0.001012,-4e-05,-0.001229,-0.026631,-0.514381,0.007701,-0.749716,-262.27953,0.735021,71.544308
8.0085,-0.030426,-0.004474,0.005874,0.001012,-4e-05,-0.001229,-0.026729,-0.514578,0.007793,-0.674647,-262.279228,0.659952,71.544601
8.0279,-0.030147,-0.004181,0.006648,0.001018,-3.5e-05,-0.001042,-0.027015,-0.514531,0.007,-0.674647,-262.279228,0.659952,71.544601
8.0477,-0.030624,-0.004336,0.008412,0.00102,-3.4e-05,-0.000986,-0.026725,-0.514171,0.00661,-0.663528,-262.278734,0.612278,71.545076
8.0681,-0.030451,-0.004533,0.007107,0.001014,-3.9e-05,-0.001143,-0.026368,-0.514305,0.008247,-0.663528,-262.278734,0.612278,71.545076
8.0885,-0.030208,-0.004188,0.006052,0.001009,-4.4e-05,-0.001259,-0.026368,-0.514305,0.008247,-0.663528,-262.278734,0.612278,71.545076
8.1082,-0.030538,-0.004502,0.00779,0.001009,-4.4e-05,-0.001259,-0.027093,-0.51418,0.006021,-0.588629,-262.278396,0.537379,71.545404
8.1282,-0.029991,-0.004713,0.00827,0.001024,-5.1e-05,-0.000965,-0.026874,-0.514305,0.00674,-0.588629,-262.278396,0.537379,71.545404
8.1476,-0.030026,-0.004559,0.009085,0.001029,-5.3e-05,-0.000879,-0.025748,-0.514696,0.008239,-0.663758,-262.277992,0.612508,71.545793
8.168,-0.030467,-0.004907,0.006964,0.001014,-4.3e-05,-0.001149,-0.025424,-0.514552,0.009006,-0.663758,-262.277992,0.612508,71.545793
8.188,-0.030311,-0.004305,0.005629,0.001003,-3.3e-05,-0.001351,-0.025424,-0.514552,0.009006,-0.663758,-262.277992,0.612508,71.545793
8.2079,-0.030398,-0.004778,0.007705,0.001003,-3.3e-05,-0.001351,-0.027422,-0.514297,0.00561,-0.588887,-262.27778,0.537637,71.545995
8.2287,-0.030312,-0.004419,0.005341,0.001022,-3.1e-05,-0.000908,-0.027035,-0.514486,0.006455,-0.588887,-262.27778,0.537637,71.545995
8.2483,-0.029873,-0.004497,0.007141,0.001028,-3.1e-05,-0.000778,-0.027567,-0.514413,0.005317,-0.663872,-262.277461,0.612622,71.546305
8.2683,-0.03022,-0.004494,0.00848,0.001028,-2.8e-05,-0.000791,-0.026354,-0.514477,0.006971,-0.663872,-262.277461,0.612622,71.546305
8.2883,-0.030236,-0.004543,0.007869,0.001027,-2.6e-05,-0.000801,-0.026354,-0.514477,0.006971,-0.663872,-262.277461,0.612622,71.546305
8.3078,-0.030013,-0.004373,0.007809,0.001027,-2.6e-05,-0.000801,-0.026212,-0.514527,0.007859,-0.588862,-262.277343,0.537611,71.54642
8.3279,-0.030191,-0.004468,0.007059,0.001015,-2.4e-05,-0.001061,-0.026136,-0.514458,0.007837,-0.588862,-262.277343,0.537611,71.54642
8.348,-0.02999,-0.004774,0.00714,0.001011,-2.3e-05,-0.001142,-0.02657,-0.514456,0.007042,-0.513769,-262.277051,0.462518,71.546706
8.3682,-0.030056,-0.004578,0.006396,0.001011,-1.1e-05,-0.001083,-0.026365,-0.514736,0.007132,-0.513769,-262.277051,0.462518,71.546706
8.3878,-0.030171,-0.004761,0.008096,0.001011,-2e-06,-0.001041,-0.026365,-0.514736,0.007132,-0.513769,-262.277051,0.462518,71.546706
8.4078,-0.030136,-0.004776,0.006574,0.001011,-2e-06,-0.001041,-0.026014,-0.514745,0.008067,-0.588916,-262.27673,0.537666,71.54702
8.428,-0.030136,-0.004528,0.006768,0.001006,1.3e-05,-0.001084,-0.026327,-0.514753,0.00745,-0.588916,-262.27673,0.537666,71.54702
8.448,-0.029693,-0.004505,0.005472,0.001004,1.8e-05,-0.001096,-0.026653,-0.514517,0.006735,-0.563096,-262.276261,0.559809,71.547489
8.4686,-0.030065,-0.004713,0.007338,0.001019,1.5e-05,-0.000717,-0.026878,-0.514499,0.005585,-0.563096,-262.276261,0.559809,71.547489
8.488,-0.029495,-0.004408,0.008414,0.001031,1.3e-05,-0.000454,-0.026878,-0.514499,0.005585,-0.563096,-262.276261,0.559809,71.547489
8.5078,-0.029687,-0.004339,0.006287,0.001031,1.3e-05,-0.000454,-0.025163,-0.514388,0.00837,-0.575609,-262.275796,0.600744,71.547961
8.5278,-0.029921,-0.004528,0.00668,0.001021,3e-06,-0.000796,-0.025693,-0.514364,0.007518,-0.575609,-262.275796,0.600744,71.547961
8.548,-0.029913,-0.004817,0.007595,0.001017,-1e-06,-0.000902,-0.026513,-0.514517,0.006679,-0.500681,-262.275783,0.525816,71.547975
8.5681,-0.029735,-0.004663,0.005353,0.001011,1e-05,-0.00098,-0.026081,-0.514778,0.007514,-0.500681,-262.275783,0.525816,71.547975
8.5883,-0.029692,-0.004477,0.006177,0.001007,1.9e-05,-0.001036,-0.026081,-0.514778,0.007514,-0.500681,-262.275783,0.525816,71.547975
8.6078,-0.029535,-0.004705,0.005814,0.001007,1.9e-05,-0.001036,-0.0265,-0.514467,0.00614,-0.497041,-262.275327,0.496059,71.54843
8.6279,-0.029814,-0.004618,0.005947,0.001026,1.9e-05,-0.000597,-0.026523,-0.51456,0.006004,-0.497041,-262.275327,0.496059,71.54843
8.6481,-0.029797,-0.004614,0.007403,0.001033,1.9e-05,-0.00047,-0.026753,-0.514609,0.005919,-0.547156,-262.274916,0.570969,71.548848
8.6682,-0.029907,-0.004819,0.007492,0.001027,2e-05,-0.000626,-0.026086,-0.514601,0.007268,-0.547156,-262.274916,0.570969,71.548848
8.6882,-0.029776,-0.004565,0.006199,0.001023,2.1e-05,-0.000741,-0.026086,-0.514601,0.007268,-0.547156,-262.274916,0.570969,71.548848
8.7081,-0.030031,-0.00438,0.007953,0.001023,2.1e-05,-0.000741,-0.026612,-0.514555,0.006197,-0.472151,-262.274887,0.495964,71.548877
8.7278,-0.030014,-0.004446,0.007479,0.001025,1e-05,-0.000776,-0.026351,-0.514477,0.006916,-0.472151,-262.274887,0.495964,71.548877
8.748,-0.02954,-0.004508,0.006591,0.001026,7e-06,-0.000787,-0.026172,-0.514431,0.007459,-0.399531,-262.274504,0.433289,71.549266
8.7681,-0.029455,-0.00464,0.006337,0.001028,6e-06,-0.000746,-0.026176,-0.514491,0.006668,-0.399531,-262.274504,0.433289,71.549266
8.7883,-0.029673,-0.004489,0.007635,0.00103,5e-06,-0.000717,-0.026176,-0.514491,0.006668,-0.399531,-262.274504,0.433289,71.549266
8.8077,-0.029629,-0.004235,0.006912,0.00103,5e-06,-0.000717,-0.025737,-0.514474,0.007603,-0.432662,-262.274061,0.44329,71.549711
8.8281,-0.029387,-0.00444,0.006673,0.001024,-3e-06,-0.000885,-0.025882,-0.514371,0.007317,-0.432662,-262.274061,0.44329,71.549711
8.8476,-0.029571,-0.004407,0.007027,0.001022,-6e-06,-0.000936,-0.025952,-0.514428,0.006651,-0.397634,-262.273632,0.406661,71.550142
8.8681,-0.029805,-0.00461,0.004005,0.001023,-8e-06,-0.000914,-0.025983,-0.514397,0.006992,-0.397634,-262.273632,0.406661,71.550142
8.8878,-0.029716,-0.004512,0.005949,0.001024,-9e-06,-0.000898,-0.025983,-0.514397,0.006992,-0.397634,-262.273632,0.406661,71.550142
8.9077,-0.029573,-0.00478,0.007131,0.001024,-9e-06,-0.000898,-0.026652,-0.514503,0.005924,-0.472576,-262.27331,0.481603,71.550463
8.9279,-0.029581,-0.004527,0.007651,0.001031,2e-06,-0.000681,-0.026358,-0.51461,0.006411,-0.472576,-262.27331,0.481603,71.550463
8.9481,-0.029303,-0.004405,0.007933,0.001033,7e-06,-0.000617,-0.025647,-0.514512,0.007623,-0.498918,-262.272848,0.484876,71.550921
8.9681,-0.028961,-0.004644,0.006547,0.001024,6e-06,-0.000829,-0.025292,-0.514401,0.007903,-0.498918,-262.272848,0.484876,71.550921
8.9881,-0.029211,-0.004589,0.006853,0.001016,5e-06,-0.000984,-0.025292,-0.514401,0.007903,-0.498918,-262.272848,0.484876,71.550921
9.0081,-0.029337,-0.004317,0.006635,0.001016,5e-06,-0.000984,-0.025695,-0.514577,0.006837,-0.423924,-262.27262,0.409882,71.55115
9.0278,-0.02945,-0.004435,0.007558,0.001023,7e-06,-0.000843,-0.025798,-0.514466,0.006753,-0.423924,-262.27262,0.409882,71.55115
9.0488,-0.029332,-0.004487,0.007402,0.001025,7e-06,-0.0008,-0.025574,-0.51442,0.00754,-0.498985,-262.272318,0.484943,71.551453
9.0682,-0.029258,-0.004168,0.005644,0.00102,8e-06,-0.000889,-0.025557,-0.514469,0.007414,-0.498985,-262.272318,0.484943,71.551453
9.088,-0.029196,-0.004748,0.006824,0.001017,9e-06,-0.000953,-0.025557,-0.514469,0.007414,-0.498985,-262.272318,0.484943,71.551453
9.1081,-0.02924,-0.004634,0.007293,0.001017,9e-06,-0.000953,-0.025676,-0.514736,0.006793,-0.439165,-262.271898,0.451023,71.551875
9.1281,-0.029272,-0.004539,0.006488,0.001015,2.7e-05,-0.000906,-0.025608,-0.514689,0.006994,-0.439165,-262.271898,0.451023,71.551875
9.1479,-0.029281,-0.003866,0.007701,0.001014,3.3e-05,-0.000892,-0.025936,-0.514528,0.006462,-0.513177,-262.271508,0.526071,71.552268
9.1684,-0.029138,-0.004341,0.007086,0.001015,8e-06,-0.000981,-0.025404,-0.513912,0.007588,-0.513177,-262.271508,0.526071,71.552268
9.1883,-0.029079,-0.004525,0.006829,0.001017,-1.3e-05,-0.001047,-0.025404,-0.513912,0.007588,-0.513177,-262.271508,0.526071,71.552268
9.2077,-0.028794,-0.004445,0.005376,0.001017,-1.3e-05,-0.001047,-0.025555,-0.514511,0.006793,-0.467191,-262.27107,0.518219,71.552719
9.2279,-0.029472,-0.004331,0.005244,0.001029,-0.0,-0.000679,-0.025753,-0.514481,0.006212,-0.467191,-262.27107,0.518219,71.552719
9.248,-0.02925,-0.004466,0.007977,0.001033,4e-06,-0.000572,-0.02677,-0.514324,0.005217,-0.542192,-262.27067,0.552212,71.553115
9.268,-0.029192,-0.004578,0.00525,0.001024,5e-06,-0.00077,-0.025324,-0.514439,0.007727,-0.542192,-262.27067,0.552212,71.553115
9.2882,-0.029032,-0.004656,0.005492,0.001017,6e-06,-0.000916,-0.025324,-0.514439,0.007727,-0.542192,-262.27067,0.552212,71.553115
9.308,-0.028879,-0.00438,0.007069,0.001017,6e-06,-0.000916,-0.026223,-0.514648,0.005485,-0.467197,-262.270579,0.477217,71.553205
9.3286,-0.029197,-0.004854,0.004112,0.00103,1.6e-05,-0.000587,-0.025835,-0.514534,0.00613,-0.467197,-262.270579,0.477217,71.553205
9.3482,-0.029096,-0.00471,0.006197,0.001034,1.9e-05,-0.000491,-0.027068,-0.51485,0.004084,-0.497903,-262.27013,0.507415,71.553657
9.3679,-0.028914,-0.004656,0.006542,0.001037,2.8e-05,-0.000398,-0.026035,-0.514714,0.006005,-0.497903,-262.27013,0.507415,71.553657
9.3878,-0.028589,-0.004588,0.006278,0.001039,3.6e-05,-0.000333,-0.026035,-0.514714,0.006005,-0.497903,-262.27013,0.507415,71.553657
9.4079,-0.028908,-0.004492,0.007814,0.001039,3.6e-05,-0.000333,-0.025379,-0.514578,0.006271,-0.422905,-262.270041,0.432417,71.553747
9.4281,-0.029004,-0.004655,0.007953,0.001029,4e-05,-0.000563,-0.025194,-0.514537,0.006893,-0.422905,-262.270041,0.432417,71.553747
9.4481,-0.028613,-0.004545,0.005614,0.001026,4.2e-05,-0.000633,-0.024943,-0.514639,0.00795,-0.347907,-262.269971,0.357419,71.553818
9.4681,-0.029135,-0.004452,0.006115,0.001033,4.4e-05,-0.000461,-0.025677,-0.514546,0.005826,-0.347907,-262.269971,0.357419,71.553818
9.4884,-0.028969,-0.004316,0.005794,0.001038,4.6e-05,-0.000341,-0.025677,-0.514546,0.005826,-0.347907,-262.269971,0.357419,71.553818
9.5079,-0.028754,-0.00473,0.005981,0.001038,4.6e-05,-0.000341,-0.025973,-0.514305,0.005768,-0.323891,-262.269552,0.39504,71.554249
9.528,-0.028738,-0.004456,0.005898,0.001047,4.1e-05,-0.000209,-0.025858,-0.514475,0.005852,-0.323891,-262.269552,0.39504,71.554249
9.548,-0.028507,-0.004393,0.006277,0.00105,3.9e-05,-0.000172,-0.025716,-0.514447,0.005892,-0.248837,-262.269371,0.319986,71.554433
9.5681,-0.028782,-0.004737,0.005727,0.001049,3.6e-05,-0.00023,-0.025342,-0.514389,0.006242,-0.248837,-262.269371,0.319986,71.554433
9.5881,-0.028984,-0.004682,0.007416,0.001048,3.4e-05,-0.000272,-0.025342,-0.514389,0.006242,-0.248837,-262.269371,0.319986,71.554433
9.6081,-0.028971,-0.00467,0.006213,0.001048,3.4e-05,-0.000272,-0.025188,-0.514667,0.007411,-0.173886,-262.269231,0.245035,71.554574
9.6281,-0.028456,-0.004348,0.006354,0.001034,4.6e-05,-0.000549,-0.025438,-0.514664,0.00692,-0.173886,-262.269231,0.245035,71.554574
9.6479,-0.028863,-0.004697,0.006065,0.001029,5e-05,-0.000632,-0.025185,-0.514336,0.006346,-0.125628,-262.268844,0.188614,71.554964
9.6679,-0.02882,-0.004406,0.005954,0.001033,5.4e-05,-0.000524,-0.025715,-0.514655,0.00609,-0.125628,-262.268844,0.188614,71.554964
9.688,-0.028962,-0.004545,0.005762,0.001036,5.7e-05,-0.000447,-0.025715,-0.514655,0.00609,-0.125628,-262.268844,0.188614,71.554964
9.7081,-0.028549,-0.00443,0.005656,0.001036,5.7e-05,-0.000447,-0.026011,-0.514536,0.005758,-0.200511,-262.268727,0.263497,71.555085
9.7282,-0.028884,-0.004715,0.006494,0.001047,5.1e-05,-0.000212,-0.025866,-0.514489,0.005715,-0.200511,-262.268727,0.263497,71.555085
9.7478,-0.028653,-0.004142,0.006671,0.001051,4.9e-05,-0.000145,-0.025541,-0.514702,0.00648,-0.205285,-262.268318,0.308724,71.555505
9.7681,-0.028562,-0.004556,0.006549,0.001048,3.5e-05,-0.000293,-0.025275,-0.514181,0.006653,-0.205285,-262.268318,0.308724,71.555505
9.7882,-0.028768,-0.004716,0.007,0.001046,2.4e-05,-0.000399,-0.025275,-0.514181,0.006653,-0.205285,-262.268318,0.308724,71.555505
9.8079,-0.02883,-0.004806,0.007513,0.001046,2.4e-05,-0.000399,-0.025181,-0.514702,0.006995,-0.130307,-262.268158,0.233746,71.555667
9.8281,-0.02906,-0.004482,0.006149,0.001026,4.8e-05,-0.0007,-0.025106,-0.514739,0.007204,-0.130307,-262.268158,0.233746,71.555667
9.8477,-0.028734,-0.00457,0.007367,0.00102,5.7e-05,-0.00079,-0.025894,-0.514471,0.006138,-0.205315,-262.267771,0.250426,71.556058
9.8679,-0.02882,-0.004615,0.004888,0.001016,5.7e-05,-0.000863,-0.025059,-0.514548,0.007254,-0.205315,-262.267771,0.250426,71.556058
9.888,-0.028623,-0.00437,0.006982,0.001013,5.7e-05,-0.000914,-0.025059,-0.514548,0.007254,-0.205315,-262.267771,0.250426,71.556058
9.9081,-0.028232,-0.004954,0.006241,0.001013,5.7e-05,-0.000914,-0.025052,-0.514358,0.006977,-0.280217,-262.267671,0.325328,71.556162
9.9282,-0.028669,-0.00443,0.006752,0.001017,6.2e-05,-0.00079,-0.02505,-0.514596,0.006677,-0.280217,-262.267671,0.325328,71.556162
9.9481,-0.028527,-0.004417,0.007562,0.001018,6.4e-05,-0.000752,-0.025217,-0.514418,0.006746,-0.355213,-262.267547,0.400323,71.556292
9.968,-0.028433,-0.004275,0.005416,0.001014,5.9e-05,-0.000869,-0.024719,-0.514404,0.007488,-0.355213,-262.267547,0.400323,71.556292
9.9881,-0.028407,-0.00458,0.006119,0.001011,5.5e-05,-0.000953,-0.024719,-0.514404,0.007488,-0.355213,-262.267547,0.400323,71.556292
10.0077,-0.028615,-0.004522,0.007209,0.001011,5.5e-05,-0.000953,-0.025247,-0.514568,0.006091,-0.37019,-262.267149,0.475168,71.556709
10.028,-0.028743,-0.004514,0.006654,0.001019,5.7e-05,-0.000757,-0.025117,-0.514544,0.006543,-0.37019,-262.267149,0.475168,71.556709
10.0481,-0.02835,-0.00462,0.006425,0.001021,5.7e-05,-0.000699,-0.025326,-0.514501,0.006632,-0.445239,-262.266817,0.550217,71.557057
10.0678,-0.028271,-0.00441,0.00621,0.001023,6.1e-05,-0.000637,-0.025095,-0.5146,0.006443,-0.445239,-262.266817,0.550217,71.557057
10.0879,-0.028929,-0.004774,0.006651,0.001025,6.3e-05,-0.000594,-0.025095,-0.5146,0.006443,-0.445239,-262.266817,0.550217,71.557057
10.1082,-0.028518,-0.004494,0.005527,0.001025,6.3e-05,-0.000594,-0.025507,-0.514761,0.006629,-0.370292,-262.266508,0.47527,71.557379
10.1282,-0.028447,-0.004461,0.006469,0.001031,6.6e-05,-0.000447,-0.025582,-0.514648,0.006174,-0.370292,-262.266508,0.47527,71.557379
10.148,-0.028383,-0.004584,0.006332,0.001034,6.8e-05,-0.000405,-0.025122,-0.514448,0.006453,-0.295234,-262.266166,0.400211,71.557734
10.1683,-0.028625,-0.00476,0.0067,0.001034,6.8e-05,-0.000411,-0.025149,-0.514562,0.006342,-0.295234,-262.266166,0.400211,71.557734
10.1879,-0.028409,-0.004734,0.007604,0.001034,6.8e-05,-0.000416,-0.025149,-0.514562,0.006342,-0.295234,-262.266166,0.400211,71.557734
10.2082,-0.028276,-0.004477,0.006739,0.001034,6.8e-05,-0.000416,-0.024503,-0.514717,0.007591,-0.220239,-262.265891,0.325216,71.558018
10.2286,-0.028522,-0.00439,0.005175,0.001019,7.5e-05,-0.000712,-0.024637,-0.514614,0.007241,-0.220239,-262.265891,0.325216,71.558018
10.2478,-0.028533,-0.004429,0.004606,0.001014,7.8e-05,-0.000802,-0.025851,-0.514381,0.005163,-0.178331,-262.265485,0.302102,71.558436
10.2682,-0.028142,-0.004649,0.005247,0.001032,6.7e-05,-0.000281,-0.026152,-0.51442,0.004656,-0.178331,-262.265485,0.302102,71.558436
10.2883,-0.028249,-0.004736,0.006406,0.001046,6e-05,7.5e-05,-0.026152,-0.51442,0.004656,-0.178331,-262.265485,0.302102,71.558436
10.3081,-0.028359,-0.004289,0.005768,0.001046,6e-05,7.5e-05,-0.024971,-0.514724,0.0064,-0.253343,-262.265377,0.377114,71.558551
10.3283,-0.028298,-0.004581,0.006101,0.001043,6.3e-05,-0.000113,-0.025151,-0.514543,0.006142,-0.253343,-262.265377,0.377114,71.558551
10.348,-0.028026,-0.004342,0.005925,0.001042,6.4e-05,-0.00017,-0.025186,-0.514572,0.006101,-0.178342,-262.26537,0.302113,71.558557
10.368,-0.028299,-0.00426,0.006387,0.001045,5.9e-05,-0.000168,-0.025021,-0.514354,0.00594,-0.178342,-262.26537,0.302113,71.558557
10.388,-0.028434,-0.004611,0.006929,0.001047,5.5e-05,-0.000166,-0.025021,-0.514354,0.00594,-0.178342,-262.26537,0.302113,71.558557
10.4081,-0.028095,-0.004633,0.006397,0.001047,5.5e-05,-0.000166,-0.024877,-0.514597,0.006923,-0.103292,-262.265151,0.227063,71.558779
10.4281,-0.028186,-0.004493,0.005315,0.001035,6.5e-05,-0.000432,-0.024856,-0.514607,0.006707,-0.103292,-262.265151,0.227063,71.558779
10.4482,-0.028146,-0.004355,0.005088,0.001031,6.9e-05,-0.000511,-0.025447,-0.514484,0.005311,-0.044282,-262.264791,0.152068,71.559143
10.4684,-0.028125,-0.004572,0.005479,0.001043,6.3e-05,-0.000211,-0.02554,-0.514361,0.005109,-0.044282,-262.264791,0.152068,71.559143
10.4882,-0.028068,-0.004654,0.006304,0.001052,5.9e-05,-2e-06,-0.02554,-0.514361,0.005109,-0.044282,-262.264791,0.152068,71.559143
10.5082,-0.028153,-0.00447,0.005608,0.001052,5.9e-05,-2e-06,-0.02484,-0.514643,0.0063,-0.119336,-262.264667,0.227122,71.559272
10.5283,-0.027978,-0.004615,0.005978,0.001048,6.7e-05,-0.000114,-0.025022,-0.514569,0.006018,-0.119336,-262.264667,0.227122,71.559272
10.5483,-0.028145,-0.004523,0.003816,0.001047,7e-05,-0.000148,-0.024916,-0.514606,0.005976,-0.044438,-262.264504,0.152224,71.559435
10.5682,-0.02807,-0.004337,0.006655,0.00106,6.7e-05,0.000345,-0.026081,-0.514528,0.004013,-0.044438,-262.264504,0.152224,71.559435
10.5882,-0.027911,-0.004311,0.005965,0.001069,6.6e-05,0.000679,-0.026081,-0.514528,0.004013,-0.044438,-262.264504,0.152224,71.559435
10.608,-0.028075,-0.004559,0.008193,0.001069,6.6e-05,0.000679,-0.024825,-0.514299,0.005959,-0.019217,-262.264089,0.152066,71.559855
10.6282,-0.028122,-0.004292,0.006531,0.001044,6.4e-05,-4.9e-05,-0.024437,-0.514398,0.006879,-0.019217,-262.264089,0.152066,71.559855
10.6482,-0.027766,-0.004569,0.008257,0.001037,6.3e-05,-0.000273,-0.024792,-0.514281,0.006531,0.055948,-262.264088,0.076901,71.559855
10.6681,-0.027927,-0.004412,0.005454,0.001022,7e-05,-0.000607,-0.023688,-0.514522,0.008071,0.055948,-262.264088,0.076901,71.559855
10.6881,-0.027893,-0.004629,0.004619,0.00101,7.6e-05,-0.000853,-0.023688,-0.514522,0.008071,0.055948,-262.264088,0.076901,71.559855
10.708,-0.027898,-0.004311,0.006783,0.00101,7.6e-05,-0.000853,-0.025515,-0.514622,0.004616,-0.018882,-262.263883,0.151732,71.560065
10.7279,-0.027906,-0.004481,0.005676,0.001032,7.6e-05,-0.000334,-0.025075,-0.514491,0.005497,-0.018882,-262.263883,0.151732,71.560065
10.7477,-0.027982,-0.004878,0.006727,0.001039,7.6e-05,-0.000183,-0.025011,-0.514473,0.005676,-0.09394,-262.26388,0.226789,71.560068
10.7678,-0.02793,-0.004367,0.004932,0.001031,9e-05,-0.000321,-0.024588,-0.514835,0.006643,-0.09394,-262.26388,0.226789,71.560068
10.7877,-0.028136,-0.004475,0.00624,0.001025,0.000101,-0.00042,-0.024588,-0.514835,0.006643,-0.09394,-262.26388,0.226789,71.560068
10.8081,-0.027499,-0.004366,0.006305,0.001025,0.000101,-0.00042,-0.024914,-0.514462,0.006233,-0.03465,-262.263503,0.178951,71.560451
10.8281,-0.028052,-0.004272,0.007093,0.001031,8.7e-05,-0.000407,-0.024653,-0.514418,0.006261,-0.03465,-262.263503,0.178951,71.560451
10.848,-0.028437,-0.004531,0.005862,0.001033,8.2e-05,-0.000403,-0.024417,-0.514258,0.007088,-0.109366,-262.263277,0.253667,71.560687
10.8679,-0.028081,-0.003781,0.007249,0.001038,7.8e-05,-0.000337,-0.025357,-0.514499,0.005968,-0.109366,-262.263277,0.253667,71.560687
10.8878,-0.027698,-0.004384,0.006456,0.001041,7.4e-05,-0.00029,-0.025357,-0.514499,0.005968,-0.109366,-262.263277,0.253667,71.560687
10.9079,-0.027997,-0.004349,0.006763,0.001041,7.4e-05,-0.00029,-0.024366,-0.51437,0.006441,-0.157029,-262.26289,0.307694,71.561088
10.9281,-0.027822,-0.004226,0.008027,0.001036,6.5e-05,-0.000449,-0.024438,-0.514356,0.006575,-0.157029,-262.26289,0.307694,71.561088
10.9488,-0.028121,-0.004629,0.006274,0.001035,6.2e-05,-0.000496,-0.0237,-0.514208,0.008019,-0.099003,-262.262527,0.236394,71.56146
10.9682,-0.027854,-0.004503,0.005889,0.001034,6.6e-05,-0.000501,-0.024808,-0.514581,0.006433,-0.099003,-262.262527,0.236394,71.56146
10.9879,-0.027528,-0.00468,0.007012,0.001033,7e-05,-0.000504,-0.024808,-0.514581,0.006433,-0.099003,-262.262527,0.236394,71.56146
11.0079,-0.027948,-0.004328,0.006019,0.001033,7e-05,-0.000504,-0.023924,-0.514665,0.007001,-0.173542,-262.262253,0.310934,71.561743
11.028,-0.027649,-0.004262,0.005365,0.001028,7.7e-05,-0.000564,-0.024309,-0.514524,0.0066,-0.173542,-262.262253,0.310934,71.561743
11.0481,-0.027749,-0.00431,0.005288,0.001026,7.9e-05,-0.000581,-0.024882,-0.514252,0.00535,-0.226258,-262.261857,0.35046,71.562153
11.0685,-0.02795,-0.004372,0.005334,0.001038,7.2e-05,-0.000301,-0.025032,-0.514297,0.005294,-0.226258,-262.261857,0.35046,71.562153
11.0879,-0.027951,-0.004484,0.006849,0.001047,6.6e-05,-0.000107,-0.025032,-0.514297,0.005294,-0.226258,-262.261857,0.35046,71.562153
11.108,-0.0277,-0.004043,0.005666,0.001047,6.6e-05,-0.000107,-0.024417,-0.514469,0.006826,-0.262061,-262.261456,0.400056,71.562574
11.128,-0.028049,-0.00443,0.007013,0.001044,5.4e-05,-0.000276,-0.024576,-0.514288,0.006342,-0.262061,-262.261456,0.400056,71.562574
11.1479,-0.027522,-0.004508,0.007571,0.001044,5e-05,-0.000327,-0.02447,-0.514417,0.007011,-0.186813,-262.261416,0.324808,71.562615
11.1678,-0.027823,-0.00451,0.007261,0.00103,5.9e-05,-0.00057,-0.02373,-0.514487,0.007523,-0.186813,-262.261416,0.324808,71.562615
11.1878,-0.027597,-0.004367,0.006705,0.00102,6.6e-05,-0.000747,-0.02373,-0.514487,0.007523,-0.186813,-262.261416,0.324808,71.562615
11.2079,-0.027794,-0.004651,0.006054,0.00102,6.6e-05,-0.000747,-0.02414,-0.514353,0.006693,-0.142111,-262.261058,0.249923,71.562979
11.2281,-0.027866,-0.004355,0.008381,0.001024,7e-05,-0.000627,-0.024366,-0.51447,0.006432,-0.142111,-262.261058,0.249923,71.562979
11.2479,-0.027421,-0.00436,0.006419,0.001026,7.1e-05,-0.00059,-0.023584,-0.514337,0.008378,-0.216976,-262.26097,0.324787,71.563071
11.268,-0.027654,-0.004495,0.006647,0.001026,6.9e-05,-0.000601,-0.024091,-0.514348,0.006614,-0.216976,-262.26097,0.324787,71.563071
11.2878,-0.027674,-0.004304,0.006861,0.001026,6.7e-05,-0.000608,-0.024091,-0.514348,0.006614,-0.216976,-262.26097,0.324787,71.563071
11.3078,-0.0276,-0.004211,0.006191,0.001026,6.7e-05,-0.000608,-0.024137,-0.514289,0.00684,-0.274685,-262.2606,0.398601,71.563458
11.3281,-0.027624,-0.004592,0.006468,0.001029,5.5e-05,-0.000602,-0.024257,-0.514253,0.006574,-0.274685,-262.2606,0.398601,71.563458
11.3477,-0.027433,-0.004441,0.006937,0.00103,5e-05,-0.0006,-0.024292,-0.514579,0.006449,-0.28828,-262.260173,0.403632,71.563902
11.3678,-0.027638,-0.004565,0.006893,0.001026,5.6e-05,-0.00066,-0.023931,-0.514443,0.006891,-0.28828,-262.260173,0.403632,71.563902
11.3879,-0.027321,-0.004418,0.004921,0.001022,6e-05,-0.000702,-0.023931,-0.514443,0.006891,-0.28828,-262.260173,0.403632,71.563902
11.4078,-0.027477,-0.004122,0.00656,0.001022,6e-05,-0.000702,-0.024768,-0.51441,0.004896,-0.298122,-262.259745,0.384055,71.564344
11.428,-0.027527,-0.004639,0.005846,0.001039,5.7e-05,-0.000276,-0.024503,-0.514288,0.005573,-0.298122,-262.259745,0.384055,71.564344
11.4481,-0.027231,-0.004679,0.005941,0.001045,5.5e-05,-0.000154,-0.024517,-0.514628,0.005825,-0.346096,-262.259351,0.446277,71.564754
11.4681,-0.027623,-0.004487,0.005947,0.001042,7.1e-05,-0.00015,-0.024228,-0.514666,0.005929,-0.346096,-262.259351,0.446277,71.564754
11.488,-0.02754,-0.004452,0.006572,0.00104,8.3e-05,-0.000149,-0.024228,-0.514666,0.005929,-0.346096,-262.259351,0.446277,71.564754
11.5082,-0.026938,-0.00455,0.00534,0.00104,8.3e-05,-0.000149,-0.024186,-0.514441,0.00657,-0.271097,-262.259332,0.371279,71.564774
11.5284,-0.027557,-0.004119,0.005856,0.001039,8.8e-05,-0.0002,-0.024198,-0.514482,0.00607,-0.271097,-262.259332,0.371279,71.564774
11.5477,-0.027334,-0.005013,0.006762,0.001039,8.9e-05,-0.000216,-0.024565,-0.51411,0.005854,-0.196092,-262.259264,0.296274,71.564843
11.5684,-0.027187,-0.004588,0.005019,0.001028,0.00011,-0.000351,-0.023947,-0.51492,0.006679,-0.196092,-262.259264,0.296274,71.564843
11.588,-0.027037,-0.004145,0.004937,0.00102,0.000126,-0.000448,-0.023947,-0.51492,0.006679,-0.196092,-262.259264,0.296274,71.564843
11.6082,-0.027512,-0.004517,0.005595,0.00102,0.000126,-0.000448,-0.024493,-0.514137,0.004929,-0.121099,-262.259013,0.22128,71.565099
11.6283,-0.027628,-0.004594,0.006182,0.001042,0.000104,-9e-06,-0.024558,-0.514289,0.0052,-0.121099,-262.259013,0.22128,71.565099
11.6483,-0.027466,-0.004399,0.007232,0.00105,9.6e-05,0.000115,-0.024453,-0.514582,0.006173,-0.143435,-262.258731,0.29628,71.565399
11.6681,-0.027108,-0.004343,0.004875,0.001038,9.4e-05,-0.00019,-0.023836,-0.514403,0.007138,-0.143435,-262.258731,0.29628,71.565399
11.688,-0.027403,-0.004162,0.005233,0.00103,9.2e-05,-0.000413,-0.023836,-0.514403,0.007138,-0.143435,-262.258731,0.29628,71.565399
11.7082,-0.027448,-0.004101,0.00504,0.00103,9.2e-05,-0.000413,-0.024731,-0.514155,0.005233,-0.068363,-262.258701,0.221208,71.565428
11.7282,-0.027368,-0.004135,0.007803,0.001052,6.7e-05,2.2e-05,-0.02479,-0.51413,0.005154,-0.068363,-262.258701,0.221208,71.565428
11.748,-0.027488,-0.004783,0.006703,0.001059,5.7e-05,0.000146,-0.023364,-0.514117,0.007794,-0.143293,-262.258388,0.296138,71.565755
11.7679,-0.027396,-0.004644,0.007619,0.001045,7.4e-05,-0.000117,-0.024003,-0.514711,0.006803,-0.143293,-262.258388,0.296138,71.565755
11.7879,-0.027285,-0.004744,0.007132,0.001034,8.8e-05,-0.000306,-0.024003,-0.514711,0.006803,-0.143293,-262.258388,0.296138,71.565755
11.8081,-0.027196,-0.004183,0.004699,0.001034,8.8e-05,-0.000306,-0.023646,-0.514731,0.007131,-0.068295,-262.258367,0.221139,71.565776
11.828,-0.027102,-0.004529,0.007203,0.001034,9.4e-05,-0.000314,-0.024116,-0.514505,0.006138,-0.068295,-262.258367,0.221139,71.565776
11.8481,-0.027284,-0.004312,0.005982,0.001034,9.6e-05,-0.000315,-0.023397,-0.514513,0.007193,-0.095613,-262.257966,0.259873,71.566189
11.8681,-0.027506,-0.004695,0.004659,0.001037,9e-05,-0.000304,-0.024156,-0.514321,0.00609,-0.095613,-262.257966,0.259873,71.566189
11.8878,-0.027029,-0.004487,0.006031,0.001039,8.5e-05,-0.000296,-0.024156,-0.514321,0.00609,-0.095613,-262.257966,0.259873,71.566189
11.9079,-0.02696,-0.004217,0.007435,0.001039,8.5e-05,-0.000296,-0.02391,-0.514473,0.006018,-0.09257,-262.257551,0.271872,71.566617
11.928,-0.027082,-0.004806,0.005407,0.001032,8.5e-05,-0.000461,-0.023604,-0.514363,0.006591,-0.09257,-262.257551,0.271872,71.566617
11.948,-0.02721,-0.004163,0.006512,0.001029,8.5e-05,-0.000509,-0.024292,-0.514796,0.005397,-0.092046,-262.257137,0.250604,71.567043
11.9682,-0.027227,-0.004543,0.006446,0.001032,7.7e-05,-0.000507,-0.023923,-0.51421,0.006411,-0.092046,-262.257137,0.250604,71.567043
11.9877,-0.027011,-0.003986,0.006266,0.001033,7e-05,-0.000504,-0.023923,-0.51421,0.006411,-0.092046,-262.257137,0.250604,71.567043
12.0081,-0.026855,-0.004264,0.004961,0.001033,7e-05,-0.000504,-0.023789,-0.513973,0.006254,-0.167044,-262.256873,0.325603,71.56732
12.0279,-0.026832,-0.00436,0.006667,0.001046,5.3e-05,-0.000247,-0.024004,-0.514089,0.005725,-0.167044,-262.256873,0.325603,71.56732
12.0477,-0.026867,-0.004409,0.006569,0.001051,4.7e-05,-0.000172,-0.023401,-0.514346,0.006652,-0.226469,-262.256476,0.350129,71.567732
12.068,-0.026851,-0.004442,0.005263,0.001043,5.6e-05,-0.000299,-0.023505,-0.514394,0.006576,-0.226469,-262.256476,0.350129,71.567732
12.088,-0.026931,-0.004229,0.005547,0.001037,6.3e-05,-0.000391,-0.023505,-0.514394,0.006576,-0.226469,-262.256476,0.350129,71.567732
12.108,-0.026912,-0.004809,0.006551,0.001037,6.3e-05,-0.000391,-0.024089,-0.51422,0.005542,-0.151515,-262.256343,0.275174,71.567865
12.1281,-0.026926,-0.004587,0.007057,0.001038,7.7e-05,-0.00028,-0.023876,-0.514456,0.005953,-0.151515,-262.256343,0.275174,71.567865
12.1481,-0.026899,-0.004383,0.005313,0.001039,8.3e-05,-0.000247,-0.023294,-0.514572,0.007045,-0.167575,-262.255925,0.282975,71.568295
12.1682,-0.027171,-0.004607,0.005735,0.001043,8.5e-05,-0.000114,-0.024108,-0.514393,0.005467,-0.167575,-262.255925,0.282975,71.568295
12.1878,-0.027015,-0.004445,0.005617,0.001047,8.7e-05,-2.2e-05,-0.024108,-0.514393,0.005467,-0.167575,-262.255925,0.282975,71.568295
12.2079,-0.027046,-0.004362,0.008336,0.001047,8.7e-05,-2.2e-05,-0.024116,-0.514434,0.005608,-0.092582,-262.255593,0.221137,71.568634
12.2281,-0.026915,-0.004178,0.005781,0.001033,8.9e-05,-0.00036,-0.023575,-0.514397,0.006715,-0.092582,-262.255593,0.221137,71.568634
12.2487,-0.026634,-0.004522,0.006104,0.001028,9e-05,-0.000462,-0.023949,-0.514168,0.005779,-0.017629,-262.255379,0.146183,71.568849
12.2679,-0.027041,-0.004298,0.005264,0.001029,9.7e-05,-0.000404,-0.023554,-0.514486,0.006078,-0.017629,-262.255379,0.146183,71.568849
12.2884,-0.02708,-0.004398,0.007193,0.00103,0.000102,-0.000363,-0.023554,-0.514486,0.006078,-0.017629,-262.255379,0.146183,71.568849
12.3085,-0.026703,-0.004299,0.006364,0.00103,0.000102,-0.000363,-0.023397,-0.514384,0.007189,-0.092974,-262.25524,0.221528,71.568994
12.3285,-0.02664,-0.004296,0.007291,0.001022,9.7e-05,-0.000576,-0.02342,-0.514345,0.006854,-0.092974,-262.25524,0.221528,71.568994
12.3479,-0.027057,-0.004332,0.005337,0.00102,9.4e-05,-0.000639,-0.022892,-0.514279,0.00728,-0.115739,-262.254871,0.296187,71.569378
12.3687,-0.026846,-0.004475,0.006017,0.00103,9.1e-05,-0.000396,-0.024209,-0.51432,0.005504,-0.115739,-262.254871,0.296187,71.569378
12.3882,-0.026206,-0.004609,0.007018,0.001037,8.7e-05,-0.000225,-0.024209,-0.51432,0.005504,-0.115739,-262.254871,0.296187,71.569378
12.4081,-0.026998,-0.00453,0.005463,0.001037,8.7e-05,-0.000225,-0.022608,-0.514595,0.007009,-0.190854,-262.25468,0.371302,71.569582
12.4282,-0.026595,-0.004335,0.006125,0.001028,0.000109,-0.000345,-0.023269,-0.514564,0.006368,-0.190854,-262.25468,0.371302,71.569582
12.448,-0.027015,-0.004543,0.006502,0.001025,0.000117,-0.000381,-0.023456,-0.514324,0.006119,-0.115807,-262.254479,0.296254,71.569787
12.4683,-0.026837,-0.004288,0.005669,0.001023,0.000118,-0.000426,-0.023677,-0.514514,0.006469,-0.115807,-262.254479,0.296254,71.569787
12.4882,-0.026899,-0.004333,0.005157,0.001022,0.000118,-0.000459,-0.023677,-0.514514,0.006469,-0.115807,-262.254479,0.296254,71.569787
12.5084,-0.026511,-0.00441,0.005489,0.001022,0.000118,-0.000459,-0.024227,-0.514322,0.005141,-0.112453,-262.254074,0.328817,71.570212
12.5278,-0.026476,-0.004325,0.005885,0.00104,0.000111,-4.6e-05,-0.024012,-0.514354,0.005281,-0.112453,-262.254074,0.328817,71.570212
12.5477,-0.026283,-0.00458,0.005786,0.001045,0.000108,7.1e-05,-0.023444,-0.514312,0.005871,-0.156951,-262.253684,0.371731,71.570625
12.5681,-0.026293,-0.003577,0.00423,0.001042,0.000118,3.3e-05,-0.02334,-0.514549,0.005793,-0.156951,-262.253684,0.371731,71.570625
12.588,-0.026557,-0.004308,0.00336,0.00104,0.000125,5e-06,-0.02334,-0.514549,0.005793,-0.156951,-262.253684,0.371731,71.570625
12.6079,-0.026784,-0.004359,0.006124,0.00104,0.000125,5e-06,-0.024842,-0.514305,0.00336,-0.081994,-262.253664,0.296773,71.570645
12.6282,-0.026126,-0.00448,0.005815,0.001059,0.000113,0.000514,-0.024357,-0.514324,0.004495,-0.081994,-262.253664,0.296773,71.570645
12.6477,-0.026578,-0.00445,0.005525,0.001065,0.000109,0.000655,-0.02315,-0.51447,0.005813,-0.00701,-262.253537,0.22179,71.570772
12.6682,-0.026533,-0.004551,0.006841,0.001061,0.000112,0.000492,-0.023708,-0.514444,0.005549,-0.00701,-262.253537,0.22179,71.570772
12.6882,-0.026842,-0.004302,0.004789,0.001057,0.000114,0.000375,-0.023708,-0.514444,0.005549,-0.00701,-262.253537,0.22179,71.570772
12.7085,-0.026456,-0.003978,0.007266,0.001057,0.000114,0.000375,-0.0244,-0.514296,0.004789,0.068041,-262.253537,0.146738,71.570772
12.7278,-0.026543,-0.004317,0.00528,0.001056,9.4e-05,0.00014,-0.023728,-0.514161,0.005797,0.068041,-262.253537,0.146738,71.570772
12.7479,-0.026365,-0.004398,0.004886,0.001056,8.6e-05,7.1e-05,-0.023846,-0.51431,0.005281,0.143056,-262.253478,0.071723,71.570828
12.7679,-0.026717,-0.004629,0.005302,0.001059,9.2e-05,0.000229,-0.02387,-0.514384,0.00492,0.143056,-262.253478,0.071723,71.570828
12.7879,-0.026474,-0.004688,0.004893,0.001062,9.7e-05,0.000339,-0.02387,-0.514384,0.00492,0.143056,-262.253478,0.071723,71.570828
12.808,-0.026398,-0.004367,0.006335,0.001062,9.7e-05,0.000339,-0.023936,-0.514678,0.004896,0.121687,-262.25306,0.040703,71.571244
12.8283,-0.026575,-0.004405,0.005289,0.001055,0.000116,0.000231,-0.023605,-0.514542,0.005505,0.121687,-262.25306,0.040703,71.571244
12.8484,-0.026474,-0.004235,0.006362,0.001052,0.000123,0.0002,-0.023861,-0.514396,0.005292,0.197092,-262.252849,-0.034703,71.571448
12.8683,-0.026494,-0.004226,0.005407,0.001047,0.000115,1.5e-05,-0.023283,-0.514239,0.00627,0.197092,-262.252849,-0.034703,71.571448
12.8882,-0.026336,-0.004332,0.005269,0.001044,0.000109,-0.000117,-0.023283,-0.514239,0.00627,0.197092,-262.252849,-0.034703,71.571448
12.9079,-0.026585,-0.004477,0.00448,0.001044,0.000109,-0.000117,-0.023606,-0.51432,0.005277,0.228885,-262.252432,0.000934,71.571854
12.9279,-0.02666,-0.004307,0.005218,0.001055,0.000112,0.000237,-0.023885,-0.514381,0.004952,0.228885,-262.252432,0.000934,71.571854
12.9479,-0.026264,-0.004533,0.004849,0.001058,0.000113,0.000338,-0.023988,-0.514298,0.005218,0.153897,-262.252288,0.075923,71.572
12.9688,-0.026274,-0.004358,0.006607,0.00106,0.000121,0.000425,-0.023809,-0.514506,0.004883,0.153897,-262.252288,0.075923,71.572
12.988,-0.026319,-0.004063,0.005325,0.001061,0.000127,0.000486,-0.023809,-0.514506,0.004883,0.153897,-262.252288,0.075923,71.572
13.0081,-0.025803,-0.004379,0.005329,0.001061,0.000127,0.000486,-0.023582,-0.514053,0.005329,0.22882,-262.252078,0.000999,71.572202
13.0281,-0.02624,-0.004207,0.0039,0.001062,0.000112,0.000372,-0.023379,-0.514181,0.00533,0.22882,-262.252078,0.000999,71.572202
13.0483,-0.02623,-0.004579,0.006766,0.001062,0.000107,0.000338,-0.024236,-0.514201,0.003905,0.30382,-262.251868,-0.074,71.572399
13.0681,-0.026361,-0.004501,0.008291,0.001048,0.000118,6.7e-05,-0.02291,-0.514534,0.006509,0.30382,-262.251868,-0.074,71.572399
13.0881,-0.026466,-0.004467,0.006688,0.001038,0.000127,-0.000127,-0.02291,-0.514534,0.006509,0.30382,-262.251868,-0.074,71.572399
13.1083,-0.026232,-0.004311,0.005232,0.001038,0.000127,-0.000127,-0.023011,-0.51445,0.006702,0.286659,-262.251429,-0.093735,71.572822
13.1279,-0.026381,-0.004305,0.006183,0.001035,0.000125,-0.000223,-0.023232,-0.51439,0.006103,0.286659,-262.251429,-0.093735,71.572822
13.148,-0.02617,-0.00443,0.0071,0.001035,0.000125,-0.000249,-0.023224,-0.514295,0.006184,0.211499,-262.251386,-0.018576,71.572866
13.1682,-0.026024,-0.004535,0.004328,0.001025,0.000128,-0.000441,-0.022606,-0.514407,0.007022,0.211499,-262.251386,-0.018576,71.572866
13.1881,-0.025959,-0.004136,0.006318,0.001018,0.00013,-0.000579,-0.022606,-0.514407,0.007022,0.211499,-262.251386,-0.018576,71.572866
13.208,-0.026088,-0.00437,0.005802,0.001018,0.00013,-0.000579,-0.022732,-0.514125,0.006318,0.136517,-262.25134,0.056407,71.572914
13.2278,-0.026309,-0.004295,0.006025,0.001027,0.000118,-0.000437,-0.022894,-0.514222,0.006107,0.136517,-262.25134,0.056407,71.572914
13.2481,-0.026689,-0.004559,0.005712,0.001029,0.000114,-0.000393,-0.023236,-0.514285,0.006025,0.061673,-262.251335,0.13125,71.572919
13.2682,-0.026445,-0.004393,0.006343,0.001032,0.000118,-0.000282,-0.023728,-0.514527,0.00574,0.061673,-262.251335,0.13125,71.572919
13.2878,-0.026614,-0.00459,0.007411,0.001035,0.000122,-0.000203,-0.023728,-0.514527,0.00574,0.061673,-262.251335,0.13125,71.572919
13.308,-0.026494,-0.004064,0.00535,0.001035,0.000122,-0.000203,-0.022821,-0.514575,0.007409,-0.013332,-262.251209,0.206255,71.573051
13.3277,-0.026295,-0.004091,0.005128,0.001027,0.000117,-0.000406,-0.023203,-0.514364,0.006572,-0.013332,-262.251209,0.206255,71.573051
13.3479,-0.025906,-0.004381,0.006582,0.001025,0.000115,-0.000466,-0.023647,-0.51408,0.005121,-0.001658,-262.250801,0.233162,71.573471
13.3677,-0.026455,-0.00449,0.006517,0.001024,0.000117,-0.000484,-0.022647,-0.514343,0.00645,-0.001658,-262.250801,0.233162,71.573471
13.388,-0.026341,-0.00408,0.006174,0.001022,0.000119,-0.000496,-0.022647,-0.514343,0.00645,-0.001658,-262.250801,0.233162,71.573471
13.4077,-0.026046,-0.004011,0.005982,0.001022,0.000119,-0.000496,-0.023172,-0.514067,0.006167,-0.076656,-262.2506,0.308161,71.573683
13.4278,-0.026001,-0.00482,0.003987,0.001034,9.2e-05,-0.000379,-0.023096,-0.51404,0.006089,-0.076656,-262.2506,0.308161,71.573683
13.4476,-0.02592,-0.004371,0.005282,0.001037,8.3e-05,-0.000345,-0.023943,-0.514813,0.003976,-0.151862,-262.250285,0.383366,71.574018
13.4677,-0.026188,-0.004222,0.007154,0.001042,9.3e-05,-0.000109,-0.023286,-0.514402,0.005171,-0.151862,-262.250285,0.383366,71.574018
13.4877,-0.025937,-0.004531,0.006334,0.001046,0.000101,5.4e-05,-0.023286,-0.514402,0.005171,-0.151862,-262.250285,0.383366,71.574018
13.5076,-0.02638,-0.004227,0.006769,0.001046,0.000101,5.4e-05,-0.022671,-0.514517,0.006322,-0.122914,-262.249943,0.30844,71.574371
13.528,-0.026069,-0.004203,0.005463,0.001031,0.000112,-0.000253,-0.022773,-0.514392,0.006505,-0.122914,-262.249943,0.30844,71.574371
13.5483,-0.026122,-0.004061,0.003909,0.001027,0.000116,-0.000345,-0.023279,-0.514195,0.005462,-0.047929,-262.249884,0.233454,71.57443
13.5681,-0.025723,-0.003901,0.006413,0.001045,9.9e-05,0.000207,-0.02406,-0.514068,0.004033,-0.047929,-262.249884,0.233454,71.57443
13.588,-0.026213,-0.004382,0.006207,0.001058,8.8e-05,0.000581,-0.02406,-0.514068,0.004033,-0.047929,-262.249884,0.233454,71.57443
13.608,-0.02606,-0.004575,0.00506,0.001058,8.8e-05,0.000581,-0.02301,-0.514367,0.006195,-0.092297,-262.24952,0.307965,71.574811
13.6278,-0.025748,-0.004471,0.004732,0.001048,0.000106,0.000278,-0.023199,-0.51445,0.005726,-0.092297,-262.24952,0.307965,71.574811
13.648,-0.026087,-0.004274,0.004706,0.001045,0.000113,0.000187,-0.023335,-0.514466,0.004732,-0.017558,-262.24952,0.233227,71.574811
13.6677,-0.026082,-0.004149,0.006833,0.001052,0.000112,0.000368,-0.023657,-0.514286,0.004708,-0.017558,-262.24952,0.233227,71.574811
13.6881,-0.026231,-0.004292,0.007195,0.001058,0.000111,0.000493,-0.023657,-0.514286,0.004708,-0.017558,-262.24952,0.233227,71.574811
13.7078,-0.025988,-0.004411,0.007098,0.001058,0.000111,0.000493,-0.022554,-0.514278,0.007194,0.057457,-262.249446,0.158212,71.574883
13.7278,-0.025929,-0.004297,0.005164,0.001029,0.000117,-0.000225,-0.022476,-0.514328,0.007154,0.057457,-262.249446,0.158212,71.574883
13.7476,-0.026138,-0.004125,0.00477,0.00102,0.000119,-0.000447,-0.023294,-0.51429,0.005165,0.132619,-262.249431,0.083049,71.574897
13.7678,-0.025778,-0.004189,0.005681,0.001035,0.000109,-9.5e-05,-0.023671,-0.514133,0.004804,0.132619,-262.249431,0.083049,71.574897
13.7876,-0.026133,-0.004304,0.005941,0.001046,0.000101,0.000149,-0.023671,-0.514133,0.004804,0.132619,-262.249431,0.083049,71.574897
13.8078,-0.025941,-0.004402,0.005815,0.001046,0.000101,0.000149,-0.0231,-0.514294,0.00594,0.057772,-262.2494,0.157896,71.574929
13.8276,-0.02605,-0.004366,0.005558,0.001042,0.000107,-2e-06,-0.023049,-0.514335,0.005888,0.057772,-262.2494,0.157896,71.574929
13.848,-0.026182,-0.004596,0.004955,0.001041,0.00011,-4.6e-05,-0.023197,-0.514356,0.005559,0.132823,-262.249166,0.082846,71.57516
13.8676,-0.025678,-0.004229,0.005336,0.001045,0.000121,0.00013,-0.023615,-0.51457,0.005006,0.132823,-262.249166,0.082846,71.57516
13.8876,-0.0259,-0.004473,0.006032,0.001047,0.00013,0.000252,-0.023615,-0.51457,0.005006,0.132823,-262.249166,0.082846,71.57516
13.9077,-0.025618,-0.004462,0.004692,0.001047,0.00013,0.000252,-0.022784,-0.51446,0.00603,0.078257,-262.248783,0.131295,71.575545
13.9278,-0.025927,-0.004323,0.006336,0.001045,0.000142,0.000204,-0.022961,-0.514458,0.005478,0.078257,-262.248783,0.131295,71.575545
13.9481,-0.025766,-0.004365,0.003937,0.001044,0.000146,0.00019,-0.022682,-0.514311,0.006337,0.153271,-262.248613,0.056282,71.575709
13.9682,-0.025769,-0.004214,0.005178,0.001054,0.000142,0.000527,-0.023665,-0.514356,0.004143,0.153271,-262.248613,0.056282,71.575709
13.9881,-0.025814,-0.004049,0.006693,0.001061,0.00014,0.000758,-0.023665,-0.514356,0.004143,0.153271,-262.248613,0.056282,71.575709
14.0081,-0.025906,-0.004384,0.005314,0.001061,0.00014,0.000758,-0.022363,-0.514032,0.006699,0.228273,-262.248243,0.028811,71.576068
14.0283,-0.025757,-0.004284,0.005908,0.001047,0.000125,0.000214,-0.022701,-0.514173,0.00613,0.228273,-262.248243,0.028811,71.576068
14.0478,-0.025778,-0.004548,0.00656,0.001043,0.000119,5e-05,-0.022742,-0.514275,0.005909,0.303226,-262.24822,-0.046142,71.576089
14.0683,-0.026213,-0.004315,0.005829,0.001033,0.000131,-0.000139,-0.022459,-0.514515,0.006505,0.303226,-262.24822,-0.046142,71.576089
14.0882,-0.025933,-0.004141,0.00673,0.001026,0.00014,-0.000274,-0.022459,-0.514515,0.006505,0.303226,-262.24822,-0.046142,71.576089
14.108,-0.02572,-0.004484,0.006718,0.001026,0.00014,-0.000274,-0.022479,-0.514126,0.006734,0.228175,-262.248008,0.028909,71.5763
14.1282,-0.026054,-0.003989,0.005294,0.001018,0.000133,-0.000506,-0.022401,-0.514267,0.006728,0.228175,-262.248008,0.028909,71.5763
14.1476,-0.025696,-0.004359,0.003878,0.001016,0.000131,-0.000572,-0.02335,-0.513982,0.005294,0.153218,-262.247961,0.103866,71.576349
14.1681,-0.025768,-0.004232,0.005076,0.001033,0.000125,5.7e-05,-0.023685,-0.514322,0.004005,0.153218,-262.247961,0.103866,71.576349
14.1878,-0.02568,-0.004191,0.007653,0.001046,0.000122,0.000484,-0.023685,-0.514322,0.004005,0.153218,-262.247961,0.103866,71.576349
14.2078,-0.025749,-0.004645,0.004367,0.001046,0.000122,0.000484,-0.021776,-0.514176,0.007653,0.078313,-262.247954,0.178771,71.576357
14.2284,-0.025925,-0.004107,0.005618,0.001031,0.00013,2.8e-05,-0.022499,-0.514368,0.006293,0.078313,-262.247954,0.178771,71.576357
14.2483,-0.025313,-0.004514,0.003945,0.001027,0.000133,-0.000109,-0.023058,-0.514099,0.005618,0.153486,-262.247939,0.103598,71.576371
14.2684,-0.026216,-0.0044,0.005594,0.001038,0.000138,0.00034,-0.02328,-0.514475,0.004088,0.153486,-262.247939,0.103598,71.576371
14.2885,-0.026032,-0.004747,0.005957,0.001046,0.000144,0.000647,-0.02328,-0.514475,0.004088,0.153486,-262.247939,0.103598,71.576371
14.3085,-0.025898,-0.004429,0.006621,0.001046,0.000144,0.000647,-0.02296,-0.514734,0.005954,0.078534,-262.247619,0.17855,71.576696
14.3284,-0.025658,-0.004167,0.007995,0.001028,0.000161,0.000128,-0.022778,-0.514605,0.006225,0.078534,-262.247619,0.17855,71.576696
14.3482,-0.025898,-0.00415,0.004342,0.001023,0.000167,-2.8e-05,-0.02158,-0.514151,0.007995,0.153568,-262.247617,0.103515,71.576698
14.3682,-0.02561,-0.004122,0.003748,0.001037,0.000152,0.00023,-0.023502,-0.514145,0.004657,0.153568,-262.247617,0.103515,71.576698
14.3883,-0.025616,-0.004386,0.006692,0.001047,0.00014,0.000409,-0.023502,-0.514145,0.004657,0.153568,-262.247617,0.103515,71.576698
14.4083,-0.025691,-0.004195,0.006377,0.001047,0.00014,0.000409,-0.022164,-0.514368,0.006691,0.145698,-262.247239,0.178474,71.577077
14.4285,-0.026209,-0.003982,0.005206,0.00103,0.000139,-0.000104,-0.022272,-0.514292,0.006562,0.145698,-262.247239,0.178474,71.577077
14.4483,-0.025858,-0.004321,0.006364,0.001025,0.000138,-0.000258,-0.023549,-0.513974,0.005206,0.220746,-262.24718,0.103425,71.577133
14.4679,-0.025556,-0.004302,0.006919,0.001025,0.000135,-0.000309,-0.022691,-0.514283,0.006267,0.220746,-262.24718,0.103425,71.577133
14.4881,-0.02547,-0.004306,0.006001,0.001025,0.000132,-0.000344,-0.022691,-0.514283,0.006267,0.220746,-262.24718,0.103425,71.577133
14.5082,-0.025957,-0.00443,0.006904,0.001025,0.000132,-0.000344,-0.0224,-0.514295,0.006001,0.145705,-262.247083,0.178466,71.577234
14.5283,-0.025329,-0.00398,0.006423,0.001022,0.000135,-0.000418,-0.022413,-0.514345,0.00637,0.145705,-262.247083,0.178466,71.577234
14.5484,-0.02537,-0.004312,0.005929,0.001021,0.000137,-0.000438,-0.022043,-0.513968,0.006421,0.070857,-262.24695,0.253315,71.577374
14.5685,-0.025807,-0.004404,0.005174,0.001024,0.000137,-0.000367,-0.022319,-0.514272,0.005973,0.070857,-262.24695,0.253315,71.577374
14.5883,-0.025507,-0.003881,0.004586,0.001026,0.000137,-0.000316,-0.022319,-0.514272,0.005973,0.070857,-262.24695,0.253315,71.577374
14.608,-0.025647,-0.004088,0.006579,0.001026,0.000137,-0.000316,-0.02315,-0.513872,0.004581,-0.004095,-262.246779,0.328266,71.577556
14.6284,-0.025977,-0.003958,0.006039,0.001043,0.000108,-2.9e-05,-0.022797,-0.513956,0.005397,-0.004095,-262.246779,0.328266,71.577556
14.6481,-0.025462,-0.004251,0.006385,0.001049,9.7e-05,5.2e-05,-0.022866,-0.513945,0.006029,-0.05492,-262.246386,0.3108,71.577969
14.6683,-0.025668,-0.004391,0.005061,0.001042,0.000101,-9.9e-05,-0.02226,-0.514215,0.006354,-0.05492,-262.246386,0.3108,71.577969
14.6879,-0.025519,-0.004023,0.004187,0.001037,0.000104,-0.000208,-0.02226,-0.514215,0.006354,-0.05492,-262.246386,0.3108,71.577969
14.7082,-0.025479,-0.004189,0.007191,0.001037,0.000104,-0.000208,-0.023373,-0.514017,0.004186,0.020263,-262.246292,0.235617,71.578062
14.7282,-0.025523,-0.004148,0.004725,0.001046,9.7e-05,-8e-06,-0.022709,-0.514084,0.005462,0.020263,-262.246292,0.235617,71.578062
14.7481,-0.025737,-0.004188,0.006112,0.001049,9.4e-05,5e-05,-0.023081,-0.514139,0.004719,-0.022752,-262.245892,0.219032,71.578472
14.7684,-0.025446,-0.004302,0.005243,0.001046,9.4e-05,-3e-05,-0.022654,-0.514175,0.006003,-0.022752,-262.245892,0.219032,71.578472
14.7877,-0.025525,-0.004253,0.005629,0.001045,9.5e-05,-8.8e-05,-0.022654,-0.514175,0.006003,-0.022752,-262.245892,0.219032,71.578472
14.8079,-0.026151,-0.004286,0.006742,0.001045,9.5e-05,-8.8e-05,-0.022633,-0.514243,0.005628,0.052059,-262.245688,0.144221,71.578675
14.8281,-0.025749,-0.004012,0.006093,0.00104,0.000101,-0.000185,-0.022663,-0.514255,0.006081,0.052059,-262.245688,0.144221,71.578675
14.8479,-0.025441,-0.004485,0.006795,0.001038,0.000103,-0.000213,-0.022609,-0.513999,0.00609,0.039286,-262.245269,0.140804,71.579098
14.8678,-0.025418,-0.004086,0.005269,0.001028,0.000116,-0.000362,-0.022029,-0.514431,0.006734,0.039286,-262.245269,0.140804,71.579098
