mach0312/omni-docking-bench/src/icros_test_setup/results/MPPI_sample/timeseries/trial_028.csv
t,x,y,yaw,vx,vy,wz,bl_x,bl_y,bl_yaw,front_steering_joint,front_wheel_joint,rear_steering_joint,rear_wheel_joint
0.0,-0.018534,0.022002,0.300215,-0.002716,0.000107,-0.05,0.131469,-0.465772,0.305644,-1.548364,-263.277476,1.54836,69.261968
0.0003,-0.017117,0.022394,0.297531,-0.002793,3.9e-05,-0.05,0.132537,-0.465237,0.305767,-1.588089,-263.265877,1.588018,69.273614
0.0005,-0.017291,0.022347,0.297594,-0.004263,7.2e-05,-0.05,0.132369,-0.465257,0.304723,-1.623968,-263.254185,1.6237,69.285366
0.0008,-0.017311,0.022434,0.297234,-0.004082,6.6e-05,-0.05,0.132369,-0.465257,0.304723,-1.662108,-263.242492,1.661876,69.297088
0.001,-0.016391,0.022777,0.294167,-0.004089,-2.5e-05,-0.05,0.132151,-0.465247,0.302946,-1.703976,-263.230828,1.703408,69.308802
0.0012,-0.01649,0.022738,0.29523,-0.005068,-9.8e-05,-0.05,0.131057,-0.465592,0.300401,-1.703976,-263.230828,1.703408,69.308802
0.0014,-0.015482,0.023073,0.292314,-0.004962,-8.4e-05,-0.05,0.131057,-0.465592,0.300401,-1.703976,-263.230828,1.703408,69.308802
0.0017,-0.015092,0.023002,0.291911,-0.006024,-0.000129,-0.05,0.131057,-0.465592,0.300401,-1.703976,-263.230828,1.703408,69.308802
0.015,-0.015272,0.022752,0.293091,0.0,0.0,0.0,0.131503,-0.465289,0.292359,-1.703976,-263.230828,1.703408,69.308802
0.0354,-0.014304,0.023349,0.289702,0.0,0.0,0.0,0.131881,-0.465561,0.291056,-1.731438,-263.218766,1.732312,69.320799
0.0555,-0.014305,0.023153,0.290279,0.0,0.0,0.0,0.131658,-0.465502,0.290271,-1.731438,-263.218766,1.732312,69.320799
0.0754,-0.014227,0.023082,0.289123,0.0,0.0,0.0,0.131642,-0.465521,0.290009,-1.731438,-263.216637,1.732312,69.322863
0.0957,-0.01422,0.023548,0.289043,0.0,0.0,0.0,0.131218,-0.465731,0.289185,-1.731438,-263.216637,1.732312,69.322863
0.1156,-0.014155,0.02317,0.290887,-0.000526,0.000548,-0.022525,0.131218,-0.465731,0.289185,-1.731438,-263.216637,1.732312,69.322863
0.1356,-0.014178,0.023799,0.289907,-0.00056,0.000583,-0.022748,0.132114,-0.465405,0.290887,-1.731438,-263.216637,1.732312,69.322863
0.1552,-0.014651,0.023111,0.289347,-0.000584,0.000608,-0.022277,0.131911,-0.465208,0.29049,-1.731438,-263.216637,1.732312,69.322863
0.1751,-0.014029,0.023323,0.288245,-0.000601,0.000625,-0.021913,0.130849,-0.465693,0.289021,-1.656579,-263.214138,1.657453,69.325362
0.1959,-0.014157,0.023686,0.28826,-0.000612,0.000637,-0.021296,0.13094,-0.465641,0.288296,-1.656579,-263.214138,1.657453,69.325362
0.2153,-0.014076,0.023481,0.291033,-0.000619,0.000644,-0.020811,0.13094,-0.465641,0.288296,-1.656579,-263.214138,1.657453,69.325362
0.2354,-0.013655,0.023048,0.286863,-0.000622,0.000649,-0.020433,0.13224,-0.465071,0.290193,-1.617849,-263.209308,1.613653,69.330355
0.2553,-0.013377,0.023399,0.28803,-0.000623,0.000653,-0.019924,0.131589,-0.465495,0.288741,-1.617849,-263.209308,1.613653,69.330355
0.2752,-0.013051,0.02384,0.286685,-0.000622,0.000656,-0.019522,0.13147,-0.465578,0.28738,-1.623328,-263.204568,1.618144,69.335614
0.2957,-0.013042,0.023771,0.288966,-0.000621,0.000655,-0.019055,0.13119,-0.465365,0.286714,-1.623328,-263.204568,1.618144,69.335614
0.3157,-0.013093,0.024014,0.288091,-0.000619,0.000654,-0.018682,0.13119,-0.465365,0.286714,-1.623328,-263.204568,1.618144,69.335614
0.336,-0.0129,0.023573,0.28557,-0.000616,0.000653,-0.018383,0.131777,-0.464948,0.287274,-1.625986,-263.200061,1.620237,69.340644
0.3552,-0.012722,0.023779,0.286619,-0.000613,0.000652,-0.017992,0.131371,-0.465275,0.286499,-1.625986,-263.200061,1.620237,69.340644
0.375,-0.012453,0.024248,0.285056,-0.000609,0.000652,-0.017677,0.131436,-0.465401,0.286032,-1.628989,-263.195816,1.622606,69.345412
0.3953,-0.012047,0.024221,0.286477,-0.000606,0.000649,-0.017292,0.131004,-0.46519,0.285111,-1.628989,-263.195816,1.622606,69.345412
0.4154,-0.011955,0.023848,0.286134,-0.000602,0.000648,-0.016978,0.131004,-0.46519,0.285111,-1.628989,-263.195816,1.622606,69.345412
0.4351,-0.011902,0.024279,0.283912,-0.000599,0.000646,-0.016724,0.131958,-0.465398,0.285393,-1.630773,-263.19176,1.623956,69.349988
0.4551,-0.01192,0.023884,0.282537,-0.000596,0.000648,-0.016404,0.131549,-0.465358,0.28471,-1.630773,-263.19176,1.623956,69.349988
0.4753,-0.011175,0.024382,0.283261,-0.000593,0.00065,-0.016144,0.13024,-0.46588,0.281995,-1.632635,-263.187858,1.625381,69.354407
0.4955,-0.011345,0.024043,0.282505,-0.000591,0.00065,-0.015828,0.131267,-0.465343,0.283126,-1.632635,-263.187858,1.625381,69.354407
0.5151,-0.011173,0.024029,0.283021,-0.000588,0.00065,-0.015571,0.131267,-0.465343,0.283126,-1.632635,-263.187858,1.625381,69.354407
0.5353,-0.011218,0.024335,0.282277,-0.000587,0.00065,-0.015361,0.131217,-0.465662,0.282348,-1.635087,-263.184172,1.627154,69.358612
0.5553,-0.011068,0.024154,0.281535,-0.000585,0.000651,-0.015084,0.131059,-0.465586,0.282241,-1.635087,-263.184172,1.627154,69.358612
0.5753,-0.010748,0.024692,0.281686,-0.000584,0.000653,-0.014858,0.130602,-0.465752,0.281045,-1.637883,-263.180668,1.629206,69.362636
0.5954,-0.010917,0.024561,0.281007,-0.000583,0.000651,-0.014695,0.130982,-0.465254,0.281606,-1.637883,-263.180668,1.629206,69.362636
0.6154,-0.010816,0.024308,0.27909,-0.000582,0.000649,-0.014562,0.130982,-0.465254,0.281606,-1.637883,-263.180668,1.629206,69.362636
0.6351,-0.010395,0.024869,0.280549,-0.000582,0.000648,-0.014454,0.129648,-0.465938,0.278469,-1.640036,-263.177296,1.63077,69.366528
0.6553,-0.010671,0.024919,0.280079,-0.000581,0.000646,-0.014414,0.130121,-0.465632,0.279246,-1.640036,-263.177296,1.63077,69.366528
0.6752,-0.010132,0.024802,0.280666,-0.000581,0.000644,-0.014381,0.130286,-0.465194,0.279618,-1.641788,-263.17399,1.632102,69.370355
0.6952,-0.009998,0.024737,0.280497,-0.00058,0.000643,-0.014369,0.131075,-0.465238,0.280573,-1.641788,-263.17399,1.632102,69.370355
0.7153,-0.01017,0.024843,0.279397,-0.00058,0.000643,-0.014358,0.131075,-0.465238,0.280573,-1.641788,-263.17399,1.632102,69.370355
0.7351,-0.00985,0.024747,0.279818,-0.000579,0.000643,-0.01435,0.130446,-0.465361,0.278801,-1.641996,-263.170746,1.632296,69.37411
0.7551,-0.009793,0.024824,0.280226,-0.000579,0.000642,-0.014323,0.130672,-0.465382,0.27915,-1.641996,-263.170746,1.632296,69.37411
0.7754,-0.00957,0.02465,0.280607,-0.000579,0.000641,-0.014302,0.131236,-0.465268,0.27977,-1.642015,-263.167491,1.632302,69.377878
0.7955,-0.0096,0.024948,0.279528,-0.000579,0.000644,-0.014264,0.13163,-0.46539,0.280511,-1.642015,-263.167491,1.632302,69.377878
0.8151,-0.009509,0.025285,0.277763,-0.000579,0.000647,-0.014233,0.13163,-0.46539,0.280511,-1.642015,-263.167491,1.632302,69.377878
0.8351,-0.009302,0.025108,0.277452,-0.000579,0.000649,-0.014208,0.130305,-0.465148,0.277165,-1.64219,-263.164237,1.632452,69.381645
0.8551,-0.008963,0.025146,0.279359,-0.000579,0.000644,-0.01417,0.130337,-0.465245,0.277214,-1.64219,-263.164237,1.632452,69.381645
0.875,-0.008599,0.025195,0.2767,-0.000578,0.00064,-0.01414,0.131641,-0.465068,0.278908,-1.642744,-263.16103,1.632757,69.385369
0.8951,-0.008451,0.025615,0.275955,-0.000578,0.000638,-0.014101,0.130806,-0.465374,0.276876,-1.642744,-263.16103,1.632757,69.385369
0.9156,-0.00875,0.025477,0.277834,-0.000578,0.000636,-0.014069,0.130806,-0.465374,0.276876,-1.642744,-263.16103,1.632757,69.385369
0.9353,-0.008416,0.025247,0.27707,-0.000578,0.000635,-0.014043,0.131098,-0.464946,0.277238,-1.643008,-263.157823,1.633077,69.389086
0.9552,-0.008512,0.025183,0.275789,-0.000578,0.000633,-0.014011,0.131091,-0.465086,0.277104,-1.643008,-263.157823,1.633077,69.389086
0.9754,-0.008262,0.025631,0.275538,-0.000578,0.000631,-0.013985,0.13034,-0.46553,0.275342,-1.643496,-263.154634,1.633505,69.392782
0.9953,-0.008061,0.025434,0.276158,-0.000578,0.000627,-0.013954,0.130477,-0.465165,0.275499,-1.643496,-263.154634,1.633505,69.392782
1.0152,-0.008564,0.025544,0.277062,-0.000578,0.000624,-0.013929,0.130477,-0.465165,0.275499,-1.643496,-263.154634,1.633505,69.392782
1.0352,-0.008059,0.025545,0.276078,-0.000578,0.000621,-0.013909,0.130906,-0.464988,0.276478,-1.643795,-263.151465,1.633782,69.396454
1.0551,-0.007916,0.025457,0.276285,-0.000579,0.00062,-0.013885,0.130924,-0.465049,0.276247,-1.643795,-263.151465,1.633782,69.396454
1.075,-0.007164,0.025642,0.274985,-0.000579,0.000618,-0.013866,0.131181,-0.465188,0.275843,-1.644134,-263.148303,1.634173,69.400112
1.0951,-0.007273,0.025916,0.276442,-0.000579,0.000618,-0.013845,0.131305,-0.465196,0.275038,-1.644134,-263.148303,1.634173,69.400112
1.1154,-0.007522,0.025641,0.27381,-0.000579,0.000618,-0.013829,0.131305,-0.465196,0.275038,-1.644134,-263.148303,1.634173,69.400112
1.1351,-0.007505,0.02591,0.274371,-0.000579,0.000618,-0.013815,0.130352,-0.465341,0.273231,-1.644364,-263.145159,1.634379,69.40375
1.1552,-0.007282,0.026044,0.273349,-0.000579,0.000614,-0.013801,0.130481,-0.465206,0.273629,-1.644364,-263.145159,1.634379,69.40375
1.1754,-0.007112,0.026199,0.27516,-0.000579,0.000612,-0.01379,0.130373,-0.465007,0.272908,-1.644668,-263.14201,1.634618,69.407394
1.1954,-0.007111,0.025953,0.275394,-0.000579,0.000609,-0.013779,0.131367,-0.464646,0.27496,-1.644668,-263.14201,1.634618,69.407394
1.2151,-0.006949,0.025937,0.27386,-0.000579,0.000607,-0.013769,0.131367,-0.464646,0.27496,-1.644668,-263.14201,1.634618,69.407394
1.2351,-0.006565,0.026221,0.272363,-0.000579,0.000605,-0.013762,0.13095,-0.465039,0.273285,-1.644753,-263.138889,1.634768,69.411
1.2558,-0.006599,0.026069,0.271537,-0.000579,0.000602,-0.013754,0.130816,-0.465013,0.272843,-1.644753,-263.138889,1.634768,69.411
1.2751,-0.006609,0.026186,0.272305,-0.000579,0.0006,-0.013747,0.130167,-0.465231,0.271096,-1.644818,-263.135754,1.634887,69.414621
1.2952,-0.006351,0.025977,0.272717,-0.000578,0.000597,-0.01374,0.130522,-0.46504,0.27218,-1.644818,-263.135754,1.634887,69.414621
1.3152,-0.006473,0.026114,0.272455,-0.000578,0.000595,-0.013734,0.130522,-0.46504,0.27218,-1.644818,-263.135754,1.634887,69.414621
1.3352,-0.006247,0.026762,0.27106,-0.000578,0.000592,-0.01373,0.130736,-0.465056,0.271881,-1.644868,-263.132633,1.635018,69.41822
1.355,-0.006091,0.025993,0.269744,-0.000578,0.000589,-0.013724,0.130558,-0.464875,0.27148,-1.644868,-263.132633,1.635018,69.41822
1.375,-0.005723,0.026601,0.271341,-0.000578,0.000586,-0.01372,0.129794,-0.465552,0.269307,-1.644873,-263.129503,1.635125,69.421823
1.3951,-0.005749,0.026063,0.269542,-0.000578,0.000584,-0.013715,0.130866,-0.464808,0.271144,-1.644873,-263.129503,1.635125,69.421823
1.415,-0.005616,0.026151,0.270678,-0.000578,0.000581,-0.01371,0.130866,-0.464808,0.271144,-1.644873,-263.129503,1.635125,69.421823
1.4356,-0.005341,0.026385,0.269295,-0.000578,0.00058,-0.013707,0.130721,-0.465263,0.270105,-1.644845,-263.126381,1.635192,69.425412
1.4553,-0.005324,0.026738,0.269466,-0.000578,0.000579,-0.013703,0.130567,-0.465249,0.269713,-1.644845,-263.126381,1.635192,69.425412
1.4754,-0.004992,0.026595,0.270438,-0.000578,0.000578,-0.013699,0.130424,-0.464845,0.269029,-1.644825,-263.123249,1.635266,69.429008
1.4959,-0.005052,0.026662,0.268629,-0.000578,0.000577,-0.013696,0.131183,-0.464866,0.270293,-1.644825,-263.123249,1.635266,69.429008
1.5156,-0.005605,0.026891,0.268202,-0.000578,0.000577,-0.013692,0.131183,-0.464866,0.270293,-1.644825,-263.123249,1.635266,69.429008
1.5356,-0.004688,0.026971,0.269917,-0.000578,0.000576,-0.01369,0.129514,-0.464859,0.26763,-1.644846,-263.120132,1.635297,69.432586
1.5556,-0.004809,0.026715,0.267756,-0.000577,0.00057,-0.013687,0.130238,-0.464737,0.268493,-1.644846,-263.120132,1.635297,69.432586
1.5753,-0.004642,0.026863,0.268564,-0.000577,0.000566,-0.013685,0.130098,-0.465099,0.26732,-1.644857,-263.117009,1.635341,69.436169
1.5956,-0.004785,0.027012,0.269284,-0.000577,0.000564,-0.013682,0.130632,-0.464876,0.268431,-1.644857,-263.117009,1.635341,69.436169
1.6153,-0.004162,0.026819,0.269322,-0.000577,0.000562,-0.01368,0.130632,-0.464876,0.268431,-1.644857,-263.117009,1.635341,69.436169
1.6349,-0.004413,0.026823,0.266908,-0.000577,0.00056,-0.013678,0.131508,-0.46478,0.268749,-1.644745,-263.113884,1.635397,69.439745
1.6553,-0.004157,0.027076,0.266886,-0.000577,0.00056,-0.013676,0.130931,-0.464916,0.267933,-1.644745,-263.113884,1.635397,69.439745
1.6751,-0.003938,0.027017,0.267458,-0.000577,0.000559,-0.013675,0.130323,-0.464856,0.266449,-1.644695,-263.110758,1.63543,69.443318
1.6952,-0.00402,0.027392,0.266958,-0.000577,0.000557,-0.013673,0.130796,-0.46485,0.267344,-1.644695,-263.110758,1.63543,69.443318
1.7154,-0.004169,0.027103,0.265346,-0.000577,0.000556,-0.013672,0.130796,-0.46485,0.267344,-1.644695,-263.110758,1.63543,69.443318
1.7355,-0.002987,0.027195,0.26551,-0.000577,0.000554,-0.01367,0.129546,-0.465032,0.264772,-1.644686,-263.107632,1.635442,69.44689
1.7553,-0.003461,0.027301,0.26588,-0.000576,0.00055,-0.013669,0.130065,-0.46499,0.265005,-1.644686,-263.107632,1.635442,69.44689
1.7752,-0.003834,0.027447,0.265117,-0.000576,0.000547,-0.013668,0.130524,-0.464766,0.265444,-1.644632,-263.104506,1.635467,69.450459
1.7954,-0.003073,0.027158,0.265436,-0.000576,0.000541,-0.013667,0.129862,-0.464736,0.265125,-1.644632,-263.104506,1.635467,69.450459
1.816,-0.003614,0.0275,0.263364,-0.000576,0.000537,-0.013666,0.129862,-0.464736,0.265125,-1.644632,-263.104506,1.635467,69.450459
1.8352,-0.003057,0.027476,0.264207,-0.000576,0.000534,-0.013666,0.129125,-0.464899,0.26279,-1.644529,-263.101376,1.635495,69.454025
1.8557,-0.003257,0.027287,0.265433,-0.000575,0.000529,-0.013665,0.129528,-0.464868,0.263299,-1.644529,-263.101376,1.635495,69.454025
1.8752,-0.002265,0.027396,0.26276,-0.000575,0.000525,-0.013664,0.130508,-0.464841,0.264999,-1.644343,-263.098245,1.63553,69.457581
1.8951,-0.002558,0.027415,0.263753,-0.000575,0.000524,-0.013663,0.130232,-0.465075,0.262943,-1.644343,-263.098245,1.63553,69.457581
1.9155,-0.002636,0.027746,0.261596,-0.000575,0.000524,-0.013663,0.130232,-0.465075,0.262943,-1.644343,-263.098245,1.63553,69.457581
1.9355,-0.002816,0.02748,0.263001,-0.000575,0.000523,-0.013662,0.129233,-0.464888,0.261025,-1.644211,-263.095102,1.635548,69.461144
1.9555,-0.002511,0.027728,0.262383,-0.000575,0.000519,-0.013662,0.129453,-0.464925,0.261772,-1.644211,-263.095102,1.635548,69.461144
1.9751,-0.001979,0.027766,0.264182,-0.000574,0.000515,-0.013661,0.129752,-0.464806,0.261948,-1.644172,-263.091969,1.635537,69.464694
1.9956,-0.001917,0.027748,0.262696,-0.000574,0.000516,-0.013661,0.131064,-0.464563,0.263963,-1.644172,-263.091969,1.635537,69.464694
2.0155,-0.002192,0.027751,0.263041,-0.000574,0.000516,-0.01366,0.131064,-0.464563,0.263963,-1.644172,-263.091969,1.635537,69.464694
2.0351,-0.001634,0.027949,0.261207,-0.000574,0.000516,-0.01366,0.130389,-0.464692,0.26247,-1.644046,-263.088825,1.635552,69.468249
2.0552,-0.001812,0.027622,0.261659,-0.000574,0.000513,-0.013659,0.130255,-0.464715,0.261886,-1.644046,-263.088825,1.635552,69.468249
2.075,-0.001449,0.027924,0.261419,-0.000574,0.000511,-0.013659,0.130095,-0.465007,0.261224,-1.644043,-263.085691,1.635534,69.471795
2.0954,-0.001606,0.027879,0.261955,-0.000574,0.000509,-0.013659,0.130336,-0.464771,0.26138,-1.644043,-263.085691,1.635534,69.471795
2.1151,-0.001516,0.027851,0.261752,-0.000574,0.000508,-0.013658,0.130336,-0.464771,0.26138,-1.644043,-263.085691,1.635534,69.471795
2.1353,-0.001145,0.028194,0.260157,-0.000574,0.000506,-0.013658,0.13043,-0.464763,0.26118,-1.643965,-263.082549,1.635541,69.475345
2.1557,-0.001418,0.028404,0.259561,-0.000574,0.000504,-0.013658,0.130269,-0.464713,0.260697,-1.643965,-263.082549,1.635541,69.475345
2.1752,-0.000812,0.028236,0.258989,-0.000573,0.000502,-0.013658,0.129455,-0.464502,0.259123,-1.643883,-263.079401,1.635542,69.478898
2.1955,-0.000745,0.02845,0.260285,-0.000573,0.000498,-0.013658,0.12977,-0.464733,0.258979,-1.643883,-263.079401,1.635542,69.478898
2.2155,-0.001053,0.027994,0.260229,-0.000573,0.000494,-0.013657,0.12977,-0.464733,0.258979,-1.643883,-263.079401,1.635542,69.478898
2.2355,-0.000778,0.028087,0.259138,-0.000573,0.000491,-0.013657,0.130142,-0.464821,0.259657,-1.643812,-263.076263,1.635545,69.482436
2.2555,-0.000366,0.028583,0.260176,-0.000573,0.00049,-0.013657,0.130044,-0.464845,0.259382,-1.643812,-263.076263,1.635545,69.482436
2.2754,-0.000482,0.028645,0.257762,-0.000573,0.000489,-0.013657,0.13081,-0.464243,0.259741,-1.64363,-263.073104,1.635558,69.485988
2.2956,-0.000149,0.028317,0.258073,-0.000572,0.000484,-0.013657,0.129631,-0.464484,0.257904,-1.64363,-263.073104,1.635558,69.485988
2.3158,-0.000251,0.028947,0.257847,-0.000572,0.000479,-0.013657,0.129631,-0.464484,0.257904,-1.64363,-263.073104,1.635558,69.485988
2.3352,-0.000296,0.028562,0.255803,-0.000572,0.000475,-0.013657,0.12977,-0.464179,0.257277,-1.643594,-263.069958,1.635549,69.489525
2.3553,-0.000119,0.028519,0.257577,-0.000571,0.00047,-0.013657,0.129345,-0.464451,0.256604,-1.643594,-263.069958,1.635549,69.489525
2.3754,0.000383,0.028692,0.256425,-0.000571,0.000465,-0.013657,0.129776,-0.464646,0.257142,-1.643365,-263.066811,1.635562,69.493049
2.395,0.000167,0.028881,0.256774,-0.000571,0.000464,-0.013657,0.129734,-0.464633,0.256468,-1.643365,-263.066811,1.635562,69.493049
2.415,0.00018,0.028791,0.257819,-0.000571,0.000462,-0.013657,0.129734,-0.464633,0.256468,-1.643365,-263.066811,1.635562,69.493049
2.435,0.000849,0.028948,0.255625,-0.000571,0.000461,-0.013656,0.130187,-0.46434,0.257247,-1.643196,-263.063653,1.635566,69.496579
2.455,0.000609,0.028646,0.255879,-0.000571,0.000459,-0.013656,0.130028,-0.464395,0.256523,-1.643196,-263.063653,1.635566,69.496579
2.4751,0.000806,0.028967,0.255848,-0.00057,0.000457,-0.013656,0.129666,-0.464739,0.255444,-1.643095,-263.060492,1.635549,69.500108
2.4954,0.00014,0.028847,0.25539,-0.00057,0.000455,-0.013656,0.129851,-0.464459,0.25579,-1.643095,-263.060492,1.635549,69.500108
2.5157,0.001052,0.028791,0.254719,-0.00057,0.000453,-0.013656,0.129851,-0.464459,0.25579,-1.643095,-263.060492,1.635549,69.500108
2.5351,0.000806,0.029094,0.25532,-0.00057,0.000452,-0.013656,0.12953,-0.464741,0.254147,-1.643023,-263.057326,1.635541,69.503639
2.5552,0.001353,0.029138,0.255235,-0.00057,0.000449,-0.013656,0.129559,-0.464588,0.254563,-1.643023,-263.057326,1.635541,69.503639
2.5751,0.001722,0.02869,0.25374,-0.00057,0.000447,-0.013656,0.130093,-0.46433,0.254801,-1.642918,-263.054162,1.63553,69.507164
2.5953,0.001442,0.029316,0.254585,-0.00057,0.000448,-0.013656,0.129774,-0.464924,0.25381,-1.642918,-263.054162,1.63553,69.507164
2.6153,0.001746,0.028925,0.254511,-0.00057,0.000448,-0.013656,0.129774,-0.464924,0.25381,-1.642918,-263.054162,1.63553,69.507164
2.6351,0.001385,0.029062,0.253394,-0.000569,0.000448,-0.013656,0.130122,-0.464634,0.253941,-1.642838,-263.050991,1.635524,69.510692
2.6554,0.002069,0.029332,0.252879,-0.000569,0.000447,-0.013656,0.129751,-0.46464,0.253647,-1.642838,-263.050991,1.635524,69.510692
2.6755,0.001949,0.029832,0.253383,-0.000569,0.000445,-0.013656,0.129646,-0.464438,0.252446,-1.642834,-263.047837,1.635504,69.514203
2.6953,0.002262,0.02931,0.254219,-0.000569,0.000439,-0.013656,0.129779,-0.463942,0.253258,-1.642834,-263.047837,1.635504,69.514203
2.7153,0.002364,0.029557,0.253121,-0.000569,0.000433,-0.013656,0.129779,-0.463942,0.253258,-1.642834,-263.047837,1.635504,69.514203
2.7351,0.002614,0.029486,0.252693,-0.000568,0.000429,-0.013656,0.130054,-0.46418,0.25255,-1.642771,-263.04467,1.635501,69.517725
2.7554,0.002331,0.029737,0.251296,-0.000568,0.000427,-0.013656,0.130078,-0.464235,0.252542,-1.642771,-263.04467,1.635501,69.517725
2.7753,0.002998,0.029151,0.250875,-0.000568,0.000425,-0.013656,0.129127,-0.464236,0.25086,-1.642498,-263.041491,1.63551,69.521248
2.7954,0.002857,0.02979,0.252452,-0.000568,0.000425,-0.013656,0.129565,-0.464828,0.250853,-1.642498,-263.041491,1.63551,69.521248
2.8155,0.002537,0.029599,0.251181,-0.000568,0.000425,-0.013656,0.129565,-0.464828,0.250853,-1.642498,-263.041491,1.63551,69.521248
2.8358,0.003169,0.029808,0.249693,-0.000568,0.000425,-0.013656,0.129269,-0.464386,0.25061,-1.642428,-263.038319,1.635499,69.524758
2.8554,0.002869,0.029482,0.251172,-0.000567,0.00042,-0.013656,0.129235,-0.464381,0.250174,-1.642428,-263.038319,1.635499,69.524758
2.8753,0.003157,0.029648,0.251579,-0.000567,0.000416,-0.013656,0.129603,-0.464506,0.250737,-1.642398,-263.035148,1.635478,69.528268
2.8954,0.003064,0.029566,0.249785,-0.000567,0.000416,-0.013656,0.130066,-0.464316,0.251481,-1.642398,-263.035148,1.635478,69.528268
2.9153,0.003141,0.029635,0.248838,-0.000567,0.000416,-0.013656,0.130066,-0.464316,0.251481,-1.642398,-263.035148,1.635478,69.528268
2.9352,0.003984,0.030064,0.248626,-0.000567,0.000415,-0.013656,0.128716,-0.464646,0.248267,-1.642252,-263.031971,1.635477,69.531777
2.9552,0.003557,0.029596,0.24943,-0.000567,0.000411,-0.013656,0.129023,-0.464486,0.248347,-1.642252,-263.031971,1.635477,69.531777
2.9751,0.003937,0.029919,0.248796,-0.000566,0.000407,-0.013656,0.12943,-0.464613,0.248994,-1.642213,-263.028793,1.63546,69.535286
2.9955,0.003535,0.029522,0.249631,-0.000566,0.000404,-0.013656,0.129509,-0.464399,0.248792,-1.642213,-263.028793,1.63546,69.535286
3.0152,0.003569,0.02984,0.248423,-0.000566,0.000402,-0.013656,0.129509,-0.464399,0.248792,-1.642213,-263.028793,1.63546,69.535286
3.0352,0.004142,0.029959,0.247067,-0.000566,0.000401,-0.013656,0.128939,-0.464493,0.24785,-1.642063,-263.025612,1.635458,69.538792
3.0552,0.004077,0.030211,0.247848,-0.000566,0.000397,-0.013656,0.128907,-0.464517,0.247469,-1.642063,-263.025612,1.635458,69.538792
3.0751,0.004813,0.030155,0.247002,-0.000565,0.000394,-0.013656,0.129169,-0.464197,0.247411,-1.641946,-263.022423,1.635443,69.542301
3.0954,0.004637,0.030281,0.247473,-0.000565,0.000392,-0.013656,0.129477,-0.464351,0.247016,-1.641946,-263.022423,1.635443,69.542301
3.1152,0.004697,0.02979,0.247478,-0.000565,0.00039,-0.013656,0.129477,-0.464351,0.247016,-1.641946,-263.022423,1.635443,69.542301
3.1355,0.00496,0.030138,0.245725,-0.000565,0.000388,-0.013656,0.129599,-0.464662,0.246907,-1.641832,-263.019237,1.635435,69.545802
3.1557,0.004781,0.030292,0.247697,-0.000565,0.000387,-0.013656,0.12936,-0.464612,0.246356,-1.641832,-263.019237,1.635435,69.545802
3.1755,0.004779,0.030249,0.247326,-0.000565,0.000387,-0.013656,0.129798,-0.464135,0.247261,-1.641703,-263.016048,1.635419,69.549301
3.1956,0.004553,0.03032,0.24548,-0.000565,0.000385,-0.013656,0.129646,-0.464223,0.247299,-1.641703,-263.016048,1.635419,69.549301
3.2152,0.004942,0.029943,0.246536,-0.000564,0.000384,-0.013656,0.129646,-0.464223,0.247299,-1.641703,-263.016048,1.635419,69.549301
3.2352,0.00544,0.030212,0.244644,-0.000564,0.000383,-0.013656,0.129379,-0.464627,0.245965,-1.641667,-263.012862,1.635406,69.552794
3.2556,0.005805,0.030465,0.24517,-0.000564,0.000381,-0.013656,0.129209,-0.464616,0.245363,-1.641667,-263.012862,1.635406,69.552794
3.2752,0.005678,0.030179,0.246125,-0.000564,0.00038,-0.013656,0.129572,-0.464277,0.244734,-1.641584,-263.009671,1.635391,69.556291
3.2955,0.006044,0.03066,0.244284,-0.000564,0.000381,-0.013656,0.129904,-0.464435,0.245974,-1.641584,-263.009671,1.635391,69.556291
3.3155,0.005691,0.030363,0.243682,-0.000564,0.000381,-0.013656,0.129904,-0.464435,0.245974,-1.641584,-263.009671,1.635391,69.556291
3.3351,0.00625,0.030788,0.241658,-0.000564,0.000381,-0.013656,0.128716,-0.46456,0.24311,-1.641536,-263.006479,1.635382,69.559787
3.3553,0.006159,0.030637,0.244809,-0.000564,0.000375,-0.013656,0.128543,-0.464491,0.242453,-1.641536,-263.006479,1.635382,69.559787
3.3749,0.005846,0.03041,0.244113,-0.000563,0.000369,-0.013657,0.129747,-0.464149,0.244374,-1.641528,-263.003286,1.635368,69.563284
3.3959,0.006062,0.030578,0.243274,-0.000563,0.000368,-0.013657,0.129165,-0.464441,0.244114,-1.641528,-263.003286,1.635368,69.563284
3.4155,0.00611,0.030524,0.243977,-0.000563,0.000366,-0.013657,0.129165,-0.464441,0.244114,-1.641528,-263.003286,1.635368,69.563284
3.4353,0.006438,0.030675,0.242412,-0.000563,0.000365,-0.013657,0.129281,-0.464363,0.243406,-1.64133,-263.000067,1.635365,69.5668
3.4555,0.006871,0.030763,0.241209,-0.000563,0.000362,-0.013657,0.129098,-0.464383,0.242915,-1.64133,-263.000067,1.635365,69.5668
3.4754,0.007052,0.03086,0.242118,-0.000562,0.00036,-0.013657,0.128679,-0.464465,0.240778,-1.641242,-262.996884,1.635349,69.570273
3.4956,0.006795,0.03064,0.242503,-0.000562,0.000357,-0.013657,0.129273,-0.464281,0.241984,-1.641242,-262.996884,1.635349,69.570273
3.5154,0.007106,0.03105,0.242551,-0.000562,0.000354,-0.013657,0.129273,-0.464281,0.241984,-1.641242,-262.996884,1.635349,69.570273
3.5358,0.007208,0.031019,0.239565,-0.000562,0.000352,-0.013657,0.129571,-0.464013,0.241981,-1.641147,-262.993671,1.635339,69.573774
3.5557,0.007089,0.031032,0.241234,-0.000561,0.000348,-0.013657,0.128999,-0.464182,0.240895,-1.641147,-262.993671,1.635339,69.573774
3.5756,0.007259,0.031127,0.240291,-0.000561,0.000344,-0.013657,0.128909,-0.464194,0.240803,-1.640995,-262.990485,1.635323,69.57724
3.5963,0.007528,0.031059,0.238804,-0.000561,0.00034,-0.013657,0.128655,-0.464217,0.240314,-1.640995,-262.990485,1.635323,69.57724
3.6159,0.007479,0.030918,0.241371,-0.00056,0.000337,-0.013657,0.128655,-0.464217,0.240314,-1.640995,-262.990485,1.635323,69.57724
3.6357,0.007877,0.031155,0.240264,-0.00056,0.000334,-0.013657,0.12936,-0.464289,0.2408,-1.640848,-262.987258,1.63531,69.580744
3.6556,0.007625,0.030961,0.240499,-0.00056,0.000333,-0.013657,0.129304,-0.464248,0.240504,-1.640848,-262.987258,1.63531,69.580744
3.6749,0.008128,0.031393,0.240382,-0.00056,0.000333,-0.013657,0.129082,-0.464354,0.24007,-1.640641,-262.98405,1.635284,69.584218
3.6956,0.008276,0.031322,0.239527,-0.00056,0.000331,-0.013657,0.129511,-0.463972,0.240341,-1.640641,-262.98405,1.635284,69.584218
3.7157,0.008215,0.031152,0.239863,-0.00056,0.000329,-0.013657,0.129511,-0.463972,0.240341,-1.640641,-262.98405,1.635284,69.584218
3.7352,0.008462,0.031373,0.239071,-0.000559,0.000328,-0.013657,0.129349,-0.464239,0.239296,-1.640606,-262.980861,1.635268,69.587671
3.7553,0.008613,0.031219,0.239053,-0.000559,0.000326,-0.013657,0.129298,-0.46419,0.239139,-1.640606,-262.980861,1.635268,69.587671
3.7752,0.008804,0.031452,0.236929,-0.000559,0.000325,-0.013657,0.129352,-0.464272,0.238616,-1.6405,-262.977643,1.635246,69.59115
3.7952,0.008856,0.031617,0.237118,-0.000559,0.000321,-0.013657,0.128582,-0.464298,0.237053,-1.6405,-262.977643,1.635246,69.59115
3.815,0.008574,0.031493,0.238387,-0.000559,0.000318,-0.013657,0.128582,-0.464298,0.237053,-1.6405,-262.977643,1.635246,69.59115
3.8353,0.009585,0.031345,0.239318,-0.000558,0.000315,-0.013657,0.128977,-0.464077,0.237816,-1.640443,-262.974426,1.635233,69.594627
3.855,0.008754,0.03135,0.23693,-0.000558,0.000315,-0.013657,0.129594,-0.464094,0.238371,-1.640443,-262.974426,1.635233,69.594627
3.8753,0.009465,0.031687,0.236568,-0.000558,0.000315,-0.013657,0.128441,-0.464397,0.236496,-1.640245,-262.971211,1.635208,69.598093
3.8956,0.009746,0.031731,0.236675,-0.000558,0.000312,-0.013657,0.128944,-0.464133,0.23654,-1.640245,-262.971211,1.635208,69.598093
3.9155,0.009657,0.031492,0.235164,-0.000558,0.000309,-0.013657,0.128944,-0.464133,0.23654,-1.640245,-262.971211,1.635208,69.598093
3.9356,0.009623,0.031699,0.236729,-0.000557,0.000307,-0.013657,0.128463,-0.464463,0.234594,-1.640227,-262.967996,1.635194,69.601559
3.9552,0.009805,0.031802,0.235959,-0.000557,0.000304,-0.013657,0.128773,-0.464305,0.235399,-1.640227,-262.967996,1.635194,69.601559
3.9753,0.009835,0.032035,0.236579,-0.000557,0.000302,-0.013657,0.129011,-0.464061,0.235524,-1.640068,-262.964771,1.63517,69.605029
3.9961,0.009956,0.031803,0.233397,-0.000557,0.0003,-0.013658,0.129336,-0.463785,0.236466,-1.640068,-262.964771,1.63517,69.605029
4.0156,0.009955,0.031907,0.234026,-0.000557,0.000297,-0.013658,0.129336,-0.463785,0.236466,-1.640068,-262.964771,1.63517,69.605029
4.035,0.010215,0.031782,0.233217,-0.000556,0.000295,-0.013658,0.128196,-0.464184,0.233448,-1.639982,-262.961552,1.635154,69.60849
4.0551,0.010293,0.031541,0.233249,-0.000556,0.000291,-0.013658,0.128148,-0.464272,0.233294,-1.639982,-262.961552,1.635154,69.60849
4.0752,0.010611,0.032102,0.232615,-0.000556,0.000288,-0.013658,0.128155,-0.464643,0.232814,-1.639839,-262.958321,1.635128,69.611956
4.0954,0.010991,0.031938,0.233107,-0.000555,0.000283,-0.013658,0.128174,-0.464204,0.232611,-1.639839,-262.958321,1.635128,69.611956
4.1152,0.010802,0.031847,0.233462,-0.000555,0.00028,-0.013658,0.128174,-0.464204,0.232611,-1.639839,-262.958321,1.635128,69.611956
4.1352,0.010882,0.031978,0.231266,-0.000555,0.000277,-0.013658,0.128764,-0.464311,0.232892,-1.639683,-262.955091,1.635105,69.615416
4.1551,0.010858,0.032069,0.232397,-0.000554,0.000276,-0.013658,0.128354,-0.464365,0.232154,-1.639683,-262.955091,1.635105,69.615416
4.1753,0.0114,0.032386,0.23215,-0.000554,0.000274,-0.013658,0.128297,-0.464216,0.231963,-1.639468,-262.951858,1.635067,69.61887
4.1952,0.011432,0.03192,0.230762,-0.000554,0.000271,-0.013658,0.128697,-0.463956,0.232113,-1.639468,-262.951858,1.635067,69.61887
4.215,0.011085,0.031643,0.232835,-0.000554,0.000269,-0.013658,0.128697,-0.463956,0.232113,-1.639468,-262.951858,1.635067,69.61887
4.2353,0.011342,0.032198,0.231725,-0.000554,0.000267,-0.013658,0.128736,-0.46459,0.232264,-1.639403,-262.948628,1.635045,69.622318
4.2554,0.011091,0.03264,0.231772,-0.000554,0.000268,-0.013658,0.128624,-0.464419,0.231979,-1.639403,-262.948628,1.635045,69.622318
4.2752,0.011935,0.032027,0.231786,-0.000554,0.000269,-0.013658,0.12822,-0.463718,0.231338,-1.639288,-262.945387,1.635022,69.625774
4.2955,0.011764,0.032535,0.23096,-0.000554,0.000269,-0.013658,0.129013,-0.464281,0.231726,-1.639288,-262.945387,1.635022,69.625774
4.3154,0.011569,0.0323,0.230374,-0.000553,0.00027,-0.013658,0.129013,-0.464281,0.231726,-1.639288,-262.945387,1.635022,69.625774
4.3353,0.012042,0.032597,0.230636,-0.000553,0.00027,-0.013658,0.127998,-0.464221,0.229803,-1.639257,-262.942155,1.634997,69.629221
4.3555,0.012033,0.032351,0.229568,-0.000553,0.000265,-0.013658,0.128251,-0.464089,0.230076,-1.639257,-262.942155,1.634997,69.629221
4.3753,0.012432,0.032152,0.22934,-0.000553,0.000262,-0.013658,0.128067,-0.464265,0.229133,-1.639262,-262.938905,1.634983,69.632688
4.3954,0.012328,0.032391,0.230476,-0.000553,0.000261,-0.013658,0.128348,-0.464476,0.229304,-1.639262,-262.938905,1.634983,69.632688
4.4154,0.012424,0.032483,0.228323,-0.000553,0.00026,-0.013658,0.128348,-0.464476,0.229304,-1.639262,-262.938905,1.634983,69.632688
4.4349,0.012727,0.032878,0.228259,-0.000552,0.000259,-0.013658,0.127835,-0.464276,0.227754,-1.639105,-262.935672,1.634963,69.636129
4.4556,0.012721,0.032696,0.22816,-0.000552,0.000253,-0.013658,0.127954,-0.464117,0.227897,-1.639105,-262.935672,1.634963,69.636129
4.4749,0.013278,0.032472,0.227097,-0.000552,0.000249,-0.013658,0.128057,-0.464083,0.227724,-1.63904,-262.93242,1.634943,69.639589
4.4954,0.013417,0.032712,0.227868,-0.000551,0.000247,-0.013658,0.1281,-0.464408,0.227124,-1.63904,-262.93242,1.634943,69.639589
4.5153,0.012952,0.032951,0.228233,-0.000551,0.000245,-0.013658,0.1281,-0.464408,0.227124,-1.63904,-262.93242,1.634943,69.639589
4.5356,0.01331,0.03289,0.227361,-0.000551,0.000243,-0.013658,0.128318,-0.463819,0.227665,-1.638847,-262.929194,1.634916,69.643012
4.5555,0.013404,0.032799,0.229177,-0.000551,0.000239,-0.013658,0.128295,-0.463886,0.227476,-1.638847,-262.929194,1.634916,69.643012
4.5752,0.013708,0.033037,0.226724,-0.00055,0.000235,-0.013658,0.129245,-0.463863,0.228743,-1.63872,-262.925947,1.634886,69.646452
4.5953,0.013756,0.03248,0.227086,-0.00055,0.000232,-0.013658,0.128428,-0.463906,0.226882,-1.63872,-262.925947,1.634886,69.646452
4.6154,0.013735,0.032996,0.227449,-0.00055,0.00023,-0.013658,0.128428,-0.463906,0.226882,-1.63872,-262.925947,1.634886,69.646452
4.6352,0.013929,0.033027,0.226565,-0.000549,0.000228,-0.013658,0.128712,-0.463865,0.226878,-1.638568,-262.922697,1.634858,69.64989
4.6551,0.014032,0.032966,0.225394,-0.000549,0.000226,-0.013658,0.128619,-0.463895,0.226684,-1.638568,-262.922697,1.634858,69.64989
4.6751,0.014233,0.03283,0.224538,-0.000549,0.000225,-0.013658,0.127994,-0.464131,0.224958,-1.6384,-262.919439,1.634819,69.653331
4.6953,0.014136,0.032929,0.225318,-0.000549,0.000222,-0.013658,0.127804,-0.464348,0.224552,-1.6384,-262.919439,1.634819,69.653331
4.7151,0.014318,0.033072,0.222929,-0.000549,0.000221,-0.013658,0.127804,-0.464348,0.224552,-1.6384,-262.919439,1.634819,69.653331
4.7353,0.01449,0.032862,0.224065,-0.000548,0.000219,-0.013658,0.127049,-0.464304,0.222359,-1.638328,-262.916184,1.634797,69.656765
4.7553,0.01489,0.033168,0.226098,-0.000548,0.000215,-0.013659,0.127361,-0.464338,0.222999,-1.638328,-262.916184,1.634797,69.656765
4.775,0.015418,0.033278,0.224276,-0.000548,0.000212,-0.013659,0.129201,-0.463849,0.225665,-1.638203,-262.912929,1.634763,69.660195
4.7954,0.015016,0.033165,0.223385,-0.000548,0.000211,-0.013659,0.128872,-0.463941,0.224374,-1.638203,-262.912929,1.634763,69.660195
4.8152,0.014856,0.032766,0.223638,-0.000547,0.000211,-0.013658,0.128872,-0.463941,0.224374,-1.638203,-262.912929,1.634763,69.660195
4.8352,0.015138,0.033437,0.22245,-0.000547,0.00021,-0.013658,0.127939,-0.46453,0.223067,-1.638052,-262.909671,1.634731,69.663622
4.8554,0.015256,0.032848,0.222613,-0.000547,0.000209,-0.013658,0.127819,-0.464311,0.222748,-1.638052,-262.909671,1.634731,69.663622
4.8755,0.015814,0.033051,0.223119,-0.000547,0.000207,-0.013658,0.127835,-0.464564,0.222179,-1.638004,-262.90641,1.634705,69.667051
4.8952,0.015295,0.033013,0.222268,-0.000547,0.000208,-0.013658,0.128591,-0.464329,0.223017,-1.638004,-262.90641,1.634705,69.667051
4.9149,0.015594,0.033368,0.223581,-0.000547,0.000209,-0.013658,0.128591,-0.464329,0.223017,-1.638004,-262.90641,1.634705,69.667051
4.935,0.015716,0.033271,0.22216,-0.000547,0.000209,-0.013658,0.128649,-0.463935,0.223011,-1.637925,-262.903135,1.634685,69.670492
4.9551,0.015831,0.033005,0.221906,-0.000547,0.000207,-0.013658,0.12841,-0.464044,0.222586,-1.637925,-262.903135,1.634685,69.670492
4.9751,0.016158,0.03333,0.222344,-0.000547,0.000205,-0.013658,0.128058,-0.464487,0.221473,-1.637949,-262.899883,1.634673,69.67391
4.9953,0.016335,0.033467,0.221899,-0.000546,0.000204,-0.013658,0.128574,-0.464146,0.222252,-1.637949,-262.899883,1.634673,69.67391
5.0151,0.016328,0.033808,0.222693,-0.000546,0.000203,-0.013658,0.128574,-0.464146,0.222252,-1.637949,-262.899883,1.634673,69.67391
5.0351,0.01609,0.034098,0.220478,-0.000546,0.000203,-0.013658,0.12894,-0.463595,0.222124,-1.637863,-262.89663,1.634656,69.677326
5.0551,0.016761,0.033381,0.220273,-0.000546,0.000197,-0.013659,0.128401,-0.463579,0.221386,-1.637863,-262.89663,1.634656,69.677326
5.0752,0.017036,0.033381,0.2213,-0.000545,0.000192,-0.013659,0.128176,-0.464293,0.219837,-1.637808,-262.893367,1.634638,69.680751
5.0952,0.01685,0.033355,0.221173,-0.000545,0.000193,-0.013659,0.128905,-0.464192,0.221143,-1.637808,-262.893367,1.634638,69.680751
5.1153,0.016756,0.033412,0.220925,-0.000545,0.000194,-0.013659,0.128905,-0.464192,0.221143,-1.637808,-262.893367,1.634638,69.680751
5.1353,0.017606,0.033367,0.220945,-0.000545,0.000195,-0.013659,0.128489,-0.46419,0.220354,-1.637603,-262.890096,1.634601,69.684176
5.1554,0.017099,0.033767,0.218468,-0.000545,0.000195,-0.013659,0.128849,-0.464208,0.220529,-1.637603,-262.890096,1.634601,69.684176
5.1754,0.017136,0.034182,0.218112,-0.000545,0.000195,-0.013659,0.127615,-0.464108,0.218033,-1.637639,-262.886829,1.63459,69.687599
5.1955,0.017616,0.034036,0.218126,-0.000545,0.000187,-0.013659,0.127503,-0.463767,0.218084,-1.637639,-262.886829,1.63459,69.687599
5.2156,0.01734,0.033679,0.21864,-0.000544,0.000179,-0.013659,0.127503,-0.463767,0.218084,-1.637639,-262.886829,1.63459,69.687599
5.2355,0.018086,0.033907,0.21757,-0.000543,0.000173,-0.013659,0.127936,-0.464176,0.218069,-1.637633,-262.883531,1.634583,69.691054
5.2555,0.017601,0.033674,0.216713,-0.000543,0.000171,-0.013659,0.128036,-0.46413,0.217785,-1.637633,-262.883531,1.634583,69.691054
5.2753,0.017898,0.033995,0.216934,-0.000543,0.00017,-0.013659,0.127243,-0.464395,0.216285,-1.63732,-262.880288,1.634528,69.694439
5.2962,0.017884,0.034106,0.217395,-0.000542,0.000167,-0.013659,0.127633,-0.46408,0.21686,-1.63732,-262.880288,1.634528,69.694439
5.3152,0.018022,0.034141,0.216739,-0.000542,0.000164,-0.013659,0.127633,-0.46408,0.21686,-1.63732,-262.880288,1.634528,69.694439
5.3353,0.01844,0.033927,0.216888,-0.000542,0.000161,-0.01366,0.127672,-0.463925,0.216169,-1.637115,-262.877014,1.634473,69.697849
5.3555,0.018384,0.033492,0.216314,-0.000541,0.000159,-0.01366,0.127882,-0.464007,0.2164,-1.637115,-262.877014,1.634473,69.697849
5.3756,0.018914,0.033793,0.214618,-0.000541,0.000157,-0.01366,0.127828,-0.464621,0.215881,-1.636919,-262.873734,1.634418,69.701257
5.3954,0.01861,0.033922,0.214661,-0.000541,0.000156,-0.013659,0.127555,-0.464517,0.214703,-1.636919,-262.873734,1.634418,69.701257
5.4152,0.018143,0.033921,0.217026,-0.000541,0.000156,-0.013659,0.127555,-0.464517,0.214703,-1.636919,-262.873734,1.634418,69.701257
5.4351,0.019077,0.034192,0.214083,-0.000541,0.000155,-0.013659,0.127936,-0.464114,0.216456,-1.636814,-262.870455,1.634384,69.704661
5.4556,0.019239,0.033991,0.21588,-0.000541,0.000153,-0.013659,0.127724,-0.464135,0.215414,-1.636814,-262.870455,1.634384,69.704661
5.4753,0.019444,0.034066,0.21383,-0.00054,0.000151,-0.013659,0.128467,-0.46417,0.215446,-1.636753,-262.86717,1.634352,69.70807
5.4954,0.019352,0.033972,0.214503,-0.00054,0.00015,-0.013659,0.127735,-0.464307,0.213946,-1.636753,-262.86717,1.634352,69.70807
5.5154,0.019288,0.034199,0.214023,-0.00054,0.000149,-0.013659,0.127735,-0.464307,0.213946,-1.636753,-262.86717,1.634352,69.70807
5.5353,0.019663,0.034178,0.213687,-0.00054,0.000147,-0.013659,0.127585,-0.464163,0.213452,-1.636669,-262.863888,1.634326,69.711474
5.5558,0.01965,0.034116,0.211974,-0.00054,0.000145,-0.01366,0.127677,-0.464187,0.213482,-1.636669,-262.863888,1.634326,69.711474
5.5749,0.020063,0.034245,0.212365,-0.000539,0.000143,-0.01366,0.126931,-0.464468,0.211539,-1.636568,-262.860607,1.634291,69.714871
5.5953,0.02023,0.034365,0.212926,-0.000539,0.000141,-0.01366,0.1275,-0.464314,0.212268,-1.636568,-262.860607,1.634291,69.714871
5.6155,0.02008,0.034389,0.214273,-0.000539,0.000138,-0.01366,0.1275,-0.464314,0.212268,-1.636568,-262.860607,1.634291,69.714871
5.6356,0.02031,0.034167,0.212957,-0.000539,0.000137,-0.01366,0.128501,-0.463946,0.213702,-1.636469,-262.857311,1.634263,69.718282
5.6552,0.020391,0.034209,0.212382,-0.000538,0.000137,-0.01366,0.128331,-0.464099,0.213325,-1.636469,-262.857311,1.634263,69.718282
5.6755,0.020832,0.034358,0.212328,-0.000538,0.000137,-0.01366,0.127876,-0.464332,0.21195,-1.636326,-262.854027,1.634219,69.721675
5.6955,0.02057,0.03456,0.211862,-0.000538,0.000137,-0.01366,0.128269,-0.464201,0.212274,-1.636326,-262.854027,1.634219,69.721675
5.7157,0.020468,0.034546,0.211953,-0.000538,0.000136,-0.01366,0.128269,-0.464201,0.212274,-1.636326,-262.854027,1.634219,69.721675
5.7358,0.020915,0.034333,0.209413,-0.000538,0.000136,-0.01366,0.127733,-0.46404,0.211382,-1.636316,-262.850733,1.634206,69.725078
5.7557,0.021139,0.034683,0.210514,-0.000538,0.000132,-0.01366,0.1274,-0.464241,0.2105,-1.636316,-262.850733,1.634206,69.725078
5.7755,0.021674,0.034797,0.210478,-0.000537,0.000129,-0.01366,0.127692,-0.464058,0.210081,-1.63628,-262.84744,1.634187,69.72848
5.7955,0.020848,0.034853,0.210818,-0.000537,0.000126,-0.01366,0.128182,-0.463957,0.210425,-1.63628,-262.84744,1.634187,69.72848
5.8156,0.021366,0.034782,0.210734,-0.000537,0.000124,-0.01366,0.128182,-0.463957,0.210425,-1.63628,-262.84744,1.634187,69.72848
5.8355,0.021254,0.03469,0.208023,-0.000537,0.000122,-0.01366,0.128024,-0.463935,0.210165,-1.636132,-262.844159,1.63415,69.731864
5.8553,0.021594,0.035084,0.210706,-0.000536,0.000118,-0.01366,0.127431,-0.46409,0.209222,-1.636132,-262.844159,1.63415,69.731864
5.875,0.022111,0.035065,0.208494,-0.000536,0.000115,-0.01366,0.128243,-0.463636,0.210272,-1.63597,-262.840858,1.634103,69.735261
5.8956,0.021728,0.034765,0.208183,-0.000535,0.00011,-0.013661,0.127721,-0.463868,0.208623,-1.63597,-262.840858,1.634103,69.735261
5.9153,0.021899,0.034414,0.208625,-0.000535,0.000107,-0.013661,0.127721,-0.463868,0.208623,-1.63597,-262.840858,1.634103,69.735261
5.9356,0.022027,0.034733,0.20906,-0.000535,0.000104,-0.013661,0.127505,-0.464528,0.208054,-1.635816,-262.837565,1.634059,69.738646
5.9552,0.021594,0.035002,0.208854,-0.000534,0.000105,-0.013661,0.127651,-0.464379,0.208397,-1.635816,-262.837565,1.634059,69.738646
5.9756,0.022733,0.035186,0.208284,-0.000534,0.000105,-0.01366,0.127319,-0.463916,0.208418,-1.635581,-262.834262,1.633988,69.742032
5.9955,0.022941,0.03481,0.207561,-0.000534,0.000103,-0.013661,0.128112,-0.463803,0.208274,-1.635581,-262.834262,1.633988,69.742032
6.0152,0.022906,0.034901,0.206531,-0.000534,0.000101,-0.013661,0.128112,-0.463803,0.208274,-1.635581,-262.834262,1.633988,69.742032
6.0354,0.022846,0.035272,0.207789,-0.000534,9.9e-05,-0.013661,0.127466,-0.464261,0.20596,-1.635585,-262.830955,1.633974,69.745423
6.0552,0.022672,0.035186,0.207506,-0.000533,9.7e-05,-0.013661,0.127706,-0.464054,0.206644,-1.635585,-262.830955,1.633974,69.745423
6.0753,0.02334,0.035363,0.205611,-0.000533,9.5e-05,-0.013661,0.127725,-0.463874,0.207071,-1.635436,-262.827652,1.633925,69.748805
6.0953,0.022975,0.035069,0.207245,-0.000533,9e-05,-0.013661,0.127486,-0.463892,0.205716,-1.635436,-262.827652,1.633925,69.748805
6.1154,0.02318,0.035499,0.20591,-0.000532,8.7e-05,-0.013661,0.127486,-0.463892,0.205716,-1.635436,-262.827652,1.633925,69.748805
6.1356,0.023479,0.034934,0.206016,-0.000532,8.4e-05,-0.013661,0.127431,-0.463728,0.205339,-1.635333,-262.824345,1.633891,69.752188
6.1552,0.023241,0.03531,0.204872,-0.000531,8.2e-05,-0.013661,0.127583,-0.463956,0.205552,-1.635333,-262.824345,1.633891,69.752188
6.1751,0.023786,0.035239,0.203944,-0.000531,8e-05,-0.013661,0.126979,-0.464025,0.204438,-1.635089,-262.821038,1.633815,69.755562
6.1951,0.023505,0.035069,0.204126,-0.000531,7.7e-05,-0.013661,0.127069,-0.464177,0.203965,-1.635089,-262.821038,1.633815,69.755562
6.2155,0.023757,0.035187,0.205503,-0.000531,7.5e-05,-0.013661,0.127069,-0.464177,0.203965,-1.635089,-262.821038,1.633815,69.755562
6.2349,0.024051,0.035555,0.205675,-0.00053,7.3e-05,-0.013661,0.127805,-0.464083,0.204931,-1.634994,-262.817727,1.633779,69.758937
6.255,0.02415,0.035269,0.203563,-0.00053,7.3e-05,-0.013661,0.127967,-0.463925,0.205169,-1.634994,-262.817727,1.633779,69.758937
6.2749,0.024245,0.035148,0.203044,-0.00053,7.3e-05,-0.013661,0.127235,-0.464202,0.203128,-1.634824,-262.814411,1.633717,69.762311
6.295,0.024109,0.035475,0.202304,-0.00053,7.2e-05,-0.013661,0.127099,-0.46436,0.203029,-1.634824,-262.814411,1.633717,69.762311
6.315,0.024626,0.035298,0.203321,-0.00053,7.1e-05,-0.013661,0.127099,-0.46436,0.203029,-1.634824,-262.814411,1.633717,69.762311
6.3349,0.024417,0.034995,0.202973,-0.00053,7e-05,-0.013661,0.127585,-0.464198,0.20275,-1.634807,-262.811097,1.6337,69.765683
6.3549,0.024241,0.035401,0.203252,-0.00053,6.9e-05,-0.013661,0.127434,-0.464336,0.202776,-1.634807,-262.811097,1.6337,69.765683
6.3758,0.024904,0.035662,0.203763,-0.000529,6.9e-05,-0.013661,0.12717,-0.464102,0.202818,-1.634722,-262.80778,1.633664,69.769055
6.3956,0.024941,0.035418,0.201636,-0.000529,6.8e-05,-0.013661,0.128022,-0.463815,0.203657,-1.634722,-262.80778,1.633664,69.769055
6.4155,0.024718,0.035433,0.203149,-0.000529,6.6e-05,-0.013661,0.128022,-0.463815,0.203657,-1.634722,-262.80778,1.633664,69.769055
6.4353,0.024947,0.035434,0.200856,-0.000529,6.5e-05,-0.013661,0.127591,-0.464081,0.202578,-1.634696,-262.804464,1.633649,69.772427
6.4552,0.025181,0.035251,0.203043,-0.000529,6.3e-05,-0.013661,0.127223,-0.464176,0.201809,-1.634696,-262.804464,1.633649,69.772427
6.4754,0.025579,0.036194,0.203005,-0.000528,6.1e-05,-0.013661,0.128006,-0.464274,0.202608,-1.634603,-262.801145,1.633615,69.775798
6.4955,0.025685,0.035672,0.200385,-0.000528,5.8e-05,-0.013661,0.128366,-0.463416,0.202948,-1.634603,-262.801145,1.633615,69.775798
6.5151,0.025294,0.035268,0.200737,-0.000528,5.6e-05,-0.013662,0.128366,-0.463416,0.202948,-1.634603,-262.801145,1.633615,69.775798
6.5354,0.025846,0.035795,0.200496,-0.000528,5.4e-05,-0.013662,0.126962,-0.464493,0.200167,-1.634509,-262.797826,1.633584,69.779166
6.5553,0.026061,0.035835,0.19937,-0.000527,5.3e-05,-0.013662,0.127145,-0.464287,0.200235,-1.634509,-262.797826,1.633584,69.779166
6.5751,0.026025,0.036056,0.199245,-0.000527,5.1e-05,-0.013662,0.127051,-0.464064,0.198935,-1.634343,-262.794503,1.633528,69.782531
6.5953,0.025997,0.035789,0.199677,-0.000526,4.6e-05,-0.013662,0.126976,-0.463874,0.199193,-1.634343,-262.794503,1.633528,69.782531
6.6157,0.026483,0.035727,0.20018,-0.000526,4.2e-05,-0.013662,0.126976,-0.463874,0.199193,-1.634343,-262.794503,1.633528,69.782531
6.6355,0.026136,0.036019,0.198571,-0.000525,3.8e-05,-0.013662,0.127872,-0.464091,0.199608,-1.634276,-262.79118,1.633501,69.785896
6.6552,0.026454,0.03562,0.198623,-0.000525,3.7e-05,-0.013662,0.127409,-0.464038,0.199119,-1.634276,-262.79118,1.633501,69.785896
6.6749,0.026979,0.0359,0.198539,-0.000525,3.6e-05,-0.013662,0.12707,-0.464355,0.198188,-1.633973,-262.787851,1.633403,69.789255
6.695,0.02687,0.036125,0.196274,-0.000525,3.5e-05,-0.013662,0.127525,-0.464106,0.198485,-1.633973,-262.787851,1.633403,69.789255
6.7155,0.026928,0.035659,0.197873,-0.000525,3.5e-05,-0.013662,0.127525,-0.464106,0.198485,-1.633973,-262.787851,1.633403,69.789255
6.735,0.027003,0.035885,0.196426,-0.000525,3.4e-05,-0.013662,0.127164,-0.464392,0.197299,-1.633914,-262.784517,1.633373,69.792618
6.7552,0.026968,0.0361,0.196492,-0.000524,3.3e-05,-0.013662,0.126906,-0.464358,0.196878,-1.633914,-262.784517,1.633373,69.792618
6.7751,0.027645,0.035943,0.197256,-0.000524,3.1e-05,-0.013662,0.126519,-0.464089,0.196057,-1.633858,-262.781178,1.633341,69.795985
6.7956,0.027555,0.036254,0.195861,-0.000524,3e-05,-0.013662,0.127508,-0.464161,0.19714,-1.633858,-262.781178,1.633341,69.795985
6.8154,0.027411,0.036172,0.196734,-0.000524,3e-05,-0.013662,0.127508,-0.464161,0.19714,-1.633858,-262.781178,1.633341,69.795985
6.8353,0.027643,0.036066,0.194646,-0.000524,2.9e-05,-0.013662,0.127078,-0.463993,0.196165,-1.633778,-262.777859,1.63331,69.799329
6.8551,0.027805,0.036282,0.19679,-0.000523,2.5e-05,-0.013662,0.126755,-0.464119,0.195484,-1.633778,-262.777859,1.63331,69.799329
6.8749,0.028294,0.035958,0.195671,-0.000523,2.1e-05,-0.013662,0.127504,-0.463877,0.196354,-1.633714,-262.774513,1.633279,69.802697
6.895,0.028042,0.03617,0.196645,-0.000523,2.1e-05,-0.013662,0.127454,-0.464275,0.195705,-1.633714,-262.774513,1.633279,69.802697
6.9151,0.028208,0.036173,0.195718,-0.000523,2.1e-05,-0.013662,0.127454,-0.464275,0.195705,-1.633714,-262.774513,1.633279,69.802697
6.935,0.028125,0.035991,0.194699,-0.000523,2.1e-05,-0.013662,0.127367,-0.464093,0.195148,-1.633536,-262.77119,1.63322,69.806037
6.9553,0.028327,0.036566,0.195093,-0.000522,1.9e-05,-0.013662,0.127132,-0.464208,0.194899,-1.633536,-262.77119,1.63322,69.806037
6.9758,0.028876,0.035988,0.193479,-0.000522,1.7e-05,-0.013662,0.127178,-0.463762,0.194656,-1.633514,-262.767855,1.633199,69.80939
6.9954,0.028305,0.036228,0.19217,-0.000522,1.6e-05,-0.013662,0.126957,-0.464429,0.193564,-1.633514,-262.767855,1.633199,69.80939
7.0157,0.029045,0.036706,0.19339,-0.000522,1.4e-05,-0.013662,0.126957,-0.464429,0.193564,-1.633514,-262.767855,1.633199,69.80939
7.0356,0.029057,0.036513,0.192576,-0.000522,1.3e-05,-0.013662,0.127039,-0.46379,0.192815,-1.633423,-262.764517,1.633166,69.812741
7.0558,0.028986,0.036475,0.194264,-0.000521,7e-06,-0.013662,0.126887,-0.463898,0.192655,-1.633423,-262.764517,1.633166,69.812741
7.0751,0.029373,0.036528,0.192659,-0.00052,2e-06,-0.013663,0.127422,-0.463935,0.193827,-1.633315,-262.761178,1.633123,69.81609
7.0953,0.029618,0.036146,0.192907,-0.00052,-0.0,-0.013663,0.127057,-0.464028,0.192742,-1.633315,-262.761178,1.633123,69.81609
7.1155,0.029478,0.036469,0.192065,-0.00052,-3e-06,-0.013663,0.127057,-0.464028,0.192742,-1.633315,-262.761178,1.633123,69.81609
7.1354,0.029627,0.035906,0.192569,-0.000519,-4e-06,-0.013663,0.126808,-0.464158,0.191492,-1.633079,-262.757835,1.633044,69.819435
7.1555,0.029593,0.036513,0.191016,-0.000519,-5e-06,-0.013663,0.126978,-0.464365,0.191865,-1.633079,-262.757835,1.633044,69.819435
7.1753,0.029999,0.036356,0.191721,-0.000519,-5e-06,-0.013663,0.126404,-0.464214,0.190579,-1.632907,-262.754489,1.632973,69.822778
7.1957,0.030083,0.036438,0.192538,-0.000519,-6e-06,-0.013663,0.127108,-0.464292,0.191595,-1.632907,-262.754489,1.632973,69.822778
7.2154,0.029979,0.036687,0.19131,-0.000519,-6e-06,-0.013663,0.127108,-0.464292,0.191595,-1.632907,-262.754489,1.632973,69.822778
7.2353,0.030402,0.036988,0.190405,-0.000519,-7e-06,-0.013663,0.126931,-0.464013,0.190738,-1.632877,-262.751142,1.632952,69.82612
7.2552,0.030408,0.036182,0.19121,-0.000518,-1.1e-05,-0.013663,0.126925,-0.463924,0.190536,-1.632877,-262.751142,1.632952,69.82612
7.2752,0.030587,0.036806,0.190057,-0.000518,-1.5e-05,-0.013663,0.127316,-0.464527,0.190774,-1.632818,-262.747796,1.632919,69.829462
7.2953,0.030854,0.037059,0.190819,-0.000517,-1.8e-05,-0.013663,0.126967,-0.464058,0.190099,-1.632818,-262.747796,1.632919,69.829462
7.3154,0.030545,0.036721,0.189167,-0.000517,-2e-05,-0.013663,0.126967,-0.464058,0.190099,-1.632818,-262.747796,1.632919,69.829462
7.3353,0.030703,0.036711,0.189972,-0.000517,-2.2e-05,-0.013663,0.126425,-0.464185,0.188593,-1.63263,-262.744436,1.632852,69.832809
7.3556,0.031101,0.036663,0.18865,-0.000516,-2.4e-05,-0.013663,0.126662,-0.464156,0.189094,-1.63263,-262.744436,1.632852,69.832809
7.3755,0.031458,0.037084,0.18799,-0.000516,-2.6e-05,-0.013663,0.126726,-0.464292,0.188216,-1.632466,-262.741088,1.632784,69.83614
7.3958,0.031241,0.036512,0.187706,-0.000515,-3e-05,-0.013663,0.126765,-0.463964,0.187988,-1.632466,-262.741088,1.632784,69.83614
7.4155,0.03145,0.036627,0.187301,-0.000515,-3.4e-05,-0.013663,0.126765,-0.463964,0.187988,-1.632466,-262.741088,1.632784,69.83614
7.4351,0.031495,0.036684,0.188346,-0.000514,-3.6e-05,-0.013663,0.126395,-0.464459,0.186729,-1.632346,-262.737738,1.632734,69.839469
7.4551,0.031528,0.03697,0.187405,-0.000514,-3.7e-05,-0.013663,0.126632,-0.464393,0.187321,-1.632346,-262.737738,1.632734,69.839469
7.4754,0.032324,0.036416,0.187945,-0.000514,-3.7e-05,-0.013663,0.126531,-0.464105,0.18697,-1.632097,-262.734373,1.632634,69.842804
7.4957,0.032084,0.036892,0.188309,-0.000514,-3.4e-05,-0.013663,0.127519,-0.464561,0.18784,-1.632097,-262.734373,1.632634,69.842804
7.5154,0.032395,0.037359,0.188044,-0.000515,-3.1e-05,-0.013663,0.127519,-0.464561,0.18784,-1.632097,-262.734373,1.632634,69.842804
7.5353,0.032305,0.036782,0.185984,-0.000515,-2.8e-05,-0.013663,0.127712,-0.463656,0.187473,-1.632061,-262.731006,1.632609,69.846142
7.5555,0.032509,0.037155,0.186618,-0.000515,-3.2e-05,-0.013663,0.12725,-0.463977,0.186785,-1.632061,-262.731006,1.632609,69.846142
7.5759,0.032202,0.036869,0.18652,-0.000514,-3.5e-05,-0.013663,0.127117,-0.463994,0.186185,-1.632233,-262.727664,1.63265,69.849461
7.5956,0.032527,0.037017,0.186782,-0.000514,-3.7e-05,-0.013663,0.126811,-0.464256,0.18646,-1.632233,-262.727664,1.63265,69.849461
7.6152,0.032578,0.037007,0.1862,-0.000514,-3.9e-05,-0.013663,0.126811,-0.464256,0.18646,-1.632233,-262.727664,1.63265,69.849461
7.6352,0.03289,0.036984,0.184769,-0.000513,-4e-05,-0.013663,0.126971,-0.464183,0.185628,-1.632085,-262.724302,1.632599,69.852796
7.6552,0.032973,0.036799,0.185351,-0.000513,-4.3e-05,-0.013663,0.126811,-0.464246,0.185209,-1.632085,-262.724302,1.632599,69.852796
7.6749,0.033059,0.036839,0.184283,-0.000513,-4.5e-05,-0.013663,0.126946,-0.46447,0.184916,-1.631959,-262.720941,1.632548,69.856124
7.6953,0.033041,0.03692,0.18363,-0.000513,-4.6e-05,-0.013663,0.126551,-0.464521,0.184318,-1.631959,-262.720941,1.632548,69.856124
7.7151,0.032914,0.036949,0.184283,-0.000512,-4.7e-05,-0.013663,0.126551,-0.464521,0.184318,-1.631959,-262.720941,1.632548,69.856124
7.7354,0.033724,0.037267,0.185781,-0.000512,-4.8e-05,-0.013663,0.126347,-0.464421,0.183713,-1.631848,-262.717558,1.632504,69.859471
7.755,0.033366,0.036906,0.183177,-0.000512,-5e-05,-0.013663,0.127013,-0.464226,0.18452,-1.631848,-262.717558,1.632504,69.859471
7.7749,0.033645,0.037506,0.181441,-0.000512,-5.1e-05,-0.013663,0.126249,-0.464566,0.182747,-1.631751,-262.71422,1.63246,69.862771
7.7952,0.03376,0.037018,0.184285,-0.000511,-5.9e-05,-0.013664,0.125724,-0.464162,0.181536,-1.631751,-262.71422,1.63246,69.862771
7.8154,0.033487,0.03732,0.182653,-0.00051,-6.5e-05,-0.013664,0.125724,-0.464162,0.181536,-1.631751,-262.71422,1.63246,69.862771
7.8352,0.034018,0.037249,0.183121,-0.000509,-7.1e-05,-0.013664,0.126103,-0.464203,0.182081,-1.631678,-262.710856,1.632427,69.866095
7.8553,0.034334,0.037251,0.182384,-0.000509,-7.2e-05,-0.013664,0.126421,-0.464212,0.182439,-1.631678,-262.710856,1.632427,69.866095
7.8751,0.034429,0.036961,0.181244,-0.000509,-7.4e-05,-0.013664,0.126819,-0.464295,0.181948,-1.631221,-262.707477,1.632251,69.869417
7.8949,0.034531,0.03756,0.183494,-0.000509,-7.3e-05,-0.013664,0.126398,-0.464651,0.181285,-1.631221,-262.707477,1.632251,69.869417
7.915,0.034747,0.037344,0.18225,-0.000509,-7.2e-05,-0.013664,0.126398,-0.464651,0.181285,-1.631221,-262.707477,1.632251,69.869417
7.9354,0.034658,0.037619,0.182293,-0.000509,-7.2e-05,-0.013664,0.12716,-0.464216,0.181679,-1.631133,-262.704068,1.632204,69.872767
7.9554,0.035114,0.037411,0.182145,-0.000508,-7.3e-05,-0.013664,0.127137,-0.464092,0.181881,-1.631133,-262.704068,1.632204,69.872767
7.9752,0.035194,0.037262,0.179966,-0.000508,-7.4e-05,-0.013664,0.12748,-0.464157,0.181718,-1.631143,-262.700731,1.632188,69.876046
7.995,0.035239,0.037564,0.180004,-0.000508,-7.5e-05,-0.013664,0.126569,-0.464472,0.180099,-1.631143,-262.700731,1.632188,69.876046
8.0155,0.034987,0.037436,0.180432,-0.000508,-7.6e-05,-0.013664,0.126569,-0.464472,0.180099,-1.631143,-262.700731,1.632188,69.876046
8.0352,0.035183,0.03764,0.179319,-0.000508,-7.7e-05,-0.013664,0.126489,-0.464292,0.179861,-1.631087,-262.697363,1.63216,69.879356
8.0554,0.035414,0.037271,0.180249,-0.000507,-8e-05,-0.013664,0.126347,-0.464248,0.179575,-1.631087,-262.697363,1.63216,69.879356
8.0752,0.035652,0.037827,0.178602,-0.000507,-8.3e-05,-0.013664,0.126828,-0.464472,0.179813,-1.630997,-262.693981,1.632116,69.882676
8.0954,0.035684,0.037628,0.179929,-0.000506,-8.8e-05,-0.013664,0.126303,-0.464096,0.178684,-1.630997,-262.693981,1.632116,69.882676
8.1153,0.036019,0.037542,0.178002,-0.000506,-9.1e-05,-0.013664,0.126303,-0.464096,0.178684,-1.630997,-262.693981,1.632116,69.882676
8.1352,0.036148,0.037429,0.17901,-0.000505,-9.4e-05,-0.013664,0.126302,-0.464407,0.177431,-1.630847,-262.690602,1.632054,69.885989
8.1554,0.036184,0.037512,0.17832,-0.000505,-9.5e-05,-0.013664,0.126569,-0.464414,0.178015,-1.630847,-262.690602,1.632054,69.885989
8.1752,0.036577,0.037406,0.177085,-0.000505,-9.5e-05,-0.013664,0.126631,-0.464406,0.177884,-1.630571,-262.687224,1.631937,69.889291
8.1951,0.036691,0.037467,0.17938,-0.000505,-9.6e-05,-0.013664,0.126437,-0.4646,0.177133,-1.630571,-262.687224,1.631937,69.889291
8.2153,0.036651,0.037651,0.177468,-0.000505,-9.6e-05,-0.013664,0.126437,-0.4646,0.177133,-1.630571,-262.687224,1.631937,69.889291
8.2354,0.03665,0.037803,0.177348,-0.000505,-9.6e-05,-0.013664,0.126666,-0.464347,0.176897,-1.630534,-262.683846,1.631911,69.892594
8.2551,0.036849,0.037579,0.178295,-0.000504,-9.8e-05,-0.013664,0.126647,-0.464287,0.177014,-1.630534,-262.683846,1.631911,69.892594
8.2751,0.037045,0.037863,0.177675,-0.000504,-9.9e-05,-0.013664,0.127284,-0.464342,0.177861,-1.630498,-262.680463,1.631883,69.895899
8.2955,0.037067,0.037678,0.177836,-0.000504,-0.0001,-0.013664,0.127192,-0.46413,0.177669,-1.630498,-262.680463,1.631883,69.895899
8.3158,0.037019,0.037757,0.175609,-0.000504,-0.0001,-0.013664,0.127192,-0.46413,0.177669,-1.630498,-262.680463,1.631883,69.895899
8.3353,0.037391,0.037775,0.175454,-0.000504,-0.000101,-0.013664,0.1261,-0.464407,0.175037,-1.630408,-262.67708,1.631842,69.899204
8.3557,0.037739,0.03808,0.174528,-0.000503,-0.000104,-0.013664,0.126225,-0.464403,0.17514,-1.630408,-262.67708,1.631842,69.899204
8.3752,0.037601,0.037771,0.176667,-0.000503,-0.000107,-0.013664,0.126281,-0.464178,0.174093,-1.630366,-262.673695,1.631815,69.902509
8.3955,0.037847,0.038006,0.175493,-0.000503,-0.000106,-0.013664,0.127148,-0.464281,0.176416,-1.630366,-262.673695,1.631815,69.902509
8.4153,0.03792,0.037722,0.175426,-0.000503,-0.000106,-0.013664,0.127148,-0.464281,0.176416,-1.630366,-262.673695,1.631815,69.902509
8.4357,0.038326,0.037767,0.174615,-0.000503,-0.000106,-0.013664,0.126909,-0.464459,0.174855,-1.630221,-262.670308,1.631754,69.90581
8.4555,0.037954,0.037568,0.174616,-0.000503,-0.000106,-0.013664,0.126914,-0.464468,0.174691,-1.630221,-262.670308,1.631754,69.90581
8.4756,0.038367,0.038135,0.173777,-0.000503,-0.000107,-0.013664,0.126542,-0.464683,0.17418,-1.630225,-262.666922,1.631745,69.909112
8.4956,0.0381,0.037945,0.174089,-0.000502,-0.000111,-0.013665,0.126546,-0.464229,0.173791,-1.630225,-262.666922,1.631745,69.909112
8.5155,0.038217,0.038038,0.172196,-0.000502,-0.000114,-0.013665,0.126546,-0.464229,0.173791,-1.630225,-262.666922,1.631745,69.909112
8.5356,0.03857,0.037861,0.173997,-0.000501,-0.000117,-0.013665,0.125584,-0.464428,0.171624,-1.630186,-262.663534,1.631724,69.912414
8.5553,0.038321,0.037928,0.173141,-0.000501,-0.00012,-0.013665,0.126104,-0.464433,0.172528,-1.630186,-262.663534,1.631724,69.912414
8.5754,0.038701,0.038401,0.170886,-0.0005,-0.000123,-0.013665,0.126167,-0.464453,0.172706,-1.629942,-262.660144,1.631621,69.915711
8.5952,0.038829,0.03824,0.171511,-0.000499,-0.00013,-0.013665,0.125495,-0.464196,0.171027,-1.629942,-262.660144,1.631621,69.915711
8.6153,0.038615,0.038045,0.172757,-0.000498,-0.000136,-0.013665,0.125495,-0.464196,0.171027,-1.629942,-262.660144,1.631621,69.915711
8.6352,0.03872,0.038109,0.170198,-0.000498,-0.000141,-0.013665,0.126263,-0.464372,0.172185,-1.629789,-262.65675,1.631552,69.919006
8.6552,0.039482,0.038144,0.171954,-0.000497,-0.000142,-0.013665,0.125786,-0.464435,0.171306,-1.629789,-262.65675,1.631552,69.919006
8.6754,0.039546,0.03829,0.170456,-0.000497,-0.000144,-0.013665,0.126732,-0.464342,0.171519,-1.629351,-262.65335,1.631357,69.922294
8.6956,0.039444,0.038102,0.171592,-0.000497,-0.000145,-0.013665,0.126118,-0.464321,0.170529,-1.629351,-262.65335,1.631357,69.922294
8.7153,0.039365,0.038278,0.170086,-0.000496,-0.000147,-0.013665,0.126118,-0.464321,0.170529,-1.629351,-262.65335,1.631357,69.922294
8.7354,0.039582,0.038103,0.170766,-0.000496,-0.000148,-0.013665,0.125672,-0.464372,0.169514,-1.629261,-262.649948,1.631304,69.925581
8.7555,0.039702,0.038449,0.170235,-0.000496,-0.00015,-0.013665,0.125904,-0.464417,0.169956,-1.629261,-262.649948,1.631304,69.925581
8.7754,0.040348,0.038189,0.168718,-0.000495,-0.000151,-0.013665,0.126088,-0.464186,0.1698,-1.629121,-262.646544,1.631226,69.928866
8.7953,0.040396,0.038365,0.168767,-0.000495,-0.000152,-0.013665,0.125995,-0.464535,0.168793,-1.629121,-262.646544,1.631226,69.928866
8.8157,0.040168,0.038322,0.168323,-0.000495,-0.000153,-0.013665,0.125995,-0.464535,0.168793,-1.629121,-262.646544,1.631226,69.928866
8.8353,0.040454,0.038488,0.168385,-0.000495,-0.000154,-0.013665,0.125589,-0.46448,0.167746,-1.629037,-262.64314,1.631179,69.93215
8.8558,0.040697,0.038293,0.16938,-0.000494,-0.000157,-0.013665,0.125719,-0.46441,0.167935,-1.629037,-262.64314,1.631179,69.93215
8.875,0.040723,0.037976,0.167579,-0.000494,-0.00016,-0.013665,0.126653,-0.464417,0.168938,-1.628941,-262.639734,1.631123,69.935433
8.8952,0.040357,0.038174,0.168356,-0.000494,-0.000159,-0.013665,0.125868,-0.464837,0.167683,-1.628941,-262.639734,1.631123,69.935433
8.9152,0.040919,0.038099,0.168047,-0.000494,-0.000158,-0.013665,0.125868,-0.464837,0.167683,-1.628941,-262.639734,1.631123,69.935433
8.9351,0.04169,0.038353,0.168149,-0.000494,-0.000158,-0.013665,0.126201,-0.464727,0.167475,-1.628793,-262.636326,1.631051,69.938713
8.9554,0.040972,0.038187,0.165884,-0.000494,-0.000157,-0.013665,0.126543,-0.464617,0.167684,-1.628793,-262.636326,1.631051,69.938713
8.9753,0.04157,0.038425,0.167098,-0.000494,-0.000156,-0.013665,0.12517,-0.46482,0.165448,-1.628821,-262.632919,1.631048,69.941995
8.9959,0.041521,0.038519,0.16717,-0.000494,-0.000158,-0.013665,0.126282,-0.464504,0.166925,-1.628821,-262.632919,1.631048,69.941995
9.0155,0.041504,0.038299,0.16647,-0.000494,-0.000159,-0.013665,0.126282,-0.464504,0.166925,-1.628821,-262.632919,1.631048,69.941995
9.0358,0.042068,0.038254,0.165925,-0.000493,-0.000161,-0.013665,0.125992,-0.46466,0.165898,-1.628839,-262.629513,1.63105,69.945276
9.0555,0.041644,0.038908,0.165859,-0.000493,-0.000162,-0.013665,0.126117,-0.464695,0.165843,-1.628839,-262.629513,1.63105,69.945276
9.0758,0.041865,0.038351,0.163962,-0.000493,-0.000163,-0.013665,0.12583,-0.464101,0.165424,-1.628729,-262.626104,1.630997,69.948556
9.0955,0.042189,0.038591,0.165307,-0.000492,-0.000167,-0.013665,0.125175,-0.464746,0.164071,-1.628729,-262.626104,1.630997,69.948556
9.1151,0.042206,0.03845,0.165756,-0.000492,-0.000171,-0.013665,0.125175,-0.464746,0.164071,-1.628729,-262.626104,1.630997,69.948556
9.1354,0.042489,0.0387,0.164974,-0.000491,-0.000174,-0.013665,0.126336,-0.46457,0.165184,-1.628671,-262.622695,1.630968,69.951836
9.1557,0.042295,0.038914,0.163754,-0.000491,-0.000175,-0.013665,0.126297,-0.464492,0.165033,-1.628671,-262.622695,1.630968,69.951836
9.1749,0.042556,0.038868,0.162695,-0.000491,-0.000176,-0.013665,0.125422,-0.464272,0.163318,-1.628466,-262.619282,1.630875,69.955111
9.1951,0.042908,0.038802,0.165893,-0.00049,-0.000182,-0.013666,0.125187,-0.464386,0.162729,-1.628466,-262.619282,1.630875,69.955111
9.2156,0.042493,0.038765,0.163892,-0.000489,-0.000187,-0.013666,0.125187,-0.464386,0.162729,-1.628466,-262.619282,1.630875,69.955111
9.2355,0.043024,0.038885,0.163198,-0.000488,-0.000192,-0.013666,0.125686,-0.464411,0.16332,-1.628336,-262.615866,1.630806,69.958387
9.2555,0.043422,0.039165,0.162118,-0.000488,-0.000194,-0.013666,0.125765,-0.464383,0.163204,-1.628336,-262.615866,1.630806,69.958387
9.2752,0.043421,0.038595,0.161939,-0.000488,-0.000195,-0.013666,0.125726,-0.464157,0.161683,-1.627934,-262.612447,1.630614,69.961653
9.2955,0.043545,0.038493,0.162963,-0.000487,-0.000196,-0.013666,0.125655,-0.464681,0.161894,-1.627934,-262.612447,1.630614,69.961653
9.3153,0.043433,0.038822,0.162055,-0.000487,-0.000197,-0.013666,0.125655,-0.464681,0.161894,-1.627934,-262.612447,1.630614,69.961653
9.3351,0.043788,0.038362,0.162981,-0.000487,-0.000197,-0.013666,0.125701,-0.464508,0.161482,-1.62783,-262.609025,1.630554,69.96492
9.3554,0.044025,0.038653,0.160994,-0.000487,-0.000197,-0.013666,0.126039,-0.464659,0.162023,-1.62783,-262.609025,1.630554,69.96492
9.3757,0.04397,0.038778,0.161116,-0.000487,-0.000196,-0.013666,0.125763,-0.46476,0.160558,-1.627773,-262.605602,1.630516,69.968185
9.3957,0.044181,0.039028,0.159439,-0.000487,-0.000198,-0.013666,0.125781,-0.464631,0.161043,-1.627773,-262.605602,1.630516,69.968185
9.4156,0.043886,0.038757,0.161228,-0.000487,-0.000199,-0.013666,0.125781,-0.464631,0.161043,-1.627773,-262.605602,1.630516,69.968185
9.4355,0.044572,0.038908,0.161237,-0.000486,-0.0002,-0.013666,0.125738,-0.46464,0.160656,-1.627752,-262.602156,1.630491,69.971473
9.4558,0.044202,0.038683,0.160996,-0.000486,-0.000201,-0.013666,0.126037,-0.464572,0.160837,-1.627752,-262.602156,1.630491,69.971473
9.4759,0.044536,0.038914,0.158955,-0.000486,-0.000202,-0.013666,0.125941,-0.46473,0.160565,-1.627643,-262.598755,1.630431,69.974715
9.4957,0.044594,0.039102,0.160011,-0.000485,-0.000205,-0.013666,0.125324,-0.464664,0.15908,-1.627643,-262.598755,1.630431,69.974715
9.5154,0.044795,0.038952,0.160128,-0.000485,-0.000208,-0.013666,0.125324,-0.464664,0.15908,-1.627643,-262.598755,1.630431,69.974715
9.5351,0.04489,0.038853,0.160019,-0.000485,-0.000211,-0.013666,0.126094,-0.464535,0.159556,-1.627593,-262.595317,1.630402,69.977992
9.5555,0.044912,0.03902,0.157837,-0.000484,-0.000211,-0.013666,0.126116,-0.464576,0.159683,-1.627593,-262.595317,1.630402,69.977992
9.5753,0.045225,0.0387,0.158739,-0.000484,-0.000211,-0.013666,0.125061,-0.464649,0.157404,-1.627364,-262.591897,1.630287,69.981244
9.5958,0.045144,0.038729,0.158789,-0.000484,-0.000211,-0.013666,0.125764,-0.464865,0.158583,-1.627364,-262.591897,1.630287,69.981244
9.6153,0.045542,0.039217,0.159445,-0.000484,-0.000211,-0.013666,0.125764,-0.464865,0.158583,-1.627364,-262.591897,1.630287,69.981244
9.6351,0.045616,0.038901,0.159727,-0.000484,-0.000211,-0.013666,0.126497,-0.464326,0.158874,-1.627344,-262.588472,1.630269,69.984501
9.6555,0.045618,0.039105,0.156037,-0.000484,-0.000211,-0.013666,0.12659,-0.464443,0.159157,-1.627344,-262.588472,1.630269,69.984501
9.6754,0.046145,0.039021,0.157522,-0.000484,-0.000212,-0.013666,0.12486,-0.464707,0.155603,-1.627324,-262.58504,1.63025,69.987764
9.6953,0.046189,0.03888,0.15766,-0.000484,-0.000214,-0.013666,0.126039,-0.464669,0.157336,-1.627324,-262.58504,1.63025,69.987764
9.7152,0.046295,0.039335,0.158099,-0.000484,-0.000215,-0.013666,0.126039,-0.464669,0.157336,-1.627324,-262.58504,1.63025,69.987764
9.7352,0.046169,0.039193,0.155778,-0.000483,-0.000216,-0.013666,0.126571,-0.464316,0.157528,-1.627301,-262.58161,1.630235,69.991024
9.7551,0.046284,0.039082,0.156795,-0.000483,-0.00022,-0.013666,0.126041,-0.464448,0.156737,-1.627301,-262.58161,1.630235,69.991024
9.7749,0.046851,0.039456,0.156896,-0.000482,-0.000222,-0.013666,0.125908,-0.464671,0.156361,-1.627178,-262.578182,1.630172,69.99428
9.7954,0.046463,0.039131,0.155045,-0.000482,-0.000224,-0.013666,0.126485,-0.464314,0.156829,-1.627178,-262.578182,1.630172,69.99428
9.8152,0.046516,0.038856,0.155867,-0.000482,-0.000226,-0.013666,0.126485,-0.464314,0.156829,-1.627178,-262.578182,1.630172,69.99428
9.8355,0.047075,0.039286,0.154701,-0.000481,-0.000227,-0.013666,0.125668,-0.464974,0.155296,-1.627028,-262.574753,1.630097,69.997532
9.8553,0.046983,0.039128,0.155141,-0.000481,-0.000229,-0.013666,0.125662,-0.464833,0.154988,-1.627028,-262.574753,1.630097,69.997532
9.8749,0.047437,0.038919,0.153692,-0.000481,-0.00023,-0.013666,0.125774,-0.464756,0.154705,-1.626887,-262.571313,1.630021,70.00079
9.8951,0.047339,0.039465,0.153227,-0.000481,-0.000231,-0.013666,0.125533,-0.465043,0.153757,-1.626887,-262.571313,1.630021,70.00079
9.915,0.047248,0.039161,0.154247,-0.00048,-0.000232,-0.013666,0.125533,-0.465043,0.153757,-1.626887,-262.571313,1.630021,70.00079
9.935,0.047733,0.039129,0.153706,-0.00048,-0.000233,-0.013666,0.125584,-0.464797,0.153676,-1.62681,-262.567882,1.629977,70.004037
9.9551,0.047627,0.039382,0.153814,-0.00048,-0.000235,-0.013666,0.125676,-0.464823,0.153623,-1.62681,-262.567882,1.629977,70.004037
9.975,0.047682,0.039638,0.15337,-0.00048,-0.000236,-0.013666,0.125749,-0.464607,0.153378,-1.626723,-262.564445,1.629925,70.007289
9.995,0.048074,0.039469,0.153033,-0.000479,-0.000241,-0.013666,0.125608,-0.464397,0.153349,-1.626723,-262.564445,1.629925,70.007289
10.0152,0.047916,0.038961,0.153709,-0.000478,-0.000245,-0.013666,0.125608,-0.464397,0.153349,-1.626723,-262.564445,1.629925,70.007289
10.0355,0.04826,0.039781,0.152708,-0.000478,-0.000249,-0.013667,0.12598,-0.465039,0.153137,-1.626625,-262.560995,1.629872,70.010549
10.0555,0.048322,0.039474,0.153371,-0.000478,-0.000249,-0.013666,0.125919,-0.464728,0.152892,-1.626625,-262.560995,1.629872,70.010549
10.0753,0.048381,0.03915,0.15091,-0.000477,-0.000249,-0.013666,0.126221,-0.464549,0.152938,-1.6264,-262.557559,1.629757,70.01379
10.0955,0.048435,0.039978,0.152072,-0.000477,-0.000251,-0.013666,0.125152,-0.465011,0.151062,-1.6264,-262.557559,1.629757,70.01379
10.1156,0.048395,0.039319,0.150303,-0.000477,-0.000252,-0.013666,0.125152,-0.465011,0.151062,-1.6264,-262.557559,1.629757,70.01379
10.1354,0.048941,0.039559,0.149967,-0.000476,-0.000254,-0.013666,0.124743,-0.464944,0.149733,-1.62628,-262.554114,1.629684,70.017036
10.1557,0.049153,0.039361,0.150751,-0.000476,-0.000258,-0.013667,0.124904,-0.464852,0.149763,-1.62628,-262.554114,1.629684,70.017036
10.1756,0.049264,0.03934,0.150771,-0.000475,-0.000261,-0.013667,0.125731,-0.464865,0.150317,-1.626139,-262.550671,1.629603,70.020276
10.1954,0.049273,0.039278,0.150001,-0.000475,-0.000261,-0.013666,0.125854,-0.464874,0.15071,-1.626139,-262.550671,1.629603,70.020276
10.2151,0.048827,0.03956,0.150163,-0.000475,-0.00026,-0.013666,0.125854,-0.464874,0.15071,-1.626139,-262.550671,1.629603,70.020276
10.2351,0.049614,0.03943,0.148908,-0.000475,-0.00026,-0.013666,0.125105,-0.464715,0.149592,-1.625938,-262.547227,1.629496,70.023512
10.2555,0.049347,0.039571,0.150252,-0.000475,-0.000263,-0.013666,0.125173,-0.464802,0.149248,-1.625938,-262.547227,1.629496,70.023512
10.275,0.04975,0.0395,0.148267,-0.000474,-0.000266,-0.013667,0.125674,-0.464693,0.149817,-1.625944,-262.543775,1.629484,70.026756
10.2951,0.04997,0.039455,0.149586,-0.000474,-0.000269,-0.013667,0.125139,-0.464887,0.148379,-1.625944,-262.543775,1.629484,70.026756
10.3155,0.049763,0.039521,0.147958,-0.000473,-0.000271,-0.013667,0.125139,-0.464887,0.148379,-1.625944,-262.543775,1.629484,70.026756
10.3352,0.050476,0.039768,0.14818,-0.000473,-0.000273,-0.013667,0.124929,-0.46492,0.147387,-1.625783,-262.540321,1.629398,70.029997
10.3554,0.050419,0.039584,0.147994,-0.000472,-0.000276,-0.013667,0.125274,-0.464808,0.147648,-1.625783,-262.540321,1.629398,70.029997
10.3752,0.050448,0.039483,0.147835,-0.000472,-0.000278,-0.013667,0.125607,-0.464852,0.14756,-1.625591,-262.53687,1.629289,70.03323
10.3954,0.050398,0.039877,0.14962,-0.000472,-0.000278,-0.013667,0.125572,-0.464946,0.147791,-1.625591,-262.53687,1.629289,70.03323
10.4152,0.050119,0.039595,0.147468,-0.000472,-0.000278,-0.013667,0.125572,-0.464946,0.147791,-1.625591,-262.53687,1.629289,70.03323
10.4351,0.050863,0.03984,0.146394,-0.000472,-0.000278,-0.013667,0.125038,-0.464884,0.146898,-1.62546,-262.533416,1.629215,70.036462
10.4553,0.050766,0.039409,0.146176,-0.000471,-0.000281,-0.013667,0.125126,-0.464812,0.146625,-1.62546,-262.533416,1.629215,70.036462
10.4752,0.051104,0.039679,0.145075,-0.000471,-0.000283,-0.013667,0.125037,-0.465163,0.145741,-1.625438,-262.529957,1.62919,70.039699
10.4954,0.050979,0.039408,0.145457,-0.00047,-0.000287,-0.013667,0.12485,-0.464981,0.145111,-1.625438,-262.529957,1.62919,70.039699
10.5153,0.051187,0.039589,0.147143,-0.00047,-0.000289,-0.013667,0.12485,-0.464981,0.145111,-1.625438,-262.529957,1.62919,70.039699
10.535,0.051658,0.039516,0.144458,-0.000469,-0.000292,-0.013667,0.125942,-0.464915,0.146572,-1.625283,-262.526508,1.629105,70.042922
10.5551,0.051435,0.039699,0.145236,-0.000469,-0.000291,-0.013667,0.125589,-0.465021,0.145649,-1.625283,-262.526508,1.629105,70.042922
10.5751,0.051762,0.039739,0.143458,-0.000469,-0.00029,-0.013667,0.125232,-0.464943,0.144801,-1.625056,-262.523042,1.628977,70.046156
10.5953,0.051735,0.040018,0.143868,-0.000469,-0.000294,-0.013667,0.124722,-0.465016,0.143551,-1.625056,-262.523042,1.628977,70.046156
10.6153,0.051775,0.039543,0.145195,-0.000468,-0.000297,-0.013667,0.124722,-0.465016,0.143551,-1.625056,-262.523042,1.628977,70.046156
10.6352,0.052347,0.039686,0.144523,-0.000468,-0.0003,-0.013667,0.125546,-0.465106,0.144623,-1.625071,-262.519588,1.628975,70.049378
10.6556,0.051983,0.039963,0.144957,-0.000468,-0.000299,-0.013667,0.125646,-0.465064,0.144517,-1.625071,-262.519588,1.628975,70.049378
10.6755,0.05233,0.039825,0.143935,-0.000468,-0.000297,-0.013667,0.125639,-0.4647,0.14452,-1.624813,-262.516118,1.62883,70.052608
10.6952,0.05244,0.040113,0.144145,-0.000468,-0.000299,-0.013667,0.125496,-0.464885,0.143964,-1.624813,-262.516118,1.62883,70.052608
10.7154,0.052723,0.039879,0.144686,-0.000467,-0.0003,-0.013667,0.125496,-0.464885,0.143964,-1.624813,-262.516118,1.62883,70.052608
10.7351,0.052673,0.039997,0.142224,-0.000467,-0.000301,-0.013667,0.126238,-0.464808,0.14411,-1.624857,-262.512656,1.628843,70.055832
10.7551,0.052827,0.03982,0.141935,-0.000467,-0.000302,-0.013667,0.125729,-0.464828,0.143296,-1.624857,-262.512656,1.628843,70.055832
10.7753,0.05307,0.039966,0.141533,-0.000467,-0.000303,-0.013667,0.124957,-0.465063,0.141499,-1.624764,-262.509193,1.628786,70.059055
10.7956,0.052816,0.039971,0.141873,-0.000466,-0.000306,-0.013667,0.125005,-0.464946,0.141508,-1.624764,-262.509193,1.628786,70.059055
10.8154,0.052659,0.039946,0.141693,-0.000466,-0.000309,-0.013667,0.125005,-0.464946,0.141508,-1.624764,-262.509193,1.628786,70.059055
10.8353,0.053191,0.039849,0.141977,-0.000465,-0.000312,-0.013667,0.124663,-0.464958,0.141121,-1.624699,-262.505726,1.628747,70.06228
10.8551,0.053264,0.039951,0.141694,-0.000465,-0.000314,-0.013667,0.124945,-0.464985,0.141406,-1.624699,-262.505726,1.628747,70.06228
10.8749,0.053757,0.039964,0.141376,-0.000464,-0.000316,-0.013667,0.125273,-0.46495,0.141259,-1.624455,-262.502258,1.62861,70.065499
10.8952,0.053848,0.040153,0.140714,-0.000464,-0.000316,-0.013667,0.125589,-0.464948,0.141345,-1.624455,-262.502258,1.62861,70.065499
10.9153,0.053744,0.039767,0.141688,-0.000464,-0.000316,-0.013667,0.125589,-0.464948,0.141345,-1.624455,-262.502258,1.62861,70.065499
10.9352,0.053898,0.040151,0.139278,-0.000464,-0.000316,-0.013667,0.125746,-0.465138,0.141117,-1.624343,-262.498793,1.628543,70.068712
10.9553,0.053699,0.040151,0.139725,-0.000464,-0.000317,-0.013667,0.125319,-0.465047,0.140304,-1.624343,-262.498793,1.628543,70.068712
10.9752,0.054357,0.039906,0.139095,-0.000464,-0.000318,-0.013667,0.124714,-0.464891,0.13929,-1.624307,-262.495317,1.628512,70.071936
10.9952,0.054515,0.039824,0.138289,-0.000463,-0.00032,-0.013667,0.125037,-0.465145,0.13909,-1.624307,-262.495317,1.628512,70.071936
11.0156,0.054437,0.039785,0.138123,-0.000463,-0.000322,-0.013667,0.125037,-0.465145,0.13909,-1.624307,-262.495317,1.628512,70.071936
11.0353,0.05478,0.039798,0.139305,-0.000463,-0.000323,-0.013667,0.124638,-0.465374,0.137551,-1.624243,-262.491852,1.628472,70.075147
11.0554,0.054738,0.040264,0.139951,-0.000462,-0.000324,-0.013667,0.125027,-0.46533,0.138201,-1.624243,-262.491852,1.628472,70.075147
11.0753,0.054915,0.039784,0.137124,-0.000462,-0.000325,-0.013667,0.125867,-0.464762,0.139515,-1.624098,-262.488372,1.628385,70.078368
11.0951,0.05489,0.040201,0.138512,-0.000462,-0.000327,-0.013667,0.124733,-0.465373,0.137304,-1.624098,-262.488372,1.628385,70.078368
11.1155,0.055243,0.040137,0.13565,-0.000462,-0.000328,-0.013667,0.124733,-0.465373,0.137304,-1.624098,-262.488372,1.628385,70.078368
11.1352,0.055448,0.040304,0.138057,-0.000461,-0.00033,-0.013667,0.124195,-0.465194,0.13508,-1.624048,-262.484905,1.628352,70.081576
11.1553,0.055419,0.039931,0.137632,-0.000461,-0.000334,-0.013667,0.124779,-0.465053,0.136225,-1.624048,-262.484905,1.628352,70.081576
11.1753,0.056021,0.040509,0.135961,-0.00046,-0.000338,-0.013667,0.125376,-0.465259,0.137196,-1.623911,-262.48143,1.628269,70.084788
11.1954,0.055802,0.039947,0.137065,-0.000459,-0.000341,-0.013667,0.125167,-0.464828,0.136049,-1.623911,-262.48143,1.628269,70.084788
11.215,0.055389,0.04005,0.136336,-0.000459,-0.000345,-0.013668,0.125167,-0.464828,0.136049,-1.623911,-262.48143,1.628269,70.084788
11.2356,0.056039,0.039952,0.134534,-0.000458,-0.000347,-0.013668,0.124688,-0.465234,0.135764,-1.623698,-262.477951,1.628148,70.087997
11.2553,0.056017,0.040111,0.137314,-0.000458,-0.000348,-0.013668,0.124586,-0.46532,0.135195,-1.623698,-262.477951,1.628148,70.087997
11.2755,0.056386,0.040212,0.135598,-0.000457,-0.000349,-0.013667,0.125814,-0.465101,0.13688,-1.623426,-262.474468,1.627984,70.091203
11.2954,0.056518,0.040163,0.134665,-0.000457,-0.000349,-0.013667,0.125372,-0.465107,0.13569,-1.623426,-262.474468,1.627984,70.091203
11.3154,0.056453,0.040347,0.135975,-0.000457,-0.000349,-0.013667,0.125372,-0.465107,0.13569,-1.623426,-262.474468,1.627984,70.091203
11.3352,0.056484,0.040424,0.132953,-0.000457,-0.000349,-0.013667,0.12557,-0.464963,0.135403,-1.623352,-262.470985,1.627933,70.094407
11.355,0.056935,0.040325,0.134054,-0.000457,-0.000352,-0.013667,0.124967,-0.465011,0.134343,-1.623352,-262.470985,1.627933,70.094407
11.3752,0.056837,0.040413,0.133931,-0.000456,-0.000354,-0.013667,0.125086,-0.465112,0.13362,-1.623336,-262.467501,1.62791,70.097612
11.3957,0.056897,0.040141,0.134509,-0.000456,-0.000357,-0.013667,0.124951,-0.465028,0.133881,-1.623336,-262.467501,1.62791,70.097612
11.4154,0.057056,0.040371,0.133015,-0.000455,-0.000359,-0.013668,0.124951,-0.465028,0.133881,-1.623336,-262.467501,1.62791,70.097612
11.4352,0.057546,0.040223,0.132966,-0.000455,-0.00036,-0.013668,0.124677,-0.465142,0.132443,-1.623187,-262.464016,1.627821,70.100814
11.4554,0.057323,0.040291,0.132594,-0.000455,-0.000362,-0.013668,0.124871,-0.465198,0.132589,-1.623187,-262.464016,1.627821,70.100814
11.4754,0.057796,0.040345,0.132374,-0.000454,-0.000364,-0.013668,0.124735,-0.465246,0.132157,-1.623007,-262.460528,1.627709,70.104014
11.4952,0.057103,0.040298,0.133081,-0.000454,-0.000365,-0.013668,0.125074,-0.465198,0.132331,-1.623007,-262.460528,1.627709,70.104014
11.5155,0.057458,0.040615,0.133567,-0.000454,-0.000365,-0.013667,0.125074,-0.465198,0.132331,-1.623007,-262.460528,1.627709,70.104014
11.5353,0.057707,0.040021,0.132741,-0.000454,-0.000366,-0.013667,0.125358,-0.46486,0.132994,-1.622909,-262.457039,1.627646,70.107213
11.5562,0.05779,0.040368,0.131634,-0.000454,-0.000366,-0.013667,0.125295,-0.465118,0.132826,-1.622909,-262.457039,1.627646,70.107213
11.5751,0.057939,0.040741,0.132094,-0.000454,-0.000366,-0.013667,0.124716,-0.465233,0.131197,-1.622823,-262.453548,1.627586,70.110411
11.5956,0.058278,0.040405,0.129623,-0.000453,-0.00037,-0.013668,0.125075,-0.464854,0.131992,-1.622823,-262.453548,1.627586,70.110411
11.6152,0.05818,0.040014,0.132184,-0.000452,-0.000372,-0.013668,0.125075,-0.464854,0.131992,-1.622823,-262.453548,1.627586,70.110411
11.6353,0.058813,0.040431,0.129291,-0.000452,-0.000375,-0.013668,0.125381,-0.465555,0.131612,-1.622805,-262.450059,1.627569,70.113608
11.6555,0.058932,0.040345,0.130897,-0.000452,-0.000374,-0.013668,0.125053,-0.46546,0.130615,-1.622805,-262.450059,1.627569,70.113608
11.6754,0.059299,0.040595,0.130361,-0.000452,-0.000373,-0.013667,0.125487,-0.465306,0.13046,-1.622574,-262.446564,1.627429,70.116803
11.6951,0.058967,0.040626,0.129234,-0.000452,-0.000374,-0.013667,0.125585,-0.465099,0.130348,-1.622574,-262.446564,1.627429,70.116803
11.7155,0.058746,0.040549,0.130504,-0.000452,-0.000375,-0.013667,0.125585,-0.465099,0.130348,-1.622574,-262.446564,1.627429,70.116803
11.7351,0.059118,0.040265,0.128683,-0.000452,-0.000375,-0.013667,0.125098,-0.465132,0.129931,-1.622599,-262.443072,1.627435,70.119997
11.7552,0.059221,0.040656,0.129806,-0.000451,-0.000377,-0.013668,0.124881,-0.465289,0.129363,-1.622599,-262.443072,1.627435,70.119997
11.7751,0.059848,0.040391,0.129827,-0.000451,-0.000379,-0.013668,0.125223,-0.465067,0.129369,-1.622528,-262.439574,1.627388,70.123195
11.795,0.059437,0.040045,0.128095,-0.000451,-0.000377,-0.013667,0.125818,-0.465296,0.129767,-1.622528,-262.439574,1.627388,70.123195
11.8155,0.060089,0.040457,0.127721,-0.000451,-0.000376,-0.013667,0.125818,-0.465296,0.129767,-1.622528,-262.439574,1.627388,70.123195
11.8352,0.06026,0.040391,0.128653,-0.000451,-0.000375,-0.013667,0.125033,-0.465407,0.12715,-1.622429,-262.436077,1.627327,70.126389
11.8552,0.060143,0.040555,0.127458,-0.000451,-0.000377,-0.013667,0.125302,-0.465404,0.127703,-1.622429,-262.436077,1.627327,70.126389
11.8753,0.060285,0.040547,0.126503,-0.000451,-0.000378,-0.013667,0.124959,-0.465321,0.127024,-1.622507,-262.432584,1.627363,70.129583
11.8953,0.060518,0.040186,0.126378,-0.00045,-0.000382,-0.013668,0.124657,-0.465374,0.126526,-1.622507,-262.432584,1.627363,70.129583
11.9153,0.060399,0.040407,0.126954,-0.000449,-0.000386,-0.013668,0.124657,-0.465374,0.126526,-1.622507,-262.432584,1.627363,70.129583
11.9352,0.060525,0.040207,0.12625,-0.000449,-0.000389,-0.013668,0.124955,-0.465507,0.126383,-1.622423,-262.42909,1.627313,70.132775
11.9556,0.060358,0.040478,0.126786,-0.000449,-0.000389,-0.013668,0.124866,-0.465602,0.126262,-1.622423,-262.42909,1.627313,70.132775
11.9751,0.060657,0.040502,0.126952,-0.000449,-0.00039,-0.013668,0.124834,-0.465442,0.12635,-1.622137,-262.425595,1.627143,70.13596
11.9952,0.061306,0.040599,0.124555,-0.000448,-0.00039,-0.013668,0.125192,-0.465399,0.126875,-1.622137,-262.425595,1.627143,70.13596
12.015,0.061128,0.040269,0.125569,-0.000448,-0.000391,-0.013668,0.125192,-0.465399,0.126875,-1.622137,-262.425595,1.627143,70.13596
12.0351,0.061308,0.040433,0.125718,-0.000448,-0.000391,-0.013668,0.124983,-0.465734,0.124998,-1.622093,-262.42209,1.62711,70.139153
12.0552,0.061092,0.040331,0.122801,-0.000448,-0.000391,-0.013668,0.125094,-0.465657,0.125229,-1.622093,-262.42209,1.62711,70.139153
12.0754,0.061599,0.040076,0.125027,-0.000448,-0.000392,-0.013667,0.12355,-0.465842,0.122367,-1.622045,-262.418591,1.627073,70.14234
12.0951,0.061386,0.040172,0.125767,-0.000448,-0.000391,-0.013667,0.125054,-0.465935,0.124776,-1.622045,-262.418591,1.627073,70.14234
12.1156,0.061148,0.040687,0.124482,-0.000448,-0.00039,-0.013667,0.125054,-0.465935,0.124776,-1.622045,-262.418591,1.627073,70.14234
12.1357,0.061745,0.04081,0.124374,-0.000448,-0.000389,-0.013667,0.124453,-0.465385,0.123911,-1.62202,-262.41509,1.627054,70.145528
12.1554,0.062,0.040422,0.123074,-0.000448,-0.000394,-0.013668,0.12468,-0.465332,0.124034,-1.62202,-262.41509,1.627054,70.145528
12.1754,0.061991,0.040801,0.123606,-0.000447,-0.000398,-0.013668,0.124596,-0.465734,0.122638,-1.622085,-262.411592,1.627085,70.148715
12.1955,0.06234,0.040688,0.123847,-0.000446,-0.000402,-0.013668,0.124845,-0.465345,0.1235,-1.622085,-262.411592,1.627085,70.148715
12.2155,0.062605,0.040566,0.123107,-0.000445,-0.000405,-0.013668,0.124845,-0.465345,0.1235,-1.622085,-262.411592,1.627085,70.148715
12.2355,0.062749,0.040754,0.123438,-0.000445,-0.000408,-0.013668,0.125215,-0.465593,0.122535,-1.621835,-262.408094,1.626938,70.151896
12.2555,0.062794,0.041076,0.121906,-0.000445,-0.000408,-0.013668,0.125346,-0.465503,0.122836,-1.621835,-262.408094,1.626938,70.151896
12.2753,0.063028,0.040677,0.121408,-0.000445,-0.000408,-0.013668,0.124799,-0.465153,0.121471,-1.621572,-262.404587,1.626773,70.155077
12.2958,0.062631,0.041208,0.1224,-0.000444,-0.000411,-0.013668,0.124794,-0.465533,0.121392,-1.621572,-262.404587,1.626773,70.155077
12.3155,0.063101,0.040762,0.121077,-0.000444,-0.000414,-0.013668,0.124794,-0.465533,0.121392,-1.621572,-262.404587,1.626773,70.155077
12.3355,0.063164,0.040581,0.122019,-0.000443,-0.000416,-0.013668,0.124683,-0.465524,0.120505,-1.621531,-262.401081,1.626741,70.158257
12.3555,0.063016,0.040886,0.120649,-0.000443,-0.000417,-0.013668,0.124908,-0.465568,0.121055,-1.621531,-262.401081,1.626741,70.158257
12.375,0.063336,0.040802,0.120269,-0.000442,-0.000419,-0.013668,0.124385,-0.465422,0.120212,-1.621314,-262.397565,1.6266,70.16144
12.3955,0.063482,0.040657,0.120846,-0.000442,-0.000422,-0.013668,0.124512,-0.465507,0.120243,-1.621314,-262.397565,1.6266,70.16144
12.4157,0.063372,0.040725,0.120979,-0.000441,-0.000425,-0.013668,0.124512,-0.465507,0.120243,-1.621314,-262.397565,1.6266,70.16144
12.4356,0.063863,0.040803,0.119837,-0.000441,-0.000427,-0.013668,0.124905,-0.465567,0.120408,-1.621222,-262.394056,1.626537,70.164615
12.4553,0.063846,0.041009,0.118857,-0.00044,-0.000428,-0.013668,0.124874,-0.465558,0.120108,-1.621222,-262.394056,1.626537,70.164615
12.4758,0.064021,0.040995,0.119629,-0.00044,-0.000429,-0.013668,0.124308,-0.465408,0.118421,-1.620975,-262.390537,1.626375,70.167792
12.4955,0.064175,0.040876,0.118548,-0.00044,-0.000431,-0.013668,0.124838,-0.465365,0.119507,-1.620975,-262.390537,1.626375,70.167792
12.5156,0.064297,0.040897,0.1194,-0.000439,-0.000433,-0.013668,0.124838,-0.465365,0.119507,-1.620975,-262.390537,1.626375,70.167792
12.5351,0.06432,0.040489,0.11868,-0.000439,-0.000435,-0.013668,0.125031,-0.465492,0.11883,-1.620914,-262.387024,1.626328,70.170963
12.5554,0.064221,0.040913,0.119559,-0.000439,-0.000435,-0.013668,0.124894,-0.465672,0.118702,-1.620914,-262.387024,1.626328,70.170963
12.5753,0.064765,0.041234,0.117635,-0.000439,-0.000435,-0.013668,0.125039,-0.465461,0.119125,-1.620711,-262.383508,1.626192,70.174131
12.5956,0.064803,0.041313,0.116786,-0.000438,-0.00044,-0.013668,0.124656,-0.465261,0.117743,-1.620711,-262.383508,1.626192,70.174131
12.6155,0.064549,0.040767,0.116802,-0.000437,-0.000444,-0.013668,0.124656,-0.465261,0.117743,-1.620711,-262.383508,1.626192,70.174131
12.6351,0.065384,0.040763,0.117197,-0.000436,-0.000447,-0.013668,0.123967,-0.465778,0.116231,-1.620688,-262.379985,1.626169,70.177306
12.6553,0.065445,0.040991,0.117453,-0.000436,-0.000448,-0.013668,0.124401,-0.465764,0.116565,-1.620688,-262.379985,1.626169,70.177306
12.6753,0.065031,0.040638,0.117155,-0.000436,-0.000448,-0.013668,0.125196,-0.465511,0.117019,-1.620364,-262.376466,1.625957,70.180469
12.6966,0.065486,0.040971,0.115403,-0.000436,-0.000447,-0.013668,0.12469,-0.465837,0.117123,-1.620364,-262.376466,1.625957,70.180469
12.7155,0.065309,0.040411,0.115906,-0.000436,-0.000446,-0.013668,0.12469,-0.465837,0.117123,-1.620364,-262.376466,1.625957,70.180469
12.735,0.065877,0.040475,0.114961,-0.000436,-0.000446,-0.013668,0.124273,-0.466187,0.115336,-1.620297,-262.37295,1.625905,70.183627
12.7553,0.065952,0.040636,0.11546,-0.000436,-0.000445,-0.013668,0.124314,-0.466178,0.115117,-1.620297,-262.37295,1.625905,70.183627
12.7751,0.066213,0.040523,0.113848,-0.000436,-0.000445,-0.013668,0.124694,-0.465984,0.115025,-1.620346,-262.369429,1.625923,70.186792
12.7953,0.065974,0.040569,0.116028,-0.000436,-0.000447,-0.013668,0.124199,-0.466159,0.113932,-1.620346,-262.369429,1.625923,70.186792
12.8156,0.066274,0.040574,0.11582,-0.000435,-0.000448,-0.013668,0.124199,-0.466159,0.113932,-1.620346,-262.369429,1.625923,70.186792
12.8351,0.066407,0.041,0.113263,-0.000435,-0.000449,-0.013668,0.125195,-0.46603,0.115248,-1.620343,-262.365907,1.625916,70.189958
12.8557,0.066809,0.040673,0.113687,-0.000435,-0.00045,-0.013668,0.124727,-0.465911,0.114375,-1.620343,-262.365907,1.625916,70.189958
12.8753,0.066779,0.041005,0.113513,-0.000435,-0.000451,-0.013668,0.124652,-0.46605,0.113251,-1.620232,-262.362384,1.625842,70.193122
12.8955,0.067121,0.041203,0.113645,-0.000434,-0.000454,-0.013668,0.124556,-0.465744,0.113467,-1.620232,-262.362384,1.625842,70.193122
12.9154,0.066929,0.040522,0.113288,-0.000434,-0.000456,-0.013668,0.124556,-0.465744,0.113467,-1.620232,-262.362384,1.625842,70.193122
12.9355,0.067244,0.040791,0.114485,-0.000433,-0.000458,-0.013668,0.124566,-0.46623,0.112716,-1.620181,-262.358861,1.625806,70.196286
12.9558,0.067185,0.040816,0.113011,-0.000433,-0.000457,-0.013668,0.124946,-0.466086,0.113369,-1.620181,-262.358861,1.625806,70.196286
12.9754,0.067116,0.040885,0.114196,-0.000434,-0.000456,-0.013668,0.124686,-0.465947,0.112575,-1.619956,-262.355327,1.625658,70.199452
12.9956,0.067702,0.041128,0.110817,-0.000434,-0.000456,-0.013668,0.125182,-0.465807,0.114036,-1.619956,-262.355327,1.625658,70.199452
13.0153,0.067729,0.040718,0.113125,-0.000434,-0.000455,-0.013668,0.125182,-0.465807,0.114036,-1.619956,-262.355327,1.625658,70.199452
13.0353,0.067746,0.040897,0.111324,-0.000434,-0.000455,-0.013668,0.125284,-0.466044,0.112555,-1.620011,-262.351808,1.625686,70.202608
13.0555,0.067821,0.040382,0.111552,-0.000433,-0.000456,-0.013668,0.124925,-0.466006,0.111989,-1.620011,-262.351808,1.625686,70.202608
13.0755,0.068116,0.040894,0.108933,-0.000433,-0.000457,-0.013668,0.124582,-0.466464,0.111116,-1.620018,-262.348283,1.625685,70.20577
13.0955,0.068127,0.040828,0.111179,-0.000432,-0.000463,-0.013668,0.123653,-0.466118,0.109107,-1.620018,-262.348283,1.625685,70.20577
13.1156,0.068247,0.040666,0.108948,-0.000431,-0.000468,-0.013668,0.123653,-0.466118,0.109107,-1.620018,-262.348283,1.625685,70.20577
13.1351,0.068458,0.041005,0.109389,-0.00043,-0.000472,-0.013668,0.123685,-0.466331,0.108376,-1.61996,-262.344757,1.625647,70.20893
13.1556,0.068476,0.04098,0.111127,-0.00043,-0.000475,-0.013668,0.123867,-0.466177,0.108723,-1.61996,-262.344757,1.625647,70.20893
13.1752,0.068802,0.040972,0.109002,-0.000429,-0.000478,-0.013668,0.125022,-0.46589,0.11069,-1.619541,-262.341224,1.625375,70.212085
13.1957,0.068617,0.041074,0.108723,-0.000429,-0.000479,-0.013668,0.124349,-0.465992,0.109132,-1.619541,-262.341224,1.625375,70.212085
13.2157,0.068613,0.040932,0.108616,-0.000428,-0.000481,-0.013668,0.124349,-0.465992,0.109132,-1.619541,-262.341224,1.625375,70.212085
13.2352,0.068892,0.041156,0.107485,-0.000428,-0.000482,-0.013668,0.123882,-0.466084,0.108044,-1.619376,-262.337685,1.625261,70.215243
13.2551,0.069034,0.041084,0.109125,-0.000427,-0.000486,-0.013668,0.123766,-0.466011,0.107748,-1.619376,-262.337685,1.625261,70.215243
13.2752,0.06936,0.040569,0.106657,-0.000426,-0.000489,-0.013668,0.124566,-0.465899,0.108691,-1.619266,-262.334154,1.625181,70.21839
13.2954,0.069823,0.04132,0.107655,-0.000426,-0.000489,-0.013668,0.123733,-0.466477,0.106817,-1.619266,-262.334154,1.625181,70.21839
13.3153,0.069263,0.040623,0.107405,-0.000426,-0.00049,-0.013668,0.123733,-0.466477,0.106817,-1.619266,-262.334154,1.625181,70.21839
13.335,0.070051,0.040907,0.107862,-0.000426,-0.00049,-0.013668,0.123919,-0.466461,0.106833,-1.619016,-262.330615,1.625006,70.221538
13.3552,0.069684,0.040972,0.107342,-0.000426,-0.000489,-0.013668,0.12434,-0.466328,0.107187,-1.619016,-262.330615,1.625006,70.221538
13.3754,0.070334,0.041149,0.108738,-0.000426,-0.000489,-0.013668,0.124312,-0.466109,0.106907,-1.618957,-262.327058,1.624953,70.224702
13.3952,0.070116,0.040912,0.105959,-0.000426,-0.000487,-0.013668,0.125572,-0.465861,0.108573,-1.618957,-262.327058,1.624953,70.224702
13.4151,0.070079,0.041141,0.105148,-0.000426,-0.000486,-0.013668,0.125572,-0.465861,0.108573,-1.618957,-262.327058,1.624953,70.224702
13.4351,0.070375,0.041054,0.106526,-0.000427,-0.000485,-0.013668,0.12359,-0.466065,0.104579,-1.618969,-262.323537,1.624952,70.227834
13.455,0.070117,0.040716,0.105787,-0.000426,-0.00049,-0.013668,0.123999,-0.466063,0.105304,-1.618969,-262.323537,1.624952,70.227834
13.4752,0.070646,0.041067,0.104787,-0.000425,-0.000494,-0.013668,0.123956,-0.46645,0.105352,-1.619057,-262.319993,1.625002,70.230989
13.4951,0.07056,0.040824,0.105448,-0.000424,-0.000497,-0.013668,0.123986,-0.466163,0.104813,-1.619057,-262.319993,1.625002,70.230989
13.515,0.070828,0.040941,0.105266,-0.000424,-0.0005,-0.013668,0.123986,-0.466163,0.104813,-1.619057,-262.319993,1.625002,70.230989
13.5353,0.071173,0.040649,0.104596,-0.000423,-0.000502,-0.013668,0.124399,-0.466258,0.104695,-1.618817,-262.316455,1.624844,70.234134
13.5552,0.070908,0.041059,0.105194,-0.000423,-0.000501,-0.013668,0.124406,-0.466386,0.104588,-1.618817,-262.316455,1.624844,70.234134
13.575,0.071565,0.041169,0.103914,-0.000423,-0.000501,-0.013668,0.124447,-0.466139,0.104759,-1.618578,-262.312915,1.624679,70.237273
13.5951,0.071355,0.041101,0.102332,-0.000423,-0.000503,-0.013668,0.124463,-0.466086,0.103968,-1.618578,-262.312915,1.624679,70.237273
13.6155,0.071402,0.040734,0.102705,-0.000422,-0.000505,-0.013668,0.124463,-0.466086,0.103968,-1.618578,-262.312915,1.624679,70.237273
13.6357,0.071621,0.041161,0.1031,-0.000422,-0.000507,-0.013668,0.123674,-0.466601,0.102132,-1.618585,-262.309367,1.624675,70.240421
13.6559,0.071889,0.040859,0.102786,-0.000421,-0.000509,-0.013668,0.12385,-0.466411,0.102462,-1.618585,-262.309367,1.624675,70.240421
13.6756,0.072092,0.041099,0.101562,-0.000421,-0.00051,-0.013668,0.124206,-0.466467,0.102347,-1.618412,-262.305826,1.624553,70.243557
13.6955,0.071838,0.041009,0.1025,-0.00042,-0.000513,-0.013668,0.123836,-0.466292,0.101611,-1.618412,-262.305826,1.624553,70.243557
13.7156,0.071848,0.041219,0.102422,-0.00042,-0.000516,-0.013668,0.123836,-0.466292,0.101611,-1.618412,-262.305826,1.624553,70.243557
13.7352,0.071989,0.041438,0.100212,-0.000419,-0.000518,-0.013668,0.123977,-0.466132,0.101849,-1.618296,-262.302278,1.62447,70.246697
13.7554,0.072384,0.040726,0.101115,-0.000418,-0.000523,-0.013669,0.123581,-0.466082,0.101116,-1.618296,-262.302278,1.62447,70.246697
13.7752,0.073095,0.040868,0.10011,-0.000418,-0.000526,-0.013669,0.123853,-0.466686,0.10068,-1.618054,-262.298728,1.624298,70.249833
13.7957,0.072504,0.040745,0.099169,-0.000418,-0.000526,-0.013669,0.124046,-0.466589,0.100139,-1.618054,-262.298728,1.624298,70.249833
13.8155,0.072177,0.040997,0.101302,-0.000418,-0.000525,-0.013668,0.124046,-0.466589,0.100139,-1.618054,-262.298728,1.624298,70.249833
13.8354,0.072767,0.040996,0.10096,-0.000418,-0.000525,-0.013668,0.123738,-0.466412,0.100729,-1.61781,-262.295174,1.624126,70.252966
13.8556,0.072786,0.040808,0.099919,-0.000417,-0.000526,-0.013668,0.123911,-0.466413,0.100757,-1.61781,-262.295174,1.624126,70.252966
13.8752,0.073371,0.041173,0.101951,-0.000417,-0.000526,-0.013668,0.123648,-0.466667,0.099483,-1.617818,-262.291617,1.624117,70.256104
13.8953,0.073406,0.041151,0.100049,-0.000418,-0.000524,-0.013668,0.125134,-0.466223,0.101714,-1.617818,-262.291617,1.624117,70.256104
13.9151,0.073577,0.040875,0.101451,-0.000418,-0.000522,-0.013668,0.125134,-0.466223,0.101714,-1.617818,-262.291617,1.624117,70.256104
13.9354,0.073505,0.041344,0.098865,-0.000418,-0.000521,-0.013668,0.125213,-0.466526,0.10088,-1.617772,-262.288063,1.624079,70.259237
13.9555,0.0739,0.040792,0.099889,-0.000418,-0.000521,-0.013668,0.124649,-0.466381,0.099986,-1.617772,-262.288063,1.624079,70.259237
13.9753,0.073807,0.041027,0.098401,-0.000418,-0.000522,-0.013668,0.124748,-0.466683,0.099454,-1.617905,-262.284511,1.62416,70.262374
13.9955,0.07399,0.041049,0.097619,-0.000417,-0.000524,-0.013668,0.123983,-0.466522,0.09847,-1.617905,-262.284511,1.62416,70.262374
14.0155,0.074276,0.041149,0.099908,-0.000417,-0.000526,-0.013668,0.123983,-0.466522,0.09847,-1.617905,-262.284511,1.62416,70.262374
14.0358,0.074031,0.041276,0.098587,-0.000417,-0.000528,-0.013668,0.125129,-0.466331,0.099337,-1.617878,-262.280965,1.624141,70.265503
14.055,0.074107,0.041016,0.09759,-0.000416,-0.000528,-0.013668,0.124767,-0.4663,0.098971,-1.617878,-262.280965,1.624141,70.265503
14.0753,0.074358,0.041252,0.095946,-0.000416,-0.000529,-0.013668,0.123788,-0.466575,0.097155,-1.617699,-262.277404,1.624018,70.268642
14.0953,0.0745,0.041361,0.096978,-0.000415,-0.000535,-0.013668,0.123264,-0.466418,0.096028,-1.617699,-262.277404,1.624018,70.268642
14.1152,0.074465,0.041301,0.09625,-0.000414,-0.00054,-0.013669,0.123264,-0.466418,0.096028,-1.617699,-262.277404,1.624018,70.268642
14.1353,0.074769,0.041363,0.096612,-0.000413,-0.000544,-0.013669,0.123461,-0.466362,0.095679,-1.61766,-262.273853,1.623988,70.27177
14.1551,0.075016,0.040959,0.09739,-0.000412,-0.000548,-0.013669,0.123665,-0.466322,0.095993,-1.61766,-262.273853,1.623988,70.27177
14.175,0.075498,0.041122,0.097107,-0.000412,-0.000551,-0.013669,0.124595,-0.466643,0.096954,-1.617338,-262.270297,1.623766,70.274896
14.195,0.075444,0.040817,0.096587,-0.000412,-0.000548,-0.013668,0.124913,-0.466492,0.09707,-1.617338,-262.270297,1.623766,70.274896
14.2156,0.075022,0.040875,0.096506,-0.000412,-0.000545,-0.013668,0.124913,-0.466492,0.09707,-1.617338,-262.270297,1.623766,70.274896
14.2356,0.075746,0.041099,0.093732,-0.000413,-0.000543,-0.013668,0.124149,-0.466777,0.095928,-1.617016,-262.266734,1.623532,70.278019
14.2554,0.075925,0.04129,0.095292,-0.000412,-0.000544,-0.013668,0.123885,-0.466735,0.095005,-1.617016,-262.266734,1.623532,70.278019
14.2753,0.075657,0.041187,0.094003,-0.000412,-0.000545,-0.013668,0.124438,-0.466415,0.094856,-1.617186,-262.263174,1.623635,70.281145
14.2955,0.076236,0.040943,0.095418,-0.000412,-0.000549,-0.013668,0.123609,-0.466549,0.094058,-1.617186,-262.263174,1.623635,70.281145
14.3155,0.076055,0.041208,0.093862,-0.000411,-0.000552,-0.013668,0.123609,-0.466549,0.094058,-1.617186,-262.263174,1.623635,70.281145
14.3352,0.076362,0.041532,0.093926,-0.00041,-0.000555,-0.013668,0.12384,-0.466571,0.09329,-1.617122,-262.259612,1.623587,70.28427
14.3551,0.076216,0.041161,0.092841,-0.00041,-0.000557,-0.013669,0.123982,-0.466432,0.093482,-1.617122,-262.259612,1.623587,70.28427
14.375,0.076743,0.041272,0.093275,-0.000409,-0.00056,-0.013669,0.123485,-0.466662,0.092404,-1.616846,-262.256048,1.623391,70.287392
14.3951,0.077032,0.041004,0.092784,-0.000409,-0.000561,-0.013668,0.124176,-0.466526,0.093174,-1.616846,-262.256048,1.623391,70.287392
14.4153,0.076672,0.04115,0.09324,-0.000409,-0.000562,-0.013668,0.124176,-0.466526,0.093174,-1.616846,-262.256048,1.623391,70.287392
14.4353,0.076948,0.041057,0.092173,-0.000408,-0.000562,-0.013668,0.124141,-0.46666,0.092668,-1.616694,-262.252481,1.623278,70.290511
14.4553,0.076849,0.041041,0.09196,-0.000408,-0.000563,-0.013668,0.124037,-0.466711,0.092401,-1.616694,-262.252481,1.623278,70.290511
14.4752,0.077586,0.041066,0.090941,-0.000408,-0.000563,-0.013668,0.123671,-0.466823,0.091525,-1.616593,-262.248913,1.623197,70.29363
14.4955,0.077051,0.0411,0.091863,-0.000408,-0.000564,-0.013668,0.123881,-0.466827,0.090971,-1.616593,-262.248913,1.623197,70.29363
14.5152,0.077378,0.040714,0.091349,-0.000407,-0.000565,-0.013668,0.123881,-0.466827,0.090971,-1.616593,-262.248913,1.623197,70.29363
14.5351,0.077698,0.040946,0.091541,-0.000407,-0.000566,-0.013668,0.123886,-0.467185,0.090777,-1.616556,-262.245345,1.623164,70.296748
14.5549,0.077259,0.04124,0.089753,-0.000407,-0.000565,-0.013668,0.124061,-0.467079,0.091022,-1.616556,-262.245345,1.623164,70.296748
14.5749,0.078012,0.041309,0.092268,-0.000408,-0.000564,-0.013668,0.12296,-0.466726,0.089318,-1.616446,-262.24177,1.623079,70.29987
14.5951,0.077657,0.040838,0.089603,-0.000408,-0.000563,-0.013668,0.124827,-0.46654,0.091994,-1.616446,-262.24177,1.623079,70.29987
14.6155,0.077663,0.0411,0.090769,-0.000408,-0.000563,-0.013668,0.124827,-0.46654,0.091994,-1.616446,-262.24177,1.623079,70.29987
14.6356,0.078378,0.041104,0.08945,-0.000408,-0.000563,-0.013668,0.123877,-0.466825,0.090198,-1.61651,-262.238207,1.623118,70.302983
14.6555,0.078299,0.041458,0.089731,-0.000407,-0.000566,-0.013668,0.123899,-0.466841,0.089827,-1.61651,-262.238207,1.623118,70.302983
14.6753,0.078533,0.041471,0.090539,-0.000407,-0.000567,-0.013668,0.123989,-0.466509,0.089295,-1.616508,-262.234635,1.623113,70.306105
14.696,0.07859,0.041017,0.087668,-0.000406,-0.000569,-0.013668,0.124588,-0.466447,0.090409,-1.616508,-262.234635,1.623113,70.306105
14.7157,0.078568,0.041153,0.087307,-0.000406,-0.000571,-0.013668,0.124588,-0.466447,0.090409,-1.616508,-262.234635,1.623113,70.306105
14.7355,0.078786,0.040996,0.087422,-0.000406,-0.000573,-0.013668,0.123023,-0.466929,0.086736,-1.616391,-262.231069,1.623029,70.309217
14.7554,0.078876,0.040974,0.089188,-0.000405,-0.000577,-0.013669,0.12314,-0.466984,0.086949,-1.616391,-262.231069,1.623029,70.309217
14.7752,0.079239,0.041156,0.08673,-0.000404,-0.000581,-0.013669,0.12429,-0.467018,0.088752,-1.616231,-262.227493,1.622912,70.312336
14.7953,0.079524,0.040804,0.088343,-0.000403,-0.000583,-0.013669,0.123492,-0.466936,0.086886,-1.616231,-262.227493,1.622912,70.312336
14.8153,0.079413,0.040881,0.087095,-0.000403,-0.000585,-0.013669,0.123492,-0.466936,0.086886,-1.616231,-262.227493,1.622912,70.312336
14.8355,0.079571,0.040874,0.087214,-0.000402,-0.000587,-0.013669,0.123761,-0.467212,0.086524,-1.615993,-262.223922,1.622739,70.315443
14.8555,0.07959,0.040853,0.086279,-0.000402,-0.000586,-0.013668,0.123854,-0.467205,0.086739,-1.615993,-262.223922,1.622739,70.315443
14.8756,0.080213,0.0411,0.087732,-0.000402,-0.000585,-0.013668,0.123526,-0.46727,0.085842,-1.615778,-262.22034,1.622575,70.318555
14.8955,0.079636,0.04088,0.086862,-0.000403,-0.000583,-0.013668,0.124778,-0.466969,0.087545,-1.615778,-262.22034,1.622575,70.318555
14.9156,0.079874,0.040948,0.08637,-0.000403,-0.000582,-0.013668,0.124778,-0.466969,0.087545,-1.615778,-262.22034,1.622575,70.318555
14.9355,0.080479,0.041259,0.08431,-0.000403,-0.00058,-0.013668,0.123853,-0.467177,0.085798,-1.615812,-262.216767,1.622591,70.321661
14.9557,0.079904,0.040915,0.085519,-0.000403,-0.000583,-0.013668,0.123678,-0.467079,0.085128,-1.615812,-262.216767,1.622591,70.321661
14.9752,0.081061,0.041426,0.08613,-0.000402,-0.000586,-0.013668,0.123454,-0.46724,0.085082,-1.615945,-262.213192,1.622677,70.324772
14.9953,0.080482,0.041026,0.084332,-0.000402,-0.000587,-0.013668,0.124799,-0.466735,0.086013,-1.615945,-262.213192,1.622677,70.324772
15.0153,0.080849,0.041133,0.085649,-0.000402,-0.000587,-0.013668,0.124799,-0.466735,0.086013,-1.615945,-262.213192,1.622677,70.324772
15.0353,0.08077,0.041127,0.083258,-0.000402,-0.000588,-0.013668,0.124462,-0.467024,0.085077,-1.615787,-262.209616,1.622564,70.327881
