mach0312/omni-docking-bench/src/icros_test_setup/results/MPPI_sample/timeseries/trial_023.csv
t,x,y,yaw,vx,vy,wz,bl_x,bl_y,bl_yaw,front_steering_joint,front_wheel_joint,rear_steering_joint,rear_wheel_joint
0.0,-0.029337,0.028984,0.049928,0.001177,0.000358,0.000288,-0.003121,-0.480538,0.051761,0.426,-265.929133,0.153436,63.784963
0.0003,-0.029455,0.029005,0.051848,0.0,0.0,0.0,-0.003211,-0.480592,0.051873,0.426,-265.926804,0.153436,63.787109
0.0006,-0.029108,0.029025,0.052619,0.0,0.0,0.0,-0.003211,-0.480592,0.051873,0.426,-265.92533,0.153436,63.788467
0.0009,-0.029399,0.029249,0.0517,0.0,0.0,0.0,-0.003779,-0.480417,0.051579,0.426,-265.92533,0.153436,63.788467
0.0013,-0.029281,0.028734,0.052751,0.0,0.0,0.0,-0.003779,-0.480417,0.051579,0.426,-265.92533,0.153436,63.788467
0.0015,-0.029108,0.029146,0.051667,0.0,0.0,0.0,-0.002679,-0.4803,0.053297,0.426,-265.92533,0.153436,63.788467
0.0018,-0.029723,0.029022,0.05105,0.0,0.0,0.0,-0.002679,-0.4803,0.053297,0.426,-265.92533,0.153436,63.788467
0.0021,-0.029467,0.028549,0.052263,0.0,0.0,0.0,-0.002679,-0.4803,0.053297,0.426,-265.92533,0.153436,63.788467
0.0166,-0.029289,0.028896,0.051192,0.0,0.0,0.0,-0.002826,-0.480754,0.052263,0.426,-265.92533,0.153436,63.788467
0.0365,-0.029053,0.029063,0.051452,0.0,0.0,0.0,-0.002977,-0.480623,0.051821,0.426,-265.92533,0.153436,63.788467
0.056,-0.029129,0.028752,0.051164,0.0,0.0,0.0,-0.002824,-0.480262,0.051452,0.426,-265.92533,0.153436,63.788467
0.076,-0.02946,0.029138,0.052413,0.0,0.0,0.0,-0.003028,-0.480554,0.051189,0.426,-265.92533,0.153436,63.788467
0.0961,-0.029257,0.029005,0.051923,0.0,0.0,0.0,-0.003028,-0.480554,0.051189,0.426,-265.92533,0.153436,63.788467
0.116,-0.029254,0.028942,0.051771,-0.001645,-0.004668,-0.00633,-0.002789,-0.480307,0.051923,0.426,-265.92533,0.153436,63.788467
0.1361,-0.029368,0.028962,0.052559,-0.00176,-0.005107,-0.006925,-0.002819,-0.480335,0.05186,0.426,-265.92533,0.153436,63.788467
0.156,-0.029412,0.029292,0.050885,-0.001849,-0.005483,-0.007425,-0.002575,-0.480334,0.052559,0.501014,-265.92533,0.22845,63.788467
0.1765,-0.029001,0.02912,0.052101,-0.001895,-0.005804,-0.007846,-0.003391,-0.480074,0.051036,0.501014,-265.92533,0.22845,63.788467
0.1966,-0.029179,0.029105,0.051916,-0.001929,-0.006078,-0.0082,-0.003391,-0.480074,0.051036,0.501014,-265.92533,0.22845,63.788467
0.2161,-0.028927,0.028773,0.052038,-0.001954,-0.006312,-0.008498,-0.002713,-0.480208,0.051916,0.575888,-265.925331,0.303324,63.788467
0.2361,-0.029449,0.028967,0.051746,-0.001998,-0.006512,-0.008748,-0.002586,-0.480341,0.051965,0.575888,-265.925331,0.303324,63.788467
0.256,-0.029109,0.029051,0.05218,-0.002032,-0.006682,-0.008958,-0.003071,-0.48035,0.051746,0.650884,-265.925331,0.37832,63.788467
0.2762,-0.029261,0.029279,0.050903,-0.002056,-0.006827,-0.009134,-0.002556,-0.480263,0.052144,0.650884,-265.925331,0.37832,63.788467
0.2965,-0.029438,0.029229,0.051318,-0.002073,-0.006951,-0.009282,-0.002556,-0.480263,0.052144,0.650884,-265.925331,0.37832,63.788467
0.3161,-0.029221,0.028958,0.052373,-0.002084,-0.007056,-0.009407,-0.003277,-0.4801,0.051318,0.726188,-265.925331,0.453624,63.788467
0.3364,-0.02922,0.028681,0.050016,-0.002077,-0.007145,-0.009512,-0.002968,-0.480199,0.05175,0.726188,-265.925331,0.453624,63.788467
0.3562,-0.028974,0.029209,0.050201,-0.00207,-0.007222,-0.009601,-0.003722,-0.480681,0.050016,0.801006,-265.925333,0.528442,63.788466
0.3764,-0.029056,0.029183,0.052444,-0.002044,-0.007286,-0.009676,-0.003411,-0.480193,0.050185,0.801006,-265.925333,0.528442,63.788466
0.3967,-0.029211,0.028863,0.0499,-0.002022,-0.00734,-0.009739,-0.003411,-0.480193,0.050185,0.801006,-265.925333,0.528442,63.788466
0.4165,-0.029256,0.029431,0.051564,-0.002003,-0.007387,-0.009792,-0.003773,-0.480503,0.0499,0.876023,-265.925342,0.580652,63.788465
0.4367,-0.02905,0.029143,0.051052,-0.001985,-0.007426,-0.009836,-0.003448,-0.480255,0.050573,0.876023,-265.925342,0.580652,63.788465
0.4563,-0.028937,0.028994,0.049612,-0.00197,-0.00746,-0.009873,-0.003025,-0.480194,0.05105,0.950889,-265.925377,0.612176,63.788458
0.4764,-0.029241,0.029146,0.052605,-0.00195,-0.007488,-0.009904,-0.00359,-0.480362,0.049741,0.950889,-265.925377,0.612176,63.788458
0.4966,-0.029563,0.029041,0.051316,-0.001933,-0.007512,-0.00993,-0.00359,-0.480362,0.049741,0.950889,-265.925377,0.612176,63.788458
0.5166,-0.029323,0.02907,0.050173,-0.001919,-0.007532,-0.009952,-0.003408,-0.480294,0.051307,1.025894,-265.925505,0.627927,63.788436
0.5367,-0.029647,0.029313,0.053461,-0.001909,-0.00755,-0.00997,-0.003551,-0.480293,0.050829,1.025894,-265.925505,0.627927,63.788436
0.5566,-0.029464,0.028759,0.051905,-0.001901,-0.007565,-0.009986,-0.002403,-0.479973,0.053442,1.101313,-265.925871,0.648514,63.788371
0.5765,-0.029385,0.02916,0.052648,-0.001916,-0.007578,-0.009997,-0.00295,-0.480502,0.052044,1.101313,-265.925871,0.648514,63.788371
0.5965,-0.02927,0.028932,0.050982,-0.001929,-0.007589,-0.010007,-0.00295,-0.480502,0.052044,1.101313,-265.925871,0.648514,63.788371
0.6162,-0.02896,0.029002,0.050904,-0.001938,-0.007599,-0.010016,-0.003303,-0.480456,0.050917,1.17589,-265.926792,0.656887,63.788211
0.6365,-0.028979,0.029419,0.050378,-0.001937,-0.007607,-0.010024,-0.003187,-0.480414,0.050905,1.17589,-265.926792,0.656887,63.788211
0.6564,-0.029052,0.028634,0.051089,-0.001935,-0.007614,-0.010031,-0.003328,-0.480018,0.050271,1.250886,-265.928734,0.65258,63.787869
0.676,-0.029115,0.028964,0.052821,-0.001939,-0.007619,-0.010037,-0.003041,-0.480639,0.051005,1.250886,-265.928734,0.65258,63.787869
0.6964,-0.029335,0.029042,0.050389,-0.001941,-0.007624,-0.010042,-0.003041,-0.480639,0.051005,1.250886,-265.928734,0.65258,63.787869
0.7166,-0.029394,0.02868,0.050228,-0.001943,-0.007629,-0.010047,-0.003703,-0.480499,0.050146,1.325885,-265.932038,0.655093,63.787288
0.7363,-0.029218,0.028922,0.050762,-0.001918,-0.007631,-0.010106,-0.003745,-0.480595,0.050152,1.325885,-265.932038,0.655093,63.787288
0.7562,-0.029283,0.028454,0.050541,-0.001897,-0.007633,-0.010155,-0.003388,-0.480626,0.050495,1.401129,-265.936695,0.655046,63.786467
0.7766,-0.028738,0.028042,0.051456,-0.001887,-0.007635,-0.010227,-0.003509,-0.480881,0.050524,1.401129,-265.936695,0.655046,63.786467
0.7968,-0.028941,0.028466,0.052225,-0.001879,-0.007637,-0.010286,-0.003509,-0.480881,0.050524,1.401129,-265.936695,0.655046,63.786467
0.817,-0.028815,0.028022,0.050161,-0.001873,-0.007638,-0.010334,-0.00238,-0.481155,0.051809,1.434533,-265.942205,0.646436,63.78553
0.8365,-0.029131,0.027903,0.05033,-0.001895,-0.00764,-0.010409,-0.002753,-0.481269,0.051062,1.434533,-265.942205,0.646436,63.78553
0.8559,-0.028554,0.027862,0.049329,-0.001913,-0.007642,-0.01047,-0.00352,-0.481691,0.050009,1.43734,-265.947725,0.616323,63.784629
0.8763,-0.028519,0.027428,0.049476,-0.0019,-0.007642,-0.01056,-0.003418,-0.481545,0.049372,1.43734,-265.947725,0.616323,63.784629
0.8963,-0.02853,0.027456,0.048709,-0.001888,-0.007643,-0.010634,-0.003418,-0.481545,0.049372,1.43734,-265.947725,0.616323,63.784629
0.916,-0.02865,0.027077,0.048317,-0.001879,-0.007643,-0.010693,-0.003762,-0.482256,0.04828,1.435337,-265.953251,0.577717,63.783739
0.9361,-0.02835,0.027082,0.048292,-0.001847,-0.007641,-0.01078,-0.003872,-0.482321,0.048246,1.435337,-265.953251,0.577717,63.783739
0.9559,-0.027818,0.026879,0.047584,-0.00182,-0.00764,-0.010851,-0.003777,-0.482562,0.047962,1.438968,-265.958798,0.534177,63.782891
0.976,-0.028252,0.026826,0.048141,-0.001807,-0.007639,-0.010944,-0.003581,-0.482558,0.047601,1.438968,-265.958798,0.534177,63.782891
0.9961,-0.028358,0.02664,0.046734,-0.001796,-0.007638,-0.011019,-0.003581,-0.482558,0.047601,1.438968,-265.958798,0.534177,63.782891
1.0162,-0.027684,0.026861,0.048555,-0.001787,-0.007638,-0.011081,-0.004593,-0.483122,0.046285,1.443933,-265.964492,0.507819,63.782067
1.0361,-0.028015,0.026225,0.0465,-0.001763,-0.007636,-0.011168,-0.003924,-0.482922,0.047155,1.443933,-265.964492,0.507819,63.782067
1.0559,-0.02767,0.026046,0.047875,-0.001743,-0.007634,-0.011239,-0.004352,-0.483458,0.046165,1.447365,-265.970018,0.453077,63.78131
1.0761,-0.027862,0.026269,0.04764,-0.001747,-0.007634,-0.011328,-0.003364,-0.483389,0.047702,1.447365,-265.970018,0.453077,63.78131
1.0962,-0.027993,0.026304,0.049031,-0.001751,-0.007634,-0.011402,-0.003364,-0.483389,0.047702,1.447365,-265.970018,0.453077,63.78131
1.1163,-0.027963,0.025775,0.045477,-0.001754,-0.007634,-0.011462,-0.003054,-0.4834,0.048569,1.451132,-265.97573,0.415952,63.780565
1.1365,-0.027291,0.025418,0.046403,-0.001739,-0.007632,-0.011542,-0.00375,-0.483555,0.047279,1.451132,-265.97573,0.415952,63.780565
1.156,-0.027444,0.024973,0.045271,-0.001726,-0.007631,-0.011608,-0.003675,-0.48426,0.046065,1.4515,-265.981188,0.346533,63.779874
1.1762,-0.027495,0.025424,0.045841,-0.001684,-0.007627,-0.011687,-0.004303,-0.484494,0.045326,1.4515,-265.981188,0.346533,63.779874
1.1967,-0.027378,0.025674,0.045286,-0.001649,-0.007623,-0.011751,-0.004303,-0.484494,0.045326,1.4515,-265.981188,0.346533,63.779874
1.2166,-0.027237,0.024996,0.044397,-0.00162,-0.00762,-0.011803,-0.004346,-0.484119,0.04481,1.454061,-265.986955,0.303845,63.77917
1.2365,-0.026825,0.024925,0.045203,-0.001591,-0.007617,-0.011862,-0.004455,-0.484307,0.044592,1.454061,-265.986955,0.303845,63.77917
1.2562,-0.02694,0.024403,0.046049,-0.001566,-0.007614,-0.011911,-0.003818,-0.484786,0.044845,1.461972,-265.992628,0.248862,63.778535
1.2764,-0.02694,0.024694,0.045729,-0.001584,-0.007615,-0.011958,-0.003496,-0.485044,0.045928,1.461972,-265.992628,0.248862,63.778535
1.296,-0.026999,0.024919,0.044725,-0.001599,-0.007615,-0.011996,-0.003496,-0.485044,0.045928,1.461972,-265.992628,0.248862,63.778535
1.3163,-0.026957,0.02431,0.045913,-0.001612,-0.007616,-0.012028,-0.004248,-0.484886,0.044237,1.465975,-265.998499,0.213339,63.777906
1.3365,-0.026721,0.02472,0.044655,-0.0016,-0.007614,-0.012062,-0.003968,-0.485031,0.044866,1.465975,-265.998499,0.213339,63.777906
1.3558,-0.026393,0.024201,0.044343,-0.00159,-0.007613,-0.01209,-0.003994,-0.485007,0.044286,1.463496,-266.004295,0.165582,63.777277
1.3765,-0.026621,0.024178,0.044335,-0.001587,-0.007612,-0.012117,-0.003806,-0.485284,0.044319,1.463496,-266.004295,0.165582,63.777277
1.3963,-0.026584,0.023822,0.043702,-0.001584,-0.007612,-0.012139,-0.003806,-0.485284,0.044319,1.463496,-266.004295,0.165582,63.777277
1.4166,-0.02622,0.023415,0.043215,-0.001582,-0.007611,-0.012157,-0.004355,-0.48601,0.0432,1.465166,-266.01028,0.143318,63.776639
1.4366,-0.026387,0.023953,0.044128,-0.001551,-0.007608,-0.01218,-0.004292,-0.486087,0.043148,1.465166,-266.01028,0.143318,63.776639
1.4563,-0.025689,0.023606,0.042529,-0.001525,-0.007605,-0.012199,-0.003929,-0.485794,0.043743,1.465953,-266.016262,0.117371,63.776009
1.4767,-0.026062,0.023487,0.042098,-0.001518,-0.007604,-0.012218,-0.004001,-0.485933,0.04262,1.465953,-266.016262,0.117371,63.776009
1.4966,-0.026154,0.023434,0.042917,-0.001512,-0.007603,-0.012234,-0.004001,-0.485933,0.04262,1.465953,-266.016262,0.117371,63.776009
1.5164,-0.025306,0.022878,0.041152,-0.001507,-0.007602,-0.012247,-0.004323,-0.486416,0.042407,1.469851,-266.022287,0.100739,63.775398
1.5367,-0.02573,0.022537,0.040906,-0.001482,-0.007598,-0.012264,-0.004329,-0.486563,0.041844,1.469851,-266.022287,0.100739,63.775398
1.5563,-0.025444,0.02256,0.040926,-0.001461,-0.007596,-0.012278,-0.004912,-0.487279,0.040519,1.471189,-266.02831,0.080613,63.774798
1.5763,-0.025512,0.02267,0.041464,-0.001425,-0.007591,-0.012295,-0.00461,-0.487049,0.040869,1.471189,-266.02831,0.080613,63.774798
1.5968,-0.025767,0.022758,0.042649,-0.001395,-0.007586,-0.01231,-0.00461,-0.487049,0.040869,1.471189,-266.02831,0.080613,63.774798
1.6168,-0.025527,0.022245,0.040179,-0.001371,-0.007583,-0.012321,-0.00407,-0.487097,0.042136,1.474312,-266.034363,0.066238,63.774213
1.6362,-0.025586,0.022245,0.040637,-0.001356,-0.00758,-0.012333,-0.004472,-0.487235,0.041278,1.474312,-266.034363,0.066238,63.774213
1.6563,-0.024459,0.022046,0.039458,-0.001344,-0.007578,-0.012343,-0.004901,-0.487575,0.040247,1.480315,-266.040372,0.042172,63.77367
1.6765,-0.025048,0.021256,0.040118,-0.001332,-0.007576,-0.012357,-0.004391,-0.48757,0.039507,1.480315,-266.040372,0.042172,63.77367
1.6963,-0.024805,0.021688,0.040774,-0.001323,-0.007574,-0.012368,-0.004391,-0.48757,0.039507,1.480315,-266.040372,0.042172,63.77367
1.7164,-0.024562,0.02152,0.039357,-0.001315,-0.007572,-0.012376,-0.004059,-0.488207,0.040259,1.48214,-266.046479,0.029268,63.773129
1.7361,-0.024646,0.02175,0.038608,-0.00131,-0.007571,-0.012387,-0.004251,-0.488191,0.039811,1.48214,-266.046479,0.029268,63.773129
1.7559,-0.024535,0.021375,0.03898,-0.001305,-0.00757,-0.012396,-0.004993,-0.488107,0.038222,1.484103,-266.052457,0.010235,63.772611
1.7761,-0.024341,0.021056,0.039463,-0.001278,-0.007565,-0.012408,-0.004691,-0.488239,0.038892,1.484103,-266.052457,0.010235,63.772611
1.7962,-0.024201,0.021267,0.040625,-0.001255,-0.007561,-0.012418,-0.004691,-0.488239,0.038892,1.484103,-266.052457,0.010235,63.772611
1.8163,-0.024262,0.020986,0.039203,-0.001237,-0.007558,-0.012425,-0.00353,-0.488631,0.040107,1.484801,-266.058523,-0.000999,63.77209
1.8367,-0.023974,0.020856,0.036847,-0.001262,-0.007561,-0.012431,-0.003838,-0.488664,0.039679,1.484801,-266.058523,-0.000999,63.77209
1.8565,-0.023565,0.020289,0.038145,-0.001283,-0.007563,-0.012436,-0.005217,-0.489037,0.036455,1.489307,-266.064546,-0.024575,63.7716
1.8761,-0.024359,0.020827,0.036692,-0.00127,-0.00756,-0.012445,-0.004217,-0.489325,0.037972,1.489307,-266.064546,-0.024575,63.7716
1.8968,-0.023848,0.020517,0.036117,-0.00126,-0.007558,-0.012453,-0.004217,-0.489325,0.037972,1.489307,-266.064546,-0.024575,63.7716
1.9162,-0.023739,0.019753,0.035982,-0.001252,-0.007557,-0.012458,-0.005475,-0.489472,0.035591,1.48638,-266.070631,-0.025472,63.771087
1.9369,-0.023434,0.020144,0.038098,-0.001173,-0.007543,-0.012469,-0.005447,-0.489683,0.035687,1.48638,-266.070631,-0.025472,63.771087
1.9563,-0.023471,0.019384,0.036865,-0.001108,-0.007531,-0.012477,-0.00404,-0.48973,0.037698,1.488417,-266.076691,-0.04169,63.770587
1.9764,-0.023412,0.019205,0.035628,-0.001094,-0.007527,-0.012482,-0.004617,-0.490232,0.036922,1.488417,-266.076691,-0.04169,63.770587
1.9967,-0.023346,0.019343,0.037599,-0.001082,-0.007525,-0.012485,-0.004617,-0.490232,0.036922,1.488417,-266.076691,-0.04169,63.770587
2.0162,-0.023163,0.019352,0.036023,-0.001072,-0.007522,-0.012488,-0.004209,-0.490607,0.037086,1.497777,-266.082614,-0.080545,63.770154
2.0362,-0.022889,0.019412,0.03763,-0.001069,-0.007521,-0.012491,-0.004444,-0.490528,0.03661,1.497777,-266.082614,-0.080545,63.770154
2.0563,-0.022841,0.019061,0.036294,-0.001067,-0.00752,-0.012492,-0.003727,-0.490467,0.037233,1.500171,-266.088661,-0.097523,63.769725
2.0764,-0.022897,0.018628,0.034276,-0.001073,-0.00752,-0.012494,-0.004281,-0.490603,0.036359,1.500171,-266.088661,-0.097523,63.769725
2.0965,-0.02269,0.019015,0.035311,-0.001078,-0.00752,-0.012496,-0.004281,-0.490603,0.036359,1.500171,-266.088661,-0.097523,63.769725
2.1165,-0.022844,0.018088,0.034908,-0.001082,-0.007521,-0.012497,-0.004718,-0.490983,0.034788,1.500496,-266.094741,-0.102586,63.769296
2.1364,-0.022655,0.018703,0.033189,-0.001041,-0.007513,-0.012503,-0.004856,-0.491274,0.034777,1.500496,-266.094741,-0.102586,63.769296
2.1567,-0.02261,0.018264,0.034687,-0.001007,-0.007506,-0.012507,-0.005758,-0.491256,0.032792,1.499507,-266.100818,-0.103239,63.768861
2.1761,-0.022298,0.01839,0.032986,-0.000969,-0.007498,-0.012511,-0.004997,-0.491426,0.034504,1.499507,-266.100818,-0.103239,63.768861
2.1966,-0.022131,0.01832,0.032441,-0.000938,-0.007491,-0.012514,-0.004997,-0.491426,0.034504,1.499507,-266.100818,-0.103239,63.768861
2.2166,-0.022159,0.017779,0.033542,-0.000912,-0.007485,-0.012516,-0.005621,-0.491723,0.031925,1.504385,-266.106804,-0.131115,63.76846
2.2364,-0.021991,0.017862,0.033968,-0.000859,-0.007473,-0.01252,-0.005394,-0.491845,0.032525,1.504385,-266.106804,-0.131115,63.76846
2.2565,-0.021704,0.017386,0.032477,-0.000815,-0.007462,-0.012522,-0.004691,-0.492076,0.033581,1.510567,-266.112696,-0.172821,63.7681
2.2764,-0.022095,0.017067,0.03236,-0.000788,-0.007455,-0.012523,-0.005104,-0.492332,0.032556,1.510567,-266.112696,-0.172821,63.7681
2.2965,-0.021763,0.01725,0.033136,-0.000766,-0.007449,-0.012524,-0.005104,-0.492332,0.032556,1.510567,-266.112696,-0.172821,63.7681
2.3165,-0.021885,0.017008,0.03242,-0.000748,-0.007444,-0.012524,-0.00489,-0.492771,0.032633,1.516886,-266.118496,-0.224061,63.767779
2.3364,-0.021476,0.017413,0.031874,-0.000726,-0.007437,-0.012524,-0.00508,-0.492786,0.032489,1.516886,-266.118496,-0.224061,63.767779
2.3564,-0.021096,0.016828,0.031811,-0.000708,-0.007432,-0.012523,-0.005238,-0.492559,0.031488,1.521284,-266.124367,-0.268137,63.767478
2.3764,-0.021501,0.016689,0.030507,-0.000702,-0.007429,-0.012522,-0.004906,-0.492896,0.031765,1.521284,-266.124367,-0.268137,63.767478
2.3963,-0.021362,0.016629,0.030595,-0.000697,-0.007427,-0.012521,-0.004906,-0.492896,0.031765,1.521284,-266.124367,-0.268137,63.767478
2.4164,-0.020935,0.016222,0.03206,-0.000692,-0.007425,-0.01252,-0.005781,-0.493439,0.030079,1.523867,-266.130319,-0.297072,63.767186
2.4367,-0.02082,0.01626,0.032158,-0.000654,-0.007414,-0.012521,-0.005294,-0.493506,0.03083,1.523867,-266.130319,-0.297072,63.767186
2.4562,-0.020711,0.016484,0.029676,-0.000623,-0.007405,-0.012522,-0.004436,-0.493713,0.03176,1.5249,-266.136339,-0.309963,63.766896
2.4763,-0.020731,0.015794,0.029703,-0.000588,-0.007396,-0.012523,-0.005478,-0.49334,0.02984,1.5249,-266.136339,-0.309963,63.766896
2.4964,-0.020498,0.015867,0.029758,-0.00056,-0.007387,-0.012523,-0.005478,-0.49334,0.02984,1.5249,-266.136339,-0.309963,63.766896
2.5166,-0.020211,0.015718,0.028734,-0.000537,-0.007381,-0.012523,-0.00534,-0.494198,0.029266,1.529456,-266.142009,-0.371598,63.766645
2.5363,-0.020376,0.015479,0.028862,-0.000501,-0.007369,-0.012523,-0.00543,-0.494181,0.028992,1.529456,-266.142009,-0.371598,63.766645
2.5563,-0.019951,0.015456,0.029546,-0.000472,-0.00736,-0.012523,-0.005667,-0.494515,0.028513,1.535075,-266.1473,-0.44661,63.766433
2.576,-0.020096,0.015553,0.02956,-0.000478,-0.007359,-0.012517,-0.004947,-0.494346,0.029448,1.535075,-266.1473,-0.44661,63.766433
2.596,-0.020345,0.015171,0.030113,-0.000483,-0.007359,-0.012512,-0.004947,-0.494346,0.029448,1.535075,-266.1473,-0.44661,63.766433
2.6161,-0.019728,0.015003,0.030358,-0.000486,-0.007359,-0.012508,-0.004998,-0.494858,0.029672,1.539327,-266.152371,-0.521863,63.766247
2.6363,-0.020116,0.015097,0.028633,-0.000496,-0.007359,-0.0125,-0.004692,-0.494849,0.029902,1.539327,-266.152371,-0.521863,63.766247
2.6564,-0.019885,0.014614,0.029842,-0.000505,-0.00736,-0.012493,-0.005524,-0.494928,0.028236,1.538378,-266.158374,-0.523336,63.766022
2.6766,-0.019411,0.014861,0.027893,-0.0005,-0.007357,-0.012489,-0.004742,-0.495151,0.029685,1.538378,-266.158374,-0.523336,63.766022
2.6964,-0.019411,0.014814,0.026062,-0.000497,-0.007355,-0.012485,-0.004742,-0.495151,0.029685,1.538378,-266.158374,-0.523336,63.766022
2.7165,-0.019163,0.01425,0.027002,-0.000494,-0.007353,-0.012482,-0.006133,-0.495315,0.025549,1.537147,-266.164266,-0.491354,63.765797
2.7363,-0.018865,0.014519,0.026591,-0.000403,-0.007325,-0.012484,-0.005833,-0.495452,0.026083,1.537147,-266.164266,-0.491354,63.765797
2.756,-0.018991,0.014049,0.027447,-0.000329,-0.007301,-0.012484,-0.005315,-0.495535,0.026195,1.537815,-266.170253,-0.500186,63.765572
2.7764,-0.018429,0.013879,0.026578,-0.00032,-0.007297,-0.012483,-0.005026,-0.49575,0.027309,1.537815,-266.170253,-0.500186,63.765572
2.7963,-0.019133,0.014062,0.027589,-0.000312,-0.007293,-0.012482,-0.005026,-0.49575,0.027309,1.537815,-266.170253,-0.500186,63.765572
2.8163,-0.018668,0.014052,0.026532,-0.000306,-0.00729,-0.012481,-0.005066,-0.495833,0.027438,1.54874,-266.171983,-0.575187,63.765519
2.8363,-0.018664,0.013698,0.026705,-0.000294,-0.007285,-0.012453,-0.005095,-0.495817,0.027058,1.54874,-266.171983,-0.575187,63.765519
2.8561,-0.018597,0.013484,0.027812,-0.000285,-0.007281,-0.01243,-0.005047,-0.496204,0.026563,1.550295,-266.174108,-0.650181,63.765454
2.8765,-0.018763,0.013774,0.023582,-0.000312,-0.007287,-0.012387,-0.004472,-0.496313,0.027692,1.550295,-266.174108,-0.650181,63.765454
2.8963,-0.018645,0.013866,0.027513,-0.000335,-0.007291,-0.012352,-0.004472,-0.496313,0.027692,1.550295,-266.174108,-0.650181,63.765454
2.9162,-0.018451,0.013812,0.024956,-0.000353,-0.007295,-0.012323,-0.004618,-0.496123,0.027203,1.551667,-266.177657,-0.725181,63.765354
2.9368,-0.018031,0.013373,0.026107,-0.000326,-0.007287,-0.012287,-0.00507,-0.496106,0.02625,1.551667,-266.177657,-0.725181,63.765354
2.9564,-0.018099,0.013234,0.026457,-0.000304,-0.007281,-0.012256,-0.004722,-0.496621,0.025823,1.546984,-266.181883,-0.650157,63.765233
2.9768,-0.018675,0.013271,0.025074,-0.000308,-0.00728,-0.01222,-0.004618,-0.496599,0.026385,1.546984,-266.181883,-0.650157,63.765233
2.9967,-0.018399,0.013093,0.026466,-0.000311,-0.00728,-0.012191,-0.004618,-0.496599,0.026385,1.546984,-266.181883,-0.650157,63.765233
3.0162,-0.018079,0.012773,0.026367,-0.000313,-0.00728,-0.012166,-0.004908,-0.497018,0.025979,1.550205,-266.187524,-0.592892,63.765093
3.0368,-0.018041,0.012954,0.026033,-0.000287,-0.007271,-0.012148,-0.004792,-0.497065,0.026087,1.550205,-266.187524,-0.592892,63.765093
3.0561,-0.017726,0.012935,0.024583,-0.000266,-0.007263,-0.012133,-0.004769,-0.497037,0.025759,1.549508,-266.191703,-0.517414,63.764995
3.0761,-0.017812,0.012831,0.024345,-0.000223,-0.007248,-0.012114,-0.005154,-0.49693,0.024671,1.549508,-266.191703,-0.517414,63.764995
3.0961,-0.017848,0.012922,0.024578,-0.000188,-0.007236,-0.012097,-0.005154,-0.49693,0.024671,1.549508,-266.191703,-0.517414,63.764995
3.1162,-0.017528,0.012173,0.025443,-0.00016,-0.007227,-0.012083,-0.005319,-0.497227,0.024072,1.552682,-266.197553,-0.5067,63.764873
3.1365,-0.017415,0.012009,0.024885,-0.000132,-0.007215,-0.012078,-0.005006,-0.49744,0.024574,1.552682,-266.197553,-0.5067,63.764873
3.1559,-0.017349,0.012358,0.024402,-0.00011,-0.007206,-0.012072,-0.004724,-0.497914,0.024752,1.559816,-266.199572,-0.581582,63.764843
3.176,-0.017278,0.01192,0.022832,-9.9e-05,-0.0072,-0.012041,-0.004889,-0.497532,0.024427,1.559816,-266.199572,-0.581582,63.764843
3.1961,-0.017252,0.012032,0.025062,-9e-05,-0.007195,-0.012015,-0.004889,-0.497532,0.024427,1.559816,-266.199572,-0.581582,63.764843
3.2161,-0.017475,0.012189,0.024025,-8.3e-05,-0.007191,-0.011994,-0.004471,-0.497827,0.02503,1.563249,-266.199946,-0.656558,63.764838
3.2361,-0.017218,0.012316,0.023465,-8e-05,-0.007188,-0.011939,-0.004778,-0.497763,0.024616,1.563249,-266.199946,-0.656558,63.764838
3.2561,-0.017169,0.011898,0.023395,-7.8e-05,-0.007185,-0.011895,-0.005252,-0.49757,0.023419,1.565076,-266.200634,-0.73156,63.76483
3.2761,-0.017309,0.012222,0.023149,-3.1e-05,-0.007167,-0.011823,-0.00524,-0.497929,0.023395,1.565076,-266.200634,-0.73156,63.76483
3.2963,-0.017199,0.012072,0.023878,6e-06,-0.007153,-0.011763,-0.00524,-0.497929,0.023395,1.565076,-266.200634,-0.73156,63.76483
3.3162,-0.017189,0.012197,0.02435,3.7e-05,-0.007141,-0.011714,-0.005021,-0.497948,0.023602,1.565421,-266.203821,-0.797741,63.764789
3.3362,-0.017332,0.01206,0.024066,3.1e-05,-0.007141,-0.011683,-0.00492,-0.497847,0.023872,1.565421,-266.203821,-0.797741,63.764789
3.3561,-0.017055,0.011857,0.023068,2.7e-05,-0.007141,-0.011657,-0.005059,-0.497793,0.024066,1.573361,-266.203822,-0.722757,63.764789
3.3764,-0.017282,0.011651,0.024186,5.9e-05,-0.007129,-0.011623,-0.005271,-0.497988,0.023156,1.573361,-266.203822,-0.722757,63.764789
3.3963,-0.017062,0.012192,0.0236,8.4e-05,-0.007119,-0.011594,-0.005271,-0.497988,0.023156,1.573361,-266.203822,-0.722757,63.764789
3.4163,-0.01692,0.011703,0.022473,0.000105,-0.007111,-0.01157,-0.005023,-0.497798,0.023386,1.572722,-266.206324,-0.667823,63.764802
3.4366,-0.016894,0.011769,0.022372,0.000114,-0.007106,-0.011542,-0.0052,-0.497963,0.022991,1.572722,-266.206324,-0.667823,63.764802
3.4562,-0.016762,0.011664,0.022346,0.000122,-0.007102,-0.011519,-0.005482,-0.498175,0.022256,1.578173,-266.20811,-0.592837,63.764816
3.4764,-0.016931,0.011246,0.023315,0.000153,-0.00709,-0.011483,-0.005377,-0.498209,0.022332,1.578173,-266.20811,-0.592837,63.764816
3.4962,-0.017338,0.011745,0.023873,0.000178,-0.007079,-0.011454,-0.005377,-0.498209,0.022332,1.578173,-266.20811,-0.592837,63.764816
3.5161,-0.016981,0.01179,0.022831,0.000198,-0.007071,-0.01143,-0.005154,-0.498335,0.023508,1.579452,-266.212395,-0.517857,63.764865
3.5364,-0.017036,0.011657,0.023245,0.000202,-0.007067,-0.011399,-0.005227,-0.498257,0.023192,1.579452,-266.212395,-0.517857,63.764865
3.5562,-0.016737,0.010793,0.021467,0.000205,-0.007065,-0.011375,-0.005172,-0.498403,0.022926,1.584852,-266.217315,-0.442858,63.764941
3.576,-0.016074,0.011089,0.022193,0.000284,-0.007029,-0.011363,-0.005733,-0.499037,0.021582,1.584852,-266.217315,-0.442858,63.764941
3.5961,-0.016504,0.011074,0.020555,0.000347,-0.006999,-0.011352,-0.005733,-0.499037,0.021582,1.584852,-266.217315,-0.442858,63.764941
3.6165,-0.015765,0.010765,0.0202,0.000398,-0.006975,-0.011343,-0.006008,-0.499086,0.020124,1.585421,-266.22239,-0.517863,63.765027
3.6361,-0.016123,0.011025,0.021885,0.000449,-0.00695,-0.011327,-0.005784,-0.499135,0.020105,1.585421,-266.22239,-0.517863,63.765027
3.6563,-0.015997,0.010481,0.019967,0.00049,-0.006929,-0.011314,-0.004961,-0.498869,0.02186,1.599426,-266.222788,-0.442864,63.765038
3.6765,-0.015917,0.011158,0.018709,0.00053,-0.006908,-0.011291,-0.005738,-0.499368,0.020137,1.599426,-266.222788,-0.442864,63.765038
3.696,-0.016267,0.010328,0.020678,0.000561,-0.00689,-0.011273,-0.005738,-0.499368,0.020137,1.599426,-266.222788,-0.442864,63.765038
3.7163,-0.015974,0.011046,0.021504,0.000586,-0.006875,-0.011257,-0.005721,-0.499583,0.020646,1.60621,-266.223165,-0.367863,63.765052
3.7365,-0.01597,0.010838,0.020649,0.000575,-0.006877,-0.011244,-0.005428,-0.499279,0.020994,1.60621,-266.223165,-0.367863,63.765052
3.7562,-0.016139,0.011012,0.021539,0.000566,-0.006878,-0.011233,-0.005437,-0.499078,0.02061,1.613404,-266.223771,-0.292769,63.765078
3.7765,-0.016095,0.010445,0.021211,0.00052,-0.006896,-0.011221,-0.005175,-0.498885,0.021471,1.613404,-266.223771,-0.292769,63.765078
3.7965,-0.015721,0.010993,0.019963,0.000483,-0.006911,-0.011212,-0.005175,-0.498885,0.021471,1.613404,-266.223771,-0.292769,63.765078
3.8165,-0.016347,0.010701,0.020698,0.000454,-0.006923,-0.011205,-0.00553,-0.499001,0.01981,1.611988,-266.225578,-0.217299,63.765152
3.8366,-0.01591,0.010952,0.022632,0.000479,-0.006913,-0.01119,-0.005635,-0.499089,0.020153,1.611988,-266.225578,-0.217299,63.765152
3.8561,-0.015408,0.010521,0.019628,0.0005,-0.006905,-0.011178,-0.004352,-0.499089,0.022354,1.603737,-266.229879,-0.175154,63.765331
3.8764,-0.015909,0.010388,0.020903,0.000502,-0.006903,-0.011198,-0.005303,-0.499364,0.01986,1.603737,-266.229879,-0.175154,63.765331
3.8964,-0.015629,0.010512,0.021442,0.000503,-0.006901,-0.011215,-0.005303,-0.499364,0.01986,1.603737,-266.229879,-0.175154,63.765331
3.9161,-0.015128,0.009791,0.019822,0.000504,-0.0069,-0.011229,-0.004668,-0.499658,0.020976,1.607195,-266.23534,-0.155284,63.765532
3.9365,-0.015332,0.010129,0.021618,0.000482,-0.006904,-0.011262,-0.004808,-0.499874,0.020454,1.607195,-266.23534,-0.155284,63.765532
3.9563,-0.015056,0.009534,0.018431,0.000464,-0.006907,-0.01129,-0.004289,-0.499954,0.021288,1.607428,-266.240402,-0.082257,63.765718
3.9764,-0.015139,0.009431,0.021547,0.000545,-0.006866,-0.011338,-0.005537,-0.500352,0.018664,1.607428,-266.240402,-0.082257,63.765718
3.9964,-0.01498,0.009725,0.019185,0.000609,-0.006832,-0.011376,-0.005537,-0.500352,0.018664,1.607428,-266.240402,-0.082257,63.765718
4.0164,-0.01471,0.009701,0.019677,0.000659,-0.006804,-0.011407,-0.005173,-0.500455,0.018736,1.604424,-266.245646,-0.025881,63.765895
4.0364,-0.014867,0.009026,0.018123,0.000647,-0.006803,-0.011437,-0.004969,-0.500384,0.019066,1.604424,-266.245646,-0.025881,63.765895
4.0559,-0.014875,0.009421,0.019799,0.000638,-0.006803,-0.011462,-0.005617,-0.500958,0.018011,1.618638,-266.24736,0.049037,63.765979
4.0762,-0.014618,0.009308,0.019901,0.000624,-0.006803,-0.011461,-0.004854,-0.500525,0.019631,1.618638,-266.24736,0.049037,63.765979
4.0968,-0.014922,0.008945,0.019178,0.000613,-0.006804,-0.011461,-0.004854,-0.500525,0.019631,1.618638,-266.24736,0.049037,63.765979
4.1166,-0.01429,0.009296,0.016982,0.000604,-0.006804,-0.011461,-0.00513,-0.501064,0.019006,1.616966,-266.249348,0.124014,63.766075
4.1367,-0.014616,0.00924,0.017246,0.000664,-0.006771,-0.011441,-0.005329,-0.500902,0.018173,1.616966,-266.249348,0.124014,63.766075
4.1564,-0.014201,0.009054,0.018488,0.000712,-0.006744,-0.011425,-0.005808,-0.500806,0.017041,1.614523,-266.252445,0.199021,63.766217
4.1763,-0.014737,0.009149,0.018773,0.000702,-0.006744,-0.011429,-0.004867,-0.50086,0.018345,1.614523,-266.252445,0.199021,63.766217
4.1965,-0.014335,0.008989,0.017009,0.000694,-0.006743,-0.011432,-0.004867,-0.50086,0.018345,1.614523,-266.252445,0.199021,63.766217
4.2159,-0.013836,0.00865,0.018456,0.000688,-0.006743,-0.011435,-0.005633,-0.501163,0.016627,1.622603,-266.256838,0.273978,63.766457
4.2362,-0.014145,0.008736,0.016944,0.000733,-0.006715,-0.011468,-0.005141,-0.50123,0.017323,1.622603,-266.256838,0.273978,63.766457
4.2561,-0.013735,0.008071,0.017719,0.000769,-0.006693,-0.011494,-0.00548,-0.501392,0.016603,1.620844,-266.262002,0.337263,63.766731
4.2762,-0.01369,0.008439,0.018704,0.000795,-0.006665,-0.011552,-0.004765,-0.501819,0.017606,1.620844,-266.262002,0.337263,63.766731
4.2966,-0.013751,0.008448,0.017858,0.000814,-0.006643,-0.011598,-0.004765,-0.501819,0.017606,1.620844,-266.262002,0.337263,63.766731
4.3165,-0.01354,0.008379,0.016037,0.000829,-0.006625,-0.011635,-0.004609,-0.501733,0.017407,1.626842,-266.267121,0.40266,63.767042
4.3367,-0.013241,0.008185,0.015246,0.00085,-0.006608,-0.011686,-0.004905,-0.501691,0.016809,1.626842,-266.267121,0.40266,63.767042
4.3562,-0.013358,0.00769,0.016468,0.000866,-0.006594,-0.011728,-0.005443,-0.501921,0.014957,1.631093,-266.27143,0.477539,63.767342
4.3764,-0.013096,0.007727,0.015376,0.000924,-0.00655,-0.011767,-0.005002,-0.502221,0.016318,1.631093,-266.27143,0.477539,63.767342
4.3965,-0.013297,0.007873,0.016065,0.000968,-0.006515,-0.011798,-0.005002,-0.502221,0.016318,1.631093,-266.27143,0.477539,63.767342
4.416,-0.012985,0.007351,0.017612,0.001002,-0.006486,-0.011822,-0.00507,-0.502293,0.015653,1.633654,-266.276064,0.552544,63.767691
4.436,-0.01268,0.007703,0.015642,0.001,-0.006471,-0.01184,-0.004631,-0.502433,0.016405,1.633654,-266.276064,0.552544,63.767691
4.4564,-0.012691,0.007224,0.014628,0.000998,-0.006459,-0.011854,-0.004672,-0.502421,0.015302,1.643801,-266.281022,0.627545,63.768139
4.4765,-0.012721,0.006694,0.016021,0.001079,-0.006402,-0.011857,-0.005175,-0.502702,0.014675,1.643801,-266.281022,0.627545,63.768139
4.4963,-0.012675,0.007492,0.01591,0.001142,-0.006356,-0.011859,-0.005175,-0.502702,0.014675,1.643801,-266.281022,0.627545,63.768139
4.516,-0.012178,0.007069,0.015652,0.001191,-0.006319,-0.011859,-0.004516,-0.502708,0.015424,1.643531,-266.286402,0.664063,63.768636
4.5365,-0.012097,0.006951,0.014798,0.001141,-0.006327,-0.01187,-0.00438,-0.502804,0.015461,1.643531,-266.286402,0.664063,63.768636
4.556,-0.012145,0.006859,0.013975,0.001101,-0.006332,-0.011879,-0.00451,-0.503193,0.014421,1.658372,-266.291825,0.659787,63.769236
4.5766,-0.012004,0.006667,0.014725,0.001167,-0.006281,-0.011899,-0.004968,-0.503111,0.013997,1.658372,-266.291825,0.659787,63.769236
4.5965,-0.012071,0.006706,0.013678,0.001218,-0.006241,-0.011914,-0.004968,-0.503111,0.013997,1.658372,-266.291825,0.659787,63.769236
4.6164,-0.01158,0.006736,0.012673,0.001258,-0.006208,-0.011925,-0.005047,-0.503505,0.01319,1.651639,-266.297148,0.697909,63.769797
4.6361,-0.011861,0.006529,0.01441,0.001326,-0.006148,-0.011931,-0.005069,-0.503422,0.012928,1.651639,-266.297148,0.697909,63.769797
4.6559,-0.011185,0.006348,0.012883,0.001379,-0.006101,-0.011935,-0.00447,-0.503614,0.014032,1.663745,-266.302547,0.707512,63.770456
4.6762,-0.011187,0.006107,0.013686,0.001379,-0.006074,-0.01196,-0.0046,-0.50362,0.012967,1.663745,-266.302547,0.707512,63.770456
4.6963,-0.01066,0.00634,0.015364,0.001377,-0.006051,-0.011981,-0.0046,-0.50362,0.012967,1.663745,-266.302547,0.707512,63.770456
4.7165,-0.010758,0.005768,0.01063,0.001375,-0.006033,-0.011998,-0.002764,-0.503854,0.014864,1.673407,-266.307922,0.711342,63.771183
4.7362,-0.010824,0.00531,0.012528,0.001287,-0.006031,-0.012035,-0.003793,-0.504024,0.013101,1.673407,-266.307922,0.711342,63.771183
4.7562,-0.010498,0.005411,0.01312,0.001217,-0.006029,-0.012067,-0.00439,-0.504837,0.012157,1.673376,-266.313132,0.755151,63.771916
4.7763,-0.010549,0.005033,0.011096,0.001206,-0.005968,-0.012108,-0.003858,-0.504582,0.013013,1.673376,-266.313132,0.755151,63.771916
4.7963,-0.010802,0.005187,0.009768,0.001194,-0.00592,-0.012141,-0.003858,-0.504582,0.013013,1.673376,-266.313132,0.755151,63.771916
4.817,-0.010138,0.005192,0.009988,0.001183,-0.005882,-0.012168,-0.005772,-0.505016,0.009313,1.661415,-266.317995,0.830166,63.77257
4.8363,-0.010521,0.005338,0.009747,0.0014,-0.005697,-0.011912,-0.005469,-0.504947,0.009536,1.661415,-266.317995,0.830166,63.77257
4.8561,-0.009601,0.004637,0.009827,0.001568,-0.005552,-0.011719,-0.005515,-0.504803,0.009406,1.659403,-266.322707,0.905136,63.773258
4.8762,-0.009967,0.004704,0.011881,0.001636,-0.005443,-0.011621,-0.004671,-0.505298,0.009771,1.659403,-266.322707,0.905136,63.773258
4.8962,-0.009947,0.00469,0.010602,0.001686,-0.005357,-0.011546,-0.004671,-0.505298,0.009771,1.659403,-266.322707,0.905136,63.773258
4.9162,-0.009261,0.004927,0.011019,0.001722,-0.00529,-0.011489,-0.004486,-0.505469,0.010201,1.693532,-266.326877,0.830103,63.773988
4.9364,-0.009781,0.004706,0.009634,0.001674,-0.005269,-0.011517,-0.004135,-0.505316,0.010489,1.693532,-266.326877,0.830103,63.773988
4.9562,-0.009273,0.004703,0.009074,0.001635,-0.005251,-0.01154,-0.004814,-0.505432,0.009281,1.709834,-266.33168,0.786797,63.774931
4.9763,-0.008897,0.004626,0.010564,0.001673,-0.005204,-0.011403,-0.004658,-0.505298,0.009075,1.709834,-266.33168,0.786797,63.774931
4.9967,-0.008751,0.004709,0.008602,0.001702,-0.005167,-0.0113,-0.004658,-0.505298,0.009075,1.709834,-266.33168,0.786797,63.774931
5.0165,-0.008776,0.003858,0.010994,0.001722,-0.005139,-0.011222,-0.004296,-0.505485,0.008134,1.702947,-266.336475,0.832624,63.77587
5.0364,-0.00883,0.004199,0.008635,0.001647,-0.005098,-0.011195,-0.003833,-0.505762,0.009237,1.702947,-266.336475,0.832624,63.77587
5.0561,-0.008249,0.004499,0.008527,0.001587,-0.005066,-0.011177,-0.004372,-0.505939,0.008292,1.713428,-266.341128,0.783316,63.776803
5.0767,-0.00874,0.003647,0.009454,0.001537,-0.005068,-0.011058,-0.00394,-0.505531,0.008488,1.713428,-266.341128,0.783316,63.776803
5.0968,-0.008413,0.003839,0.007351,0.001496,-0.00507,-0.01097,-0.00394,-0.505531,0.008488,1.713428,-266.341128,0.783316,63.776803
5.1163,-0.007973,0.003426,0.009033,0.001464,-0.005072,-0.010905,-0.004599,-0.50635,0.006905,1.703448,-266.345702,0.837176,63.777707
5.1364,-0.007842,0.003807,0.007743,0.001531,-0.004907,-0.010736,-0.004091,-0.506456,0.007719,1.703448,-266.345702,0.837176,63.777707
5.1564,-0.00767,0.003466,0.006475,0.001579,-0.00478,-0.010613,-0.003846,-0.506339,0.007397,1.694918,-266.350417,0.826074,63.778568
5.1763,-0.007665,0.003696,0.005728,0.001649,-0.004657,-0.010271,-0.004319,-0.506515,0.00654,1.694918,-266.350417,0.826074,63.778568
5.1967,-0.0076,0.003682,0.00964,0.001699,-0.004563,-0.010029,-0.004319,-0.506515,0.00654,1.694918,-266.350417,0.826074,63.778568
5.2162,-0.007691,0.003348,0.006783,0.001733,-0.00449,-0.009855,-0.002616,-0.506493,0.009197,1.710067,-266.354948,0.823066,63.779493
5.2364,-0.007433,0.003267,0.006976,0.001578,-0.004481,-0.010016,-0.003263,-0.506576,0.008168,1.710067,-266.354948,0.823066,63.779493
5.2559,-0.007004,0.003117,0.007019,0.001459,-0.004473,-0.010142,-0.003828,-0.50684,0.00671,1.734256,-266.358538,0.748069,63.780272
5.2766,-0.00697,0.002937,0.007916,0.001425,-0.004393,-0.010034,-0.003458,-0.506873,0.006978,1.734256,-266.358538,0.748069,63.780272
5.2967,-0.006902,0.003313,0.00734,0.001396,-0.004332,-0.009956,-0.003458,-0.506873,0.006978,1.734256,-266.358538,0.748069,63.780272
5.316,-0.006672,0.002692,0.006103,0.001371,-0.004285,-0.0099,-0.003108,-0.506821,0.007009,1.706692,-266.361919,0.823082,63.780981
5.3361,-0.00653,0.002558,0.00412,0.001328,-0.004222,-0.009775,-0.003287,-0.507034,0.0066,1.706692,-266.361919,0.823082,63.780981
5.3562,-0.006727,0.002717,0.005994,0.001292,-0.004175,-0.009685,-0.00439,-0.507559,0.003841,1.702739,-266.365617,0.898087,63.781773
5.3766,-0.006413,0.002665,0.005396,0.001362,-0.004058,-0.00942,-0.003732,-0.507305,0.005788,1.702739,-266.365617,0.898087,63.781773
5.3964,-0.006262,0.002256,0.006066,0.001412,-0.00397,-0.00923,-0.003732,-0.507305,0.005788,1.702739,-266.365617,0.898087,63.781773
5.4165,-0.006427,0.002343,0.005653,0.001449,-0.003902,-0.009094,-0.003115,-0.507906,0.005668,1.698188,-266.369614,0.932104,63.782625
5.4363,-0.005943,0.002625,0.002832,0.001431,-0.00374,-0.008945,-0.003284,-0.50782,0.005616,1.698188,-266.369614,0.932104,63.782625
5.4559,-0.005527,0.002842,0.005219,0.001413,-0.003616,-0.008841,-0.004458,-0.507483,0.002574,1.722804,-266.373021,0.85702,63.783407
5.4761,-0.006054,0.002446,0.006454,0.001295,-0.003689,-0.008591,-0.003005,-0.507186,0.004971,1.722804,-266.373021,0.85702,63.783407
5.4962,-0.005532,0.002215,0.003851,0.001204,-0.003746,-0.008416,-0.003005,-0.507186,0.004971,1.722804,-266.373021,0.85702,63.783407
5.5162,-0.005897,0.002023,0.003468,0.001134,-0.00379,-0.008293,-0.00351,-0.507927,0.003492,1.726278,-266.37656,0.900727,63.78429
5.5361,-0.005864,0.00188,0.004821,0.001276,-0.003607,-0.007677,-0.003755,-0.507963,0.003441,1.726278,-266.37656,0.900727,63.78429
5.5559,-0.005608,0.001728,0.002921,0.001381,-0.003468,-0.00725,-0.003371,-0.508228,0.004573,1.698144,-266.379915,0.84389,63.784931
5.5763,-0.00561,0.001849,0.005172,0.00152,-0.00328,-0.006783,-0.004054,-0.508272,0.003048,1.698144,-266.379915,0.84389,63.784931
5.5963,-0.005283,0.001836,0.003344,0.001624,-0.003136,-0.006458,-0.004054,-0.508272,0.003048,1.698144,-266.379915,0.84389,63.784931
5.6165,-0.005174,0.002221,0.005051,0.001702,-0.003026,-0.006231,-0.003556,-0.508216,0.003223,1.743981,-266.381168,0.768736,63.785194
5.6363,-0.00529,0.001812,0.003974,0.001591,-0.00303,-0.006394,-0.00316,-0.50804,0.00396,1.743981,-266.381168,0.768736,63.785194
5.6564,-0.005193,0.001762,0.003643,0.001505,-0.003032,-0.006511,-0.003263,-0.508184,0.003974,1.669015,-266.381168,0.69377,63.785194
5.6765,-0.005281,0.00178,0.003376,0.001485,-0.002983,-0.006488,-0.003329,-0.50823,0.003671,1.669015,-266.381168,0.69377,63.785194
5.6964,-0.005396,0.001946,0.003104,0.001468,-0.002945,-0.00647,-0.003329,-0.50823,0.003671,1.669015,-266.381168,0.69377,63.785194
5.7164,-0.005408,0.001765,0.003082,0.001454,-0.002916,-0.006455,-0.003814,-0.508051,0.003104,1.594032,-266.381168,0.618787,63.785194
5.7366,-0.005172,0.002187,0.005272,0.001528,-0.002911,-0.006227,-0.003823,-0.508124,0.003095,1.594032,-266.381168,0.618787,63.785194
5.7565,-0.00513,0.001592,0.004151,0.001585,-0.002907,-0.006062,-0.002483,-0.507805,0.005272,1.519147,-266.381167,0.614658,63.785194
5.7766,-0.004872,0.0021,0.00434,0.001488,-0.002874,-0.006299,-0.002968,-0.508352,0.004248,1.519147,-266.381167,0.614658,63.785194
5.7962,-0.00537,0.002003,0.003814,0.001414,-0.002847,-0.006468,-0.002968,-0.508352,0.004248,1.519147,-266.381167,0.614658,63.785194
5.8165,-0.005403,0.001644,0.004248,0.001357,-0.002826,-0.006588,-0.003425,-0.507994,0.003814,1.444059,-266.381167,0.53957,63.785194
5.8361,-0.005684,0.001815,0.004944,0.001369,-0.00286,-0.006591,-0.003348,-0.508139,0.003991,1.444059,-266.381167,0.53957,63.785194
5.8563,-0.005459,0.002008,0.002523,0.001379,-0.002885,-0.006589,-0.003162,-0.508178,0.004944,1.369146,-266.381167,0.614483,63.785194
5.8761,-0.005593,0.002057,0.005032,0.001501,-0.002914,-0.006127,-0.004087,-0.508006,0.002727,1.369146,-266.381167,0.614483,63.785194
5.8963,-0.005256,0.001983,0.002869,0.001595,-0.002939,-0.005798,-0.004087,-0.508006,0.002727,1.369146,-266.381167,0.614483,63.785194
5.9166,-0.004977,0.001571,0.004433,0.001668,-0.002961,-0.005563,-0.003793,-0.508015,0.002869,1.293977,-266.381167,0.689652,63.785194
5.9371,-0.005286,0.001716,0.005742,0.001612,-0.002964,-0.005663,-0.003349,-0.508184,0.003514,1.293977,-266.381167,0.689652,63.785194
5.9565,-0.005235,0.001843,0.003164,0.00157,-0.002967,-0.005731,-0.002358,-0.508276,0.005742,1.218986,-266.381167,0.614661,63.785194
5.9764,-0.005232,0.002097,0.004041,0.001561,-0.002983,-0.005726,-0.003513,-0.508165,0.003384,1.218986,-266.381167,0.614661,63.785194
5.9964,-0.005102,0.001746,0.003194,0.001555,-0.002996,-0.005718,-0.003513,-0.508165,0.003384,1.218986,-266.381167,0.614661,63.785194
6.0166,-0.005116,0.001603,0.005195,0.00155,-0.003006,-0.005709,-0.003473,-0.508252,0.003194,1.144013,-266.381167,0.539688,63.785194
6.0364,-0.005005,0.001923,0.003663,0.00147,-0.00299,-0.005874,-0.003052,-0.50831,0.00403,1.144013,-266.381167,0.539688,63.785194
6.056,-0.005308,0.001952,0.00414,0.00141,-0.002977,-0.00599,-0.003137,-0.508073,0.003663,1.068705,-266.381167,0.46438,63.785194
6.0761,-0.00526,0.002303,0.003875,0.001371,-0.003031,-0.006075,-0.003191,-0.508046,0.0041,1.068705,-266.381167,0.46438,63.785194
6.0964,-0.005367,0.001774,0.003993,0.001343,-0.003073,-0.006131,-0.003191,-0.508046,0.0041,1.068705,-266.381167,0.46438,63.785194
6.1161,-0.005648,0.001846,0.005401,0.001322,-0.003104,-0.006167,-0.003331,-0.508222,0.003993,0.993995,-266.381166,0.450049,63.785194
6.1363,-0.005115,0.001693,0.004288,0.00131,-0.003093,-0.006308,-0.003152,-0.508191,0.004569,0.993995,-266.381166,0.450049,63.785194
6.1566,-0.005349,0.001874,0.004122,0.001301,-0.003084,-0.006407,-0.002928,-0.508303,0.004288,0.919162,-266.381166,0.4644,63.785194
6.1762,-0.005556,0.001833,0.003936,0.001302,-0.003088,-0.006366,-0.003213,-0.508141,0.00414,0.919162,-266.381166,0.4644,63.785194
6.1962,-0.005457,0.002099,0.003374,0.001303,-0.00309,-0.006335,-0.003213,-0.508141,0.00414,0.919162,-266.381166,0.4644,63.785194
6.2161,-0.005307,0.001965,0.003214,0.001304,-0.003093,-0.006312,-0.003736,-0.507898,0.003374,0.844047,-266.381166,0.539515,63.785194
6.2364,-0.00475,0.001847,0.005995,0.001382,-0.003123,-0.006041,-0.003708,-0.507952,0.003309,0.844047,-266.381166,0.539515,63.785194
6.257,-0.005286,0.002107,0.002378,0.001441,-0.003147,-0.005849,-0.001692,-0.508143,0.005995,0.769164,-266.381165,0.528957,63.785194
6.2766,-0.005308,0.001775,0.004185,0.001508,-0.003169,-0.005514,-0.003832,-0.507918,0.002746,0.769164,-266.381165,0.528957,63.785194
6.2965,-0.005181,0.002009,0.00464,0.001559,-0.003188,-0.005279,-0.003832,-0.507918,0.002746,0.769164,-266.381165,0.528957,63.785194
6.316,-0.005193,0.002216,0.004261,0.001598,-0.003204,-0.005114,-0.002815,-0.507986,0.00464,0.694165,-266.381165,0.453958,63.785194
6.3362,-0.005273,0.001987,0.003397,0.001452,-0.003259,-0.005498,-0.002898,-0.507901,0.004485,0.694165,-266.381165,0.453958,63.785194
6.3565,-0.005179,0.00144,0.003207,0.001342,-0.003299,-0.005783,-0.003541,-0.508011,0.003397,0.619117,-266.381165,0.37891,63.785194
6.3763,-0.005187,0.001792,0.004775,0.001421,-0.003149,-0.005621,-0.003543,-0.508509,0.003224,0.619117,-266.381165,0.37891,63.785194
6.3963,-0.005451,0.001711,0.00291,0.00148,-0.003035,-0.005509,-0.003543,-0.508509,0.003224,0.619117,-266.381165,0.37891,63.785194
6.4161,-0.005391,0.001928,0.00252,0.001522,-0.002948,-0.005431,-0.003967,-0.508286,0.00291,0.544122,-266.381165,0.303915,63.785194
6.4361,-0.005138,0.001988,0.00432,0.001611,-0.002946,-0.005214,-0.004023,-0.508199,0.002752,0.544122,-266.381165,0.303915,63.785194
6.4561,-0.005348,0.001699,0.003246,0.00168,-0.002944,-0.005062,-0.002935,-0.508007,0.00432,0.469168,-266.381165,0.23786,63.785194
6.4765,-0.0054,0.00199,0.004995,0.001675,-0.002937,-0.005152,-0.003632,-0.508275,0.003333,0.469168,-266.381165,0.23786,63.785194
6.4965,-0.004991,0.001749,0.003859,0.001671,-0.00293,-0.005216,-0.003632,-0.508275,0.003333,0.469168,-266.381165,0.23786,63.785194
6.5165,-0.005156,0.001919,0.005113,0.001668,-0.002925,-0.005262,-0.003023,-0.508247,0.003859,0.393899,-266.381165,0.162591,63.785194
6.5367,-0.005155,0.002156,0.004683,0.001505,-0.002973,-0.005577,-0.002829,-0.508176,0.004372,0.393899,-266.381165,0.162591,63.785194
6.5566,-0.005249,0.001969,0.005562,0.001383,-0.003008,-0.00581,-0.002766,-0.507838,0.004683,0.319006,-266.381165,0.171564,63.785194
6.5763,-0.005235,0.001918,0.005955,0.001191,-0.003096,-0.00621,-0.002442,-0.508007,0.005487,0.319006,-266.381165,0.171564,63.785194
6.5962,-0.00561,0.002065,0.004276,0.001048,-0.003163,-0.006514,-0.002442,-0.508007,0.005487,0.319006,-266.381165,0.171564,63.785194
6.6163,-0.004724,0.002054,0.003444,0.000942,-0.003212,-0.006742,-0.003429,-0.50793,0.004276,0.243999,-266.381164,0.24657,63.785194
6.6361,-0.005569,0.002057,0.003375,0.001022,-0.003235,-0.006532,-0.003236,-0.507935,0.003927,0.243999,-266.381164,0.24657,63.785194
6.6567,-0.005296,0.002035,0.003064,0.001083,-0.003254,-0.006385,-0.003847,-0.50794,0.003375,0.319186,-266.381164,0.321758,63.785194
6.6766,-0.005385,0.002061,0.004485,0.001222,-0.003244,-0.006007,-0.003745,-0.507961,0.003093,0.319186,-266.381164,0.321758,63.785194
6.6965,-0.005388,0.001516,0.004263,0.001328,-0.003238,-0.005743,-0.003745,-0.507961,0.003093,0.319186,-266.381164,0.321758,63.785194
6.7162,-0.005364,0.00203,0.004668,0.001409,-0.003235,-0.005559,-0.003214,-0.508479,0.004263,0.393824,-266.381165,0.396395,63.785195
6.7364,-0.00541,0.001505,0.003636,0.00138,-0.003178,-0.005811,-0.003119,-0.508269,0.004429,0.393824,-266.381165,0.396395,63.785195
6.7564,-0.005016,0.001923,0.004165,0.001357,-0.003132,-0.005996,-0.003555,-0.508492,0.003636,0.318695,-266.381164,0.321266,63.785195
6.7761,-0.005252,0.001792,0.004172,0.001294,-0.003145,-0.006053,-0.002949,-0.508109,0.00412,0.318695,-266.381164,0.321266,63.785195
6.7962,-0.005383,0.001846,0.003504,0.001245,-0.003154,-0.006095,-0.002949,-0.508109,0.00412,0.318695,-266.381164,0.321266,63.785195
6.8166,-0.005085,0.001875,0.005517,0.001209,-0.003161,-0.006127,-0.003596,-0.508151,0.003504,0.243684,-266.381164,0.371904,63.785195
6.8362,-0.005183,0.001959,0.003944,0.001203,-0.003156,-0.006206,-0.003055,-0.508137,0.004326,0.243684,-266.381164,0.371904,63.785195
6.8561,-0.005503,0.002069,0.003378,0.001199,-0.003152,-0.006263,-0.003172,-0.508037,0.003944,0.318553,-266.381164,0.446773,63.785195
6.8764,-0.00522,0.001529,0.00388,0.001304,-0.003172,-0.006037,-0.003735,-0.507936,0.00342,0.318553,-266.381164,0.446773,63.785195
6.8962,-0.005344,0.001895,0.00392,0.001385,-0.003189,-0.005877,-0.003735,-0.507936,0.00342,0.318553,-266.381164,0.446773,63.785195
6.9162,-0.005638,0.001871,0.003582,0.001448,-0.003203,-0.005763,-0.003345,-0.508101,0.00392,0.394023,-266.381165,0.511772,63.785195
6.9364,-0.004738,0.002112,0.005263,0.001474,-0.003179,-0.005791,-0.003539,-0.508111,0.003779,0.394023,-266.381165,0.511772,63.785195
6.9562,-0.005007,0.002043,0.004244,0.001494,-0.00316,-0.00581,-0.002054,-0.50788,0.005263,0.319335,-266.381165,0.437084,63.785195
6.9762,-0.005426,0.002153,0.0029,0.001347,-0.003216,-0.005973,-0.002772,-0.507946,0.004336,0.319335,-266.381165,0.437084,63.785195
6.9965,-0.00532,0.00185,0.004908,0.001238,-0.003259,-0.006094,-0.002772,-0.507946,0.004336,0.319335,-266.381165,0.437084,63.785195
7.0161,-0.005337,0.002325,0.00539,0.001155,-0.003291,-0.006183,-0.002816,-0.508143,0.004908,0.24449,-266.381164,0.362239,63.785195
7.0365,-0.005342,0.001816,0.004227,0.001083,-0.003318,-0.006426,-0.002723,-0.507949,0.005105,0.24449,-266.381164,0.362239,63.785195
7.0559,-0.005188,0.001814,0.002264,0.001029,-0.003338,-0.006607,-0.003186,-0.508179,0.004227,0.319585,-266.381165,0.397659,63.785195
7.0761,-0.004966,0.001993,0.002225,0.001228,-0.003244,-0.005899,-0.003959,-0.508184,0.002435,0.319585,-266.381165,0.397659,63.785195
7.0961,-0.005477,0.001915,0.003708,0.00138,-0.003177,-0.005412,-0.003959,-0.508184,0.002435,0.319585,-266.381165,0.397659,63.785195
7.1161,-0.005297,0.001433,0.00392,0.001496,-0.003128,-0.005075,-0.003586,-0.508081,0.003708,0.394617,-266.381165,0.472691,63.785195
7.1365,-0.005508,0.002081,0.005385,0.001509,-0.003084,-0.005294,-0.003469,-0.508277,0.003794,0.394617,-266.381165,0.472691,63.785195
7.1565,-0.005451,0.002281,0.004514,0.001517,-0.003049,-0.005452,-0.002762,-0.507911,0.005385,0.319758,-266.381165,0.397832,63.785195
7.1765,-0.005449,0.001952,0.004717,0.001419,-0.00317,-0.005773,-0.003114,-0.507732,0.004592,0.319758,-266.381165,0.397832,63.785195
7.1963,-0.00498,0.001894,0.004482,0.001346,-0.003261,-0.00601,-0.003114,-0.507732,0.004592,0.319758,-266.381165,0.397832,63.785195
7.2168,-0.00512,0.001691,0.00626,0.001292,-0.003331,-0.006185,-0.002694,-0.508101,0.004482,0.244722,-266.381165,0.322796,63.785195
7.236,-0.005178,0.001998,0.004526,0.001128,-0.003297,-0.006431,-0.002385,-0.50818,0.005198,0.244722,-266.381165,0.322796,63.785195
7.2567,-0.005312,0.001774,0.002429,0.001004,-0.00327,-0.006618,-0.002869,-0.507997,0.004526,0.169752,-266.381164,0.332587,63.785195
7.2766,-0.005322,0.002,0.00477,0.00121,-0.003187,-0.005977,-0.003964,-0.508204,0.002619,0.169752,-266.381164,0.332587,63.785195
7.2961,-0.005594,0.001804,0.00288,0.001367,-0.003128,-0.005536,-0.003964,-0.508204,0.002619,0.169752,-266.381164,0.332587,63.785195
7.3161,-0.005282,0.001838,0.00448,0.001488,-0.003085,-0.005232,-0.004125,-0.508194,0.00288,0.244882,-266.381165,0.407717,63.785195
7.3364,-0.005338,0.001955,0.003337,0.001528,-0.003069,-0.005332,-0.003663,-0.508179,0.003535,0.244882,-266.381165,0.407717,63.785195
7.356,-0.005733,0.002186,0.003967,0.001559,-0.003055,-0.005404,-0.003636,-0.508043,0.003337,0.170008,-266.381164,0.332843,63.785195
7.3763,-0.005248,0.001613,0.002713,0.001566,-0.003126,-0.005568,-0.003703,-0.507831,0.00391,0.170008,-266.381164,0.332843,63.785195
7.3962,-0.005204,0.001979,0.003877,0.001573,-0.00318,-0.005685,-0.003703,-0.507831,0.00391,0.170008,-266.381164,0.332843,63.785195
7.4162,-0.005294,0.001834,0.001473,0.00158,-0.003221,-0.00577,-0.003227,-0.508018,0.003877,0.095014,-266.381164,0.257849,63.785195
7.4361,-0.005296,0.001795,0.004984,0.001618,-0.003191,-0.005502,-0.003766,-0.508078,0.002892,0.095014,-266.381164,0.257849,63.785195
7.4563,-0.005219,0.001903,0.003652,0.001645,-0.00317,-0.005315,-0.002755,-0.508198,0.004984,0.019861,-266.381164,0.189518,63.785195
7.476,-0.005444,0.001786,0.004425,0.001583,-0.003164,-0.005463,-0.003302,-0.508103,0.003772,0.019861,-266.381164,0.189518,63.785195
7.4961,-0.005014,0.001879,0.00401,0.001535,-0.003159,-0.005571,-0.003302,-0.508103,0.003772,0.019861,-266.381164,0.189518,63.785195
7.5161,-0.005118,0.001937,0.002643,0.001499,-0.003154,-0.005649,-0.002969,-0.508117,0.00401,-0.055144,-266.381164,0.114512,63.785195
7.5362,-0.005608,0.001734,0.002995,0.00147,-0.003153,-0.005609,-0.003296,-0.508094,0.003452,-0.055144,-266.381164,0.114512,63.785195
7.5562,-0.005114,0.001954,0.003718,0.001447,-0.003152,-0.005582,-0.004081,-0.508264,0.002995,-0.130012,-266.381164,0.189381,63.785195
7.576,-0.005278,0.00194,0.004405,0.001426,-0.00316,-0.005625,-0.003295,-0.508062,0.003653,-0.130012,-266.381164,0.189381,63.785195
7.596,-0.005189,0.001951,0.004065,0.00141,-0.003166,-0.005657,-0.003295,-0.508062,0.003653,-0.130012,-266.381164,0.189381,63.785195
7.6161,-0.005369,0.002128,0.00354,0.001398,-0.003171,-0.005679,-0.003116,-0.508045,0.004065,-0.204992,-266.381163,0.175975,63.785195
7.6364,-0.005749,0.001627,0.002812,0.001382,-0.003197,-0.005754,-0.003299,-0.507973,0.00385,-0.204992,-266.381163,0.175975,63.785195
7.6564,-0.004971,0.001843,0.003207,0.001371,-0.003217,-0.005808,-0.004314,-0.508371,0.002812,-0.27999,-266.381163,0.209979,63.785195
7.6762,-0.005064,0.002,0.004272,0.001402,-0.003176,-0.005633,-0.003425,-0.508174,0.003171,-0.27999,-266.381163,0.209979,63.785195
7.6963,-0.005109,0.001933,0.002821,0.001424,-0.003146,-0.005509,-0.003425,-0.508174,0.003171,-0.27999,-266.381163,0.209979,63.785195
7.7161,-0.005527,0.001932,0.005373,0.00144,-0.003124,-0.005423,-0.003671,-0.508065,0.002821,-0.354991,-266.381163,0.236935,63.785195
7.736,-0.005018,0.00242,0.004082,0.001421,-0.003139,-0.005574,-0.003309,-0.508063,0.003866,-0.354991,-266.381163,0.236935,63.785195
7.7562,-0.004986,0.001531,0.003393,0.001407,-0.00315,-0.005682,-0.002937,-0.507576,0.004082,-0.430003,-266.381163,0.161924,63.785195
7.7763,-0.004983,0.001309,0.003292,0.001405,-0.003075,-0.005631,-0.003228,-0.50839,0.003452,-0.430003,-266.381163,0.161924,63.785195
7.7963,-0.005458,0.001848,0.004517,0.001402,-0.003017,-0.005596,-0.003228,-0.50839,0.003452,-0.430003,-266.381163,0.161924,63.785195
7.8163,-0.005347,0.001729,0.004395,0.001399,-0.002973,-0.005572,-0.003154,-0.508147,0.004517,-0.505121,-266.381162,0.223701,63.785195
7.8362,-0.005537,0.002333,0.003694,0.001364,-0.002995,-0.005835,-0.003134,-0.508197,0.004466,-0.505121,-266.381162,0.223701,63.785195
7.8563,-0.005404,0.002223,0.003665,0.001338,-0.003009,-0.006027,-0.003653,-0.507664,0.003694,-0.580356,-266.381162,0.298196,63.785195
7.8762,-0.005213,0.001773,0.003543,0.001363,-0.003109,-0.00595,-0.003546,-0.507764,0.003667,-0.580356,-266.381162,0.298196,63.785195
7.8963,-0.005375,0.001794,0.004709,0.001385,-0.003186,-0.005896,-0.003546,-0.507764,0.003667,-0.580356,-266.381162,0.298196,63.785195
7.9161,-0.00537,0.001788,0.004338,0.001403,-0.003246,-0.005856,-0.002973,-0.508201,0.004709,-0.654987,-266.381162,0.372827,63.785195
7.9374,-0.005411,0.001431,0.003526,0.001357,-0.003203,-0.00606,-0.003049,-0.508203,0.004557,-0.654987,-266.381162,0.372827,63.785195
7.9563,-0.005372,0.001919,0.004496,0.001322,-0.00317,-0.006211,-0.003613,-0.508566,0.003526,-0.7301,-266.381161,0.297713,63.785196
7.9764,-0.005322,0.001769,0.003387,0.001303,-0.003163,-0.006285,-0.003126,-0.508119,0.00441,-0.7301,-266.381161,0.297713,63.785196
7.9965,-0.005197,0.001781,0.004659,0.001288,-0.003158,-0.00634,-0.003126,-0.508119,0.00441,-0.7301,-266.381161,0.297713,63.785196
8.0162,-0.005047,0.001753,0.00405,0.001277,-0.003154,-0.006379,-0.00282,-0.508214,0.004659,-0.805098,-266.38116,0.372711,63.785196
8.0363,-0.005492,0.001717,0.004543,0.001229,-0.003131,-0.006405,-0.002887,-0.508226,0.004409,-0.805098,-266.38116,0.372711,63.785196
8.0562,-0.005347,0.001786,0.004123,0.001192,-0.003113,-0.006425,-0.003175,-0.508278,0.004543,-0.880099,-266.381154,0.447712,63.785197
8.0762,-0.00511,0.001689,0.003456,0.00123,-0.003091,-0.006374,-0.003239,-0.508216,0.004159,-0.880099,-266.381154,0.447712,63.785197
8.0963,-0.005344,0.002139,0.004037,0.001259,-0.003074,-0.006338,-0.003239,-0.508216,0.004159,-0.880099,-266.381154,0.447712,63.785197
8.1161,-0.005541,0.001816,0.003531,0.001281,-0.003061,-0.006313,-0.003284,-0.507857,0.004036,-0.955131,-266.381134,0.522744,63.785201
8.1361,-0.005033,0.00213,0.003195,0.001324,-0.003099,-0.006202,-0.00347,-0.507989,0.003829,-0.955131,-266.381134,0.522744,63.785201
8.1565,-0.005176,0.00191,0.004642,0.001357,-0.003129,-0.006123,-0.0034,-0.507871,0.003187,-1.03001,-266.381008,0.555433,63.785228
8.1767,-0.005379,0.001569,0.005269,0.001272,-0.003156,-0.006249,-0.002861,-0.508066,0.004513,-1.03001,-266.381008,0.555433,63.785228
8.1965,-0.005232,0.002115,0.004026,0.001207,-0.003176,-0.006341,-0.002861,-0.508066,0.004513,-1.03001,-266.381008,0.555433,63.785228
8.2167,-0.005207,0.001719,0.003622,0.001158,-0.003192,-0.006409,-0.003169,-0.507893,0.004,-1.105175,-266.380708,0.480268,63.785292
8.2363,-0.005331,0.002038,0.005348,0.001196,-0.003193,-0.006275,-0.003246,-0.508051,0.003844,-1.105175,-266.380708,0.480268,63.785292
8.2564,-0.005374,0.001725,0.003012,0.001225,-0.003195,-0.00618,-0.002591,-0.507974,0.005309,-1.179995,-266.380123,0.555088,63.785403
8.2764,-0.005168,0.001661,0.00451,0.001347,-0.003131,-0.005895,-0.003744,-0.508251,0.003182,-1.179995,-266.380123,0.555088,63.785403
8.2963,-0.004975,0.00169,0.003326,0.001439,-0.003082,-0.005695,-0.003744,-0.508251,0.003182,-1.179995,-266.380123,0.555088,63.785403
8.3163,-0.004859,0.00166,0.004812,0.001509,-0.003046,-0.005554,-0.003252,-0.508355,0.00323,-1.255389,-266.379049,0.479694,63.785609
8.3362,-0.005263,0.001735,0.003701,0.001415,-0.003015,-0.00566,-0.002904,-0.508352,0.003864,-1.255389,-266.379049,0.479694,63.785609
8.3561,-0.005113,0.001688,0.004836,0.001343,-0.002991,-0.005739,-0.00336,-0.508291,0.003643,-1.330023,-266.378219,0.40506,63.785803
8.3765,-0.005104,0.001714,0.003099,0.001244,-0.002992,-0.006014,-0.002707,-0.508306,0.004731,-1.330023,-266.378219,0.40506,63.785803
8.3961,-0.005191,0.001685,0.003686,0.001168,-0.002992,-0.006217,-0.002707,-0.508306,0.004731,-1.330023,-266.378219,0.40506,63.785803
8.4161,-0.004897,0.001829,0.003316,0.001111,-0.002991,-0.006368,-0.003258,-0.50843,0.003457,-1.366891,-266.375687,0.365518,63.786352
8.4361,-0.005234,0.001577,0.004134,0.001177,-0.002965,-0.00611,-0.00323,-0.508337,0.003373,-1.366891,-266.375687,0.365518,63.786352
8.4567,-0.004634,0.001253,0.002496,0.001225,-0.002945,-0.005934,-0.003118,-0.508438,0.004096,-1.410682,-266.375146,0.440517,63.786463
8.4762,-0.004744,0.001566,0.002843,0.001306,-0.002823,-0.005543,-0.003339,-0.508718,0.002641,-1.410682,-266.375146,0.440517,63.786463
8.4963,-0.004974,0.001489,0.003225,0.001365,-0.002731,-0.005275,-0.003339,-0.508718,0.002641,-1.410682,-266.375146,0.440517,63.786463
8.5166,-0.00446,0.001253,0.002781,0.001408,-0.002662,-0.005091,-0.003281,-0.508622,0.002995,-1.386447,-266.372674,0.506104,63.786981
8.5366,-0.00463,0.001428,0.001668,0.001408,-0.002622,-0.00506,-0.003179,-0.508685,0.002882,-1.386447,-266.372674,0.506104,63.786981
8.5565,-0.004496,0.00152,0.003074,0.001407,-0.002591,-0.005042,-0.003757,-0.508613,0.001584,-1.331535,-266.371474,0.431101,63.787279
8.5767,-0.00455,0.00141,0.004555,0.001363,-0.00261,-0.005057,-0.003002,-0.508492,0.002936,-1.331535,-266.371474,0.431101,63.787279
8.5967,-0.004317,0.001511,0.002057,0.001329,-0.002624,-0.005071,-0.003002,-0.508492,0.002936,-1.331535,-266.371474,0.431101,63.787279
8.6168,-0.004286,0.001303,0.003024,0.001303,-0.002635,-0.005083,-0.003218,-0.50858,0.001875,-1.3276,-266.369463,0.356099,63.787792
8.6369,-0.004216,0.001194,0.004016,0.0013,-0.002597,-0.004858,-0.003019,-0.508637,0.00232,-1.3276,-266.369463,0.356099,63.787792
8.656,-0.004337,0.000836,0.003088,0.001296,-0.002569,-0.004703,-0.002126,-0.508886,0.003854,-1.347555,-266.367127,0.34608,63.788342
8.6765,-0.003938,0.001119,0.002965,0.001253,-0.002395,-0.004887,-0.002701,-0.50914,0.003151,-1.347555,-266.367127,0.34608,63.788342
8.6965,-0.004065,0.000807,0.003783,0.001219,-0.002262,-0.005024,-0.002701,-0.50914,0.003151,-1.347555,-266.367127,0.34608,63.788342
8.7166,-0.004291,0.001239,0.002341,0.001191,-0.002161,-0.005127,-0.002092,-0.509275,0.003623,-1.336904,-266.365328,0.27109,63.78877
8.7363,-0.003894,0.000464,0.001936,0.001121,-0.002102,-0.005184,-0.002494,-0.509076,0.003085,-1.336904,-266.365328,0.27109,63.78877
8.7561,-0.003918,0.000996,0.002802,0.001068,-0.002057,-0.005229,-0.002904,-0.509539,0.001926,-1.349539,-266.365197,0.346096,63.788807
8.7765,-0.00367,0.001268,0.003858,0.001034,-0.002031,-0.005134,-0.002526,-0.509051,0.002722,-1.349539,-266.365197,0.346096,63.788807
8.7965,-0.003844,0.001094,0.001539,0.001007,-0.002011,-0.00507,-0.002526,-0.509051,0.002722,-1.349539,-266.365197,0.346096,63.788807
8.8164,-0.003944,0.001173,0.001737,0.000986,-0.001996,-0.005028,-0.003058,-0.508908,0.001534,-1.3702,-266.365143,0.421094,63.788823
8.8365,-0.004,0.00092,0.00357,0.001069,-0.002026,-0.004528,-0.003058,-0.508875,0.001616,-1.3702,-266.365143,0.421094,63.788823
8.8566,-0.003758,0.000875,0.003378,0.001132,-0.002051,-0.00418,-0.002177,-0.509081,0.00356,-1.37855,-266.365009,0.496242,63.788861
8.8762,-0.004015,0.000792,0.002676,0.000966,-0.002009,-0.004594,-0.002047,-0.509119,0.003393,-1.37855,-266.365009,0.496242,63.788861
8.8963,-0.004125,0.000781,0.003111,0.000842,-0.001977,-0.004898,-0.002047,-0.509119,0.003393,-1.37855,-266.365009,0.496242,63.788861
8.9165,-0.003257,0.001103,0.002025,0.000749,-0.001953,-0.005121,-0.002497,-0.509291,0.002958,-1.329681,-266.363359,0.421298,63.789292
8.9367,-0.003837,0.000957,0.001114,0.000762,-0.001928,-0.004995,-0.002381,-0.509139,0.002562,-1.329681,-266.363359,0.421298,63.789292
8.9562,-0.003418,0.000895,0.001988,0.000771,-0.001909,-0.004908,-0.003269,-0.509043,0.001114,-1.40458,-266.363353,0.496197,63.789293
8.9763,-0.003966,0.000875,0.002063,0.000799,-0.001905,-0.004576,-0.002482,-0.509099,0.00191,-1.40458,-266.363353,0.496197,63.789293
8.9964,-0.004045,0.00038,0.00053,0.000819,-0.001903,-0.004344,-0.002482,-0.509099,0.00191,-1.40458,-266.363353,0.496197,63.789293
9.0161,-0.003799,0.000772,0.002558,0.000833,-0.001902,-0.004181,-0.003774,-0.509623,0.000524,-1.415029,-266.363293,0.571206,63.789309
9.0362,-0.00353,0.000756,0.001059,0.001001,-0.001794,-0.00379,-0.003254,-0.509462,0.00135,-1.415029,-266.363293,0.571206,63.789309
9.0559,-0.003684,0.001129,0.001972,0.001128,-0.001712,-0.003513,-0.002967,-0.509296,0.000945,-1.385985,-266.361733,0.646197,63.789673
9.0764,-0.003686,0.000848,0.001248,0.001097,-0.001817,-0.003577,-0.002703,-0.508911,0.001874,-1.385985,-266.361733,0.646197,63.789673
9.0964,-0.003499,0.001104,0.002584,0.001074,-0.001898,-0.003621,-0.002703,-0.508911,0.001874,-1.385985,-266.361733,0.646197,63.789673
9.1164,-0.003372,0.000735,0.001813,0.001059,-0.001959,-0.003651,-0.002171,-0.508911,0.002546,-1.310973,-266.361345,0.571185,63.78979
9.1368,-0.003391,0.000426,0.002623,0.000958,-0.001984,-0.003816,-0.00228,-0.509053,0.00225,-1.310973,-266.361345,0.571185,63.78979
9.1559,-0.003535,0.000675,0.003089,0.000883,-0.002004,-0.003935,-0.002047,-0.509583,0.0026,-1.323158,-266.361023,0.496189,63.789871
9.1764,-0.003498,0.000916,0.00242,0.000764,-0.00192,-0.004281,-0.001967,-0.509347,0.003044,-1.323158,-266.361023,0.496189,63.789871
9.1961,-0.003745,0.00099,0.001506,0.000675,-0.001857,-0.004533,-0.001967,-0.509347,0.003044,-1.323158,-266.361023,0.496189,63.789871
9.2164,-0.003429,0.00118,0.000567,0.000608,-0.001809,-0.004717,-0.002944,-0.509083,0.001361,-1.373068,-266.359432,0.424587,63.790214
9.2366,-0.003476,0.000684,-0.000372,0.000769,-0.001865,-0.003999,-0.003019,-0.508986,0.001023,-1.373068,-266.359432,0.424587,63.790214
9.2562,-0.003489,0.000635,0.002299,0.000893,-0.001912,-0.003497,-0.003666,-0.509316,-0.000372,-1.441967,-266.35943,0.499579,63.790215
9.2762,-0.003672,0.000761,0.001023,0.000886,-0.001847,-0.003609,-0.00244,-0.509359,0.002054,-1.441967,-266.35943,0.499579,63.790215
9.2966,-0.003319,0.000877,0.000866,0.00088,-0.001798,-0.00369,-0.00244,-0.509359,0.002054,-1.441967,-266.35943,0.499579,63.790215
9.3165,-0.003217,0.000552,0.000452,0.000876,-0.00176,-0.00375,-0.002866,-0.509146,0.000819,-1.366961,-266.358915,0.424573,63.790329
9.3363,-0.003572,0.000728,0.003211,0.000968,-0.001743,-0.003126,-0.002914,-0.509272,0.000664,-1.366961,-266.358915,0.424573,63.790329
9.3564,-0.003675,0.000751,0.000978,0.001037,-0.001734,-0.002685,-0.001912,-0.509314,0.003117,-1.357921,-266.357603,0.499617,63.790653
9.3763,-0.002998,0.000295,0.00087,0.001114,-0.00174,-0.002636,-0.003061,-0.509257,0.001165,-1.357921,-266.357603,0.499617,63.790653
9.3962,-0.003526,0.000736,0.000531,0.001172,-0.001745,-0.002601,-0.003061,-0.509257,0.001165,-1.357921,-266.357603,0.499617,63.790653
9.4163,-0.00311,0.000908,0.00162,0.001217,-0.001748,-0.002576,-0.003255,-0.509264,0.000531,-1.282964,-266.357599,0.42466,63.790654
9.4364,-0.003573,0.000807,0.002205,0.001212,-0.001768,-0.002461,-0.002862,-0.509194,0.000972,-1.282964,-266.357599,0.42466,63.790654
9.4559,-0.003301,0.00077,0.002679,0.001209,-0.001784,-0.002378,-0.002449,-0.509192,0.002204,-1.219632,-266.357594,0.349665,63.790656
9.4762,-0.003162,0.000932,0.001147,0.001001,-0.001796,-0.003001,-0.001982,-0.509225,0.002635,-1.219632,-266.357594,0.349665,63.790656
9.4961,-0.003427,0.000884,0.001406,0.000846,-0.001804,-0.003457,-0.001982,-0.509225,0.002635,-1.219632,-266.357594,0.349665,63.790656
9.5165,-0.003097,0.000687,0.000665,0.000731,-0.00181,-0.003791,-0.00271,-0.509116,0.001406,-1.21327,-266.357591,0.274661,63.790657
9.5368,-0.00313,0.000816,0.002915,0.000819,-0.001811,-0.00338,-0.002729,-0.509196,0.001104,-1.21327,-266.357591,0.274661,63.790657
9.5563,-0.00355,0.000587,0.001893,0.000885,-0.001814,-0.003092,-0.00164,-0.509188,0.002904,-1.288268,-266.357426,0.349659,63.790692
9.5766,-0.003226,0.000728,0.001783,0.0,0.0,0.0,-0.002498,-0.509391,0.001985,-1.288268,-266.357426,0.349659,63.790692
9.5966,-0.003301,0.000298,0.000971,0.0,0.0,0.0,-0.002498,-0.509391,0.001985,-1.288268,-266.357426,0.349659,63.790692
9.6164,-0.003554,0.000433,0.001743,0.0,0.0,0.0,-0.002794,-0.509724,0.00093,-1.336107,-266.356956,0.27466,63.790802
9.6364,-0.003235,0.000806,0.001598,0.0,0.0,0.0,-0.00274,-0.509662,0.001258,-1.336107,-266.356956,0.27466,63.790802
9.6562,-0.003216,0.000459,0.000735,0.0,0.0,0.0,-0.00242,-0.509193,0.001598,-1.336107,-266.356956,0.27466,63.790802
9.6764,-0.003262,0.000778,0.000945,0.0,0.0,0.0,-0.002804,-0.50951,0.000812,-1.336107,-266.356956,0.27466,63.790802
9.6965,-0.00279,0.000478,0.000309,0.0,0.0,0.0,-0.002804,-0.50951,0.000812,-1.336107,-266.356956,0.27466,63.790802
