mach0312/omni-docking-bench/src/icros_test_setup/results/MPPI_sample/timeseries/trial_124.csv
t,x,y,yaw,vx,vy,wz,bl_x,bl_y,bl_yaw,front_steering_joint,front_wheel_joint,rear_steering_joint,rear_wheel_joint
0.0,-0.059746,-0.022909,0.067579,0.004305,-0.000958,0.001169,-0.026273,-0.531294,0.066527,-0.056695,-260.94462,-0.370547,69.483832
0.0003,-0.059332,-0.022533,0.066623,0.003545,-0.000789,0.000963,-0.02586,-0.530951,0.067348,-0.056695,-260.941665,-0.370547,69.486997
0.0006,-0.059067,-0.022688,0.068944,0.002735,-0.000609,0.000743,-0.02586,-0.530951,0.067348,-0.056695,-260.939388,-0.370547,69.489435
0.0009,-0.059342,-0.022669,0.067696,0.001871,-0.000417,0.000508,-0.02586,-0.530951,0.067348,-0.056695,-260.937663,-0.370547,69.491283
0.0013,-0.059271,-0.022567,0.067868,0.000965,-0.000215,0.000262,-0.02586,-0.530951,0.067348,-0.056695,-260.936914,-0.370547,69.492086
0.0016,-0.059145,-0.022518,0.067774,6e-06,-1e-06,2e-06,-0.025873,-0.531648,0.067347,-0.056695,-260.936914,-0.370547,69.492086
0.0018,-0.059147,-0.02264,0.068669,0.0,0.0,0.0,-0.025226,-0.531346,0.068222,-0.056695,-260.936914,-0.370547,69.492086
0.0021,-0.05915,-0.022516,0.068903,0.0,0.0,0.0,-0.025226,-0.531346,0.068222,-0.056695,-260.936914,-0.370547,69.492086
0.0155,-0.058892,-0.022803,0.068532,0.0,0.0,0.0,-0.024037,-0.531306,0.068903,-0.056695,-260.936911,-0.370547,69.492089
0.0356,-0.058989,-0.02278,0.069798,0.0,0.0,0.0,-0.023974,-0.53158,0.068564,-0.056695,-260.936911,-0.370547,69.492089
0.056,-0.058739,-0.022915,0.07041,0.0,0.0,0.0,-0.023974,-0.53158,0.068564,-0.056695,-260.936911,-0.370547,69.492089
0.0758,-0.059112,-0.022809,0.067508,0.0,0.0,0.0,-0.02286,-0.531651,0.07041,-0.056695,-260.936911,-0.370547,69.492089
0.0958,-0.058916,-0.022592,0.06983,0.0,0.0,0.0,-0.023617,-0.53165,0.069222,-0.056695,-260.936911,-0.370547,69.492089
0.116,-0.059148,-0.022329,0.067805,0.003051,0.001365,-0.010643,-0.023332,-0.531349,0.06983,-0.056695,-260.936911,-0.370547,69.492089
0.1359,-0.059234,-0.022494,0.068455,0.003398,0.001433,-0.011434,-0.02448,-0.531174,0.067988,-0.056695,-260.936911,-0.370547,69.492089
0.1563,-0.059097,-0.02297,0.068272,0.003706,0.001483,-0.012059,-0.02448,-0.531174,0.067988,-0.056695,-260.936911,-0.370547,69.492089
0.1761,-0.058882,-0.022494,0.071041,0.00398,0.00152,-0.01255,-0.024306,-0.531781,0.068272,-0.131658,-260.936911,-0.295584,69.492089
0.196,-0.059206,-0.02279,0.069289,0.004211,0.001562,-0.013025,-0.023643,-0.531547,0.069402,-0.131658,-260.936911,-0.295584,69.492089
0.216,-0.05935,-0.022529,0.068214,0.004415,0.001593,-0.013401,-0.023896,-0.531566,0.069289,-0.206659,-260.936911,-0.220583,69.492089
0.2361,-0.059014,-0.022707,0.069681,0.004608,0.0016,-0.013698,-0.024526,-0.531363,0.06831,-0.206659,-260.936911,-0.220583,69.492089
0.2559,-0.058873,-0.022778,0.067528,0.004779,0.001602,-0.013931,-0.024526,-0.531363,0.06831,-0.206659,-260.936911,-0.220583,69.492089
0.276,-0.059149,-0.022325,0.068433,0.004929,0.001601,-0.014115,-0.02446,-0.531615,0.067528,-0.281656,-260.936911,-0.145586,69.492089
0.2959,-0.059168,-0.022176,0.067875,0.00506,0.0016,-0.014258,-0.024385,-0.531418,0.067898,-0.281656,-260.936911,-0.145586,69.492089
0.3158,-0.058764,-0.022684,0.069413,0.005176,0.001597,-0.01437,-0.024578,-0.531001,0.067875,-0.356653,-260.936911,-0.070589,69.492089
0.3359,-0.058713,-0.022757,0.067423,0.005269,0.001604,-0.014458,-0.023499,-0.531415,0.069274,-0.356653,-260.936911,-0.070589,69.492089
0.3562,-0.058887,-0.02253,0.068822,0.005351,0.001608,-0.014527,-0.023499,-0.531415,0.069274,-0.356653,-260.936911,-0.070589,69.492089
0.3758,-0.058897,-0.022519,0.067791,0.005424,0.00161,-0.014581,-0.023815,-0.531322,0.068822,-0.43164,-260.936911,0.004398,69.492089
0.396,-0.058672,-0.022619,0.068414,0.005496,0.001601,-0.014625,-0.024033,-0.531333,0.068401,-0.43164,-260.936911,0.004398,69.492089
0.4158,-0.058906,-0.022495,0.066907,0.00556,0.001592,-0.01466,-0.023808,-0.531426,0.068414,-0.506654,-260.936911,0.079412,69.492089
0.4357,-0.059105,-0.022297,0.069388,0.005622,0.001575,-0.014688,-0.024723,-0.53136,0.067037,-0.506654,-260.936911,0.079412,69.492089
0.4556,-0.059142,-0.02248,0.06836,0.005677,0.00156,-0.01471,-0.024723,-0.53136,0.067037,-0.506654,-260.936911,0.079412,69.492089
0.4757,-0.059251,-0.022167,0.0672,0.005725,0.001546,-0.014727,-0.024306,-0.531289,0.06836,-0.581892,-260.936911,0.15465,69.492089
0.4958,-0.059053,-0.022864,0.068457,0.005769,0.001531,-0.014741,-0.02459,-0.531178,0.067888,-0.581892,-260.936911,0.15465,69.492089
0.5156,-0.058996,-0.022476,0.068398,0.005807,0.001518,-0.014752,-0.024167,-0.53167,0.068457,-0.656645,-260.936911,0.229403,69.492089
0.5356,-0.058945,-0.022796,0.067629,0.005834,0.001514,-0.01476,-0.024143,-0.531318,0.068403,-0.656645,-260.936911,0.229403,69.492089
0.5558,-0.05897,-0.022134,0.067973,0.005858,0.001511,-0.014767,-0.024143,-0.531318,0.068403,-0.656645,-260.936911,0.229403,69.492089
0.5758,-0.058925,-0.022481,0.067898,0.005879,0.001507,-0.014772,-0.024331,-0.530956,0.067973,-0.731736,-260.936911,0.304493,69.492089
0.5958,-0.058917,-0.022626,0.069648,0.005902,0.001498,-0.014777,-0.024328,-0.531102,0.067941,-0.731736,-260.936911,0.304493,69.492089
0.6157,-0.059081,-0.022612,0.067449,0.005923,0.00149,-0.014781,-0.023426,-0.531389,0.069648,-0.807118,-260.936911,0.379876,69.492089
0.6359,-0.058712,-0.023061,0.068644,0.005939,0.001484,-0.014784,-0.024595,-0.531447,0.067643,-0.807118,-260.936911,0.379876,69.492089
0.6558,-0.059468,-0.022828,0.067967,0.005954,0.001479,-0.014786,-0.024595,-0.531447,0.067643,-0.807118,-260.936911,0.379876,69.492089
0.6755,-0.05911,-0.022806,0.06968,0.005966,0.001475,-0.014788,-0.024831,-0.531651,0.067967,-0.881661,-260.936909,0.454418,69.492091
0.696,-0.058936,-0.022473,0.068305,0.005973,0.001477,-0.014789,-0.024334,-0.531617,0.068661,-0.881661,-260.936909,0.454418,69.492091
0.7161,-0.059166,-0.022575,0.069039,0.005979,0.001478,-0.01479,-0.024127,-0.531284,0.068304,-0.902445,-260.936901,0.529397,69.492102
0.7361,-0.059136,-0.023082,0.067838,0.005984,0.001479,-0.01479,-0.023997,-0.531353,0.068972,-0.902445,-260.936901,0.529397,69.492102
0.756,-0.059141,-0.022471,0.070772,0.005989,0.00148,-0.014791,-0.023997,-0.531353,0.068972,-0.902445,-260.936901,0.529397,69.492102
0.7759,-0.059093,-0.022277,0.069031,0.005993,0.00148,-0.014792,-0.023074,-0.531194,0.070768,-0.901298,-260.936862,0.604438,69.49215
0.7956,-0.058936,-0.022588,0.06815,0.005994,0.001485,-0.014792,-0.023428,-0.531139,0.070035,-0.901298,-260.936862,0.604438,69.49215
0.8159,-0.059064,-0.022821,0.06945,0.005994,0.001488,-0.014792,-0.024198,-0.531403,0.068136,-0.900069,-260.936724,0.680039,69.492323
0.8359,-0.058898,-0.022701,0.068578,0.005992,0.001495,-0.014792,-0.023716,-0.531576,0.069341,-0.900069,-260.936724,0.680039,69.492323
0.8563,-0.05876,-0.022344,0.069439,0.005991,0.0015,-0.014792,-0.023716,-0.531576,0.069341,-0.900069,-260.936724,0.680039,69.492323
0.8759,-0.058892,-0.022676,0.068199,0.00599,0.001505,-0.014792,-0.023343,-0.531112,0.069383,-0.899488,-260.936331,0.754636,69.492818
0.896,-0.058851,-0.022652,0.068359,0.005992,0.001505,-0.014792,-0.023652,-0.53126,0.068911,-0.899488,-260.936331,0.754636,69.492818
0.9158,-0.058903,-0.022545,0.068765,0.005994,0.001505,-0.014793,-0.023963,-0.531452,0.068258,-0.8988,-260.935434,0.829449,69.493948
0.9362,-0.059123,-0.022593,0.068516,0.005997,0.001504,-0.014793,-0.023867,-0.53135,0.068714,-0.8988,-260.935434,0.829449,69.493948
0.9561,-0.05912,-0.022766,0.069022,0.005999,0.001502,-0.014793,-0.023867,-0.53135,0.068714,-0.8988,-260.935434,0.829449,69.493948
0.9756,-0.058379,-0.022392,0.066461,0.006002,0.001501,-0.014794,-0.023823,-0.531524,0.068762,-0.898485,-260.933718,0.904468,69.49611
0.996,-0.05851,-0.022724,0.067574,0.006005,0.001499,-0.014884,-0.024093,-0.531414,0.067779,-0.898485,-260.933718,0.904468,69.49611
1.0155,-0.057769,-0.022211,0.069002,0.006008,0.001496,-0.014955,-0.023933,-0.531522,0.067253,-0.898144,-260.931026,0.979728,69.499498
1.0356,-0.057942,-0.022548,0.068156,0.005998,0.001508,-0.015081,-0.022722,-0.531044,0.068822,-0.898144,-260.931026,0.979728,69.499498
1.0556,-0.058483,-0.022425,0.067832,0.005991,0.001517,-0.015181,-0.022722,-0.531044,0.068822,-0.898144,-260.931026,0.979728,69.499498
1.076,-0.057411,-0.022453,0.06609,0.005984,0.001525,-0.01526,-0.023691,-0.53118,0.067264,-0.90427,-260.927485,1.05442,69.503947
1.0963,-0.057494,-0.02282,0.06915,0.005986,0.001522,-0.015414,-0.023681,-0.531237,0.066713,-0.90427,-260.927485,1.05442,69.503947
1.1158,-0.057509,-0.022236,0.065683,0.005988,0.001519,-0.015536,-0.02207,-0.53154,0.068667,-0.916066,-260.923546,1.066565,69.508913
1.1355,-0.05675,-0.022491,0.066312,0.00599,0.001517,-0.015725,-0.023595,-0.531079,0.065202,-0.916066,-260.923546,1.066565,69.508913
1.1556,-0.056555,-0.022154,0.067053,0.005991,0.001514,-0.015876,-0.023595,-0.531079,0.065202,-0.916066,-260.923546,1.066565,69.508913
1.1757,-0.055851,-0.022177,0.065706,0.005993,0.001511,-0.015996,-0.022141,-0.530929,0.06641,-0.926361,-260.919591,1.072562,69.513885
1.1959,-0.055906,-0.022213,0.06491,0.005978,0.001527,-0.016175,-0.022205,-0.530981,0.066044,-0.926361,-260.919591,1.072562,69.513885
1.216,-0.055565,-0.022134,0.064119,0.005965,0.00154,-0.01632,-0.022639,-0.53108,0.064404,-0.943084,-260.915521,1.08246,69.51898
1.2361,-0.05523,-0.021955,0.065116,0.00596,0.001544,-0.016509,-0.02286,-0.531083,0.064118,-0.943084,-260.915521,1.08246,69.51898
1.2564,-0.054988,-0.022041,0.063412,0.005956,0.001548,-0.016663,-0.02286,-0.531083,0.064118,-0.943084,-260.915521,1.08246,69.51898
1.2763,-0.054356,-0.022002,0.063509,0.005952,0.00155,-0.016788,-0.022426,-0.530936,0.062736,-0.954859,-260.91143,1.092564,69.524115
1.2959,-0.054403,-0.021785,0.064538,0.005942,0.00156,-0.016953,-0.022223,-0.530942,0.062965,-0.954859,-260.91143,1.092564,69.524115
1.3156,-0.053797,-0.021905,0.063296,0.005933,0.001568,-0.017088,-0.021326,-0.530662,0.064007,-0.970935,-260.907238,1.103726,69.52937
1.3356,-0.054124,-0.021668,0.062911,0.005918,0.001584,-0.017256,-0.021508,-0.53086,0.063334,-0.970935,-260.907238,1.103726,69.52937
1.3557,-0.05368,-0.021792,0.063405,0.005905,0.001597,-0.017394,-0.021508,-0.53086,0.063334,-0.970935,-260.907238,1.103726,69.52937
1.3764,-0.052882,-0.021612,0.063418,0.005894,0.001607,-0.017507,-0.021122,-0.530687,0.062692,-0.981126,-260.902961,1.111763,69.534738
1.3957,-0.053104,-0.021506,0.061008,0.005878,0.001623,-0.017651,-0.020858,-0.530635,0.062914,-0.981126,-260.902961,1.111763,69.534738
1.416,-0.052518,-0.021756,0.060638,0.005865,0.001636,-0.017769,-0.021827,-0.530495,0.060459,-0.99532,-260.898674,1.12393,69.540137
1.4361,-0.052188,-0.021468,0.060823,0.00586,0.001639,-0.017911,-0.021622,-0.530785,0.060593,-0.99532,-260.898674,1.12393,69.540137
1.456,-0.052452,-0.021148,0.060773,0.005857,0.001641,-0.018028,-0.021622,-0.530785,0.060593,-0.99532,-260.898674,1.12393,69.540137
1.4757,-0.051718,-0.021322,0.061396,0.005854,0.001643,-0.018124,-0.021235,-0.530124,0.060029,-1.004116,-260.894283,1.131759,69.545683
1.4957,-0.051949,-0.021466,0.060048,0.005849,0.001646,-0.018236,-0.020865,-0.530215,0.060522,-1.004116,-260.894283,1.131759,69.545683
1.5156,-0.050551,-0.020941,0.059046,0.005845,0.001649,-0.018329,-0.021163,-0.530485,0.059479,-1.015059,-260.889889,1.139218,69.551225
1.5357,-0.050864,-0.021535,0.059511,0.005837,0.001655,-0.018427,-0.020513,-0.53009,0.059056,-1.015059,-260.889889,1.139218,69.551225
1.5557,-0.051057,-0.021409,0.058516,0.005831,0.001661,-0.018508,-0.020513,-0.53009,0.059056,-1.015059,-260.889889,1.139218,69.551225
1.5756,-0.050113,-0.02101,0.059631,0.005825,0.001665,-0.018575,-0.02099,-0.530453,0.057748,-1.021365,-260.88539,1.143705,69.556897
1.5959,-0.049887,-0.021285,0.058615,0.005816,0.001674,-0.018643,-0.020429,-0.530297,0.05845,-1.021365,-260.88539,1.143705,69.556897
1.6161,-0.049229,-0.020846,0.056997,0.005808,0.001681,-0.018699,-0.01983,-0.530346,0.05803,-1.029038,-260.880874,1.149802,69.562594
1.6362,-0.049095,-0.021017,0.057655,0.0058,0.001689,-0.018754,-0.020143,-0.530039,0.057048,-1.029038,-260.880874,1.149802,69.562594
1.6557,-0.049454,-0.021043,0.057119,0.005794,0.001695,-0.0188,-0.020143,-0.530039,0.057048,-1.029038,-260.880874,1.149802,69.562594
1.6755,-0.048408,-0.020776,0.056804,0.005788,0.0017,-0.018838,-0.020102,-0.530128,0.056343,-1.033037,-260.87637,1.153511,69.568287
1.6961,-0.049039,-0.020614,0.057806,0.005778,0.00171,-0.018878,-0.01981,-0.530047,0.056441,-1.033037,-260.87637,1.153511,69.568287
1.716,-0.047992,-0.020757,0.053219,0.005769,0.001719,-0.01891,-0.019394,-0.529698,0.057206,-1.037523,-260.871803,1.157698,69.57407
1.7359,-0.047997,-0.020617,0.05541,0.005775,0.001713,-0.018946,-0.020735,-0.530005,0.053516,-1.037523,-260.871803,1.157698,69.57407
1.7561,-0.047906,-0.020846,0.057298,0.00578,0.001707,-0.018976,-0.020735,-0.530005,0.053516,-1.037523,-260.871803,1.157698,69.57407
1.7763,-0.047276,-0.02064,0.053793,0.005784,0.001702,-0.019001,-0.018463,-0.529924,0.056508,-1.040097,-260.867261,1.160674,69.579836
1.7961,-0.047313,-0.02086,0.055446,0.005762,0.001724,-0.019027,-0.018996,-0.529905,0.055325,-1.040097,-260.867261,1.160674,69.579836
1.8158,-0.046386,-0.020715,0.054035,0.005744,0.001742,-0.019048,-0.018869,-0.530012,0.054839,-1.042178,-260.862645,1.160799,69.585676
1.8357,-0.046439,-0.020583,0.053218,0.005724,0.001763,-0.019072,-0.018836,-0.529971,0.054069,-1.042178,-260.862645,1.160799,69.585676
1.8559,-0.046266,-0.02035,0.053969,0.005707,0.00178,-0.019091,-0.018836,-0.529971,0.054069,-1.042178,-260.862645,1.160799,69.585676
1.8756,-0.045324,-0.020175,0.052239,0.005693,0.001795,-0.019107,-0.018521,-0.529522,0.053175,-1.044689,-260.8581,1.165184,69.59146
1.8958,-0.045573,-0.020212,0.053048,0.005682,0.001805,-0.019126,-0.018564,-0.529495,0.052706,-1.044689,-260.8581,1.165184,69.59146
1.9161,-0.044903,-0.02053,0.050139,0.005674,0.001814,-0.019142,-0.018353,-0.529428,0.052438,-1.047865,-260.853544,1.170811,69.597304
1.9361,-0.044821,-0.020624,0.052761,0.005671,0.001818,-0.01916,-0.019243,-0.529843,0.05032,-1.047865,-260.853544,1.170811,69.597304
1.956,-0.045009,-0.020103,0.052885,0.005669,0.001821,-0.019175,-0.019243,-0.529843,0.05032,-1.047865,-260.853544,1.170811,69.597304
1.9756,-0.043974,-0.019834,0.050748,0.005666,0.001823,-0.019188,-0.017816,-0.529302,0.052082,-1.049373,-260.84898,1.173065,69.603173
1.9963,-0.044257,-0.019504,0.049864,0.005652,0.001837,-0.019201,-0.017906,-0.529241,0.051447,-1.049373,-260.84898,1.173065,69.603173
2.0165,-0.043159,-0.020219,0.049765,0.005639,0.00185,-0.019212,-0.018659,-0.528804,0.049253,-1.050761,-260.844384,1.174506,69.60909
2.0357,-0.043363,-0.02022,0.050089,0.005622,0.001867,-0.019223,-0.017854,-0.529519,0.049692,-1.050761,-260.844384,1.174506,69.60909
2.0556,-0.043115,-0.020082,0.048748,0.005607,0.001882,-0.019233,-0.017854,-0.529519,0.049692,-1.050761,-260.844384,1.174506,69.60909
2.0758,-0.042631,-0.01967,0.048666,0.005594,0.001894,-0.019241,-0.018034,-0.529388,0.047952,-1.052315,-260.839876,1.177294,69.614916
2.0963,-0.042466,-0.020057,0.048317,0.005588,0.0019,-0.01925,-0.01792,-0.529247,0.04815,-1.052315,-260.839876,1.177294,69.614916
2.1158,-0.041907,-0.019387,0.047403,0.005583,0.001906,-0.019258,-0.017659,-0.529393,0.047703,-1.054576,-260.835344,1.181721,69.620813
2.1358,-0.041731,-0.019612,0.049124,0.005582,0.001908,-0.019267,-0.017724,-0.528864,0.047398,-1.054576,-260.835344,1.181721,69.620813
2.156,-0.041409,-0.019622,0.047361,0.00558,0.001909,-0.019274,-0.017724,-0.528864,0.047398,-1.054576,-260.835344,1.181721,69.620813
2.1757,-0.041092,-0.0196,0.048569,0.005578,0.001911,-0.01928,-0.017035,-0.528959,0.046555,-1.055379,-260.830813,1.182974,69.626718
2.196,-0.041174,-0.019334,0.04596,0.005556,0.001932,-0.019285,-0.016722,-0.528965,0.047282,-1.055379,-260.830813,1.182974,69.626718
2.2155,-0.040409,-0.019323,0.045895,0.005536,0.00195,-0.019289,-0.017568,-0.528726,0.045346,-1.056126,-260.826281,1.183766,69.63263
2.2358,-0.040573,-0.019245,0.045889,0.005529,0.001958,-0.019295,-0.017052,-0.528777,0.045814,-1.056126,-260.826281,1.183766,69.63263
2.256,-0.040092,-0.01939,0.046388,0.005523,0.001964,-0.019299,-0.017052,-0.528777,0.045814,-1.056126,-260.826281,1.183766,69.63263
2.2758,-0.039588,-0.019321,0.04437,0.005518,0.001969,-0.019303,-0.016215,-0.528749,0.04558,-1.057886,-260.821769,1.18753,69.63855
2.2958,-0.039677,-0.019177,0.046395,0.005501,0.001985,-0.019307,-0.016495,-0.528767,0.044994,-1.057886,-260.821769,1.18753,69.63855
2.3158,-0.03877,-0.01946,0.043414,0.005488,0.001998,-0.01931,-0.015851,-0.528557,0.045781,-1.058894,-260.817243,1.18941,69.644507
2.336,-0.038621,-0.019138,0.04512,0.005473,0.002011,-0.019313,-0.016567,-0.528944,0.043571,-1.058894,-260.817243,1.18941,69.644507
2.356,-0.038324,-0.019287,0.044201,0.005461,0.002023,-0.019316,-0.016567,-0.528944,0.043571,-1.058894,-260.817243,1.18941,69.644507
2.3758,-0.038217,-0.019073,0.04328,0.005451,0.002033,-0.019318,-0.015564,-0.528696,0.043396,-1.060158,-260.812763,1.192093,69.650428
2.3958,-0.03782,-0.018943,0.043263,0.00543,0.002052,-0.01932,-0.015779,-0.528644,0.043255,-1.060158,-260.812763,1.192093,69.650428
2.4157,-0.037505,-0.019046,0.041232,0.005413,0.002068,-0.019322,-0.015592,-0.528394,0.04265,-1.061701,-260.808296,1.195414,69.656367
2.4363,-0.03735,-0.018995,0.043679,0.005411,0.00207,-0.019325,-0.016397,-0.52859,0.041325,-1.061701,-260.808296,1.195414,69.656367
2.456,-0.03704,-0.018969,0.041462,0.005409,0.002073,-0.019327,-0.016397,-0.52859,0.041325,-1.061701,-260.808296,1.195414,69.656367
2.4766,-0.036577,-0.018518,0.04133,0.005408,0.002074,-0.019329,-0.015678,-0.528435,0.040655,-1.063249,-260.803825,1.198685,69.662344
2.4962,-0.036449,-0.018603,0.042363,0.005394,0.002087,-0.019331,-0.015579,-0.528275,0.040845,-1.063249,-260.803825,1.198685,69.662344
2.5159,-0.035575,-0.018536,0.041649,0.005383,0.002097,-0.019332,-0.014682,-0.528073,0.04175,-1.063571,-260.799394,1.199282,69.668273
2.536,-0.035797,-0.019014,0.040084,0.005349,0.002126,-0.019332,-0.014362,-0.528088,0.041626,-1.063571,-260.799394,1.199282,69.668273
2.556,-0.035794,-0.01849,0.04057,0.00532,0.002151,-0.019332,-0.014362,-0.528088,0.041626,-1.063571,-260.799394,1.199282,69.668273
2.5756,-0.034649,-0.018606,0.038723,0.005295,0.002172,-0.019333,-0.014887,-0.527973,0.03976,-1.064631,-260.794953,1.201429,69.674237
2.596,-0.034954,-0.01868,0.037714,0.005285,0.002181,-0.019334,-0.014869,-0.528064,0.039244,-1.064631,-260.794953,1.201429,69.674237
2.6163,-0.034374,-0.018387,0.038729,0.005277,0.00219,-0.019335,-0.015559,-0.528242,0.037099,-1.068299,-260.79056,1.208712,69.68021
2.6362,-0.034068,-0.018267,0.038274,0.005266,0.002199,-0.019337,-0.014711,-0.528024,0.038532,-1.068299,-260.79056,1.208712,69.68021
2.656,-0.033971,-0.018456,0.037917,0.005257,0.002208,-0.019338,-0.014711,-0.528024,0.038532,-1.068299,-260.79056,1.208712,69.68021
2.676,-0.033474,-0.017962,0.036773,0.005249,0.002215,-0.019339,-0.014421,-0.52799,0.037108,-1.069067,-260.786172,1.210316,69.686193
2.696,-0.033546,-0.01808,0.038646,0.00524,0.002223,-0.01934,-0.014519,-0.527826,0.036878,-1.069067,-260.786172,1.210316,69.686193
2.7157,-0.032961,-0.018139,0.036254,0.005233,0.00223,-0.019341,-0.013676,-0.527622,0.038027,-1.070257,-260.781798,1.212715,69.692182
2.7357,-0.032361,-0.018084,0.036275,0.005224,0.002238,-0.019342,-0.014395,-0.527784,0.036383,-1.070257,-260.781798,1.212715,69.692182
2.756,-0.032724,-0.018355,0.0371,0.005216,0.002244,-0.019342,-0.014395,-0.527784,0.036383,-1.070257,-260.781798,1.212715,69.692182
2.7758,-0.031888,-0.018146,0.034481,0.00521,0.00225,-0.019343,-0.013592,-0.527903,0.036292,-1.070968,-260.77743,1.214092,69.698177
2.7957,-0.031808,-0.017766,0.036168,0.005188,0.002268,-0.019343,-0.013859,-0.527867,0.035458,-1.070968,-260.77743,1.214092,69.698177
2.816,-0.03172,-0.018283,0.033677,0.00517,0.002283,-0.019343,-0.013204,-0.527355,0.035552,-1.071987,-260.773074,1.216038,69.704176
2.8359,-0.031157,-0.017483,0.034946,0.005167,0.002287,-0.019344,-0.014418,-0.527932,0.033814,-1.071987,-260.773074,1.216038,69.704176
2.8558,-0.031676,-0.018116,0.034678,0.005163,0.00229,-0.019345,-0.014418,-0.527932,0.033814,-1.071987,-260.773074,1.216038,69.704176
2.8756,-0.030705,-0.017481,0.033819,0.005161,0.002293,-0.019346,-0.013782,-0.527706,0.033869,-1.073734,-260.768715,1.219248,69.710213
2.8957,-0.030526,-0.017845,0.03576,0.005147,0.002304,-0.019346,-0.013621,-0.527476,0.033754,-1.073734,-260.768715,1.219248,69.710213
2.9156,-0.029937,-0.017756,0.033317,0.005135,0.002314,-0.019346,-0.012133,-0.527441,0.03515,-1.074151,-260.764397,1.220133,69.716201
2.9356,-0.029407,-0.017345,0.032995,0.005105,0.002337,-0.019345,-0.012871,-0.527466,0.033443,-1.074151,-260.764397,1.220133,69.716201
2.9559,-0.029895,-0.017833,0.032524,0.005079,0.002357,-0.019344,-0.012871,-0.527466,0.033443,-1.074151,-260.764397,1.220133,69.716201
2.9761,-0.028975,-0.017409,0.03134,0.005057,0.002374,-0.019343,-0.0131,-0.52746,0.031716,-1.075316,-260.760054,1.222186,69.722247
2.996,-0.029002,-0.01746,0.031554,0.005045,0.002385,-0.019344,-0.01303,-0.527319,0.031461,-1.075316,-260.760054,1.222186,69.722247
3.0155,-0.028492,-0.017259,0.030817,0.005034,0.002393,-0.019344,-0.012755,-0.527127,0.030945,-1.07895,-260.755805,1.22838,69.728223
3.0359,-0.028195,-0.017651,0.030041,0.005023,0.002402,-0.019344,-0.012767,-0.527023,0.030797,-1.07895,-260.755805,1.22838,69.728223
3.0557,-0.028264,-0.017522,0.03051,0.005014,0.00241,-0.019344,-0.012767,-0.527023,0.030797,-1.07895,-260.755805,1.22838,69.728223
3.076,-0.027235,-0.016708,0.029995,0.005006,0.002416,-0.019345,-0.012499,-0.527178,0.029701,-1.080035,-260.751533,1.230273,69.734251
3.096,-0.02716,-0.017201,0.029665,0.004986,0.002431,-0.019344,-0.012246,-0.526881,0.029728,-1.080035,-260.751533,1.230273,69.734251
3.1159,-0.026592,-0.016775,0.028785,0.00497,0.002444,-0.019344,-0.011876,-0.526895,0.029048,-1.08138,-260.747274,1.232544,69.740285
3.1358,-0.026651,-0.016964,0.028873,0.00495,0.002458,-0.019343,-0.011902,-0.526589,0.028777,-1.08138,-260.747274,1.232544,69.740285
3.1562,-0.026907,-0.01654,0.028739,0.004934,0.00247,-0.019343,-0.011902,-0.526589,0.028777,-1.08138,-260.747274,1.232544,69.740285
3.1765,-0.025816,-0.017106,0.028184,0.00492,0.00248,-0.019343,-0.012047,-0.526222,0.02793,-1.083167,-260.743032,1.235413,69.746323
3.196,-0.026249,-0.016752,0.027916,0.004906,0.002491,-0.019343,-0.011779,-0.526486,0.027939,-1.083167,-260.743032,1.235413,69.746323
3.2158,-0.025067,-0.016717,0.026959,0.004895,0.0025,-0.019343,-0.011859,-0.52647,0.0273,-1.085635,-260.738813,1.239277,69.752368
3.236,-0.025034,-0.016786,0.027707,0.00487,0.002518,-0.019342,-0.011361,-0.526522,0.026958,-1.085635,-260.738813,1.239277,69.752368
3.2562,-0.025405,-0.016741,0.027646,0.004849,0.002533,-0.019341,-0.011361,-0.526522,0.026958,-1.085635,-260.738813,1.239277,69.752368
3.2756,-0.02455,-0.016374,0.025384,0.004831,0.002546,-0.019341,-0.011105,-0.526436,0.026836,-1.086944,-260.734605,1.241308,69.758418
3.2957,-0.024545,-0.016509,0.026073,0.004817,0.002557,-0.019341,-0.011285,-0.526331,0.026152,-1.086944,-260.734605,1.241308,69.758418
3.3158,-0.023801,-0.016684,0.024902,0.004805,0.002566,-0.019341,-0.011097,-0.52625,0.025457,-1.090242,-260.730427,1.246259,69.764475
3.3358,-0.023892,-0.016331,0.024143,0.004784,0.002581,-0.01934,-0.011094,-0.526497,0.024921,-1.090242,-260.730427,1.246259,69.764475
3.3556,-0.023417,-0.01616,0.024045,0.004766,0.002594,-0.01934,-0.011094,-0.526497,0.024921,-1.090242,-260.730427,1.246259,69.764475
3.3755,-0.023115,-0.01607,0.02451,0.004751,0.002605,-0.01934,-0.010956,-0.525901,0.023236,-1.091601,-260.72624,1.248298,69.770566
3.3955,-0.023415,-0.016226,0.023395,0.00474,0.002612,-0.01934,-0.010791,-0.525894,0.023676,-1.091601,-260.72624,1.248298,69.770566
3.4155,-0.022255,-0.016146,0.022188,0.004731,0.002619,-0.01934,-0.011336,-0.526001,0.022784,-1.094456,-260.722117,1.252482,69.776607
3.4356,-0.022419,-0.01658,0.023444,0.004725,0.002623,-0.01934,-0.010968,-0.526014,0.02221,-1.094456,-260.722117,1.252482,69.776607
3.4557,-0.022163,-0.015885,0.023293,0.00472,0.002627,-0.01934,-0.010968,-0.526014,0.02221,-1.094456,-260.722117,1.252482,69.776607
3.4756,-0.021735,-0.016072,0.021564,0.004716,0.00263,-0.01934,-0.010089,-0.525633,0.022484,-1.095541,-260.717982,1.254015,69.782681
3.4957,-0.021295,-0.01577,0.021112,0.004697,0.002643,-0.019339,-0.010332,-0.52575,0.022014,-1.095541,-260.717982,1.254015,69.782681
3.5161,-0.020887,-0.01601,0.020611,0.00468,0.002654,-0.019339,-0.01038,-0.52557,0.020497,-1.09629,-260.713853,1.255159,69.788758
3.536,-0.020796,-0.015986,0.021716,0.004663,0.002666,-0.019338,-0.010369,-0.525867,0.020569,-1.09629,-260.713853,1.255159,69.788758
3.5557,-0.021154,-0.016053,0.020645,0.00465,0.002675,-0.019337,-0.010369,-0.525867,0.020569,-1.09629,-260.713853,1.255159,69.788758
3.5757,-0.019839,-0.015625,0.020789,0.004638,0.002684,-0.019336,-0.010432,-0.525829,0.019835,-1.09832,-260.709741,1.257903,69.794838
3.5961,-0.020257,-0.015488,0.020826,0.004615,0.002698,-0.019335,-0.009928,-0.525689,0.020126,-1.09832,-260.709741,1.257903,69.794838
3.616,-0.019301,-0.016015,0.017126,0.004596,0.00271,-0.019334,-0.00949,-0.525288,0.020208,-1.10063,-260.705647,1.261105,69.800924
3.6357,-0.019757,-0.015471,0.020284,0.004593,0.002712,-0.019319,-0.010461,-0.525876,0.017376,-1.10063,-260.705647,1.261105,69.800924
3.6559,-0.019202,-0.015568,0.019694,0.00459,0.002713,-0.019307,-0.010461,-0.525876,0.017376,-1.10063,-260.705647,1.261105,69.800924
3.6759,-0.019036,-0.015537,0.017113,0.004587,0.002714,-0.019298,-0.008968,-0.525352,0.018884,-1.102974,-260.701571,1.264193,69.807013
3.6957,-0.019008,-0.01548,0.019713,0.00456,0.00273,-0.019297,-0.009487,-0.525383,0.018076,-1.102974,-260.701571,1.264193,69.807013
3.7158,-0.018426,-0.015416,0.016265,0.004538,0.002743,-0.019295,-0.00881,-0.525291,0.019098,-1.102687,-260.697504,1.264414,69.813097
3.7361,-0.018177,-0.014983,0.017153,0.004539,0.002741,-0.019274,-0.010006,-0.525339,0.016487,-1.102687,-260.697504,1.264414,69.813097
3.756,-0.018027,-0.015205,0.017393,0.00454,0.00274,-0.019257,-0.010006,-0.525339,0.016487,-1.102687,-260.697504,1.264414,69.813097
3.776,-0.017136,-0.014887,0.016402,0.00454,0.002739,-0.019244,-0.008969,-0.52501,0.016586,-1.105643,-260.693459,1.268042,69.819183
3.7959,-0.016974,-0.01506,0.01502,0.004505,0.002758,-0.019229,-0.008866,-0.524918,0.016418,-1.105643,-260.693459,1.268042,69.819183
3.8157,-0.01651,-0.015175,0.015823,0.004476,0.002774,-0.019218,-0.009171,-0.524913,0.014408,-1.104247,-260.689415,1.267209,69.825267
3.836,-0.016774,-0.015009,0.014394,0.004433,0.002798,-0.01919,-0.008496,-0.52509,0.015673,-1.104247,-260.689415,1.267209,69.825267
3.8558,-0.016452,-0.014368,0.014606,0.004395,0.002819,-0.019169,-0.008496,-0.52509,0.015673,-1.104247,-260.689415,1.267209,69.825267
3.8757,-0.015697,-0.015005,0.014041,0.004364,0.002837,-0.019151,-0.008818,-0.524195,0.013803,-1.107605,-260.685416,1.271588,69.831329
3.8957,-0.015411,-0.014859,0.014878,0.00436,0.002835,-0.019066,-0.008682,-0.524489,0.013806,-1.107605,-260.685416,1.271588,69.831329
3.9158,-0.015195,-0.014287,0.014856,0.004357,0.002835,-0.018999,-0.007686,-0.52471,0.014268,-1.113131,-260.681465,1.279088,69.837401
3.9359,-0.015213,-0.014915,0.013442,0.004311,0.00286,-0.018988,-0.007618,-0.524267,0.014776,-1.113131,-260.681465,1.279088,69.837401
3.9558,-0.015011,-0.01459,0.011717,0.004272,0.002882,-0.018979,-0.007618,-0.524267,0.014776,-1.113131,-260.681465,1.279088,69.837401
3.9759,-0.014381,-0.014547,0.01359,0.004239,0.002901,-0.018972,-0.008855,-0.524434,0.010922,-1.109649,-260.677555,1.277744,69.843422
3.9956,-0.014446,-0.014759,0.012912,0.00424,0.002891,-0.01878,-0.008267,-0.524447,0.011907,-1.109649,-260.677555,1.277744,69.843422
4.0157,-0.01416,-0.014179,0.012028,0.00424,0.002886,-0.018635,-0.007728,-0.524622,0.01231,-1.116839,-260.673688,1.286173,69.849462
4.0357,-0.013786,-0.014213,0.011868,0.004232,0.002888,-0.018534,-0.007994,-0.524178,0.012023,-1.116839,-260.673688,1.286173,69.849462
4.0561,-0.013473,-0.014635,0.011559,0.004225,0.00289,-0.018457,-0.007994,-0.524178,0.012023,-1.116839,-260.673688,1.286173,69.849462
4.0757,-0.012871,-0.014021,0.009908,0.004218,0.002893,-0.018399,-0.007402,-0.524479,0.010784,-1.107852,-260.669905,1.281939,69.855393
4.0956,-0.012973,-0.013973,0.010861,0.004194,0.002898,-0.018163,-0.007551,-0.524268,0.010337,-1.107852,-260.669905,1.281939,69.855393
4.1156,-0.012382,-0.013933,0.008795,0.004172,0.002906,-0.01799,-0.0073,-0.523849,0.010275,-1.102721,-260.666167,1.280707,69.861289
4.1356,-0.012285,-0.013615,0.010624,0.004174,0.002889,-0.01762,-0.007835,-0.523903,0.0089,-1.102721,-260.666167,1.280707,69.861289
4.1555,-0.012411,-0.014284,0.010557,0.004174,0.002881,-0.017358,-0.007835,-0.523903,0.0089,-1.102721,-260.666167,1.280707,69.861289
4.1756,-0.011567,-0.013953,0.008642,0.004172,0.002879,-0.017171,-0.006853,-0.524133,0.009806,-1.094285,-260.662533,1.279111,69.867085
4.1957,-0.011664,-0.014105,0.009655,0.004123,0.002907,-0.017095,-0.006959,-0.524037,0.009243,-1.094285,-260.662533,1.279111,69.867085
4.2155,-0.010906,-0.0138,0.008286,0.004081,0.002933,-0.017042,-0.006609,-0.523989,0.009114,-1.069167,-260.659086,1.268233,69.872647
4.2362,-0.010871,-0.013472,0.006596,0.004035,0.002949,-0.016827,-0.006669,-0.523794,0.008325,-1.069167,-260.659086,1.268233,69.872647
4.256,-0.01072,-0.013778,0.007822,0.003995,0.002967,-0.016676,-0.006669,-0.523794,0.008325,-1.069167,-260.659086,1.268233,69.872647
4.2759,-0.010585,-0.013672,0.006958,0.00396,0.002985,-0.01657,-0.006561,-0.523639,0.007113,-1.071068,-260.655699,1.27393,69.878197
4.2957,-0.01028,-0.013585,0.006742,0.003938,0.002979,-0.016168,-0.006734,-0.523633,0.006968,-1.071068,-260.655699,1.27393,69.878197
4.316,-0.009807,-0.013343,0.005745,0.003916,0.002982,-0.015891,-0.006716,-0.523478,0.006214,-1.064104,-260.652432,1.27733,69.883677
4.3362,-0.009728,-0.013454,0.006247,0.003916,0.00296,-0.01533,-0.006856,-0.523342,0.00576,-1.064104,-260.652432,1.27733,69.883677
4.356,-0.009819,-0.013329,0.006543,0.00391,0.002952,-0.014951,-0.006856,-0.523342,0.00576,-1.064104,-260.652432,1.27733,69.883677
4.3761,-0.009271,-0.012976,0.006788,0.003902,0.002951,-0.014696,-0.006321,-0.523193,0.005883,-1.043389,-260.649344,1.271409,69.888947
4.396,-0.009239,-0.01307,0.005519,0.003856,0.002979,-0.014644,-0.006093,-0.523085,0.006176,-1.043389,-260.649344,1.271409,69.888947
4.4158,-0.008401,-0.013218,0.004374,0.003816,0.003004,-0.014611,-0.006305,-0.522972,0.005069,-0.996018,-260.64659,1.254623,69.893761
4.4362,-0.008537,-0.012986,0.004424,0.003797,0.002991,-0.013971,-0.006176,-0.523187,0.004414,-0.996018,-260.64659,1.254623,69.893761
4.4561,-0.008693,-0.012908,0.005765,0.003775,0.00299,-0.013538,-0.006176,-0.523187,0.004414,-0.996018,-260.64659,1.254623,69.893761
4.476,-0.007926,-0.013275,0.00424,0.003751,0.002996,-0.013247,-0.005594,-0.522773,0.005154,-0.998219,-260.64377,1.26118,69.898775
4.4958,-0.008143,-0.012939,0.004243,0.0037,0.003022,-0.013158,-0.005646,-0.522964,0.004705,-0.998219,-260.64377,1.26118,69.898775
4.5158,-0.007412,-0.01261,0.00349,0.003656,0.003046,-0.0131,-0.005868,-0.522845,0.00385,-0.93605,-260.641404,1.244523,69.903154
4.5358,-0.007647,-0.013022,0.003647,0.003638,0.003038,-0.012564,-0.005647,-0.522623,0.003501,-0.93605,-260.641404,1.244523,69.903154
4.5558,-0.007642,-0.012762,0.00476,0.003618,0.003039,-0.012201,-0.005647,-0.522623,0.003501,-0.93605,-260.641404,1.244523,69.903154
4.5757,-0.007009,-0.012527,0.002986,0.003597,0.003046,-0.011956,-0.005062,-0.522628,0.004211,-0.935089,-260.638941,1.251184,69.907808
4.5958,-0.007155,-0.012535,0.001973,0.00355,0.003068,-0.01185,-0.005218,-0.522571,0.003646,-0.935089,-260.638941,1.251184,69.907808
4.6157,-0.006466,-0.012582,0.003438,0.00351,0.00309,-0.011779,-0.006042,-0.522444,0.00162,-0.869125,-260.636873,1.236241,69.911872
4.6358,-0.006809,-0.012618,0.001704,0.003454,0.003109,-0.011554,-0.004828,-0.522562,0.003254,-0.869125,-260.636873,1.236241,69.911872
4.6556,-0.006471,-0.012657,0.001373,0.003404,0.00313,-0.011398,-0.004828,-0.522562,0.003254,-0.869125,-260.636873,1.236241,69.911872
4.6757,-0.006533,-0.012554,-0.000222,0.003361,0.00315,-0.011291,-0.005624,-0.522528,0.000881,-0.863306,-260.634715,1.241892,69.916215
4.6957,-0.006288,-0.012437,0.000855,0.003443,0.003091,-0.009748,-0.006023,-0.522523,0.000375,-0.863306,-260.634715,1.241892,69.916215
4.716,-0.005453,-0.012419,0.000661,0.003495,0.003058,-0.008658,-0.005746,-0.522337,0.000498,-0.839549,-260.632708,1.247901,69.920439
4.7358,-0.0057,-0.012578,-0.000587,0.003471,0.003065,-0.008023,-0.005158,-0.522409,0.000634,-0.839549,-260.632708,1.247901,69.920439
4.7559,-0.005574,-0.012246,0.002294,0.003445,0.003079,-0.007584,-0.005158,-0.522409,0.000634,-0.839549,-260.632708,1.247901,69.920439
4.776,-0.005871,-0.012525,0.001937,0.003419,0.003097,-0.007283,-0.004367,-0.522213,0.002188,-0.764079,-260.632251,1.174232,69.921437
4.7958,-0.005587,-0.012035,0.00153,0.003345,0.003153,-0.007845,-0.004571,-0.522335,0.002074,-0.764079,-260.632251,1.174232,69.921437
4.8159,-0.005678,-0.012279,0.00046,0.003286,0.003194,-0.008238,-0.004799,-0.522027,0.001509,-0.689572,-260.632127,1.145354,69.921715
4.8362,-0.005517,-0.012445,0.002348,0.003309,0.003181,-0.007684,-0.005387,-0.522257,0.00055,-0.689572,-260.632127,1.145354,69.921715
4.856,-0.005668,-0.012221,-0.000125,0.003324,0.003175,-0.007292,-0.005387,-0.522257,0.00055,-0.689572,-260.632127,1.145354,69.921715
4.8762,-0.005384,-0.012451,0.001528,0.003333,0.003174,-0.007014,-0.005655,-0.522148,-0.000331,-0.61444,-260.631263,1.190715,69.923749
4.8963,-0.00541,-0.011936,0.002042,0.00333,0.003178,-0.006729,-0.005228,-0.52226,0.000387,-0.61444,-260.631263,1.190715,69.923749
4.9155,-0.004988,-0.011977,0.000104,0.003326,0.003184,-0.006524,-0.004344,-0.521913,0.001984,-0.539571,-260.630923,1.150508,69.924538
4.9361,-0.005072,-0.012036,0.000267,0.003308,0.003194,-0.006312,-0.004882,-0.52197,0.000266,-0.539571,-260.630923,1.150508,69.924538
4.9562,-0.005391,-0.012049,-1.2e-05,0.003291,0.003205,-0.006158,-0.004882,-0.52197,0.000266,-0.539571,-260.630923,1.150508,69.924538
4.9758,-0.005372,-0.011513,0.001486,0.003276,0.003216,-0.006046,-0.005367,-0.522023,-7.9e-05,-0.464556,-260.630616,1.136362,69.925247
4.996,-0.00511,-0.011813,0.000711,0.003276,0.003224,-0.006127,-0.005057,-0.521812,0.000551,-0.464556,-260.630616,1.136362,69.925247
5.0155,-0.004992,-0.012061,-0.00062,0.003276,0.00323,-0.006179,-0.004728,-0.521796,0.000671,-0.389226,-260.630366,1.128028,69.925825
5.0358,-0.004934,-0.012169,-0.001136,0.003299,0.003216,-0.00565,-0.005263,-0.52204,-0.000524,-0.389226,-260.630366,1.128028,69.925825
5.056,-0.005105,-0.011655,-0.000919,0.003313,0.003211,-0.00527,-0.005263,-0.52204,-0.000524,-0.389226,-260.630366,1.128028,69.925825
5.076,-0.004806,-0.011986,-0.001196,0.003322,0.003211,-0.004999,-0.005514,-0.5216,-0.00104,-0.314067,-260.629782,1.133256,69.927186
5.0962,-0.004692,-0.011749,0.000183,0.00336,0.003194,-0.004532,-0.005467,-0.521751,-0.001118,-0.314067,-260.629782,1.133256,69.927186
5.1161,-0.004801,-0.011943,0.000292,0.003387,0.003186,-0.004197,-0.004587,-0.521739,0.000162,-0.239481,-260.629631,1.083093,69.927507
5.1361,-0.004887,-0.011527,-0.000423,0.003331,0.003225,-0.004668,-0.004646,-0.521924,0.000279,-0.239481,-260.629631,1.083093,69.927507
5.1559,-0.005003,-0.011512,0.00054,0.003287,0.003253,-0.004994,-0.004646,-0.521924,0.000279,-0.239481,-260.629631,1.083093,69.927507
5.1765,-0.00523,-0.011527,-0.000171,0.003252,0.003274,-0.005217,-0.00472,-0.521507,0.000529,-0.164572,-260.62956,1.038402,69.927645
5.1962,-0.00491,-0.011919,-0.001464,0.003255,0.003277,-0.005359,-0.00496,-0.521514,0.000246,-0.164572,-260.62956,1.038402,69.927645
5.2158,-0.004375,-0.011743,-3.4e-05,0.00326,0.003277,-0.005455,-0.005603,-0.521868,-0.001555,-0.089577,-260.628888,1.104474,69.92914
5.2358,-0.0049,-0.011883,-0.000226,0.003233,0.003284,-0.005285,-0.004498,-0.521752,-0.000176,-0.089577,-260.628888,1.104474,69.92914
5.2558,-0.004566,-0.011678,0.000439,0.003211,0.003292,-0.00516,-0.004498,-0.521752,-0.000176,-0.089577,-260.628888,1.104474,69.92914
5.2761,-0.004449,-0.011359,-0.000286,0.003191,0.003299,-0.005068,-0.004217,-0.521552,0.00023,-0.016586,-260.627692,1.112581,69.931843
5.296,-0.004965,-0.011798,-0.001419,0.003167,0.003309,-0.005093,-0.004356,-0.521459,-4e-06,-0.016586,-260.627692,1.112581,69.931843
5.316,-0.003944,-0.01131,-0.001892,0.003148,0.003317,-0.005108,-0.005597,-0.521703,-0.001565,0.058414,-260.626539,1.107941,69.93442
5.3359,-0.004412,-0.011362,-0.002013,0.003211,0.003278,-0.004267,-0.004968,-0.52134,-0.00187,0.058414,-260.626539,1.107941,69.93442
5.3561,-0.004098,-0.01153,-0.001363,0.003255,0.003253,-0.003666,-0.004968,-0.52134,-0.00187,0.058414,-260.626539,1.107941,69.93442
5.3758,-0.004249,-0.011283,-0.000673,0.003285,0.003239,-0.003237,-0.004661,-0.521391,-0.001577,0.062572,-260.625279,1.115931,69.937282
5.3965,-0.004161,-0.011593,0.000497,0.003269,0.003252,-0.003194,-0.004618,-0.521331,-0.001235,0.062572,-260.625279,1.115931,69.937282
5.4155,-0.004001,-0.011047,-0.000735,0.003255,0.003264,-0.003161,-0.003888,-0.521576,0.000474,0.137582,-260.625019,1.040921,69.937737
5.4357,-0.003927,-0.011184,-0.000436,0.003221,0.003286,-0.003429,-0.004331,-0.521094,-0.000628,0.137582,-260.625019,1.040921,69.937737
5.4557,-0.003726,-0.01173,-0.000749,0.003195,0.003303,-0.003615,-0.004331,-0.521094,-0.000628,0.137582,-260.625019,1.040921,69.937737
5.4761,-0.003972,-0.011473,0.000434,0.003174,0.003315,-0.003743,-0.004058,-0.521686,-0.000803,0.212588,-260.624519,1.011004,69.938609
5.4964,-0.00368,-0.011214,-0.001202,0.003111,0.003342,-0.003997,-0.003928,-0.521594,-0.000307,0.212588,-260.624519,1.011004,69.938609
5.5156,-0.003851,-0.011224,-0.001282,0.00306,0.003363,-0.004173,-0.004209,-0.521128,-0.001302,0.287571,-260.623416,1.055241,69.940737
5.5357,-0.003201,-0.010868,-0.000729,0.003084,0.003348,-0.00382,-0.004477,-0.521212,-0.001289,0.287571,-260.623416,1.055241,69.940737
5.5557,-0.003403,-0.011266,-0.002322,0.0031,0.003339,-0.003572,-0.004477,-0.521212,-0.001289,0.287571,-260.623416,1.055241,69.940737
5.5759,-0.003853,-0.010761,-0.000996,0.00311,0.003335,-0.003397,-0.004464,-0.521129,-0.00249,0.26016,-260.622192,1.093162,69.94331
5.596,-0.003258,-0.010895,-0.001012,0.003131,0.00332,-0.003029,-0.004406,-0.520959,-0.001886,0.26016,-260.622192,1.093162,69.94331
5.6159,-0.003216,-0.011241,-0.001896,0.003144,0.003313,-0.00277,-0.003699,-0.520817,-0.001096,0.335209,-260.621183,1.048948,69.945186
5.6359,-0.003253,-0.01071,-0.001773,0.003124,0.00332,-0.002609,-0.004136,-0.521198,-0.001829,0.335209,-260.621183,1.048948,69.945186
5.6558,-0.003248,-0.010939,-0.001145,0.003105,0.003328,-0.002496,-0.004136,-0.521198,-0.001829,0.335209,-260.621183,1.048948,69.945186
5.6757,-0.002967,-0.010984,-0.001503,0.003088,0.003337,-0.002417,-0.003737,-0.520844,-0.001232,0.409895,-260.620179,1.009867,69.946863
5.696,-0.00322,-0.010644,-0.002539,0.003041,0.00336,-0.002561,-0.003725,-0.52089,-0.001353,0.409895,-260.620179,1.009867,69.946863
5.7162,-0.003,-0.010754,-0.002146,0.003002,0.003377,-0.002662,-0.004439,-0.520564,-0.002601,0.484896,-260.619087,1.00035,69.948596
5.7364,-0.002998,-0.0105,-0.001228,0.003021,0.003366,-0.002402,-0.004117,-0.520735,-0.002184,0.484896,-260.619087,1.00035,69.948596
5.756,-0.00267,-0.010774,-0.001827,0.003033,0.003359,-0.002221,-0.004117,-0.520735,-0.002184,0.484896,-260.619087,1.00035,69.948596
5.776,-0.002401,-0.010681,-0.000997,0.003041,0.003356,-0.002095,-0.003482,-0.520639,-0.001933,0.528165,-260.617764,1.030323,69.950817
5.796,-0.002308,-0.010576,-0.002295,0.002966,0.003384,-0.002248,-0.003236,-0.52064,-0.001566,0.528165,-260.617764,1.030323,69.950817
5.8156,-0.002631,-0.01003,-0.002767,0.002905,0.003407,-0.002353,-0.003391,-0.520479,-0.002355,0.59895,-260.616432,0.99019,69.952822
5.8358,-0.002535,-0.010164,-0.003175,0.002949,0.003379,-0.001969,-0.003859,-0.519921,-0.002824,0.59895,-260.616432,0.99019,69.952822
5.8559,-0.002991,-0.010208,-0.003296,0.002981,0.00336,-0.001699,-0.003859,-0.519921,-0.002824,0.59895,-260.616432,0.99019,69.952822
5.8758,-0.002125,-0.010313,-0.002385,0.003004,0.003347,-0.00151,-0.004553,-0.520068,-0.003392,0.595969,-260.615072,1.030584,69.955011
5.8956,-0.00204,-0.009927,-0.001243,0.003032,0.003335,-0.001323,-0.004049,-0.520151,-0.002995,0.595969,-260.615072,1.030584,69.955011
5.9155,-0.002066,-0.009909,-0.002288,0.003053,0.003328,-0.001192,-0.002595,-0.51984,-0.001283,0.670545,-260.613801,0.957665,69.956729
5.9359,-0.002316,-0.010037,-0.001344,0.002987,0.003355,-0.001374,-0.003172,-0.519897,-0.0022,0.670545,-260.613801,0.957665,69.956729
5.9559,-0.001968,-0.009874,-0.001582,0.002935,0.003376,-0.001498,-0.003172,-0.519897,-0.0022,0.670545,-260.613801,0.957665,69.956729
5.9759,-0.001655,-0.009733,-0.001717,0.002892,0.003392,-0.001582,-0.002651,-0.51974,-0.00163,0.70531,-260.612246,0.92552,69.958699
5.9962,-0.001968,-0.009955,-0.002855,0.002798,0.003423,-0.001847,-0.002586,-0.519721,-0.001672,0.70531,-260.612246,0.92552,69.958699
6.0159,-0.00185,-0.009662,-0.003108,0.002722,0.003446,-0.002027,-0.003338,-0.519852,-0.002902,0.697969,-260.610816,0.984995,69.960679
6.0359,-0.00177,-0.009829,-0.002897,0.002765,0.003421,-0.001648,-0.003425,-0.519668,-0.003095,0.697969,-260.610816,0.984995,69.960679
6.0566,-0.001779,-0.00975,-0.001716,0.002796,0.003404,-0.001382,-0.003425,-0.519668,-0.003095,0.697969,-260.610816,0.984995,69.960679
6.0763,-0.002078,-0.009553,-0.003389,0.002818,0.003393,-0.001195,-0.002548,-0.519615,-0.001795,0.681555,-260.609508,1.04436,69.962701
6.0963,-0.00151,-0.009492,-0.002787,0.002791,0.003405,-0.001278,-0.003046,-0.519573,-0.00245,0.681555,-260.609508,1.04436,69.962701
6.1158,-0.001459,-0.009623,-0.000549,0.002769,0.003414,-0.001335,-0.002856,-0.5194,-0.002819,0.755903,-260.608201,0.971322,69.964385
6.1358,-0.001568,-0.009339,-0.002068,0.002608,0.003467,-0.002124,-0.001815,-0.519603,-0.000713,0.755903,-260.608201,0.971322,69.964385
6.1558,-0.001017,-0.009268,-0.003674,0.00248,0.003503,-0.002666,-0.001815,-0.519603,-0.000713,0.755903,-260.608201,0.971322,69.964385
6.1762,-0.001081,-0.009559,-0.003202,0.002377,0.00353,-0.003036,-0.002776,-0.519124,-0.003729,0.753704,-260.606698,0.99106,69.966385
6.1965,-0.001378,-0.009144,-0.003396,0.00244,0.003486,-0.002256,-0.002737,-0.519284,-0.003519,0.753704,-260.606698,0.99106,69.966385
6.2161,-0.001273,-0.00937,-0.002,0.002484,0.003459,-0.001691,-0.003071,-0.519089,-0.003437,0.679063,-260.606148,1.065701,69.967499
6.2359,-0.000906,-0.009137,-0.000958,0.002451,0.003472,-0.001736,-0.002361,-0.519341,-0.002132,0.679063,-260.606148,1.065701,69.967499
6.2558,-0.001076,-0.008795,-0.00286,0.002425,0.003483,-0.001763,-0.002361,-0.519341,-0.002132,0.679063,-260.606148,1.065701,69.967499
6.2758,-0.001109,-0.009623,-0.003339,0.002403,0.003491,-0.001779,-0.002443,-0.518668,-0.002922,0.753927,-260.604943,1.065643,69.96928
6.2959,-0.001185,-0.008717,-0.004189,0.002432,0.003472,-0.001459,-0.002583,-0.519041,-0.003099,0.753927,-260.604943,1.065643,69.96928
6.3159,-0.000632,-0.008719,-0.002498,0.002452,0.00346,-0.001233,-0.003246,-0.518605,-0.004244,0.785843,-260.60361,1.08745,69.971307
6.3359,-0.000882,-0.009004,-0.001533,0.002406,0.003464,-0.001221,-0.002007,-0.518704,-0.002636,0.785843,-260.60361,1.08745,69.971307
6.3557,-0.000774,-0.008724,-0.001928,0.002367,0.003468,-0.001211,-0.002007,-0.518704,-0.002636,0.785843,-260.60361,1.08745,69.971307
6.3756,-0.000649,-0.008739,-0.001869,0.002335,0.003471,-0.001202,-0.001662,-0.518589,-0.001976,0.834873,-260.602253,1.043761,69.973118
6.3964,-0.00099,-0.008469,-0.002469,0.002256,0.00349,-0.001454,-0.001627,-0.518634,-0.001938,0.834873,-260.602253,1.043761,69.973118
6.4158,-0.000709,-0.00847,-0.002526,0.002193,0.003504,-0.001625,-0.002176,-0.51836,-0.002507,0.864489,-260.600843,1.063928,69.975003
6.4357,-0.00053,-0.008541,-0.001558,0.002201,0.003493,-0.001523,-0.00201,-0.518452,-0.002526,0.864489,-260.600843,1.063928,69.975003
6.4558,-0.000642,-0.008352,-0.003386,0.002205,0.003485,-0.001451,-0.00201,-0.518452,-0.002526,0.864489,-260.600843,1.063928,69.975003
6.4758,-0.00047,-0.008533,-0.002385,0.002208,0.003479,-0.0014,-0.00228,-0.51821,-0.003451,0.852911,-260.599572,1.117011,69.97691
6.4958,-0.000561,-0.008298,-0.003382,0.002224,0.003463,-0.001198,-0.002031,-0.518324,-0.003027,0.852911,-260.599572,1.117011,69.97691
6.5159,-0.000318,-0.008107,-0.004287,0.002235,0.003451,-0.001056,-0.002216,-0.518186,-0.003426,0.871179,-260.598213,1.099567,69.978838
6.5357,-0.000331,-0.008324,-0.004553,0.002319,0.003412,-0.000631,-0.002475,-0.518104,-0.004212,0.871179,-260.598213,1.099567,69.978838
6.5557,-0.000255,-0.008112,-0.003182,0.002384,0.003384,-0.00033,-0.002475,-0.518104,-0.004212,0.871179,-260.598213,1.099567,69.978838
6.5757,0.000176,-0.008109,-0.002277,0.002433,0.003365,-0.000118,-0.001786,-0.517969,-0.003225,0.898279,-260.596813,1.071419,69.980659
6.5957,-5.6e-05,-0.007925,-0.00181,0.002328,0.003388,-0.000374,-0.00145,-0.518009,-0.002845,0.898279,-260.596813,1.071419,69.980659
6.6157,-0.000369,-0.007974,-0.00314,0.002245,0.003403,-0.000549,-0.000919,-0.517839,-0.001815,0.934516,-260.595524,0.996471,69.981986
6.6359,-0.000128,-0.007602,-0.004978,0.002235,0.003404,-0.000612,-0.001873,-0.517955,-0.003021,0.934516,-260.595524,0.996471,69.981986
6.6558,-6.2e-05,-0.007802,-0.002908,0.002227,0.003404,-0.000655,-0.001873,-0.517955,-0.003021,0.934516,-260.595524,0.996471,69.981986
6.6758,0.000433,-0.008237,-0.000795,0.002221,0.003404,-0.000684,-0.001452,-0.517661,-0.002931,0.939031,-260.59403,1.029947,69.983699
6.6958,5.2e-05,-0.007756,-0.003765,0.002073,0.003425,-0.00104,-0.000842,-0.517878,-0.002068,0.939031,-260.59403,1.029947,69.983699
6.7158,3.1e-05,-0.00723,-0.003005,0.001955,0.003439,-0.001279,-0.001797,-0.517644,-0.003787,0.931363,-260.592537,1.044364,69.985472
6.7357,0.000353,-0.007727,-0.002544,0.001979,0.003405,-0.001088,-0.00152,-0.517253,-0.003063,0.931363,-260.592537,1.044364,69.985472
6.7561,0.000461,-0.007716,-0.00266,0.001996,0.003378,-0.000952,-0.00152,-0.517253,-0.003063,0.931363,-260.592537,1.044364,69.985472
6.7761,0.000576,-0.00725,-0.002804,0.002008,0.003358,-0.000857,-0.000824,-0.517591,-0.002706,0.936619,-260.591395,1.119926,69.987083
6.7959,0.000499,-0.007309,-0.00173,0.001912,0.003359,-0.000888,-0.000828,-0.517436,-0.002751,0.936619,-260.591395,1.119926,69.987083
6.8156,0.000564,-0.007492,-0.003148,0.001834,0.003359,-0.000907,-0.00032,-0.517204,-0.001757,0.954517,-260.590029,1.093356,69.9888
6.8361,0.000103,-0.007427,-0.003439,0.001794,0.003357,-0.00082,-0.000974,-0.517459,-0.003025,0.954517,-260.590029,1.093356,69.9888
6.8559,0.000374,-0.007447,-0.004643,0.00176,0.003357,-0.000756,-0.000974,-0.517459,-0.003025,0.954517,-260.590029,1.093356,69.9888
6.8761,0.00041,-0.006919,-0.001043,0.001732,0.003357,-0.000709,-0.00192,-0.517308,-0.004679,0.991817,-260.58875,1.132546,69.990449
6.8959,0.000372,-0.006548,-0.00393,0.001746,0.003341,-0.000617,-0.001177,-0.517134,-0.003198,0.991817,-260.58875,1.132546,69.990449
6.9155,0.000876,-0.006866,-0.002679,0.001756,0.003329,-0.000552,-0.001579,-0.516441,-0.003952,1.036156,-260.587435,1.142234,69.992062
6.9357,0.000658,-0.00698,-0.002195,0.001676,0.003314,-0.000635,-0.000586,-0.516821,-0.002795,1.036156,-260.587435,1.142234,69.992062
6.9559,0.000784,-0.007004,-0.003894,0.001611,0.003301,-0.000689,-0.000586,-0.516821,-0.002795,1.036156,-260.587435,1.142234,69.992062
6.9758,0.000708,-0.006589,-0.003574,0.001559,0.00329,-0.000724,-0.001128,-0.516862,-0.003917,1.040117,-260.586055,1.124229,69.993679
6.9957,0.000788,-0.007151,-0.003428,0.001615,0.003259,-0.000445,-0.001114,-0.516733,-0.00378,1.040117,-260.586055,1.124229,69.993679
7.0156,0.000614,-0.006581,-0.003902,0.001657,0.003237,-0.000248,-0.000913,-0.517049,-0.00345,1.069893,-260.584825,1.175124,69.995212
7.036,0.001062,-0.006666,-0.003291,0.001726,0.00321,-8.9e-05,-0.001334,-0.516613,-0.003864,1.069893,-260.584825,1.175124,69.995212
7.056,0.000843,-0.006389,-0.003188,0.001779,0.00319,2.2e-05,-0.001334,-0.516613,-0.003864,1.069893,-260.584825,1.175124,69.995212
7.0757,0.001242,-0.006632,-0.003061,0.001821,0.003175,9.8e-05,-0.000718,-0.516259,-0.003198,1.078031,-260.583503,1.11604,69.996636
7.0961,0.000888,-0.006479,-0.002058,0.001724,0.003166,-6.6e-05,-0.000548,-0.516395,-0.003143,1.078031,-260.583503,1.11604,69.996636
7.1155,0.001235,-0.006325,-0.002992,0.001647,0.003157,-0.000176,-0.000108,-0.516382,-0.002057,1.063801,-260.582113,1.06023,69.998016
7.1357,0.001022,-0.006012,-0.002929,0.001538,0.003146,-0.000329,-0.000272,-0.516323,-0.002908,1.063801,-260.582113,1.06023,69.998016
7.1559,0.001079,-0.006504,-0.00354,0.001451,0.003136,-0.000432,-0.000272,-0.516323,-0.002908,1.063801,-260.582113,1.06023,69.998016
7.1758,0.000878,-0.006004,-0.001721,0.001381,0.003128,-0.000501,-0.000659,-0.516374,-0.003547,1.075674,-260.580769,1.10365,69.999434
7.1957,0.001292,-0.005986,-0.003751,0.001344,0.003116,-0.000585,-0.00038,-0.516206,-0.002795,1.075674,-260.580769,1.10365,69.999434
7.2156,0.001041,-0.006107,-0.004845,0.001314,0.003106,-0.000642,-0.000582,-0.515897,-0.003765,1.115519,-260.579675,1.178759,70.000724
7.2356,0.001408,-0.005921,-0.00261,0.001485,0.003053,-0.00014,-0.00136,-0.51608,-0.004759,1.115519,-260.579675,1.178759,70.000724
7.2556,0.001204,-0.005665,-0.004062,0.001618,0.003015,0.000219,-0.00136,-0.51608,-0.004759,1.115519,-260.579675,1.178759,70.000724
7.2757,0.000954,-0.005779,-0.002077,0.00172,0.002988,0.000474,-0.000814,-0.515534,-0.004088,1.119962,-260.578489,1.211531,70.002193
7.2957,0.001517,-0.00622,-0.003013,0.001641,0.002963,0.000234,-0.000511,-0.515621,-0.00325,1.119962,-260.578489,1.211531,70.002193
7.3155,0.001142,-0.005529,-0.002571,0.001579,0.00294,7.1e-05,4e-06,-0.516169,-0.003009,1.087671,-260.577766,1.136506,70.002818
7.3357,0.001311,-0.005638,-0.003703,0.001457,0.002924,-0.000262,-0.000154,-0.515578,-0.002607,1.087671,-260.577766,1.136506,70.002818
7.3557,0.001184,-0.005663,-0.002982,0.001362,0.002907,-0.000487,-0.000154,-0.515578,-0.002607,1.087671,-260.577766,1.136506,70.002818
7.3764,0.001251,-0.005829,-0.003816,0.001289,0.002892,-0.000638,-0.000275,-0.515547,-0.002979,1.083894,-260.576508,1.071619,70.004048
7.3957,0.001594,-0.005596,-0.004862,0.001293,0.002874,-0.000503,-0.000439,-0.515647,-0.003319,1.083894,-260.576508,1.071619,70.004048
7.4157,0.00148,-0.005429,-0.002654,0.001295,0.00286,-0.000406,-0.000851,-0.51552,-0.004876,1.095201,-260.575633,1.146415,70.005143
7.4358,0.001514,-0.005361,-0.002603,0.001201,0.002834,-0.000488,3.9e-05,-0.515432,-0.002856,1.095201,-260.575633,1.146415,70.005143
7.4559,0.001447,-0.005672,-0.002497,0.001127,0.002813,-0.000541,3.9e-05,-0.515432,-0.002856,1.095201,-260.575633,1.146415,70.005143
7.4758,0.000984,-0.005008,-0.003622,0.001067,0.002796,-0.000576,0.000227,-0.515553,-0.002514,1.110347,-260.57448,1.175916,70.006476
7.4958,0.001649,-0.005306,-0.00344,0.001073,0.002774,-0.000555,-0.000225,-0.515309,-0.002982,1.110347,-260.57448,1.175916,70.006476
7.5157,0.001674,-0.005207,-0.003519,0.001077,0.002755,-0.00054,-7.5e-05,-0.515224,-0.003456,1.159132,-260.573529,1.243864,70.00766
7.5362,0.001779,-0.00531,-0.004184,0.001068,0.002721,-0.000361,-0.000115,-0.515202,-0.003514,1.159132,-260.573529,1.243864,70.00766
7.5563,0.001905,-0.005493,-0.003237,0.001058,0.002695,-0.000235,-0.000115,-0.515202,-0.003514,1.159132,-260.573529,1.243864,70.00766
7.5761,0.00148,-0.005293,-0.003599,0.001049,0.002675,-0.000146,0.000299,-0.515375,-0.00326,1.152776,-260.572473,1.23484,70.008961
7.5958,0.001705,-0.00523,-0.00456,0.001006,0.002672,-0.000122,4.5e-05,-0.515328,-0.003396,1.152776,-260.572473,1.23484,70.008961
7.6164,0.001411,-0.005014,-0.005202,0.000972,0.00267,-0.000104,-0.000588,-0.515142,-0.004565,1.185534,-260.571388,1.208246,70.01011
7.6361,0.002,-0.005126,-0.002251,0.00121,0.002612,0.000349,-0.001178,-0.515015,-0.005142,1.185534,-260.571388,1.208246,70.01011
7.6561,0.001817,-0.004935,-0.004291,0.001395,0.00257,0.000672,-0.001178,-0.515015,-0.005142,1.185534,-260.571388,1.208246,70.01011
7.6759,0.001566,-0.00478,-0.003076,0.001539,0.00254,0.000901,-0.000331,-0.514821,-0.004296,1.213908,-260.570298,1.229227,70.011248
7.6961,0.001919,-0.004827,-0.003012,0.00144,0.002515,0.000711,-0.000192,-0.514791,-0.003798,1.213908,-260.570298,1.229227,70.011248
7.7159,0.001879,-0.004805,-0.004063,0.001363,0.002493,0.000582,0.000389,-0.514811,-0.003009,1.138912,-260.570072,1.154232,70.011412
7.7361,0.001479,-0.004955,-0.004319,0.001296,0.002474,0.000543,-0.00014,-0.514801,-0.003966,1.138912,-260.570072,1.154232,70.011412
7.7561,0.001865,-0.004533,-0.005029,0.001244,0.002459,0.000518,-0.00014,-0.514801,-0.003966,1.138912,-260.570072,1.154232,70.011412
7.7759,0.001811,-0.004719,-0.002667,0.001202,0.002447,0.000502,-0.000662,-0.514453,-0.005014,1.124438,-260.5692,1.079238,70.012112
7.7959,0.0018,-0.004541,-0.001698,0.001196,0.002409,0.000519,-0.000205,-0.514553,-0.004056,1.124438,-260.5692,1.079238,70.012112
7.816,0.002262,-0.004912,-0.003997,0.001191,0.002379,0.000531,0.000972,-0.514464,-0.001682,1.159125,-260.568029,1.058948,70.013069
7.836,0.002065,-0.004751,-0.00359,0.001066,0.002383,0.00046,0.000293,-0.514865,-0.003788,1.159125,-260.568029,1.058948,70.013069
7.8561,0.001998,-0.004171,-0.003993,0.000968,0.002387,0.000413,0.000293,-0.514865,-0.003788,1.159125,-260.568029,1.058948,70.013069
7.8761,0.002019,-0.004363,-0.002701,0.00089,0.002392,0.000381,1.2e-05,-0.514068,-0.003971,1.155961,-260.566851,1.045695,70.014016
7.8959,0.001722,-0.004383,-0.00305,0.00083,0.002317,0.000259,0.000275,-0.514176,-0.00345,1.155961,-260.566851,1.045695,70.014016
7.9159,0.001845,-0.004506,-0.004228,0.000783,0.002257,0.000176,0.000188,-0.514331,-0.003041,1.230945,-260.566117,1.120679,70.014634
7.9359,0.001888,-0.004402,-0.003343,0.000876,0.002248,0.000314,-0.000265,-0.514483,-0.004121,1.230945,-260.566117,1.120679,70.014634
7.9557,0.002177,-0.004303,-0.002799,0.000949,0.002242,0.00041,-0.000265,-0.514483,-0.004121,1.230945,-260.566117,1.120679,70.014634
7.9761,0.001903,-0.003878,-0.002611,0.001005,0.002237,0.000477,0.000778,-0.514222,-0.002792,1.251048,-260.565265,1.195696,70.015417
7.9961,0.001977,-0.004056,-0.002947,0.000808,0.002174,6.9e-05,0.00069,-0.51406,-0.002711,1.251048,-260.565265,1.195696,70.015417
8.0158,0.001854,-0.004101,-0.004848,0.000656,0.002123,-0.000207,0.000498,-0.513997,-0.002936,1.192517,-260.564403,1.119668,70.016111
8.036,0.002013,-0.004278,-0.002626,0.000846,0.002077,0.000183,-0.00052,-0.514083,-0.004681,1.192517,-260.564403,1.119668,70.016111
8.056,0.001849,-0.004326,-0.00389,0.000993,0.002045,0.00046,-0.00052,-0.514083,-0.004681,1.192517,-260.564403,1.119668,70.016111
8.076,0.002255,-0.004049,-0.003692,0.001106,0.002021,0.000656,-0.000116,-0.51427,-0.003893,1.253415,-260.563898,1.193725,70.016674
8.0958,0.002256,-0.004146,-0.003488,0.001042,0.002022,0.000556,8.6e-05,-0.514172,-0.003812,1.253415,-260.563898,1.193725,70.016674
8.1159,0.001672,-0.004016,-0.003481,0.000993,0.002022,0.000488,0.000488,-0.514118,-0.003481,1.17836,-260.563504,1.118669,70.016964
8.1357,0.002109,-0.004402,-0.003887,0.00098,0.00201,0.000342,-5e-05,-0.514021,-0.003481,1.17836,-260.563504,1.118669,70.016964
8.1557,0.001812,-0.003995,-0.002546,0.000972,0.001999,0.000242,-5e-05,-0.514021,-0.003481,1.17836,-260.563504,1.118669,70.016964
8.1757,0.002188,-0.003975,-0.005053,0.000966,0.001988,0.000173,0.000552,-0.513915,-0.002528,1.166528,-260.562574,1.048285,70.017697
8.1956,0.002018,-0.003941,-0.004509,0.00091,0.001959,0.000149,0.000174,-0.513928,-0.003551,1.166528,-260.562574,1.048285,70.017697
8.2154,0.002034,-0.003948,-0.003077,0.000866,0.001936,0.000135,-0.000252,-0.513876,-0.004504,1.138484,-260.561696,1.096518,70.018502
8.2355,0.00211,-0.0041,-0.003329,0.000773,0.001917,1.5e-05,0.000402,-0.513937,-0.003205,1.138484,-260.561696,1.096518,70.018502
8.2556,0.002235,-0.003579,-0.002729,0.0007,0.001901,-6.5e-05,0.000402,-0.513937,-0.003205,1.138484,-260.561696,1.096518,70.018502
8.2756,0.001971,-0.00375,-0.003488,0.000644,0.001889,-0.000119,0.000879,-0.513499,-0.002723,1.165234,-260.560845,1.133528,70.019296
8.2956,0.002227,-0.003977,-0.003859,0.000541,0.001818,-0.000211,0.000598,-0.513592,-0.00304,1.165234,-260.560845,1.133528,70.019296
8.3155,0.002469,-0.004001,-0.003161,0.000461,0.001762,-0.000272,0.000276,-0.513929,-0.003861,1.230263,-260.560274,1.208699,70.019907
8.3359,0.002125,-0.003966,-0.003328,0.000362,0.00177,-0.000254,0.000808,-0.513991,-0.003221,1.230263,-260.560274,1.208699,70.019907
8.3559,0.002003,-0.003714,-0.003439,0.000284,0.001778,-0.000238,0.000808,-0.513991,-0.003221,1.230263,-260.560274,1.208699,70.019907
8.3756,0.002392,-0.004038,-0.004144,0.000221,0.001786,-0.000226,0.000265,-0.513658,-0.003447,1.289566,-260.559791,1.283653,70.020484
8.3955,0.001678,-0.003479,-0.004871,0.000302,0.001777,-5.9e-05,0.000272,-0.513805,-0.003732,1.289566,-260.559791,1.283653,70.020484
8.4157,0.002308,-0.003823,-0.004156,0.000363,0.001771,5.6e-05,-0.000801,-0.513448,-0.004874,1.36443,-260.5595,1.358517,70.020822
8.4357,0.002103,-0.0034,-0.002241,0.000457,0.001761,0.000271,0.000105,-0.513786,-0.004217,1.36443,-260.5595,1.358517,70.020822
8.4557,0.002279,-0.003701,-0.002878,0.000529,0.001756,0.000421,0.000105,-0.513786,-0.004217,1.36443,-260.5595,1.358517,70.020822
8.4761,0.002154,-0.00358,-0.003179,0.000584,0.001753,0.000524,0.000826,-0.513625,-0.002875,1.372347,-260.558766,1.364716,70.02153
8.4958,0.002505,-0.003357,-0.001273,0.000457,0.001719,0.000214,0.000709,-0.513597,-0.002998,1.372347,-260.558766,1.364716,70.02153
8.5156,0.002203,-0.003435,-0.001479,0.00036,0.001691,2e-06,0.001864,-0.513326,-0.001264,1.297488,-260.558301,1.289857,70.021864
8.5355,0.00215,-0.003376,-0.002832,7.7e-05,0.001617,-0.000764,0.001483,-0.513424,-0.001461,1.297488,-260.558301,1.289857,70.021864
8.5558,0.002217,-0.003625,-0.00346,-0.000141,0.001557,-0.001286,0.001483,-0.513424,-0.001461,1.297488,-260.558301,1.289857,70.021864
8.576,0.002117,-0.003272,-0.003449,-0.000312,0.001507,-0.001637,0.000466,-0.51356,-0.00346,1.361255,-260.557703,1.360967,70.022461
8.5959,0.002372,-0.003419,-0.004227,-0.000155,0.001488,-0.001143,0.000423,-0.513434,-0.003456,1.361255,-260.557703,1.360967,70.022461
8.6158,0.002051,-0.003514,-0.004118,-3.8e-05,0.001475,-0.000793,0.000216,-0.513414,-0.004227,1.286281,-260.557703,1.435941,70.022461
8.6357,0.002175,-0.003457,-0.003019,0.000172,0.001479,-0.000361,-2.6e-05,-0.513501,-0.004127,1.286281,-260.557703,1.435941,70.022461
8.6563,0.002341,-0.003503,-0.002432,0.000333,0.001485,-5.4e-05,-2.6e-05,-0.513501,-0.004127,1.286281,-260.557703,1.435941,70.022461
8.6758,0.002647,-0.003545,-0.002701,0.000457,0.001492,0.000162,0.001102,-0.513494,-0.002436,1.361193,-260.557654,1.510854,70.022558
8.696,0.002497,-0.003052,-0.002033,0.000239,0.00148,-0.000201,0.00117,-0.513513,-0.002544,1.361193,-260.557654,1.510854,70.022558
8.7165,0.002393,-0.003307,-0.000701,7e-05,0.00147,-0.000445,0.001464,-0.513036,-0.002032,1.290831,-260.557443,1.435908,70.022745
8.7358,0.002335,-0.003079,-0.001994,-0.00027,0.00139,-0.001381,0.001989,-0.513284,-0.000809,1.290831,-260.557443,1.435908,70.022745
8.7559,0.002259,-0.003579,-0.004696,-0.000536,0.001324,-0.002023,0.001989,-0.513284,-0.000809,1.290831,-260.557443,1.435908,70.022745
8.7755,0.002207,-0.003656,-0.001071,-0.000744,0.001272,-0.00246,-0.000133,-0.51355,-0.004703,1.366343,-260.557256,1.511419,70.023017
8.796,0.002544,-0.003435,-0.003408,-0.00054,0.00133,-0.001808,0.000609,-0.513591,-0.003202,1.366343,-260.557256,1.511419,70.023017
8.8161,0.002035,-0.003481,-0.002779,-0.000385,0.001379,-0.001341,0.000806,-0.513432,-0.003408,1.291699,-260.557256,1.436776,70.023017
8.8357,0.002591,-0.003475,-0.003616,-0.000281,0.001408,-0.001127,0.000634,-0.513475,-0.002833,1.291699,-260.557256,1.436776,70.023017
8.8558,0.001959,-0.003219,-0.003042,-0.000201,0.001432,-0.000975,0.000634,-0.513475,-0.002833,1.291699,-260.557256,1.436776,70.023017
8.8758,0.002249,-0.003164,-0.004399,-0.00014,0.001451,-0.000867,0.000408,-0.513216,-0.003042,1.216614,-260.557256,1.511861,70.023017
8.8962,0.002619,-0.003336,-0.002085,1.4e-05,0.001418,-0.000553,0.000245,-0.513193,-0.003592,1.216614,-260.557256,1.511861,70.023017
8.9156,0.002334,-0.003595,-0.003576,0.00013,0.001394,-0.000333,0.001555,-0.513335,-0.002086,1.291368,-260.557252,1.586615,70.023026
8.936,0.002293,-0.003067,-0.002893,0.000138,0.001432,-0.000219,0.000591,-0.513572,-0.003461,1.291368,-260.557252,1.586615,70.023026
8.9559,0.002105,-0.003486,-0.00086,0.000144,0.001464,-0.000137,0.000591,-0.513572,-0.003461,1.291368,-260.557252,1.586615,70.023026
8.9757,0.001985,-0.003555,-0.003382,0.000148,0.00149,-8e-05,0.00167,-0.513455,-0.000867,1.366814,-260.556994,1.51117,70.023371
8.996,0.002069,-0.003634,-0.003566,1.2e-05,0.001501,-0.0006,0.001077,-0.513492,-0.001927,1.366814,-260.556994,1.51117,70.023371
9.0159,0.002498,-0.003298,-0.004581,-9.2e-05,0.001508,-0.000954,0.000255,-0.513592,-0.003568,1.441804,-260.556516,1.474934,70.023881
9.0359,0.002328,-0.003496,-0.001565,8.8e-05,0.001474,-0.000386,0.000171,-0.513318,-0.004489,1.441804,-260.556516,1.474934,70.023881
9.056,0.002148,-0.003706,-0.002585,0.000224,0.001453,2.1e-05,0.000171,-0.513318,-0.004489,1.441804,-260.556516,1.474934,70.023881
9.0759,0.002397,-0.00329,-0.002887,0.000327,0.001439,0.00031,0.00083,-0.513684,-0.002598,1.516393,-260.556398,1.549522,70.024145
9.0961,0.002239,-0.00341,-0.003624,0.00021,0.001468,-3.1e-05,0.000869,-0.51352,-0.002717,1.516393,-260.556398,1.549522,70.024145
9.1158,0.002451,-0.003323,-0.003039,0.000122,0.001488,-0.000264,0.000392,-0.513393,-0.003621,1.441317,-260.5562,1.474446,70.024299
9.1361,0.001976,-0.003164,-0.002487,5.3e-05,0.001458,-0.000297,0.000863,-0.513306,-0.003081,1.441317,-260.5562,1.474446,70.024299
9.1562,0.002454,-0.002842,-0.003011,-1e-06,0.001434,-0.000318,0.000863,-0.513306,-0.003081,1.441317,-260.5562,1.474446,70.024299
9.1756,0.002294,-0.003605,-0.005031,-4.3e-05,0.001417,-0.00033,0.000923,-0.512779,-0.003022,1.479422,-260.555687,1.497219,70.024936
9.1959,0.002263,-0.003267,-0.003721,4e-05,0.001372,-0.000102,0.000435,-0.513108,-0.003846,1.479422,-260.555687,1.497219,70.024936
9.2159,0.002116,-0.003216,-0.003706,0.000101,0.001339,5.6e-05,0.000366,-0.513234,-0.003728,1.553991,-260.555367,1.571789,70.025363
9.2362,0.002404,-0.00309,-0.002596,0.000197,0.001342,0.000129,0.000238,-0.513212,-0.003708,1.553991,-260.555367,1.571789,70.025363
9.2561,0.002041,-0.003084,-0.00342,0.000272,0.001345,0.000177,0.000238,-0.513212,-0.003708,1.553991,-260.555367,1.571789,70.025363
9.2763,0.002507,-0.002989,-0.003329,0.00033,0.001346,0.000211,0.0003,-0.513032,-0.003418,1.497288,-260.554891,1.496781,70.025814
9.2959,0.002569,-0.002982,-0.003009,0.000295,0.001304,0.000129,0.000513,-0.513008,-0.003381,1.497288,-260.554891,1.496781,70.025814
9.3155,0.002426,-0.003214,-0.002526,0.000268,0.001271,7.3e-05,0.001037,-0.512963,-0.003006,1.422113,-260.554654,1.421606,70.026012
9.3357,0.002512,-0.002832,-0.003118,8.7e-05,0.001262,-0.000249,0.00113,-0.513191,-0.002566,1.422113,-260.554654,1.421606,70.026012
9.3559,0.002377,-0.002879,-0.003444,-5.2e-05,0.001255,-0.000466,0.00113,-0.513191,-0.002566,1.422113,-260.554654,1.421606,70.026012
9.3759,0.002362,-0.003129,-0.00345,-0.00016,0.001248,-0.000613,0.000631,-0.512828,-0.003441,1.369829,-260.554173,1.355669,70.026463
9.3963,0.00239,-0.002652,-0.004048,0.0,0.0,0.0,0.00062,-0.512949,-0.003445,1.369829,-260.554173,1.355669,70.026463
9.4163,0.002291,-0.003085,-0.003654,0.0,0.0,0.0,0.000326,-0.512648,-0.004048,1.294497,-260.554173,1.431,70.026463
9.4363,0.002119,-0.002838,-0.003795,0.0,0.0,0.0,0.00042,-0.513052,-0.003681,1.294497,-260.554173,1.431,70.026463
9.4558,0.002046,-0.002814,-0.00338,0.0,0.0,0.0,0.00042,-0.513052,-0.003681,1.294497,-260.554173,1.431,70.026463
9.4758,0.002226,-0.003245,-0.00391,0.0,0.0,0.0,0.000322,-0.512811,-0.00338,1.294497,-260.554173,1.431,70.026463
9.4959,0.00259,-0.003333,-0.005384,0.0,0.0,0.0,0.000285,-0.512986,-0.003596,1.294497,-260.554173,1.431,70.026463
9.5155,0.002458,-0.003148,-0.003742,0.0,0.0,0.0,-0.000156,-0.513325,-0.005384,1.294497,-260.554173,1.431,70.026463
9.5359,0.002171,-0.002846,-0.002871,0.0,0.0,0.0,0.000489,-0.51316,-0.003882,1.294497,-260.554173,1.431,70.026463
9.5558,0.002363,-0.002932,-0.003459,0.0,0.0,0.0,0.000489,-0.51316,-0.003882,1.294497,-260.554173,1.431,70.026463
9.576,0.002385,-0.002941,-0.003694,0.0,0.0,0.0,0.000599,-0.512929,-0.003459,1.294497,-260.554173,1.431,70.026463
9.5967,0.002595,-0.00295,-0.004299,0.0,0.0,0.0,0.000559,-0.512933,-0.003555,1.294497,-260.554173,1.431,70.026463
9.6158,0.002488,-0.003059,-0.002821,0.0,0.0,0.0,0.000403,-0.512945,-0.004299,1.294497,-260.554173,1.431,70.026463
9.6359,0.002441,-0.003113,-0.003209,0.0,0.0,0.0,0.000991,-0.513047,-0.002954,1.294497,-260.554173,1.431,70.026463
9.656,0.002199,-0.003248,-0.002528,0.0,0.0,0.0,0.000991,-0.513047,-0.002954,1.294497,-260.554173,1.431,70.026463
9.6757,0.002304,-0.00295,-0.001884,0.0,0.0,0.0,0.00091,-0.513246,-0.002528,1.294497,-260.554173,1.431,70.026463
9.6963,0.002395,-0.003209,-0.002364,0.0,0.0,0.0,0.001091,-0.513122,-0.002258,1.294497,-260.554173,1.431,70.026463
9.7161,0.002575,-0.003157,-0.002774,0.0,0.0,0.0,0.00119,-0.513208,-0.002364,1.294497,-260.554173,1.431,70.026463
9.7361,0.002383,-0.002857,-0.003217,0.0,0.0,0.0,0.001163,-0.51316,-0.002736,1.294497,-260.554173,1.431,70.026463
9.756,0.002756,-0.002907,-0.002224,0.0,0.0,0.0,0.001163,-0.51316,-0.002736,1.294497,-260.554173,1.431,70.026463
9.7758,0.002249,-0.002916,-0.001919,0.0,0.0,0.0,0.001622,-0.512906,-0.002224,1.294497,-260.554173,1.431,70.026463
9.796,0.002115,-0.002664,-0.002667,0.0,0.0,0.0,0.001476,-0.51291,-0.002097,1.294497,-260.554173,1.431,70.026463
9.8159,0.00225,-0.002848,-0.003458,0.0,0.0,0.0,0.000755,-0.512663,-0.002667,1.294497,-260.554173,1.431,70.026463
9.8358,0.002541,-0.003258,-0.003706,0.0,0.0,0.0,0.000507,-0.512831,-0.003396,1.294497,-260.554173,1.431,70.026463
9.8559,0.00257,-0.002851,-0.004118,0.0,0.0,0.0,0.000507,-0.512831,-0.003396,1.294497,-260.554173,1.431,70.026463
9.8757,0.002363,-0.00296,-0.003077,0.0,0.0,0.0,0.000469,-0.512847,-0.004118,1.294497,-260.554173,1.431,70.026463
9.896,0.002446,-0.003286,-0.003208,0.0,0.0,0.0,0.000602,-0.512892,-0.003693,1.294497,-260.554173,1.431,70.026463
9.9155,0.002349,-0.002464,-0.003507,0.0,0.0,0.0,0.00081,-0.513284,-0.003208,1.294497,-260.554173,1.431,70.026463
9.9358,0.002472,-0.002776,-0.002692,0.0,0.0,0.0,0.000583,-0.512534,-0.00348,1.294497,-260.554173,1.431,70.026463
9.9562,0.002274,-0.003231,-0.002184,0.0,0.0,0.0,0.000583,-0.512534,-0.00348,1.294497,-260.554173,1.431,70.026463
9.9758,0.002541,-0.002605,-0.003685,0.0,0.0,0.0,0.001161,-0.51323,-0.002184,1.294497,-260.554173,1.431,70.026463
9.9961,0.002459,-0.003163,-0.003421,0.0,0.0,0.0,0.000958,-0.512974,-0.002794,1.294497,-260.554173,1.431,70.026463
10.0163,0.002629,-0.002771,-0.004164,0.0,0.0,0.0,0.000714,-0.51316,-0.003421,1.294497,-260.554173,1.431,70.026463
10.0362,0.002202,-0.00289,-0.002761,0.0,0.0,0.0,0.000524,-0.512802,-0.004097,1.294497,-260.554173,1.431,70.026463
10.0565,0.002393,-0.003099,-0.004881,0.0,0.0,0.0,0.000524,-0.512802,-0.004097,1.294497,-260.554173,1.431,70.026463
10.0761,0.002239,-0.002291,-0.003696,0.0,0.0,0.0,-9.6e-05,-0.513093,-0.004881,1.294497,-260.554173,1.431,70.026463
10.0963,0.002764,-0.003176,-0.002905,0.0,0.0,0.0,8.4e-05,-0.512772,-0.004408,1.294497,-260.554173,1.431,70.026463
10.1159,0.00233,-0.002984,-0.003051,0.0,0.0,0.0,0.001283,-0.513173,-0.002905,1.294497,-260.554173,1.431,70.026463
10.1359,0.002585,-0.003286,-0.003572,0.0,0.0,0.0,0.00082,-0.512999,-0.003038,1.294497,-260.554173,1.431,70.026463
10.1557,0.002446,-0.002785,-0.003216,0.0,0.0,0.0,0.00082,-0.512999,-0.003038,1.294497,-260.554173,1.431,70.026463
10.1758,0.002239,-0.003335,-0.004242,0.0,0.0,0.0,0.000805,-0.512782,-0.003216,1.294497,-260.554173,1.431,70.026463
10.1957,0.001915,-0.003046,-0.004446,0.0,0.0,0.0,0.000506,-0.513007,-0.003638,1.294497,-260.554173,1.431,70.026463
10.2158,0.002305,-0.003399,-0.003214,0.0,0.0,0.0,-0.000353,-0.513041,-0.004446,1.294497,-260.554173,1.431,70.026463
10.2356,0.002585,-0.003262,-0.003441,0.0,0.0,0.0,0.000575,-0.513365,-0.003324,1.294497,-260.554173,1.431,70.026463
10.2557,0.002473,-0.003254,-0.003883,0.0,0.0,0.0,0.000575,-0.513365,-0.003324,1.294497,-260.554173,1.431,70.026463
10.2758,0.00284,-0.00269,-0.00166,0.0,0.0,0.0,0.000493,-0.51325,-0.003883,1.294497,-260.554173,1.431,70.026463
10.2961,0.002337,-0.003124,-0.003221,0.0,0.0,0.0,0.001107,-0.51302,-0.002973,1.294497,-260.554173,1.431,70.026463
10.3161,0.002735,-0.002952,-0.003557,0.0,0.0,0.0,0.000694,-0.513121,-0.003221,1.294497,-260.554173,1.431,70.026463
10.3359,0.002201,-0.002774,-0.002827,0.0,0.0,0.0,0.000901,-0.512965,-0.003527,1.294497,-260.554173,1.431,70.026463
10.3557,0.00227,-0.002975,-0.0022,0.0,0.0,0.0,0.000901,-0.512965,-0.003527,1.294497,-260.554173,1.431,70.026463
10.3758,0.002212,-0.003109,-0.003327,0.0,0.0,0.0,0.001147,-0.512974,-0.0022,1.294497,-260.554173,1.431,70.026463
10.3959,0.00223,-0.003004,-0.003567,0.0,0.0,0.0,0.000889,-0.513028,-0.002661,1.294497,-260.554173,1.431,70.026463
10.4156,0.002466,-0.002814,-0.002961,0.0,0.0,0.0,0.000411,-0.513,-0.003567,1.294497,-260.554173,1.431,70.026463
10.4357,0.001847,-0.003075,-0.002916,0.0,0.0,0.0,0.000907,-0.512829,-0.003015,1.294497,-260.554173,1.431,70.026463
10.4557,0.002271,-0.003046,-0.003699,0.0,0.0,0.0,0.000907,-0.512829,-0.003015,1.294497,-260.554173,1.431,70.026463
10.4755,0.002271,-0.002824,-0.002165,0.0,0.0,0.0,0.000384,-0.513043,-0.003699,1.294497,-260.554173,1.431,70.026463
10.4955,0.002611,-0.002931,-0.002847,0.0,0.0,0.0,0.000708,-0.512952,-0.003065,1.294497,-260.554173,1.431,70.026463
10.5156,0.002214,-0.00304,-0.003656,0.0,0.0,0.0,0.00116,-0.512929,-0.002847,1.294497,-260.554173,1.431,70.026463
10.5361,0.002501,-0.002796,-0.003721,0.0,0.0,0.0,0.000412,-0.513028,-0.003594,1.294497,-260.554173,1.431,70.026463
10.5569,0.001928,-0.002706,-0.003495,0.0,0.0,0.0,0.000412,-0.513028,-0.003594,1.294497,-260.554173,1.431,70.026463
10.5756,0.002369,-0.002976,-0.003397,0.0,0.0,0.0,0.000145,-0.512703,-0.003495,1.294497,-260.554173,1.431,70.026463
10.5957,0.001942,-0.002949,-0.002525,0.0,0.0,0.0,0.000328,-0.512803,-0.003459,1.294497,-260.554173,1.431,70.026463
10.6155,0.002166,-0.002837,-0.002168,0.0,0.0,0.0,0.000655,-0.512948,-0.002525,1.294497,-260.554173,1.431,70.026463
10.6357,0.002157,-0.003048,-0.003068,0.0,0.0,0.0,0.001024,-0.512846,-0.0022,1.294497,-260.554173,1.431,70.026463
10.6556,0.002022,-0.003137,-0.002476,0.0,0.0,0.0,0.001024,-0.512846,-0.0022,1.294497,-260.554173,1.431,70.026463
10.6756,0.002212,-0.002781,-0.002574,0.0,0.0,0.0,0.000759,-0.513136,-0.002476,1.294497,-260.554173,1.431,70.026463
10.6956,0.002153,-0.002939,-0.004161,0.0,0.0,0.0,0.000817,-0.512988,-0.002517,1.294497,-260.554173,1.431,70.026463
10.7159,0.002327,-0.00271,-0.002964,0.0,0.0,0.0,3.1e-05,-0.512935,-0.004161,1.294497,-260.554173,1.431,70.026463
10.736,0.002362,-0.003224,-0.003986,0.0,0.0,0.0,0.000743,-0.512729,-0.003075,1.294497,-260.554173,1.431,70.026463
10.7562,0.002142,-0.003167,-0.003006,0.0,0.0,0.0,0.000743,-0.512729,-0.003075,1.294497,-260.554173,1.431,70.026463
10.7759,0.002621,-0.002915,-0.003544,0.0,0.0,0.0,0.000609,-0.513165,-0.003006,1.294497,-260.554173,1.431,70.026463
10.7961,0.00229,-0.003152,-0.003473,0.0,0.0,0.0,0.000691,-0.513062,-0.003223,1.294497,-260.554173,1.431,70.026463
10.8158,0.001901,-0.002669,-0.00358,0.0,0.0,0.0,0.000519,-0.513149,-0.003473,1.294497,-260.554173,1.431,70.026463
10.8356,0.002082,-0.003183,-0.002302,0.0,0.0,0.0,0.000115,-0.512709,-0.00357,1.294497,-260.554173,1.431,70.026463
10.8558,0.002046,-0.002847,-0.002558,0.0,0.0,0.0,0.000115,-0.512709,-0.00357,1.294497,-260.554173,1.431,70.026463
10.8757,0.002563,-0.002741,-0.003374,0.0,0.0,0.0,0.000741,-0.512845,-0.002558,1.294497,-260.554173,1.431,70.026463
10.8959,0.002464,-0.003147,-0.003187,0.0,0.0,0.0,0.000783,-0.512801,-0.002893,1.294497,-260.554173,1.431,70.026463
10.9164,0.00243,-0.002999,-0.004186,0.0,0.0,0.0,0.000838,-0.513144,-0.003187,1.294497,-260.554173,1.431,70.026463
10.9361,0.002049,-0.002914,-0.002456,0.0,0.0,0.0,0.000354,-0.51301,-0.004078,1.294497,-260.554173,1.431,70.026463
10.9562,0.002231,-0.003003,-0.004064,0.0,0.0,0.0,0.000354,-0.51301,-0.004078,1.294497,-260.554173,1.431,70.026463
10.9761,0.002507,-0.002779,-0.003629,0.0,0.0,0.0,0.000159,-0.512998,-0.004064,1.294497,-260.554173,1.431,70.026463
10.9958,0.002167,-0.002771,-0.00322,0.0,0.0,0.0,0.00036,-0.512908,-0.003888,1.294497,-260.554173,1.431,70.026463
11.0156,0.001995,-0.002729,-0.002908,0.0,0.0,0.0,0.000525,-0.512768,-0.00322,1.294497,-260.554173,1.431,70.026463
11.0356,0.002196,-0.002972,-0.003103,0.0,0.0,0.0,0.000513,-0.51273,-0.002937,1.294497,-260.554173,1.431,70.026463
11.0558,0.002066,-0.003164,-0.00285,0.0,0.0,0.0,0.000513,-0.51273,-0.002937,1.294497,-260.554173,1.431,70.026463
11.0758,0.002142,-0.002848,-0.004383,0.0,0.0,0.0,0.000612,-0.513162,-0.00285,1.294497,-260.554173,1.431,70.026463
11.0959,0.002275,-0.00297,-0.003643,0.0,0.0,0.0,0.000326,-0.513032,-0.003473,1.294497,-260.554173,1.431,70.026463
11.1155,0.002338,-0.003039,-0.003989,0.0,0.0,0.0,0.000417,-0.512967,-0.003643,1.294497,-260.554173,1.431,70.026463
11.1356,0.002433,-0.002975,-0.00406,0.0,0.0,0.0,0.000312,-0.51303,-0.003963,1.294497,-260.554173,1.431,70.026463
11.1556,0.002393,-0.002817,-0.003668,0.0,0.0,0.0,0.000312,-0.51303,-0.003963,1.294497,-260.554173,1.431,70.026463
11.1757,0.002147,-0.003171,-0.002754,0.0,0.0,0.0,0.000522,-0.512813,-0.003668,1.294497,-260.554173,1.431,70.026463
11.1959,0.001822,-0.003135,-0.004572,0.0,0.0,0.0,0.000613,-0.512959,-0.003293,1.294497,-260.554173,1.431,70.026463
11.2158,0.002408,-0.002837,-0.003784,0.0,0.0,0.0,-0.00051,-0.51313,-0.004572,1.294497,-260.554173,1.431,70.026463
11.2359,0.002297,-0.003184,-0.003924,0.0,0.0,0.0,0.00039,-0.512861,-0.003855,1.294497,-260.554173,1.431,70.026463
11.2558,0.002571,-0.003328,-0.002698,0.0,0.0,0.0,0.00039,-0.512861,-0.003855,1.294497,-260.554173,1.431,70.026463
11.2757,0.002364,-0.003409,-0.003708,0.0,0.0,0.0,0.001195,-0.513327,-0.002698,1.294497,-260.554173,1.431,70.026463
11.2959,0.002585,-0.003167,-0.003083,0.0,0.0,0.0,0.000895,-0.513359,-0.003117,1.294497,-260.554173,1.431,70.026463
11.3155,0.002293,-0.003,-0.001063,0.0,0.0,0.0,0.001013,-0.513164,-0.003083,1.294497,-260.554173,1.431,70.026463
11.3359,0.002414,-0.003433,-0.00312,0.0,0.0,0.0,0.001687,-0.513014,-0.001237,1.294497,-260.554173,1.431,70.026463
11.3558,0.002591,-0.003255,-0.002818,0.0,0.0,0.0,0.001687,-0.513014,-0.001237,1.294497,-260.554173,1.431,70.026463
11.3761,0.002029,-0.003123,-0.002817,0.0,0.0,0.0,0.001154,-0.513253,-0.002818,1.294497,-260.554173,1.431,70.026463
11.3962,0.00248,-0.003272,-0.002522,0.0,0.0,0.0,0.000924,-0.513199,-0.002818,1.294497,-260.554173,1.431,70.026463
11.4157,0.002343,-0.002842,-0.002205,0.0,0.0,0.0,0.001194,-0.51327,-0.002522,1.294497,-260.554173,1.431,70.026463
11.4363,0.002032,-0.003135,-0.003493,0.0,0.0,0.0,0.001216,-0.51288,-0.002233,1.294497,-260.554173,1.431,70.026463
11.4558,0.002352,-0.003452,-0.002405,0.0,0.0,0.0,0.001216,-0.51288,-0.002233,1.294497,-260.554173,1.431,70.026463
11.4761,0.002548,-0.002988,-0.003944,0.0,0.0,0.0,0.001126,-0.513451,-0.002405,1.294497,-260.554173,1.431,70.026463
11.4961,0.002403,-0.003253,-0.002959,0.0,0.0,0.0,0.000887,-0.513262,-0.003028,1.294497,-260.554173,1.431,70.026463
11.5155,0.001965,-0.002934,-0.003222,0.0,0.0,0.0,0.000894,-0.51325,-0.002959,1.294497,-260.554173,1.431,70.026463
11.5363,0.002408,-0.002931,-0.00331,0.0,0.0,0.0,0.000374,-0.51296,-0.003198,1.294497,-260.554173,1.431,70.026463
11.5559,0.002559,-0.002801,-0.002954,0.0,0.0,0.0,0.000374,-0.51296,-0.003198,1.294497,-260.554173,1.431,70.026463
11.576,0.002411,-0.003022,-0.004328,0.0,0.0,0.0,0.001052,-0.512798,-0.002954,1.294497,-260.554173,1.431,70.026463
11.5957,0.002502,-0.002939,-0.004284,0.0,0.0,0.0,0.000702,-0.512889,-0.00352,1.294497,-260.554173,1.431,70.026463
11.6155,0.002302,-0.002626,-0.004943,0.0,0.0,0.0,0.000317,-0.512935,-0.004284,1.294497,-260.554173,1.431,70.026463
11.636,0.002258,-0.002982,-0.003249,0.0,0.0,0.0,-0.000177,-0.512644,-0.004891,1.294497,-260.554173,1.431,70.026463
11.6559,0.002389,-0.002739,-0.004139,0.0,0.0,0.0,-0.000177,-0.512644,-0.004891,1.294497,-260.554173,1.431,70.026463
11.676,0.002052,-0.002771,-0.002531,0.0,0.0,0.0,0.000279,-0.512734,-0.004139,1.294497,-260.554173,1.431,70.026463
11.6958,0.002299,-0.003315,-0.005584,0.0,0.0,0.0,0.000474,-0.512749,-0.003489,1.294497,-260.554173,1.431,70.026463
11.7156,0.002191,-0.00241,-0.00267,0.0,0.0,0.0,-0.000549,-0.513307,-0.005584,1.294497,-260.554173,1.431,70.026463
11.7359,0.002414,-0.003167,-0.003298,0.0,0.0,0.0,0.000707,-0.512488,-0.002928,1.294497,-260.554173,1.431,70.026463
11.7562,0.002261,-0.002853,-0.004074,0.0,0.0,0.0,0.000707,-0.512488,-0.002928,1.294497,-260.554173,1.431,70.026463
11.7757,0.002052,-0.003218,-0.002728,0.0,0.0,0.0,0.000183,-0.512849,-0.004074,1.294497,-260.554173,1.431,70.026463
11.7958,0.002201,-0.002979,-0.004117,0.0,0.0,0.0,0.000377,-0.512997,-0.003529,1.294497,-260.554173,1.431,70.026463
11.8156,0.002282,-0.003114,-0.00365,0.0,0.0,0.0,0.000102,-0.512974,-0.004117,1.294497,-260.554173,1.431,70.026463
11.8357,0.002205,-0.002819,-0.004204,0.0,0.0,0.0,0.000393,-0.513099,-0.00369,1.294497,-260.554173,1.431,70.026463
11.8557,0.001832,-0.002766,-0.002755,0.0,0.0,0.0,0.000393,-0.513099,-0.00369,1.294497,-260.554173,1.431,70.026463
11.8758,0.002542,-0.00294,-0.003552,0.0,0.0,0.0,0.000427,-0.512764,-0.002755,1.294497,-260.554173,1.431,70.026463
11.8961,0.002057,-0.00263,-0.003674,0.0,0.0,0.0,0.00055,-0.512834,-0.003078,1.294497,-260.554173,1.431,70.026463
11.916,0.00241,-0.002645,-0.002379,0.0,0.0,0.0,0.000183,-0.512626,-0.003674,1.294497,-260.554173,1.431,70.026463
11.9359,0.001696,-0.003057,-0.002972,0.0,0.0,0.0,0.001105,-0.512642,-0.002496,1.294497,-260.554173,1.431,70.026463
11.9558,0.0023,-0.002999,-0.004371,0.0,0.0,0.0,0.001105,-0.512642,-0.002496,1.294497,-260.554173,1.431,70.026463
11.9761,0.00225,-0.002941,-0.002872,0.0,0.0,0.0,7e-05,-0.512994,-0.004371,1.294497,-260.554173,1.431,70.026463
11.996,0.002361,-0.002888,-0.003824,0.0,0.0,0.0,0.000362,-0.512972,-0.003761,1.294497,-260.554173,1.431,70.026463
12.0157,0.002265,-0.003487,-0.003602,0.0,0.0,0.0,0.000411,-0.512884,-0.003824,1.294497,-260.554173,1.431,70.026463
12.0359,0.002386,-0.002879,-0.004222,0.0,0.0,0.0,0.000426,-0.513433,-0.003621,1.294497,-260.554173,1.431,70.026463
12.0558,0.002441,-0.002989,-0.003831,0.0,0.0,0.0,0.000426,-0.513433,-0.003621,1.294497,-260.554173,1.431,70.026463
12.0758,0.002511,-0.002837,-0.004052,0.0,0.0,0.0,0.000487,-0.512986,-0.003831,1.294497,-260.554173,1.431,70.026463
12.0962,0.002229,-0.002887,-0.003218,0.0,0.0,0.0,0.00047,-0.512923,-0.003921,1.294497,-260.554173,1.431,70.026463
12.1155,0.002498,-0.002846,-0.003749,0.0,0.0,0.0,0.000588,-0.512885,-0.003218,1.294497,-260.554173,1.431,70.026463
12.1358,0.00253,-0.002805,-0.002814,0.0,0.0,0.0,0.000586,-0.512846,-0.003709,1.294497,-260.554173,1.431,70.026463
12.1563,0.001892,-0.003312,-0.002571,0.0,0.0,0.0,0.000586,-0.512846,-0.003709,1.294497,-260.554173,1.431,70.026463
12.176,0.002282,-0.003174,-0.00344,0.0,0.0,0.0,0.00058,-0.51331,-0.002571,1.294497,-260.554173,1.431,70.026463
12.1957,0.00218,-0.003114,-0.003355,0.0,0.0,0.0,0.000559,-0.513254,-0.002925,1.294497,-260.554173,1.431,70.026463
12.2158,0.002116,-0.002963,-0.002222,0.0,0.0,0.0,0.000468,-0.513111,-0.003355,1.294497,-260.554173,1.431,70.026463
12.2358,0.002262,-0.003009,-0.004071,0.0,0.0,0.0,0.000946,-0.512972,-0.002303,1.294497,-260.554173,1.431,70.026463
12.256,0.002151,-0.002834,-0.004221,0.0,0.0,0.0,0.000946,-0.512972,-0.002303,1.294497,-260.554173,1.431,70.026463
12.2757,0.002189,-0.002904,-0.003752,0.0,0.0,0.0,-1e-06,-0.51283,-0.004221,1.294497,-260.554173,1.431,70.026463
12.2959,0.002553,-0.003072,-0.002572,0.0,0.0,0.0,0.000112,-0.512859,-0.004029,1.294497,-260.554173,1.431,70.026463
12.3159,0.002218,-0.003026,-0.004871,0.0,0.0,0.0,0.001241,-0.51307,-0.002572,1.294497,-260.554173,1.431,70.026463
12.3358,0.002368,-0.003069,-0.00285,0.0,0.0,0.0,-0.000131,-0.513024,-0.004664,1.294497,-260.554173,1.431,70.026463
12.3558,0.002518,-0.003048,-0.003014,0.0,0.0,0.0,-0.000131,-0.513024,-0.004664,1.294497,-260.554173,1.431,70.026463
12.3762,0.002117,-0.002917,-0.002765,0.0,0.0,0.0,0.000981,-0.513046,-0.003014,1.294497,-260.554173,1.431,70.026463
12.396,0.002356,-0.003179,-0.003011,0.0,0.0,0.0,0.00087,-0.512993,-0.002913,1.294497,-260.554173,1.431,70.026463
12.4164,0.001668,-0.002967,-0.00442,0.0,0.0,0.0,0.00082,-0.513176,-0.003011,1.294497,-260.554173,1.431,70.026463
12.4359,0.002364,-0.003172,-0.002576,0.0,0.0,0.0,-0.00046,-0.512982,-0.004294,1.294497,-260.554173,1.431,70.026463
12.4559,0.002293,-0.002716,-0.003571,0.0,0.0,0.0,-0.00046,-0.512982,-0.004294,1.294497,-260.554173,1.431,70.026463
12.4761,0.001959,-0.003216,-0.003095,0.0,0.0,0.0,0.000472,-0.512712,-0.003571,1.294497,-260.554173,1.431,70.026463
12.496,0.002381,-0.002875,-0.00327,0.0,0.0,0.0,0.000435,-0.512916,-0.003377,1.294497,-260.554173,1.431,70.026463
12.5157,0.002308,-0.002893,-0.00338,0.0,0.0,0.0,0.000713,-0.512872,-0.00327,1.294497,-260.554173,1.431,70.026463
12.5357,0.002172,-0.002978,-0.006072,0.0,0.0,0.0,0.000595,-0.512889,-0.003371,1.294497,-260.554173,1.431,70.026463
12.5557,0.002485,-0.002975,-0.003374,0.0,0.0,0.0,0.000595,-0.512889,-0.003371,1.294497,-260.554173,1.431,70.026463
12.5759,0.002079,-0.00275,-0.002565,0.0,0.0,0.0,0.000764,-0.512972,-0.003374,1.294497,-260.554173,1.431,70.026463
12.5957,0.00215,-0.002862,-0.004188,0.0,0.0,0.0,0.000767,-0.512881,-0.003046,1.294497,-260.554173,1.431,70.026463
12.6158,0.002222,-0.002713,-0.004338,0.0,0.0,0.0,1.4e-05,-0.512857,-0.004188,1.294497,-260.554173,1.431,70.026463
12.6357,0.00231,-0.003282,-0.003145,0.0,0.0,0.0,1e-05,-0.512719,-0.004327,1.294497,-260.554173,1.431,70.026463
12.6558,0.002065,-0.002854,-0.003362,0.0,0.0,0.0,1e-05,-0.512719,-0.004327,1.294497,-260.554173,1.431,70.026463
12.6762,0.002139,-0.002739,-0.003508,0.0,0.0,0.0,0.00035,-0.512851,-0.003362,1.294497,-260.554173,1.431,70.026463
12.696,0.002493,-0.002882,-0.003126,0.0,0.0,0.0,0.00035,-0.512803,-0.003423,1.294497,-260.554173,1.431,70.026463
12.7161,0.002154,-0.003001,-0.003732,0.0,0.0,0.0,0.000899,-0.512879,-0.003126,1.294497,-260.554173,1.431,70.026463
12.7358,0.002312,-0.002887,-0.003572,0.0,0.0,0.0,0.000301,-0.512988,-0.003685,1.294497,-260.554173,1.431,70.026463
12.756,0.002113,-0.002874,-0.003639,0.0,0.0,0.0,0.000301,-0.512988,-0.003685,1.294497,-260.554173,1.431,70.026463
12.7759,0.001733,-0.003097,-0.001914,0.0,0.0,0.0,0.000257,-0.51287,-0.003639,1.294497,-260.554173,1.431,70.026463
12.7959,0.001968,-0.003094,-0.004922,0.0,0.0,0.0,0.000462,-0.512963,-0.002931,1.294497,-260.554173,1.431,70.026463
12.8158,0.002483,-0.003149,-0.004319,0.0,0.0,0.0,-0.000542,-0.513088,-0.004922,1.294497,-260.554173,1.431,70.026463
12.836,0.001878,-0.002987,-0.004076,0.0,0.0,0.0,0.000207,-0.513139,-0.004373,1.294497,-260.554173,1.431,70.026463
12.8559,0.002296,-0.002947,-0.005136,0.0,0.0,0.0,0.000207,-0.513139,-0.004373,1.294497,-260.554173,1.431,70.026463
12.8758,0.002434,-0.003086,-0.004486,0.0,0.0,0.0,-0.000324,-0.51294,-0.005136,1.294497,-260.554173,1.431,70.026463
12.8963,0.00247,-0.003604,-0.002954,0.0,0.0,0.0,-0.00013,-0.512998,-0.004868,1.294497,-260.554173,1.431,70.026463
12.9157,0.001866,-0.003106,-0.00239,0.0,0.0,0.0,0.000963,-0.513602,-0.002954,1.294497,-260.554173,1.431,70.026463
12.9358,0.002228,-0.002722,-0.004219,0.0,0.0,0.0,0.000671,-0.513141,-0.002432,1.294497,-260.554173,1.431,70.026463
12.9559,0.002575,-0.003044,-0.002978,0.0,0.0,0.0,0.000671,-0.513141,-0.002432,1.294497,-260.554173,1.431,70.026463
12.9758,0.002349,-0.003043,-0.005131,0.0,0.0,0.0,0.001056,-0.513042,-0.002978,1.294497,-260.554173,1.431,70.026463
12.9962,0.00271,-0.002717,-0.002247,0.0,0.0,0.0,0.000519,-0.513039,-0.003851,1.294497,-260.554173,1.431,70.026463
13.0157,0.002454,-0.003262,-0.004499,0.0,0.0,0.0,0.001564,-0.512715,-0.002247,1.294497,-260.554173,1.431,70.026463
13.0361,0.002438,-0.003171,-0.003288,0.0,0.0,0.0,0.000286,-0.513208,-0.004296,1.294497,-260.554173,1.431,70.026463
13.0558,0.002303,-0.002966,-0.003291,0.0,0.0,0.0,0.000286,-0.513208,-0.004296,1.294497,-260.554173,1.431,70.026463
13.0763,0.002391,-0.002942,-0.003155,0.0,0.0,0.0,0.000625,-0.512963,-0.003291,1.294497,-260.554173,1.431,70.026463
13.0962,0.002195,-0.002721,-0.00356,0.0,0.0,0.0,0.00069,-0.512953,-0.003235,1.294497,-260.554173,1.431,70.026463
13.1156,0.002135,-0.002892,-0.003532,0.0,0.0,0.0,0.000379,-0.512718,-0.00356,1.294497,-260.554173,1.431,70.026463
13.1361,0.002597,-0.002684,-0.003863,0.0,0.0,0.0,0.000336,-0.51288,-0.003534,1.294497,-260.554173,1.431,70.026463
13.156,0.00225,-0.002919,-0.003206,0.0,0.0,0.0,0.000336,-0.51288,-0.003534,1.294497,-260.554173,1.431,70.026463
13.1759,0.002047,-0.002983,-0.00243,0.0,0.0,0.0,0.000615,-0.512917,-0.003206,1.294497,-260.554173,1.431,70.026463
13.1963,0.001665,-0.002978,-0.00502,0.0,0.0,0.0,0.000694,-0.512943,-0.002889,1.294497,-260.554173,1.431,70.026463
13.2157,0.00253,-0.003259,-0.002323,0.0,0.0,0.0,-0.000895,-0.512971,-0.00502,1.294497,-260.554173,1.431,70.026463
13.2358,0.002582,-0.002902,-0.00351,0.0,0.0,0.0,0.001152,-0.513233,-0.002556,1.294497,-260.554173,1.431,70.026463
13.2557,0.002382,-0.002753,-0.004543,0.0,0.0,0.0,0.001152,-0.513233,-0.002556,1.294497,-260.554173,1.431,70.026463
13.2759,0.002091,-0.00301,-0.002617,0.0,0.0,0.0,6.5e-05,-0.512748,-0.004543,1.294497,-260.554173,1.431,70.026463
13.2958,0.002552,-0.00276,-0.002592,0.0,0.0,0.0,0.000347,-0.512854,-0.003758,1.294497,-260.554173,1.431,70.026463
13.316,0.002436,-0.003014,-0.003813,0.0,0.0,0.0,0.00123,-0.512759,-0.002592,1.294497,-260.554173,1.431,70.026463
13.336,0.002193,-0.002908,-0.003319,0.0,0.0,0.0,0.000557,-0.512988,-0.003704,1.294497,-260.554173,1.431,70.026463
13.3558,0.00228,-0.003122,-0.002771,0.0,0.0,0.0,0.000557,-0.512988,-0.003704,1.294497,-260.554173,1.431,70.026463
13.3759,0.002249,-0.003165,-0.003343,0.0,0.0,0.0,0.000866,-0.51312,-0.002771,1.294497,-260.554173,1.431,70.026463
13.3957,0.002242,-0.003178,-0.003155,0.0,0.0,0.0,0.000735,-0.513137,-0.003005,1.294497,-260.554173,1.431,70.026463
13.4159,0.002322,-0.002612,-0.003775,0.0,0.0,0.0,0.000633,-0.513175,-0.003155,1.294497,-260.554173,1.431,70.026463
13.436,0.002224,-0.003173,-0.003322,0.0,0.0,0.0,0.000418,-0.51266,-0.003718,1.294497,-260.554173,1.431,70.026463
13.4559,0.002108,-0.002736,-0.004677,0.0,0.0,0.0,0.000418,-0.51266,-0.003718,1.294497,-260.554173,1.431,70.026463
13.4762,0.00234,-0.003081,-0.002016,0.0,0.0,0.0,-0.000277,-0.512731,-0.004677,1.294497,-260.554173,1.431,70.026463
13.4957,0.002168,-0.002513,-0.003413,0.0,0.0,0.0,0.000372,-0.512873,-0.00359,1.294497,-260.554173,1.431,70.026463
13.516,0.002605,-0.003203,-0.003055,0.0,0.0,0.0,0.000428,-0.51251,-0.003413,1.294497,-260.554173,1.431,70.026463
13.5358,0.002376,-0.003396,-0.003794,0.0,0.0,0.0,0.000991,-0.513139,-0.003087,1.294497,-260.554173,1.431,70.026463
13.5559,0.002439,-0.00298,-0.003982,0.0,0.0,0.0,0.000991,-0.513139,-0.003087,1.294497,-260.554173,1.431,70.026463
13.5759,0.002589,-0.002981,-0.003153,0.0,0.0,0.0,0.000408,-0.512976,-0.003982,1.294497,-260.554173,1.431,70.026463
13.5963,0.002287,-0.00297,-0.003658,0.0,0.0,0.0,0.000643,-0.512977,-0.003642,1.294497,-260.554173,1.431,70.026463
13.6159,0.002408,-0.003049,-0.003191,0.0,0.0,0.0,0.000422,-0.512966,-0.003658,1.294497,-260.554173,1.431,70.026463
13.636,0.002406,-0.003151,-0.002909,0.0,0.0,0.0,0.000752,-0.51304,-0.003228,1.294497,-260.554173,1.431,70.026463
13.6563,0.002664,-0.003213,-0.002776,0.0,0.0,0.0,0.000752,-0.51304,-0.003228,1.294497,-260.554173,1.431,70.026463
13.676,0.002361,-0.002843,-0.004945,0.0,0.0,0.0,0.001249,-0.513211,-0.002776,1.294497,-260.554173,1.431,70.026463
13.696,0.002525,-0.002946,-0.003216,0.0,0.0,0.0,0.000681,-0.51306,-0.003649,1.294497,-260.554173,1.431,70.026463
13.7157,0.002123,-0.003125,-0.00433,0.0,0.0,0.0,0.000885,-0.512943,-0.003216,1.294497,-260.554173,1.431,70.026463
13.7361,0.001932,-0.002959,-0.003739,0.0,0.0,0.0,9e-06,-0.513103,-0.004222,1.294497,-260.554173,1.431,70.026463
13.7558,0.002046,-0.002512,-0.00422,0.0,0.0,0.0,9e-06,-0.513103,-0.004222,1.294497,-260.554173,1.431,70.026463
13.7763,0.002022,-0.003436,-0.003921,0.0,0.0,0.0,-0.000106,-0.512507,-0.00422,1.294497,-260.554173,1.431,70.026463
13.7956,0.002164,-0.002976,-0.003656,0.0,0.0,0.0,-5.4e-05,-0.512883,-0.004098,1.294497,-260.554173,1.431,70.026463
13.8155,0.002353,-0.003187,-0.002656,0.0,0.0,0.0,0.0003,-0.512973,-0.003656,1.294497,-260.554173,1.431,70.026463
13.8359,0.002548,-0.002636,-0.003355,0.0,0.0,0.0,0.000938,-0.513167,-0.002742,1.294497,-260.554173,1.431,70.026463
13.856,0.002377,-0.002525,-0.003473,0.0,0.0,0.0,0.000938,-0.513167,-0.002742,1.294497,-260.554173,1.431,70.026463
13.8763,0.002372,-0.002942,-0.002709,0.0,0.0,0.0,0.000606,-0.512522,-0.003473,1.294497,-260.554173,1.431,70.026463
13.8966,0.002313,-0.002956,-0.004919,0.0,0.0,0.0,0.000761,-0.512691,-0.003164,1.294497,-260.554173,1.431,70.026463
13.9157,0.002173,-0.002997,-0.003394,0.0,0.0,0.0,-0.000196,-0.51295,-0.004919,1.294497,-260.554173,1.431,70.026463
13.9358,0.00213,-0.002723,-0.004229,0.0,0.0,0.0,0.000385,-0.51299,-0.003532,1.294497,-260.554173,1.431,70.026463
13.9561,0.002266,-0.002764,-0.003837,0.0,0.0,0.0,0.000385,-0.51299,-0.003532,1.294497,-260.554173,1.431,70.026463
13.9762,0.001992,-0.002944,-0.003127,0.0,0.0,0.0,0.00031,-0.51276,-0.003837,1.294497,-260.554173,1.431,70.026463
13.9959,0.002382,-0.003122,-0.002548,0.0,0.0,0.0,0.000345,-0.512834,-0.003548,1.294497,-260.554173,1.431,70.026463
14.0159,0.002355,-0.003081,-0.002715,0.0,0.0,0.0,0.001083,-0.51312,-0.002548,1.294497,-260.554173,1.431,70.026463
14.0364,0.002298,-0.002886,-0.003531,0.0,0.0,0.0,0.000981,-0.513083,-0.0027,1.294497,-260.554173,1.431,70.026463
14.0562,0.002248,-0.002878,-0.002769,0.0,0.0,0.0,0.000981,-0.513083,-0.0027,1.294497,-260.554173,1.431,70.026463
14.0762,0.002384,-0.003229,-0.002439,0.0,0.0,0.0,0.000836,-0.512876,-0.002769,1.294497,-260.554173,1.431,70.026463
14.0963,0.002308,-0.003177,-0.004254,0.0,0.0,0.0,0.000959,-0.513019,-0.002635,1.294497,-260.554173,1.431,70.026463
14.1158,0.002808,-0.002742,-0.003598,0.0,0.0,0.0,0.000139,-0.513172,-0.004254,1.294497,-260.554173,1.431,70.026463
14.136,0.002397,-0.003225,-0.002757,0.0,0.0,0.0,0.000911,-0.512771,-0.003647,1.294497,-260.554173,1.431,70.026463
14.1564,0.002455,-0.00271,-0.005078,0.0,0.0,0.0,0.000911,-0.512771,-0.003647,1.294497,-260.554173,1.431,70.026463
14.1758,0.002678,-0.003059,-0.004639,0.0,0.0,0.0,-0.000135,-0.512704,-0.005078,1.294497,-260.554173,1.431,70.026463
14.1963,0.002266,-0.002953,-0.003362,0.0,0.0,0.0,5.3e-05,-0.51285,-0.004894,1.294497,-260.554173,1.431,70.026463
14.2155,0.002671,-0.00284,-0.002904,0.0,0.0,0.0,0.000551,-0.51295,-0.003362,1.294497,-260.554173,1.431,70.026463
14.2364,0.002269,-0.002987,-0.002894,0.0,0.0,0.0,0.001143,-0.512846,-0.002938,1.294497,-260.554173,1.431,70.026463
14.2561,0.002395,-0.002863,-0.001392,0.0,0.0,0.0,0.001143,-0.512846,-0.002938,1.294497,-260.554173,1.431,70.026463
14.2761,0.002307,-0.003347,-0.003464,0.0,0.0,0.0,0.001685,-0.512863,-0.001392,1.294497,-260.554173,1.431,70.026463
14.2961,0.002115,-0.002985,-0.003202,0.0,0.0,0.0,0.001214,-0.513061,-0.002245,1.294497,-260.554173,1.431,70.026463
14.3156,0.002137,-0.002863,-0.005807,0.0,0.0,0.0,0.000482,-0.512982,-0.003202,1.294497,-260.554173,1.431,70.026463
14.3358,0.002076,-0.002727,-0.002456,0.0,0.0,0.0,-0.000706,-0.512866,-0.005569,1.294497,-260.554173,1.431,70.026463
14.3558,0.002352,-0.002977,-0.002347,0.0,0.0,0.0,-0.000706,-0.512866,-0.005569,1.294497,-260.554173,1.431,70.026463
14.3759,0.002214,-0.002921,-0.004582,0.0,0.0,0.0,0.001156,-0.512976,-0.002347,1.294497,-260.554173,1.431,70.026463
14.3962,0.002361,-0.002937,-0.002691,0.0,0.0,0.0,0.000638,-0.512952,-0.003252,1.294497,-260.554173,1.431,70.026463
