mach0312/omni-docking-bench/src/icros_test_setup/results/MPPI_sample/timeseries/trial_105.csv
t,x,y,yaw,vx,vy,wz,bl_x,bl_y,bl_yaw,front_steering_joint,front_wheel_joint,rear_steering_joint,rear_wheel_joint
0.0,0.017196,0.01988,-0.070123,-0.007559,0.000259,-0.002046,-0.017277,-0.489214,-0.069031,0.130371,-263.309726,-0.196955,68.865036
0.0004,0.017386,0.020071,-0.068536,-0.007111,0.000243,-0.001925,-0.017537,-0.489182,-0.070336,0.130371,-263.313391,-0.196955,68.86133
0.0008,0.016907,0.019701,-0.068959,-0.006614,0.000226,-0.00179,-0.017537,-0.489182,-0.070336,0.130371,-263.31687,-0.196955,68.857813
0.0012,0.017125,0.019996,-0.068867,-0.006071,0.000208,-0.001643,-0.017537,-0.489182,-0.070336,0.130371,-263.319923,-0.196955,68.854726
0.0015,0.016563,0.019803,-0.068528,-0.00548,0.000187,-0.001483,-0.017537,-0.489182,-0.070336,0.130371,-263.322587,-0.196955,68.852033
0.0018,0.016845,0.01999,-0.069487,-0.004841,0.000166,-0.00131,-0.017319,-0.488977,-0.068484,0.130371,-263.32454,-0.196955,68.850058
0.0021,0.016648,0.019795,-0.06693,-0.004154,0.000142,-0.001125,-0.017373,-0.489088,-0.068508,0.130371,-263.32454,-0.196955,68.850058
0.0023,0.016055,0.019747,-0.068333,-0.00342,0.000117,-0.000926,-0.017373,-0.489088,-0.068508,0.130371,-263.32454,-0.196955,68.850058
0.0026,0.01622,0.019715,-0.070676,-0.002637,9e-05,-0.000714,-0.017177,-0.489274,-0.068382,0.130371,-263.32454,-0.196955,68.850058
0.0155,0.016745,0.019784,-0.068423,0.0,0.0,0.0,-0.019904,-0.489,-0.070706,0.130371,-263.32592,-0.196955,68.848663
0.0354,0.016347,0.019279,-0.069743,0.0,0.0,0.0,-0.01829,-0.48902,-0.068631,0.130371,-263.32592,-0.196955,68.848663
0.0552,0.01631,0.019396,-0.069434,0.0,0.0,0.0,-0.01829,-0.48902,-0.068631,0.130371,-263.32592,-0.196955,68.848663
0.0752,0.016647,0.019411,-0.069898,0.0,0.0,0.0,-0.019073,-0.489375,-0.069434,0.130371,-263.32592,-0.196955,68.848663
0.0959,0.016202,0.019726,-0.068291,0.0,0.0,0.0,-0.019032,-0.489362,-0.069621,0.130371,-263.32592,-0.196955,68.848663
0.1153,0.016428,0.01996,-0.069162,0.002241,-0.003001,0.008654,-0.018599,-0.489085,-0.068291,0.130371,-263.32592,-0.196955,68.848663
0.1355,0.016774,0.019784,-0.069267,0.002457,-0.003299,0.009219,-0.018795,-0.488847,-0.069076,0.130371,-263.32592,-0.196955,68.848663
0.1552,0.01644,0.01992,-0.07132,0.002647,-0.003558,0.009649,-0.018795,-0.488847,-0.069076,0.130371,-263.32592,-0.196955,68.848663
0.1755,0.016343,0.019937,-0.068911,0.002813,-0.003784,0.009973,-0.019902,-0.488784,-0.07132,0.205271,-263.32592,-0.271855,68.848663
0.1954,0.01627,0.019628,-0.068962,0.002971,-0.00397,0.01023,-0.01943,-0.488812,-0.070313,0.205271,-263.32592,-0.271855,68.848663
0.2154,0.016211,0.019495,-0.067993,0.003108,-0.004131,0.010422,-0.018873,-0.48916,-0.068962,0.280673,-263.32592,-0.347257,68.848663
0.2355,0.016534,0.020178,-0.071634,0.003217,-0.004284,0.01058,-0.018476,-0.489312,-0.068077,0.280673,-263.32592,-0.347257,68.848663
0.2555,0.016465,0.019735,-0.067753,0.003312,-0.004417,0.010696,-0.018476,-0.489312,-0.068077,0.280673,-263.32592,-0.347257,68.848663
0.2753,0.016731,0.019647,-0.068413,0.003396,-0.004534,0.010779,-0.018062,-0.489095,-0.067753,0.355371,-263.32592,-0.421955,68.848663
0.2955,0.016285,0.019806,-0.069578,0.003457,-0.004646,0.010904,-0.018091,-0.489121,-0.068021,0.355371,-263.32592,-0.421955,68.848663
0.3155,0.016482,0.019802,-0.071311,0.003511,-0.004744,0.010998,-0.019171,-0.48896,-0.069578,0.430387,-263.32592,-0.496971,68.848663
0.3354,0.016424,0.019876,-0.06817,0.003588,-0.004802,0.011065,-0.019792,-0.488907,-0.071151,0.430387,-263.32592,-0.496971,68.848663
0.355,0.016494,0.019664,-0.069062,0.003655,-0.004852,0.011115,-0.019792,-0.488907,-0.071151,0.430387,-263.32592,-0.496971,68.848663
0.3752,0.01656,0.019623,-0.069911,0.003713,-0.004897,0.011151,-0.018699,-0.48912,-0.069062,0.505289,-263.32592,-0.571873,68.848664
0.3952,0.0164,0.019935,-0.068633,0.003749,-0.004952,0.011179,-0.01885,-0.489125,-0.069411,0.505289,-263.32592,-0.571873,68.848664
0.4153,0.016339,0.019713,-0.068292,0.003781,-0.004999,0.011198,-0.018575,-0.488864,-0.068632,0.475799,-263.325919,-0.646949,68.848665
0.4352,0.016019,0.019852,-0.069478,0.003799,-0.005051,0.011211,-0.018473,-0.489078,-0.068322,0.475799,-263.325919,-0.646949,68.848665
0.4556,0.016759,0.019959,-0.06927,0.003815,-0.005095,0.01122,-0.018473,-0.489078,-0.068322,0.475799,-263.325919,-0.646949,68.848665
0.4752,0.015992,0.020066,-0.070072,0.00383,-0.005135,0.011225,-0.01854,-0.488818,-0.069269,0.452842,-263.325916,-0.721971,68.848673
0.4954,0.016377,0.020027,-0.070447,0.003849,-0.005163,0.011228,-0.019028,-0.488762,-0.069602,0.452842,-263.325916,-0.721971,68.848673
0.516,0.016234,0.020097,-0.067239,0.003866,-0.005188,0.011228,-0.01952,-0.488709,-0.070445,0.422417,-263.325904,-0.797025,68.848711
0.5353,0.016434,0.019438,-0.067805,0.003864,-0.005226,0.011229,-0.018211,-0.488745,-0.067623,0.422417,-263.325904,-0.797025,68.848711
0.5551,0.016314,0.019531,-0.06985,0.003863,-0.005259,0.011228,-0.018211,-0.488745,-0.067623,0.422417,-263.325904,-0.797025,68.848711
0.5751,0.016563,0.019738,-0.068881,0.003862,-0.005287,0.011227,-0.019274,-0.48923,-0.069839,0.407703,-263.325856,-0.871953,68.848854
0.5952,0.016487,0.019544,-0.067485,0.003885,-0.005291,0.011223,-0.018965,-0.489156,-0.069437,0.407703,-263.325856,-0.871953,68.848854
0.6151,0.016287,0.019684,-0.069188,0.003904,-0.005294,0.01122,-0.017891,-0.489307,-0.06746,0.386008,-263.325722,-0.94717,68.849264
0.6357,0.016505,0.019635,-0.069487,0.003918,-0.0053,0.011217,-0.018877,-0.489115,-0.069037,0.386008,-263.325722,-0.94717,68.849264
0.6555,0.016107,0.01986,-0.069537,0.00393,-0.005305,0.011215,-0.018877,-0.489115,-0.069037,0.386008,-263.325722,-0.94717,68.849264
0.6753,0.016282,0.019794,-0.069369,0.003941,-0.00531,0.011213,-0.019286,-0.48895,-0.069449,0.379826,-263.32538,-1.021956,68.850303
0.6957,0.01641,0.019999,-0.070526,0.003953,-0.005311,0.01121,-0.019193,-0.488967,-0.069407,0.379826,-263.32538,-1.021956,68.850303
0.7153,0.016212,0.019856,-0.071172,0.003964,-0.005312,0.011208,-0.01947,-0.488802,-0.070389,0.37217,-263.324689,-1.096951,68.85239
0.7351,0.01619,0.019621,-0.06969,0.003987,-0.005299,0.011206,-0.020002,-0.488852,-0.071097,0.37217,-263.324689,-1.096951,68.85239
0.7555,0.016197,0.019948,-0.069677,0.004006,-0.005289,0.011204,-0.020002,-0.488852,-0.071097,0.37217,-263.324689,-1.096951,68.85239
0.7751,0.016097,0.019171,-0.068176,0.004023,-0.00528,0.011202,-0.019195,-0.488966,-0.069373,0.369236,-263.323554,-1.171966,68.855804
0.7954,0.016148,0.019293,-0.068237,0.004023,-0.005286,0.011289,-0.018957,-0.489261,-0.068847,0.369236,-263.323554,-1.171966,68.855804
0.815,0.016571,0.019317,-0.068758,0.004024,-0.005291,0.011357,-0.01852,-0.48968,-0.067914,0.370402,-263.321991,-1.246985,68.860431
0.8355,0.016622,0.01921,-0.068195,0.004019,-0.0053,0.011465,-0.018467,-0.489504,-0.068668,0.370402,-263.321991,-1.246985,68.860431
0.8557,0.015925,0.019328,-0.067835,0.004016,-0.005307,0.011551,-0.018467,-0.489504,-0.068668,0.370402,-263.321991,-1.246985,68.860431
0.8754,0.016307,0.01861,-0.066019,0.004013,-0.005313,0.01162,-0.018491,-0.489731,-0.067359,0.388247,-263.320262,-1.252888,68.865551
0.8953,0.01618,0.019037,-0.067817,0.004009,-0.00532,0.011728,-0.018015,-0.489975,-0.066772,0.388247,-263.320262,-1.252888,68.865551
0.9152,0.015748,0.018787,-0.065971,0.004005,-0.005326,0.011815,-0.018266,-0.489965,-0.067453,0.418205,-263.318533,-1.258069,68.870685
0.9353,0.015588,0.0185,-0.06658,0.004003,-0.005331,0.011932,-0.017903,-0.4901,-0.066087,0.418205,-263.318533,-1.258069,68.870685
0.9556,0.016232,0.018728,-0.069232,0.004,-0.005335,0.012027,-0.017903,-0.4901,-0.066087,0.418205,-263.318533,-1.258069,68.870685
0.9754,0.016079,0.017931,-0.064527,0.003998,-0.005339,0.012104,-0.018897,-0.490284,-0.068739,0.440889,-263.316774,-1.261669,68.875916
0.9955,0.01583,0.018376,-0.065788,0.004009,-0.005329,0.012208,-0.018033,-0.490603,-0.066977,0.440889,-263.316774,-1.261669,68.875916
1.0154,0.015823,0.018183,-0.065401,0.004019,-0.005321,0.012293,-0.017584,-0.490696,-0.06541,0.474508,-263.315004,-1.266494,68.881169
1.0355,0.01553,0.018093,-0.06515,0.004017,-0.005323,0.012402,-0.017509,-0.490732,-0.065384,0.474508,-263.315004,-1.266494,68.881169
1.0554,0.015438,0.018382,-0.063859,0.004017,-0.005325,0.012492,-0.017509,-0.490732,-0.065384,0.474508,-263.315004,-1.266494,68.881169
1.0753,0.015856,0.017906,-0.065869,0.004016,-0.005326,0.012564,-0.016957,-0.490809,-0.063352,0.498294,-263.31319,-1.267228,68.886498
1.0955,0.015765,0.018204,-0.063967,0.004013,-0.00533,0.012664,-0.017255,-0.490911,-0.064345,0.498294,-263.31319,-1.267228,68.886498
1.1152,0.015561,0.017752,-0.064169,0.00401,-0.005333,0.012745,-0.016722,-0.490926,-0.063575,0.528992,-263.311366,-1.271186,68.891835
1.1354,0.015258,0.017419,-0.064558,0.00401,-0.005333,0.012849,-0.017099,-0.491183,-0.064095,0.528992,-263.311366,-1.271186,68.891835
1.1557,0.015432,0.018048,-0.063988,0.00401,-0.005333,0.012935,-0.017099,-0.491183,-0.064095,0.528992,-263.311366,-1.271186,68.891835
1.1753,0.0155,0.017377,-0.063205,0.00401,-0.005334,0.013004,-0.017025,-0.491144,-0.06345,0.54862,-263.309498,-1.274079,68.897286
1.1958,0.015021,0.017329,-0.064892,0.004008,-0.005336,0.013095,-0.016889,-0.491346,-0.063298,0.54862,-263.309498,-1.274079,68.897286
1.2153,0.015532,0.017113,-0.062796,0.004007,-0.005337,0.013169,-0.017936,-0.491773,-0.064482,0.576719,-263.307609,-1.277465,68.902763
1.2354,0.015175,0.016808,-0.062305,0.00401,-0.005334,0.013258,-0.016602,-0.491881,-0.06293,0.576719,-263.307609,-1.277465,68.902763
1.2555,0.015316,0.016807,-0.063616,0.004013,-0.005331,0.01333,-0.016602,-0.491881,-0.06293,0.576719,-263.307609,-1.277465,68.902763
1.2753,0.015223,0.016774,-0.061089,0.004015,-0.005329,0.013389,-0.016954,-0.492394,-0.063067,0.594009,-263.305684,-1.27984,68.908323
1.2953,0.015161,0.016757,-0.061928,0.004025,-0.005319,0.013457,-0.016512,-0.492372,-0.062198,0.594009,-263.305684,-1.27984,68.908323
1.3156,0.014657,0.01676,-0.062926,0.004033,-0.005311,0.013512,-0.016286,-0.492441,-0.061505,0.617039,-263.303729,-1.281837,68.913919
1.3352,0.015168,0.01698,-0.06028,0.004055,-0.005289,0.013567,-0.017311,-0.492258,-0.062782,0.617039,-263.303729,-1.281837,68.913919
1.3562,0.015207,0.01656,-0.060425,0.004073,-0.005271,0.013612,-0.017311,-0.492258,-0.062782,0.617039,-263.303729,-1.281837,68.913919
1.3751,0.014566,0.016221,-0.060813,0.004089,-0.005255,0.013649,-0.015434,-0.492744,-0.059851,0.630117,-263.301731,-1.281769,68.919583
1.395,0.014635,0.016489,-0.061222,0.004079,-0.005264,0.013689,-0.015811,-0.492806,-0.06017,0.630117,-263.301731,-1.281769,68.919583
1.4149,0.014526,0.016211,-0.060559,0.004071,-0.005272,0.013721,-0.016451,-0.492728,-0.060793,0.645797,-263.299701,-1.27858,68.92521
1.4354,0.014658,0.015727,-0.061177,0.004077,-0.005266,0.013753,-0.016344,-0.492852,-0.060558,0.645797,-263.299701,-1.27858,68.92521
1.4551,0.014693,0.016112,-0.059882,0.004083,-0.005261,0.013779,-0.016344,-0.492852,-0.060558,0.645797,-263.299701,-1.27858,68.92521
1.4754,0.014326,0.015885,-0.059446,0.004087,-0.005256,0.013801,-0.015672,-0.493204,-0.059309,0.652011,-263.297654,-1.281018,68.930904
1.4952,0.014344,0.015553,-0.059278,0.004086,-0.005257,0.013825,-0.015777,-0.493234,-0.059299,0.652011,-263.297654,-1.281018,68.930904
1.5152,0.013825,0.015512,-0.059853,0.004085,-0.005259,0.013845,-0.015749,-0.493727,-0.058837,0.660093,-263.295587,-1.280564,68.936611
1.5354,0.014174,0.015552,-0.059273,0.00411,-0.005233,0.013866,-0.016591,-0.493598,-0.059739,0.660093,-263.295587,-1.280564,68.936611
1.5553,0.013706,0.015715,-0.060125,0.00413,-0.005211,0.013884,-0.016591,-0.493598,-0.059739,0.660093,-263.295587,-1.280564,68.936611
1.5753,0.01419,0.015508,-0.058363,0.004148,-0.005192,0.013898,-0.016782,-0.493594,-0.059546,0.664196,-263.29351,-1.281336,68.94234
1.5951,0.013656,0.015593,-0.057774,0.004156,-0.005184,0.013917,-0.016262,-0.493632,-0.058994,0.664196,-263.29351,-1.281336,68.94234
1.615,0.013782,0.014998,-0.05759,0.004163,-0.005176,0.013932,-0.01567,-0.493728,-0.057333,0.671473,-263.291396,-1.2764,68.948044
1.6352,0.014108,0.015046,-0.057864,0.004163,-0.005175,0.01395,-0.015575,-0.494127,-0.057544,0.671473,-263.291396,-1.2764,68.948044
1.6553,0.013999,0.015163,-0.056933,0.004164,-0.005175,0.013965,-0.015575,-0.494127,-0.057544,0.671473,-263.291396,-1.2764,68.948044
1.675,0.013559,0.014533,-0.05777,0.004164,-0.005174,0.013977,-0.014859,-0.494237,-0.056348,0.675109,-263.28926,-1.275514,68.953775
1.6956,0.013599,0.014827,-0.056089,0.004163,-0.005174,0.013991,-0.015262,-0.494418,-0.056864,0.675109,-263.28926,-1.275514,68.953775
1.7154,0.013399,0.014796,-0.056643,0.004163,-0.005174,0.014002,-0.014869,-0.494543,-0.055644,0.679307,-263.28712,-1.27593,68.959503
1.7357,0.013683,0.014522,-0.056765,0.004165,-0.005171,0.014015,-0.015414,-0.494408,-0.056534,0.679307,-263.28712,-1.27593,68.959503
1.7554,0.013515,0.01457,-0.055506,0.004168,-0.005169,0.014026,-0.015414,-0.494408,-0.056534,0.679307,-263.28712,-1.27593,68.959503
1.7757,0.013456,0.014222,-0.055447,0.004169,-0.005167,0.014035,-0.014616,-0.494871,-0.05492,0.681644,-263.284976,-1.276335,68.965238
1.7954,0.013759,0.014066,-0.056449,0.004165,-0.00517,0.014045,-0.014676,-0.494947,-0.055068,0.681644,-263.284976,-1.276335,68.965238
1.8157,0.013485,0.013857,-0.055264,0.004162,-0.005174,0.014054,-0.014892,-0.495292,-0.056004,0.684827,-263.282822,-1.276139,68.970983
1.8355,0.013308,0.014431,-0.055204,0.00417,-0.005165,0.014062,-0.014697,-0.495367,-0.055306,0.684827,-263.282822,-1.276139,68.970983
1.8554,0.013397,0.01421,-0.054581,0.004176,-0.005158,0.014069,-0.014697,-0.495367,-0.055306,0.684827,-263.282822,-1.276139,68.970983
1.8751,0.013103,0.013744,-0.055462,0.004182,-0.005151,0.014075,-0.014263,-0.495256,-0.053993,0.686366,-263.280672,-1.277036,68.976729
1.8953,0.012884,0.013963,-0.054257,0.004184,-0.005149,0.014082,-0.014615,-0.49537,-0.054526,0.686366,-263.280672,-1.277036,68.976729
1.9151,0.012991,0.014037,-0.054004,0.004186,-0.005146,0.014088,-0.01465,-0.495457,-0.05381,0.689061,-263.278507,-1.275487,68.982469
1.9354,0.013043,0.013869,-0.053031,0.004182,-0.00515,0.014095,-0.014541,-0.495249,-0.053964,0.689061,-263.278507,-1.275487,68.982469
1.9554,0.012903,0.013682,-0.05441,0.004179,-0.005153,0.0141,-0.014541,-0.495249,-0.053964,0.689061,-263.278507,-1.275487,68.982469
1.9758,0.01298,0.013475,-0.053549,0.004177,-0.005155,0.014104,-0.014669,-0.495788,-0.053821,0.690418,-263.276336,-1.275278,68.988218
1.9955,0.012647,0.013424,-0.05299,0.004188,-0.005143,0.014108,-0.014507,-0.495816,-0.053642,0.690418,-263.276336,-1.275278,68.988218
2.0149,0.012341,0.013294,-0.052336,0.004197,-0.005133,0.014111,-0.014241,-0.496032,-0.05254,0.691704,-263.274166,-1.276287,68.993974
2.0352,0.012531,0.013367,-0.051416,0.004204,-0.005125,0.014115,-0.014323,-0.496018,-0.052331,0.691704,-263.274166,-1.276287,68.993974
2.0555,0.012454,0.013164,-0.053688,0.004211,-0.005118,0.014118,-0.014323,-0.496018,-0.052331,0.691704,-263.274166,-1.276287,68.993974
2.075,0.012403,0.012966,-0.052657,0.004216,-0.005112,0.014121,-0.01475,-0.496325,-0.053097,0.693051,-263.271982,-1.274576,68.999732
2.0954,0.012201,0.012643,-0.053593,0.004236,-0.005089,0.014123,-0.014605,-0.496352,-0.052849,0.693051,-263.271982,-1.274576,68.999732
2.1153,0.012,0.012594,-0.050096,0.004252,-0.00507,0.014125,-0.014993,-0.496795,-0.053144,0.694705,-263.269786,-1.273017,69.00548
2.135,0.012069,0.012762,-0.049776,0.004252,-0.005069,0.014129,-0.013658,-0.496777,-0.050337,0.694705,-263.269786,-1.273017,69.00548
2.1555,0.012033,0.012697,-0.05161,0.004253,-0.005068,0.014132,-0.013658,-0.496777,-0.050337,0.694705,-263.269786,-1.273017,69.00548
2.1749,0.01207,0.012276,-0.050739,0.004253,-0.005068,0.014134,-0.01411,-0.496845,-0.05102,0.696539,-263.267569,-1.269781,69.011217
2.1952,0.012081,0.012353,-0.051094,0.004266,-0.005052,0.014136,-0.013961,-0.496962,-0.050836,0.696539,-263.267569,-1.269781,69.011217
2.2151,0.011642,0.011876,-0.04971,0.004277,-0.00504,0.014138,-0.013839,-0.497149,-0.050646,0.697658,-263.265349,-1.269812,69.016954
2.2353,0.012082,0.012291,-0.049876,0.004293,-0.005021,0.014139,-0.013705,-0.497472,-0.04977,0.697658,-263.265349,-1.269812,69.016954
2.2551,0.011885,0.012314,-0.048689,0.004306,-0.005005,0.01414,-0.013705,-0.497472,-0.04977,0.697658,-263.265349,-1.269812,69.016954
2.2755,0.012019,0.011713,-0.048583,0.004317,-0.004991,0.014142,-0.012768,-0.4973,-0.048099,0.698989,-263.263115,-1.267669,69.022683
2.2952,0.011927,0.012004,-0.047833,0.0043,-0.005009,0.014145,-0.012741,-0.497484,-0.04823,0.698989,-263.263115,-1.267669,69.022683
2.3156,0.011525,0.011586,-0.048111,0.004286,-0.005023,0.014148,-0.012329,-0.497577,-0.047384,0.701296,-263.260855,-1.264,69.028401
2.3351,0.011592,0.011909,-0.04729,0.004289,-0.005019,0.014149,-0.012938,-0.497811,-0.048027,0.701296,-263.260855,-1.264,69.028401
2.3553,0.01167,0.011463,-0.046326,0.004291,-0.005015,0.01415,-0.012938,-0.497811,-0.048027,0.701296,-263.260855,-1.264,69.028401
2.3749,0.011539,0.011111,-0.0467,0.004294,-0.005012,0.014151,-0.011779,-0.498207,-0.045736,0.701088,-263.258615,-1.266863,69.034119
2.3951,0.011444,0.01156,-0.047837,0.00428,-0.005026,0.014152,-0.01196,-0.498284,-0.046062,0.701088,-263.258615,-1.266863,69.034119
2.4157,0.011306,0.011226,-0.0471,0.004269,-0.005037,0.014154,-0.012815,-0.498022,-0.047387,0.701861,-263.256361,-1.266151,69.039858
2.4355,0.011033,0.010905,-0.047605,0.00428,-0.005025,0.014153,-0.012709,-0.498201,-0.047102,0.701861,-263.256361,-1.266151,69.039858
2.4553,0.011274,0.011312,-0.045686,0.004288,-0.005014,0.014153,-0.012709,-0.498201,-0.047102,0.701861,-263.256361,-1.266151,69.039858
2.4756,0.011338,0.010917,-0.046194,0.004296,-0.005006,0.014153,-0.011849,-0.498375,-0.045094,0.701622,-263.254131,-1.268339,69.045577
2.4959,0.011492,0.010712,-0.045691,0.004288,-0.005014,0.014155,-0.011974,-0.498465,-0.045464,0.701622,-263.254131,-1.268339,69.045577
2.5151,0.01115,0.01069,-0.045528,0.004281,-0.00502,0.014156,-0.011672,-0.498922,-0.045239,0.702732,-263.25188,-1.265906,69.0513
2.5352,0.011247,0.011103,-0.045222,0.004287,-0.005012,0.014155,-0.012019,-0.498803,-0.045478,0.702732,-263.25188,-1.265906,69.0513
2.5552,0.01063,0.01062,-0.045823,0.004293,-0.005005,0.014155,-0.012019,-0.498803,-0.045478,0.702732,-263.25188,-1.265906,69.0513
2.5756,0.010828,0.010231,-0.044299,0.004297,-0.005,0.014155,-0.012562,-0.499063,-0.045231,0.702642,-263.249636,-1.267233,69.057028
2.5951,0.011103,0.010578,-0.044738,0.004318,-0.004975,0.014154,-0.012215,-0.499172,-0.044783,0.702642,-263.249636,-1.267233,69.057028
2.615,0.010428,0.010242,-0.044472,0.004335,-0.004954,0.014154,-0.011576,-0.499077,-0.044286,0.703521,-263.247378,-1.265684,69.06276
2.6354,0.010816,0.010264,-0.044597,0.004351,-0.004935,0.014154,-0.012182,-0.499247,-0.044434,0.703521,-263.247378,-1.265684,69.06276
2.655,0.010565,0.009931,-0.04388,0.004364,-0.00492,0.014154,-0.012182,-0.499247,-0.044434,0.703521,-263.247378,-1.265684,69.06276
2.6751,0.010051,0.009863,-0.044155,0.004374,-0.004906,0.014155,-0.011634,-0.499793,-0.043288,0.705172,-263.245105,-1.262171,69.068458
2.6953,0.010811,0.009954,-0.043881,0.004393,-0.004883,0.014155,-0.01195,-0.499756,-0.043572,0.705172,-263.245105,-1.262171,69.068458
2.715,0.010543,0.010012,-0.041293,0.004408,-0.004863,0.014155,-0.011429,-0.499717,-0.04343,0.707234,-263.242799,-1.258555,69.074163
2.7351,0.010218,0.009508,-0.0416,0.004369,-0.004904,0.014159,-0.010582,-0.499575,-0.041452,0.707234,-263.242799,-1.258555,69.074163
2.7552,0.010252,0.009891,-0.042508,0.004337,-0.004937,0.014161,-0.010582,-0.499575,-0.041452,0.707234,-263.242799,-1.258555,69.074163
2.7751,0.010148,0.00934,-0.042644,0.00431,-0.004966,0.014162,-0.011245,-0.499859,-0.041917,0.709148,-263.240481,-1.255349,69.079835
2.7951,0.010455,0.009763,-0.042433,0.004331,-0.004942,0.01416,-0.011366,-0.50002,-0.042143,0.709148,-263.240481,-1.255349,69.079835
2.8151,0.01005,0.009465,-0.040455,0.004348,-0.004922,0.014158,-0.011048,-0.499942,-0.041981,0.707237,-263.238213,-1.264214,69.085546
2.8355,0.010448,0.009223,-0.041737,0.004339,-0.00493,0.014159,-0.010611,-0.50011,-0.040565,0.707237,-263.238213,-1.264214,69.085546
2.855,0.010075,0.009543,-0.041991,0.004333,-0.004937,0.014159,-0.010611,-0.50011,-0.040565,0.707237,-263.238213,-1.264214,69.085546
2.8753,0.010034,0.009325,-0.040594,0.004327,-0.004943,0.014159,-0.011162,-0.500221,-0.0414,0.708493,-263.235922,-1.260719,69.091247
2.8951,0.010007,0.009051,-0.039444,0.004339,-0.004928,0.014158,-0.010936,-0.500259,-0.040998,0.708493,-263.235922,-1.260719,69.091247
2.915,0.010067,0.008519,-0.038102,0.004349,-0.004916,0.014157,-0.009973,-0.500715,-0.038994,0.708146,-263.233644,-1.262561,69.096952
2.9351,0.009524,0.008649,-0.039296,0.004332,-0.004931,0.014158,-0.009407,-0.501085,-0.038157,0.708146,-263.233644,-1.262561,69.096952
2.955,0.009206,0.008716,-0.038789,0.004319,-0.004943,0.014158,-0.009407,-0.501085,-0.038157,0.708146,-263.233644,-1.262561,69.096952
2.9753,0.009523,0.008695,-0.038682,0.004307,-0.004952,0.014158,-0.010398,-0.501112,-0.038198,0.708973,-263.231352,-1.260516,69.102649
2.995,0.009242,0.008277,-0.038042,0.00433,-0.004925,0.014156,-0.010296,-0.501059,-0.03833,0.708973,-263.231352,-1.260516,69.102649
3.0151,0.009466,0.00818,-0.040131,0.004349,-0.004902,0.014155,-0.010024,-0.501516,-0.037592,0.708953,-263.229083,-1.264052,69.108353
3.035,0.009472,0.008397,-0.037994,0.004399,-0.004839,0.014152,-0.010905,-0.501426,-0.039891,0.708953,-263.229083,-1.264052,69.108353
3.0552,0.009689,0.008047,-0.03691,0.004439,-0.004787,0.014151,-0.010905,-0.501426,-0.039891,0.708953,-263.229083,-1.264052,69.108353
3.0751,0.009093,0.008277,-0.037522,0.004473,-0.004744,0.014151,-0.008956,-0.501817,-0.036319,0.710613,-263.226792,-1.260156,69.114033
3.0952,0.009046,0.007956,-0.038265,0.004456,-0.00476,0.014154,-0.009377,-0.501657,-0.036741,0.710613,-263.226792,-1.260156,69.114033
3.1153,0.009069,0.007695,-0.036319,0.004442,-0.004773,0.014156,-0.010328,-0.501826,-0.037816,0.716969,-263.224426,-1.248319,69.119663
3.1352,0.009241,0.007756,-0.037915,0.00445,-0.00476,0.014156,-0.00953,-0.501963,-0.036444,0.716969,-263.224426,-1.248319,69.119663
3.1552,0.009236,0.007775,-0.035291,0.004456,-0.00475,0.014156,-0.00953,-0.501963,-0.036444,0.716969,-263.224426,-1.248319,69.119663
3.1752,0.008693,0.007576,-0.035706,0.004461,-0.004741,0.014157,-0.008579,-0.502114,-0.034697,0.717004,-263.222069,-1.251116,69.125316
3.1953,0.008942,0.007299,-0.034231,0.004448,-0.004751,0.014158,-0.008935,-0.502131,-0.035037,0.717004,-263.222069,-1.251116,69.125316
3.2152,0.008876,0.007336,-0.034968,0.004437,-0.00476,0.014158,-0.008375,-0.502558,-0.03378,0.719057,-263.219698,-1.249121,69.130959
3.235,0.009039,0.00746,-0.03674,0.004438,-0.004754,0.014158,-0.008896,-0.502379,-0.034838,0.719057,-263.219698,-1.249121,69.130959
3.2552,0.008747,0.006899,-0.036042,0.004439,-0.004749,0.014158,-0.008896,-0.502379,-0.034838,0.719057,-263.219698,-1.249121,69.130959
3.2754,0.009109,0.006978,-0.034565,0.004439,-0.004745,0.014158,-0.009452,-0.502975,-0.035449,0.719379,-263.217335,-1.251173,69.136616
3.295,0.008509,0.007241,-0.03582,0.004469,-0.0047,0.014157,-0.009048,-0.502894,-0.035019,0.719379,-263.217335,-1.251173,69.136616
3.3151,0.008391,0.006886,-0.034426,0.004494,-0.004664,0.014156,-0.009619,-0.502587,-0.03537,0.721084,-263.214974,-1.250706,69.142251
3.3351,0.008714,0.006659,-0.033176,0.004514,-0.004633,0.014157,-0.009197,-0.502799,-0.034489,0.721084,-263.214974,-1.250706,69.142251
3.3551,0.008719,0.006349,-0.032064,0.004531,-0.004608,0.014157,-0.009197,-0.502799,-0.034489,0.721084,-263.214974,-1.250706,69.142251
3.3751,0.008457,0.006368,-0.032193,0.004545,-0.004588,0.014158,-0.007449,-0.50359,-0.031471,0.725167,-263.212574,-1.245184,69.147866
3.3953,0.008486,0.007013,-0.033604,0.004521,-0.004599,0.014162,-0.007635,-0.503523,-0.031695,0.725167,-263.212574,-1.245184,69.147866
3.4153,0.008224,0.006195,-0.032125,0.004501,-0.004607,0.014165,-0.008508,-0.50285,-0.033151,0.729027,-263.210138,-1.240019,69.15346
3.435,0.008315,0.006518,-0.032468,0.00451,-0.004587,0.014166,-0.008181,-0.503487,-0.032194,0.729027,-263.210138,-1.240019,69.15346
3.4553,0.008628,0.006482,-0.032429,0.004516,-0.004571,0.014166,-0.008181,-0.503487,-0.032194,0.729027,-263.210138,-1.240019,69.15346
3.4753,0.007937,0.006363,-0.031292,0.004521,-0.004558,0.014167,-0.007725,-0.503449,-0.031836,0.731995,-263.207718,-1.243508,69.159059
3.4952,0.008142,0.00629,-0.030678,0.004506,-0.004569,0.014168,-0.007824,-0.503447,-0.031547,0.731995,-263.207718,-1.243508,69.159059
3.5149,0.008089,0.006125,-0.031601,0.004493,-0.004578,0.014169,-0.007361,-0.50362,-0.030225,0.735916,-263.205276,-1.241017,69.164648
3.5352,0.00807,0.005416,-0.031898,0.004498,-0.004564,0.014169,-0.00796,-0.503628,-0.031459,0.735916,-263.205276,-1.241017,69.164648
3.555,0.007853,0.00577,-0.03191,0.004503,-0.004552,0.014169,-0.00796,-0.503628,-0.031459,0.735916,-263.205276,-1.241017,69.164648
3.5751,0.007884,0.006099,-0.030007,0.004506,-0.004543,0.01417,-0.008237,-0.504167,-0.031319,0.736744,-263.20285,-1.243432,69.170237
3.5951,0.0078,0.005686,-0.030407,0.004522,-0.00451,0.014171,-0.007879,-0.503986,-0.03071,0.736744,-263.20285,-1.243432,69.170237
3.6152,0.007864,0.0053,-0.030137,0.004535,-0.004484,0.014172,-0.007566,-0.504227,-0.029957,0.739673,-263.20041,-1.241778,69.175816
3.6351,0.007295,0.005589,-0.029983,0.004551,-0.00444,0.014177,-0.007502,-0.504455,-0.030099,0.739673,-263.20041,-1.241778,69.175816
3.6553,0.007927,0.005245,-0.029578,0.004564,-0.004404,0.01418,-0.007502,-0.504455,-0.030099,0.739673,-263.20041,-1.241778,69.175816
3.6749,0.007686,0.005358,-0.027892,0.004573,-0.004374,0.014183,-0.006972,-0.504724,-0.028987,0.743717,-263.197945,-1.238438,69.181375
3.695,0.007674,0.005504,-0.029052,0.004547,-0.004375,0.01419,-0.006771,-0.504631,-0.028466,0.743717,-263.197945,-1.238438,69.181375
3.7149,0.007071,0.004885,-0.028131,0.004525,-0.004376,0.014194,-0.006999,-0.504423,-0.028602,0.753196,-263.195443,-1.233399,69.186889
3.7351,0.007354,0.004911,-0.027801,0.004548,-0.004323,0.014196,-0.007243,-0.504878,-0.028149,0.753196,-263.195443,-1.233399,69.186889
3.7552,0.007495,0.004698,-0.026838,0.004565,-0.004281,0.014198,-0.007243,-0.504878,-0.028149,0.753196,-263.195443,-1.233399,69.186889
3.7752,0.0073,0.004537,-0.026863,0.004579,-0.004246,0.014201,-0.006007,-0.505306,-0.026246,0.759118,-263.19295,-1.236877,69.192406
3.795,0.006909,0.004669,-0.028494,0.00454,-0.004232,0.01421,-0.006147,-0.505316,-0.026431,0.759118,-263.19295,-1.236877,69.192406
3.8154,0.007265,0.004884,-0.026405,0.004507,-0.004219,0.014217,-0.00748,-0.505263,-0.028044,0.768501,-263.190408,-1.23019,69.197878
3.8355,0.006762,0.004758,-0.026379,0.004472,-0.004239,0.014219,-0.006304,-0.504974,-0.026525,0.768501,-263.190408,-1.23019,69.197878
3.8552,0.007273,0.004384,-0.027506,0.004444,-0.004254,0.014219,-0.006304,-0.504974,-0.026525,0.768501,-263.190408,-1.23019,69.197878
3.8753,0.006962,0.004557,-0.025467,0.004421,-0.004266,0.01422,-0.006571,-0.505604,-0.026914,0.78059,-263.187876,-1.234708,69.203332
3.8952,0.006776,0.00451,-0.02528,0.004433,-0.004213,0.014223,-0.006325,-0.505491,-0.026249,0.78059,-263.187876,-1.234708,69.203332
3.9151,0.006562,0.004053,-0.025797,0.004441,-0.00417,0.014226,-0.005979,-0.505466,-0.024829,0.785101,-263.18538,-1.24182,69.208797
3.9351,0.007056,0.004334,-0.025036,0.004474,-0.00409,0.014229,-0.006532,-0.505757,-0.02569,0.785101,-263.18538,-1.24182,69.208797
3.955,0.006575,0.004412,-0.024752,0.0045,-0.004025,0.014232,-0.006532,-0.505757,-0.02569,0.785101,-263.18538,-1.24182,69.208797
3.9753,0.006068,0.003806,-0.02393,0.00452,-0.003974,0.014236,-0.005866,-0.505611,-0.024158,0.794089,-263.182845,-1.238246,69.214241
3.9956,0.006721,0.004102,-0.025463,0.004495,-0.003958,0.014242,-0.005957,-0.505813,-0.023994,0.794089,-263.182845,-1.238246,69.214241
4.0154,0.006689,0.004196,-0.02542,0.004473,-0.003945,0.014247,-0.006124,-0.505862,-0.025012,0.807071,-263.18025,-1.228042,69.219581
4.0355,0.006733,0.00372,-0.023922,0.004471,-0.003935,0.014248,-0.006253,-0.505667,-0.02536,0.807071,-263.18025,-1.228042,69.219581
4.0555,0.006751,0.003724,-0.023115,0.00447,-0.003927,0.014249,-0.006253,-0.505667,-0.02536,0.807071,-263.18025,-1.228042,69.219581
4.0755,0.005848,0.003418,-0.023152,0.004468,-0.00392,0.014249,-0.004854,-0.506309,-0.022519,0.81614,-263.177634,-1.23081,69.224954
4.0955,0.006815,0.004086,-0.021685,0.004417,-0.003865,0.014259,-0.005291,-0.506385,-0.022713,0.81614,-263.177634,-1.23081,69.224954
4.1154,0.006114,0.00381,-0.02152,0.004374,-0.00382,0.014266,-0.004105,-0.505921,-0.021233,0.819398,-263.175021,-1.230577,69.2303
4.1355,0.006571,0.003389,-0.022518,0.004258,-0.003866,0.014272,-0.004788,-0.506065,-0.021472,0.819398,-263.175021,-1.230577,69.2303
4.1555,0.00621,0.003307,-0.022716,0.004166,-0.0039,0.014274,-0.004788,-0.506065,-0.021472,0.819398,-263.175021,-1.230577,69.2303
4.175,0.005897,0.003147,-0.021415,0.004093,-0.003926,0.014274,-0.005197,-0.506724,-0.022124,0.841304,-263.172419,-1.234983,69.235562
4.1952,0.006214,0.003448,-0.021767,0.00411,-0.003813,0.014273,-0.005106,-0.506747,-0.021767,0.841304,-263.172419,-1.234983,69.235562
4.2149,0.005778,0.003221,-0.021169,0.004122,-0.003724,0.014274,-0.004761,-0.506557,-0.021321,0.863889,-263.169936,-1.257766,69.240799
4.2355,0.005695,0.003428,-0.019957,0.004113,-0.003676,0.014275,-0.004989,-0.506662,-0.02116,0.863889,-263.169936,-1.257766,69.240799
4.2555,0.005984,0.00315,-0.020062,0.004104,-0.003638,0.014276,-0.004989,-0.506662,-0.02116,0.863889,-263.169936,-1.257766,69.240799
4.2755,0.00586,0.002704,-0.020749,0.004096,-0.003607,0.014276,-0.004079,-0.506906,-0.01947,0.880716,-263.16736,-1.250866,69.246014
4.2954,0.005944,0.003094,-0.019785,0.004022,-0.003546,0.014276,-0.004325,-0.50704,-0.01993,0.880716,-263.16736,-1.250866,69.246014
4.3154,0.006125,0.002754,-0.019505,0.003963,-0.003498,0.014276,-0.004019,-0.506923,-0.019334,0.895355,-263.164749,-1.24997,69.25119
4.3355,0.005683,0.002561,-0.019484,0.003839,-0.003466,0.014276,-0.003833,-0.507135,-0.019468,0.895355,-263.164749,-1.24997,69.25119
4.3556,0.005482,0.002718,-0.021619,0.003742,-0.00344,0.014274,-0.003833,-0.507135,-0.019468,0.895355,-263.164749,-1.24997,69.25119
4.3756,0.005392,0.002538,-0.019701,0.003665,-0.003418,0.014271,-0.005383,-0.50731,-0.02103,0.921548,-263.162157,-1.257127,69.256269
4.3955,0.005452,0.00228,-0.020484,0.003775,-0.0033,0.014268,-0.005063,-0.507349,-0.020412,0.921548,-263.162157,-1.257127,69.256269
4.4158,0.005017,0.002227,-0.019241,0.003863,-0.003208,0.014267,-0.004884,-0.50772,-0.020048,0.965551,-263.159674,-1.277458,69.261155
4.4349,0.005062,0.002222,-0.016591,0.00392,-0.003079,0.014264,-0.004797,-0.507688,-0.01929,0.965551,-263.159674,-1.277458,69.261155
4.4554,0.005623,0.002445,-0.018901,0.003964,-0.002978,0.014263,-0.004797,-0.507688,-0.01929,0.965551,-263.159674,-1.277458,69.261155
4.4754,0.005468,0.002277,-0.017071,0.003999,-0.002898,0.014263,-0.003859,-0.5076,-0.01831,0.959023,-263.157005,-1.257452,69.266129
4.4954,0.004958,0.001909,-0.015659,0.003839,-0.0029,0.014257,-0.003584,-0.507636,-0.01773,0.959023,-263.157005,-1.257452,69.266129
4.5154,0.005157,0.002257,-0.016918,0.003716,-0.0029,0.01425,-0.002903,-0.508122,-0.015207,0.968218,-263.154202,-1.239047,69.271007
4.5352,0.004542,0.002026,-0.017386,0.003593,-0.002891,0.01423,-0.003415,-0.507714,-0.016748,0.968218,-263.154202,-1.239047,69.271007
4.5554,0.004797,0.001973,-0.016528,0.003497,-0.002883,0.014211,-0.003415,-0.507714,-0.016748,0.968218,-263.154202,-1.239047,69.271007
4.5753,0.004969,0.001953,-0.01595,0.003422,-0.002876,0.014195,-0.003482,-0.508078,-0.015946,1.001218,-263.151517,-1.260865,69.275754
4.5953,0.005207,0.00143,-0.015537,0.003366,-0.002791,0.014159,-0.003337,-0.508054,-0.015881,1.001218,-263.151517,-1.260865,69.275754
4.6153,0.004533,0.001732,-0.016525,0.003321,-0.002725,0.014132,-0.002611,-0.508599,-0.015097,1.037347,-263.148902,-1.282674,69.280434
4.6353,0.004837,0.001683,-0.016026,0.003369,-0.002611,0.014118,-0.003773,-0.508239,-0.016373,1.037347,-263.148902,-1.282674,69.280434
4.6555,0.004886,0.002039,-0.014455,0.003406,-0.002522,0.014108,-0.003773,-0.508239,-0.016373,1.037347,-263.148902,-1.282674,69.280434
4.6753,0.004281,0.001643,-0.015092,0.003433,-0.002452,0.014102,-0.002349,-0.508023,-0.013868,1.058561,-263.146211,-1.286274,69.285131
4.6952,0.004173,0.001947,-0.014633,0.003251,-0.002472,0.014031,-0.002769,-0.508149,-0.0143,1.058561,-263.146211,-1.286274,69.285131
4.7152,0.004565,0.001546,-0.01319,0.003112,-0.002486,0.013974,-0.003182,-0.508078,-0.014186,1.062346,-263.143403,-1.26993,69.289745
4.7354,0.004182,0.001306,-0.013555,0.002888,-0.002461,0.013865,-0.00225,-0.508383,-0.013258,1.062346,-263.143403,-1.26993,69.289745
4.7551,0.004271,0.00116,-0.01389,0.002717,-0.002442,0.013781,-0.00225,-0.508383,-0.013258,1.062346,-263.143403,-1.26993,69.289745
4.7753,0.00401,0.001606,-0.013717,0.002586,-0.002426,0.013716,-0.002687,-0.508893,-0.013321,1.095654,-263.140757,-1.295581,69.294198
4.7952,0.003665,0.00139,-0.013843,0.002626,-0.002306,0.013666,-0.002794,-0.508683,-0.013417,1.095654,-263.140757,-1.295581,69.294198
4.8153,0.003688,0.001285,-0.011754,0.002655,-0.002212,0.01363,-0.003321,-0.508633,-0.013445,1.160901,-263.138395,-1.335887,69.298242
4.8358,0.003948,0.001471,-0.012741,0.002588,-0.002169,0.013466,-0.002394,-0.508679,-0.011885,1.160901,-263.138395,-1.335887,69.298242
4.8551,0.00339,0.001763,-0.013395,0.002535,-0.002135,0.013345,-0.002394,-0.508679,-0.011885,1.160901,-263.138395,-1.335887,69.298242
4.8752,0.003586,0.001045,-0.010825,0.002492,-0.002108,0.013257,-0.003331,-0.508285,-0.012825,1.161073,-263.135736,-1.323966,69.302578
4.8953,0.00379,0.0012,-0.012763,0.002535,-0.00211,0.013195,-0.002751,-0.508556,-0.011946,1.161073,-263.135736,-1.323966,69.302578
4.9153,0.003189,0.000771,-0.008462,0.002567,-0.00211,0.01315,-0.002641,-0.508827,-0.012343,1.176387,-263.133154,-1.331242,69.306761
4.9355,0.003464,0.001109,-0.010839,0.002219,-0.001967,0.012573,-0.00126,-0.509179,-0.008794,1.176387,-263.133154,-1.331242,69.306761
4.9553,0.003315,0.001233,-0.012409,0.001951,-0.001858,0.012182,-0.00126,-0.509179,-0.008794,1.176387,-263.133154,-1.331242,69.306761
4.9753,0.003219,0.000954,-0.01074,0.001745,-0.001775,0.01192,-0.002907,-0.508817,-0.01186,1.161656,-263.130584,-1.322849,69.310926
4.9955,0.003401,0.000798,-0.012327,0.00193,-0.00175,0.012141,-0.002632,-0.508908,-0.011342,1.161656,-263.130584,-1.322849,69.310926
5.0149,0.003162,0.000462,-0.009436,0.002073,-0.00173,0.01231,-0.00284,-0.50921,-0.012023,1.236643,-263.128729,-1.380416,69.313889
5.0357,0.002712,0.000991,-0.010637,0.001991,-0.001555,0.012183,-0.001752,-0.509491,-0.009647,1.236643,-263.128729,-1.380416,69.313889
5.0556,0.003266,0.000398,-0.011012,0.001927,-0.001421,0.012097,-0.001752,-0.509491,-0.009647,1.236643,-263.128729,-1.380416,69.313889
5.0755,0.002904,0.00074,-0.009538,0.001876,-0.001317,0.012039,-0.002265,-0.509643,-0.010505,1.226865,-263.126308,-1.350253,69.31762
5.0957,0.002691,0.001001,-0.011205,0.001934,-0.001234,0.012059,-0.00213,-0.509485,-0.010049,1.226865,-263.126308,-1.350253,69.31762
5.1152,0.00273,0.000888,-0.008835,0.001978,-0.00117,0.012076,-0.002965,-0.509008,-0.010833,1.269507,-263.123854,-1.357711,69.321064
5.1354,0.002766,0.000886,-0.009341,0.001943,-0.001264,0.011905,-0.001876,-0.509087,-0.00899,1.269507,-263.123854,-1.357711,69.321064
5.1565,0.00268,0.000704,-0.007923,0.001916,-0.001334,0.011785,-0.001876,-0.509087,-0.00899,1.269507,-263.123854,-1.357711,69.321064
5.1753,0.002277,0.000693,-0.008636,0.001895,-0.001387,0.011702,-0.001277,-0.50933,-0.007413,1.262228,-263.121264,-1.343329,69.324552
5.1953,0.002534,0.000437,-0.007368,0.001817,-0.001358,0.011371,-0.001598,-0.509319,-0.007832,1.262228,-263.121264,-1.343329,69.324552
5.215,0.002156,0.000409,-0.008384,0.001756,-0.001335,0.011145,-0.001164,-0.509594,-0.006996,1.252923,-263.118841,-1.352279,69.328044
5.235,0.001906,0.00083,-0.006911,0.00183,-0.001224,0.011074,-0.002027,-0.509578,-0.008234,1.252923,-263.118841,-1.352279,69.328044
5.255,0.002366,0.000589,-0.008416,0.001886,-0.001138,0.011028,-0.002027,-0.509578,-0.008234,1.252923,-263.118841,-1.352279,69.328044
5.2752,0.002246,0.000278,-0.008008,0.001927,-0.00107,0.011,-0.001854,-0.509449,-0.007951,1.2603,-263.116547,-1.358408,69.33137
5.2953,0.002083,0.000543,-0.009081,0.001912,-0.001027,0.01091,-0.001839,-0.50956,-0.007921,1.2603,-263.116547,-1.358408,69.33137
5.3151,0.001983,0.001044,-0.006642,0.0019,-0.000992,0.01085,-0.002488,-0.50947,-0.008737,1.242015,-263.114205,-1.328276,69.334518
5.3353,0.001585,0.000498,-0.005304,0.001776,-0.001173,0.010524,-0.001494,-0.508991,-0.006805,1.242015,-263.114205,-1.328276,69.334518
5.3551,0.001827,0.00042,-0.006185,0.001682,-0.00131,0.010303,-0.001494,-0.508991,-0.006805,1.242015,-263.114205,-1.328276,69.334518
5.3751,0.001713,0.000505,-0.006508,0.00161,-0.001414,0.010154,-0.001248,-0.509612,-0.005732,1.245603,-263.111827,-1.326426,69.337659
5.3951,0.001627,0.000379,-0.006775,0.001549,-0.001295,0.009791,-0.001386,-0.509564,-0.005999,1.245603,-263.111827,-1.326426,69.337659
5.4148,0.001061,0.00027,-0.00635,0.001499,-0.001203,0.009551,-0.001778,-0.509654,-0.006459,1.246344,-263.109848,-1.362393,69.340708
5.4352,0.0013,0.000601,-0.004586,0.001665,-0.00108,0.009488,-0.002141,-0.509716,-0.006344,1.246344,-263.109848,-1.362393,69.340708
5.4555,0.001585,0.000552,-0.006771,0.001791,-0.000983,0.009451,-0.002141,-0.509716,-0.006344,1.246344,-263.109848,-1.362393,69.340708
5.4751,0.001495,0.000861,-0.005002,0.001888,-0.000907,0.009433,-0.001806,-0.509487,-0.006372,1.257669,-263.107906,-1.360885,69.343578
5.4952,0.001108,0.000382,-0.005447,0.00178,-0.000983,0.009255,-0.001494,-0.509349,-0.00577,1.257669,-263.107906,-1.360885,69.343578
5.5151,0.001119,0.000346,-0.005654,0.001698,-0.001039,0.009137,-0.001617,-0.509636,-0.005181,1.19987,-263.106061,-1.294879,69.346034
5.5353,0.00134,0.000531,-0.004812,0.001719,-0.000976,0.008992,-0.00175,-0.509646,-0.005603,1.19987,-263.106061,-1.294879,69.346034
5.5556,0.001216,0.000487,-0.003733,0.001734,-0.000926,0.008898,-0.00175,-0.509646,-0.005603,1.19987,-263.106061,-1.294879,69.346034
5.5753,0.001361,0.000286,-0.005164,0.001745,-0.000886,0.008839,-0.000618,-0.509553,-0.003357,1.212965,-263.104152,-1.319696,69.348724
5.5951,0.000926,-4.1e-05,-0.004747,0.001481,-0.000877,0.008233,-0.000877,-0.509621,-0.004051,1.212965,-263.104152,-1.319696,69.348724
5.6155,0.001036,2e-05,-0.003728,0.001279,-0.000869,0.007831,-0.00144,-0.510064,-0.004468,1.20179,-263.102233,-1.299988,69.351311
5.635,0.000732,0.000328,-0.003744,0.001147,-0.00072,0.007439,-0.000914,-0.509986,-0.00378,1.20179,-263.102233,-1.299988,69.351311
5.6554,0.000667,0.00017,-0.004197,0.001043,-0.000604,0.007185,-0.000914,-0.509986,-0.00378,1.20179,-263.102233,-1.299988,69.351311
5.6751,0.000552,0.000384,-0.001528,0.000961,-0.000514,0.007023,-0.001425,-0.509859,-0.003896,1.254996,-263.100717,-1.348282,69.353445
5.6954,0.000866,0.000321,-0.004319,0.000906,-0.00053,0.006539,-0.000931,-0.509763,-0.002896,1.254996,-263.100717,-1.348282,69.353445
5.715,0.001059,0.000175,-0.002506,0.000863,-0.000541,0.00622,-0.001309,-0.509689,-0.004113,1.321616,-263.099278,-1.373364,69.355254
5.7351,0.000996,0.000185,-0.002903,0.00059,-0.00055,0.00588,-0.000312,-0.509812,-0.002635,1.321616,-263.099278,-1.373364,69.355254
5.7552,0.000626,0.000339,-0.003123,0.000378,-0.000557,0.005657,-0.000312,-0.509812,-0.002635,1.321616,-263.099278,-1.373364,69.355254
5.7752,0.000281,0.000454,-0.001359,0.000214,-0.000561,0.005513,-0.000931,-0.509681,-0.002864,1.311712,-263.097934,-1.374386,69.357019
5.7951,0.000432,0.000131,-0.000845,0.000248,-0.000635,0.005225,-0.000715,-0.509628,-0.00222,1.311712,-263.097934,-1.374386,69.357019
5.8153,0.000382,0.000151,-0.003425,0.000272,-0.000691,0.005034,7e-06,-0.509876,-0.000772,1.386629,-263.097459,-1.449303,69.357683
5.8353,0.000425,0.000322,-0.00187,0.000468,-0.000647,0.00534,-0.001241,-0.509849,-0.003181,1.386629,-263.097459,-1.449303,69.357683
5.8551,0.00046,1.3e-05,-0.001829,0.000619,-0.000613,0.005552,-0.001241,-0.509849,-0.003181,1.386629,-263.097459,-1.449303,69.357683
5.8751,0.000309,1.5e-05,-0.002615,0.000735,-0.000587,0.0057,-0.000463,-0.510012,-0.001642,1.45721,-263.096607,-1.498707,69.359024
5.8952,0.000227,0.000144,-0.002914,0.000648,-0.000504,0.005243,-0.000691,-0.510003,-0.002018,1.45721,-263.096607,-1.498707,69.359024
5.9151,0.000205,-1.5e-05,-0.003434,0.000582,-0.000439,0.004931,-0.001247,-0.509865,-0.0028,1.382233,-263.095864,-1.42373,69.360053
5.9351,0.000214,1.2e-05,-0.003388,0.00079,-0.000399,0.00533,-0.001519,-0.509999,-0.003372,1.382233,-263.095864,-1.42373,69.360053
5.9552,0.000257,5.1e-05,-0.00268,0.000951,-0.000367,0.005604,-0.001519,-0.509999,-0.003372,1.382233,-263.095864,-1.42373,69.360053
5.9752,-3.2e-05,0.000201,-0.002514,0.001077,-0.000341,0.005792,-0.001086,-0.509965,-0.002479,1.348458,-263.094834,-1.403841,69.361419
5.9955,0.000428,-1.6e-05,-0.001368,0.001093,-0.000357,0.005522,-0.001176,-0.509899,-0.00247,1.348458,-263.094834,-1.403841,69.361419
6.0157,0.000158,0.000457,-0.0006,0.001106,-0.000369,0.005336,-0.000248,-0.510024,-0.001236,1.273474,-263.093876,-1.328857,69.362563
6.0354,-3.6e-05,1.2e-05,-0.001601,0.000735,-0.000497,0.004245,-0.000156,-0.509588,-0.000652,1.273474,-263.093876,-1.328857,69.362563
6.0554,-6.6e-05,-6.2e-05,-0.002175,0.000452,-0.000593,0.003489,-0.000156,-0.509588,-0.000652,1.273474,-263.093876,-1.328857,69.362563
6.0753,3.1e-05,2e-05,-0.000468,0.000235,-0.000667,0.002969,-0.001134,-0.510074,-0.001977,1.205179,-263.092778,-1.274816,69.363908
6.0957,0.000291,-0.000106,-0.002835,0.00031,-0.000549,0.002992,-0.000751,-0.510037,-0.001338,1.205179,-263.092778,-1.274816,69.363908
6.1152,7.8e-05,0.000188,-0.001222,0.000365,-0.000458,0.003014,-0.00115,-0.510111,-0.002804,1.280312,-263.09262,-1.349949,69.364246
6.1351,0.000232,1.9e-05,-0.000161,0.000347,-0.000465,0.003055,-0.0006,-0.509839,-0.001365,1.280312,-263.09262,-1.349949,69.364246
6.1553,-0.000447,-0.000279,-0.001691,0.000333,-0.00047,0.003085,-0.0006,-0.509839,-0.001365,1.280312,-263.09262,-1.349949,69.364246
6.175,-3.5e-05,7.5e-05,-0.001458,0.000321,-0.000474,0.003107,-0.001295,-0.510296,-0.001575,1.312475,-263.092092,-1.413142,69.365105
6.1953,-0.00029,0.000108,-0.001874,0.000484,-0.000365,0.003191,-0.001083,-0.510147,-0.001514,1.312475,-263.092092,-1.413142,69.365105
6.2152,-2e-06,-0.000121,-0.001441,0.000608,-0.00028,0.003251,-0.001236,-0.509906,-0.001778,1.348644,-263.091524,-1.436091,69.366036
6.2356,-2.5e-05,-0.000255,-7e-05,0.000599,-0.000225,0.003267,-0.000779,-0.510103,-0.001465,1.348644,-263.091524,-1.436091,69.366036
6.2551,-3.2e-05,1.9e-05,-0.002232,0.000593,-0.000182,0.003278,-0.000779,-0.510103,-0.001465,1.348644,-263.091524,-1.436091,69.366036
6.2755,-0.000211,9.7e-05,-0.001334,0.000588,-0.000148,0.003285,-0.001157,-0.509987,-0.002148,1.273529,-263.091082,-1.360975,69.366608
6.2954,-6.1e-05,1.2e-05,-0.001221,0.000672,-0.000182,0.003469,-0.001046,-0.509953,-0.001804,1.273529,-263.091082,-1.360975,69.366608
6.3154,0.00019,-0.00012,-0.000282,0.000737,-0.000207,0.003593,-0.000666,-0.509992,-0.001122,1.264128,-263.090342,-1.304133,69.367456
6.3353,-0.000207,6e-05,-0.001663,0.000404,-0.000155,0.002857,-1.3e-05,-0.510109,-0.000348,1.264128,-263.090342,-1.304133,69.367456
6.3554,3.8e-05,3.7e-05,-0.001544,0.000147,-0.000113,0.002347,-1.3e-05,-0.510109,-0.000348,1.264128,-263.090342,-1.304133,69.367456
6.3754,-0.00016,-0.000246,-0.000604,-5.3e-05,-8e-05,0.001997,-0.000721,-0.509971,-0.001401,1.215838,-263.089538,-1.273212,69.368409
6.3952,-0.000325,-0.000145,0.000388,2.9e-05,-7.1e-05,0.002175,-0.000614,-0.510084,-0.00106,1.215838,-263.089538,-1.273212,69.368409
6.4151,-0.000313,1e-05,-3.9e-05,9.1e-05,-6.3e-05,0.002302,-0.000127,-0.510145,0.000389,1.290765,-263.089533,-1.348139,69.368415
6.4354,7e-06,-0.000386,-0.000959,2.3e-05,-8.2e-05,0.001785,-0.000315,-0.510003,-3e-06,1.290765,-263.089533,-1.348139,69.368415
6.4551,-0.000147,-0.000333,7.4e-05,-2.9e-05,-9.5e-05,0.001428,-0.000315,-0.510003,-3e-06,1.290765,-263.089533,-1.348139,69.368415
6.4749,-0.000363,-0.000299,-0.000772,-7.1e-05,-0.000104,0.001181,-0.000106,-0.510334,0.000104,1.36581,-263.089361,-1.423184,69.368603
6.4951,-0.000235,1.6e-05,0.000269,-7.5e-05,1.2e-05,0.001147,-0.000376,-0.510319,-0.000257,1.36581,-263.089361,-1.423184,69.368603
6.515,4.8e-05,-0.00035,-0.001736,-8e-05,0.000102,0.001127,-9.7e-05,-0.509984,0.000272,1.440855,-263.089342,-1.498229,69.368629
6.5351,-0.00014,-0.000267,-0.00083,4.8e-05,0.00016,0.001838,-0.000771,-0.510317,-0.001556,1.440855,-263.089342,-1.498229,69.368629
6.5551,-0.000249,-6.3e-05,-0.001311,0.000149,0.000204,0.002331,-0.000771,-0.510317,-0.001556,1.440855,-263.089342,-1.498229,69.368629
6.5753,-0.000103,0.000152,-0.000695,0.000228,0.000238,0.002671,-0.000917,-0.510061,-0.001301,1.51568,-263.089275,-1.573054,69.368679
6.5955,-2.5e-05,-7.1e-05,0.000436,0.000278,0.000134,0.002646,-0.000728,-0.509973,-0.00105,1.51568,-263.089275,-1.573054,69.368679
6.6152,-0.000594,0.000191,7e-05,0.000318,5.4e-05,0.002626,0.000201,-0.510067,0.000487,1.449482,-263.08882,-1.497957,69.36902
6.6353,0.000105,-8.6e-05,-0.000734,0.000261,-5.9e-05,0.00195,-0.000493,-0.509831,0.000108,1.449482,-263.08882,-1.497957,69.36902
6.6553,-0.000244,-0.000145,-0.001126,0.000219,-0.000144,0.001479,-0.000493,-0.509831,0.000108,1.449482,-263.08882,-1.497957,69.36902
6.6753,-0.000253,1.6e-05,-0.000651,0.000188,-0.000209,0.001152,-0.00081,-0.510143,-0.001048,1.381364,-263.088342,-1.422919,69.369468
6.6955,-6.3e-05,2.9e-05,-0.001001,0.000248,-0.000167,0.001488,-0.000718,-0.510078,-0.000877,1.381364,-263.088342,-1.422919,69.369468
6.7155,-0.000169,-8.8e-05,-0.001469,0.000296,-0.000136,0.001721,-0.00057,-0.509974,-0.000979,1.306505,-263.088218,-1.368024,69.369687
6.7354,-0.000212,0.000172,-0.00138,0.000386,-0.000115,0.002177,-0.000886,-0.510078,-0.001424,1.306505,-263.088218,-1.368024,69.369687
6.7555,-8.8e-05,-0.000366,-0.00056,0.000457,-0.0001,0.002492,-0.000886,-0.510078,-0.001424,1.306505,-263.088218,-1.368024,69.369687
6.7755,-0.000577,-2.1e-05,0.00092,0.000513,-9e-05,0.002706,-0.000362,-0.510371,-0.000493,1.258147,-263.087857,-1.326543,69.370146
6.7956,-0.000531,6.9e-05,-0.000611,0.000328,-1.1e-05,0.001984,-0.000257,-0.510228,9.5e-05,1.258147,-263.087857,-1.326543,69.370146
6.8152,-0.0005,0.000183,0.000618,0.000186,5.1e-05,0.001483,-0.000827,-0.509933,-0.000528,1.253726,-263.087217,-1.284507,69.370852
6.8356,-8.3e-05,-0.000179,-0.0001,6e-05,-6.2e-05,0.000914,-0.000239,-0.509827,0.000525,1.253726,-263.087217,-1.284507,69.370852
6.8555,-0.000386,-0.000143,-0.000514,-3.7e-05,-0.000147,0.000518,-0.000239,-0.509827,0.000525,1.253726,-263.087217,-1.284507,69.370852
6.8753,-0.000297,-5.9e-05,-8.2e-05,-0.000111,-0.000211,0.000243,-0.000642,-0.510142,-0.00047,1.328748,-263.086939,-1.356935,69.371102
6.8954,-0.000536,-0.000285,-0.001776,-5.5e-05,-0.000153,0.000524,-0.000516,-0.510108,-0.000305,1.328748,-263.086939,-1.356935,69.371102
6.916,-0.000281,-0.000127,0.000231,-1.3e-05,-0.000108,0.000721,-0.001442,-0.510284,-0.001776,1.25375,-263.086939,-1.281937,69.371102
6.935,-0.00055,3.9e-05,-0.000117,-7.6e-05,-5.6e-05,0.000643,-0.000274,-0.51014,5.7e-05,1.25375,-263.086939,-1.281937,69.371102
6.9549,-0.000366,-2.5e-05,-0.000167,-0.000124,-1.7e-05,0.000591,-0.000274,-0.51014,5.7e-05,1.25375,-263.086939,-1.281937,69.371102
6.975,-0.000196,-0.00024,-0.001032,-0.000163,1.4e-05,0.000556,-0.000451,-0.510025,-0.000166,1.328761,-263.086935,-1.356947,69.371107
6.9951,-0.000517,0.000158,5.2e-05,0.0,0.0,0.0,-0.000563,-0.510113,-0.000523,1.328761,-263.086935,-1.356947,69.371107
