mach0312/omni-docking-bench/src/icros_test_setup/results/MPPI_sample/timeseries/trial_035.csv
t,x,y,yaw,vx,vy,wz,bl_x,bl_y,bl_yaw,front_steering_joint,front_wheel_joint,rear_steering_joint,rear_wheel_joint
0.0,0.026603,0.018974,-0.087598,0.0,0.0,0.0,-0.017046,-0.489153,-0.087009,0.211748,-262.591536,-0.339741,71.017607
0.0003,0.027025,0.018572,-0.085924,0.0,0.0,0.0,-0.017046,-0.489153,-0.087009,0.211748,-262.59363,-0.339741,71.015436
0.0007,0.026729,0.018871,-0.087209,0.0,0.0,0.0,-0.017531,-0.489298,-0.087514,0.211748,-262.594197,-0.339741,71.014848
0.001,0.026516,0.019136,-0.088273,0.0,0.0,0.0,-0.017194,-0.489163,-0.087136,0.211748,-262.594197,-0.339741,71.014848
0.0012,0.027011,0.019106,-0.085974,0.0,0.0,0.0,-0.017194,-0.489163,-0.087136,0.211748,-262.594197,-0.339741,71.014848
0.0015,0.026602,0.019121,-0.086875,0.0,0.0,0.0,-0.017221,-0.489425,-0.086238,0.211748,-262.594197,-0.339741,71.014848
0.0018,0.026823,0.018944,-0.086963,0.0,0.0,0.0,-0.017221,-0.489425,-0.086238,0.211748,-262.594197,-0.339741,71.014848
0.0021,0.026617,0.018515,-0.088181,0.0,0.0,0.0,-0.017451,-0.488991,-0.087063,0.211748,-262.594197,-0.339741,71.014848
0.0024,0.0262,0.018804,-0.086643,0.0,0.0,0.0,-0.017451,-0.488991,-0.087063,0.211748,-262.594197,-0.339741,71.014848
0.0164,0.026738,0.018928,-0.086786,0.0,0.0,0.0,-0.018223,-0.48947,-0.088072,0.211748,-262.594197,-0.339741,71.014848
0.0362,0.026337,0.018779,-0.087307,0.0,0.0,0.0,-0.017468,-0.489153,-0.086786,0.211748,-262.594197,-0.339741,71.014848
0.0565,0.026699,0.018749,-0.086824,0.0,0.0,0.0,-0.017739,-0.489204,-0.086998,0.211748,-262.594197,-0.339741,71.014848
0.0762,0.026592,0.018596,-0.085902,0.0,0.0,0.0,-0.017526,-0.48933,-0.086824,0.211748,-262.594197,-0.339741,71.014848
0.0963,0.026534,0.018982,-0.08644,0.0,0.0,0.0,-0.017196,-0.489507,-0.085982,0.211748,-262.594197,-0.339741,71.014848
0.1165,0.026693,0.018527,-0.08553,0.002395,-0.003336,0.006933,-0.017196,-0.489507,-0.085982,0.211748,-262.594197,-0.339741,71.014848
0.1368,0.026553,0.019006,-0.086819,0.002631,-0.003607,0.007486,-0.016874,-0.489609,-0.08553,0.211748,-262.594197,-0.339741,71.014848
0.1568,0.026639,0.018998,-0.086711,0.002833,-0.003829,0.007964,-0.017198,-0.489391,-0.086055,0.211748,-262.594197,-0.339741,71.014848
0.1764,0.026805,0.019092,-0.086791,0.00301,-0.004009,0.008354,-0.017528,-0.489086,-0.086711,0.286607,-262.594197,-0.4146,71.014848
0.1967,0.027027,0.018253,-0.087759,0.003162,-0.004157,0.008731,-0.017414,-0.488997,-0.086784,0.286607,-262.594197,-0.4146,71.014848
0.2164,0.026482,0.019025,-0.085188,0.003295,-0.004277,0.009041,-0.017414,-0.488997,-0.086784,0.286607,-262.594197,-0.4146,71.014848
0.2362,0.026704,0.018835,-0.086952,0.003411,-0.004374,0.009295,-0.016911,-0.489125,-0.085188,0.348373,-262.594197,-0.489605,71.014848
0.2562,0.027019,0.019365,-0.087668,0.003509,-0.004454,0.009504,-0.017186,-0.489171,-0.085906,0.348373,-262.594197,-0.489605,71.014848
0.2761,0.026616,0.01904,-0.086672,0.003594,-0.004518,0.009675,-0.017634,-0.488677,-0.087668,0.364832,-262.594197,-0.564602,71.014849
0.2963,0.026521,0.018739,-0.088248,0.003672,-0.004564,0.009813,-0.017539,-0.489018,-0.086747,0.364832,-262.594197,-0.564602,71.014849
0.3164,0.026451,0.01881,-0.086336,0.00374,-0.004599,0.009927,-0.017539,-0.489018,-0.086747,0.364832,-262.594197,-0.564602,71.014849
0.3363,0.026469,0.018745,-0.086732,0.003799,-0.004625,0.010021,-0.017526,-0.48929,-0.086336,0.369192,-262.594196,-0.640089,71.014851
0.3564,0.026345,0.018507,-0.089221,0.003855,-0.004639,0.010097,-0.017605,-0.489311,-0.086508,0.369192,-262.594196,-0.640089,71.014851
0.376,0.026752,0.019225,-0.086711,0.003904,-0.004647,0.010161,-0.019097,-0.489465,-0.08922,0.374953,-262.594192,-0.715319,71.014863
0.3962,0.026637,0.018752,-0.087156,0.00394,-0.00466,0.010216,-0.017542,-0.488905,-0.0869,0.374953,-262.594192,-0.715319,71.014863
0.4161,0.026631,0.018561,-0.087916,0.003971,-0.004668,0.010262,-0.017542,-0.488905,-0.0869,0.374953,-262.594192,-0.715319,71.014863
0.4361,0.026787,0.018873,-0.087344,0.003998,-0.004674,0.010301,-0.018145,-0.489471,-0.087912,0.379788,-262.59417,-0.790024,71.014922
0.4562,0.026899,0.018999,-0.0894,0.004036,-0.004661,0.010329,-0.017964,-0.489354,-0.08768,0.379788,-262.59417,-0.790024,71.014922
0.476,0.026675,0.018909,-0.084996,0.004068,-0.004649,0.010353,-0.018626,-0.48897,-0.089388,0.384417,-262.59409,-0.864591,71.01514
0.4962,0.026606,0.018602,-0.08708,0.004073,-0.004662,0.01038,-0.016786,-0.489227,-0.085357,0.384417,-262.59409,-0.864591,71.01514
0.5162,0.026623,0.018605,-0.087259,0.004077,-0.004672,0.010402,-0.016786,-0.489227,-0.085357,0.384417,-262.59409,-0.864591,71.01514
0.5362,0.026484,0.019062,-0.085478,0.004081,-0.00468,0.01042,-0.017794,-0.489479,-0.087209,0.390547,-262.593856,-0.939842,71.015761
0.5565,0.027068,0.018858,-0.088224,0.004098,-0.004671,0.010431,-0.01749,-0.489317,-0.086496,0.390547,-262.593856,-0.939842,71.015761
0.5761,0.026952,0.018889,-0.086357,0.004114,-0.004662,0.01044,-0.017824,-0.489201,-0.088136,0.391354,-262.593347,-1.014596,71.017118
0.5968,0.026536,0.018788,-0.087279,0.004119,-0.004662,0.010451,-0.017105,-0.489212,-0.086514,0.391354,-262.593347,-1.014596,71.017118
0.6165,0.026823,0.018883,-0.086787,0.004123,-0.004662,0.010459,-0.017105,-0.489212,-0.086514,0.391354,-262.593347,-1.014596,71.017118
0.6363,0.026829,0.018851,-0.087825,0.004127,-0.004661,0.010466,-0.017286,-0.489303,-0.086567,0.394963,-262.592409,-1.089604,71.019599
0.6569,0.026779,0.018862,-0.086225,0.004138,-0.004651,0.01047,-0.017526,-0.489266,-0.087053,0.394963,-262.592409,-1.089604,71.019599
0.6763,0.026315,0.018327,-0.087105,0.004148,-0.004642,0.010473,-0.017041,-0.489366,-0.085969,0.397183,-262.591009,-1.164604,71.023289
0.6968,0.026408,0.018662,-0.086028,0.00417,-0.004618,0.010574,-0.017956,-0.489712,-0.086989,0.397183,-262.591009,-1.164604,71.023289
0.7168,0.026658,0.018717,-0.085067,0.004189,-0.004598,0.010656,-0.017956,-0.489712,-0.086989,0.397183,-262.591009,-1.164604,71.023289
0.7362,0.026411,0.01834,-0.083897,0.004206,-0.00458,0.010722,-0.016522,-0.48964,-0.084643,0.400146,-262.589269,-1.211302,71.027843
0.7565,0.026434,0.018148,-0.084141,0.004194,-0.004595,0.010834,-0.016425,-0.489755,-0.08429,0.400146,-262.589269,-1.211302,71.027843
0.7761,0.026465,0.017956,-0.084791,0.004184,-0.004608,0.010923,-0.016309,-0.490202,-0.083807,0.43766,-262.587453,-1.209443,71.032496
0.7965,0.026414,0.017648,-0.084057,0.004187,-0.004605,0.011037,-0.016683,-0.490218,-0.084685,0.43766,-262.587453,-1.209443,71.032496
0.8165,0.026613,0.018246,-0.083615,0.004191,-0.004603,0.011131,-0.016683,-0.490218,-0.084685,0.43766,-262.587453,-1.209443,71.032496
0.8361,0.026263,0.017893,-0.08308,0.004194,-0.0046,0.011206,-0.015823,-0.490178,-0.08316,0.458187,-262.5856,-1.21559,71.037275
0.8566,0.026085,0.017831,-0.084948,0.004183,-0.004614,0.011312,-0.015901,-0.49027,-0.083076,0.458187,-262.5856,-1.21559,71.037275
0.8762,0.026341,0.01758,-0.08274,0.004173,-0.004625,0.011398,-0.017068,-0.490484,-0.084598,0.491201,-262.583732,-1.219519,71.042063
0.8963,0.026554,0.017487,-0.084519,0.004172,-0.004628,0.011503,-0.015922,-0.490666,-0.082898,0.491201,-262.583732,-1.219519,71.042063
0.9163,0.025952,0.017447,-0.083529,0.004172,-0.00463,0.011589,-0.015922,-0.490666,-0.082898,0.491201,-262.583732,-1.219519,71.042063
0.9363,0.025868,0.017146,-0.083038,0.004171,-0.004632,0.011659,-0.016441,-0.490982,-0.083055,0.510223,-262.581831,-1.225065,71.046958
0.9564,0.026088,0.017568,-0.081644,0.004187,-0.004616,0.011747,-0.01642,-0.491052,-0.082993,0.510223,-262.581831,-1.225065,71.046958
0.9764,0.026067,0.017329,-0.081714,0.0042,-0.004603,0.011819,-0.015386,-0.490889,-0.081278,0.537942,-262.579912,-1.229738,71.051884
0.9964,0.025949,0.017263,-0.082435,0.004194,-0.004612,0.011915,-0.015538,-0.49097,-0.081655,0.537942,-262.579912,-1.229738,71.051884
1.0165,0.026344,0.017058,-0.08174,0.004189,-0.00462,0.011993,-0.015538,-0.49097,-0.081655,0.537942,-262.579912,-1.229738,71.051884
1.0362,0.026282,0.016979,-0.083417,0.004185,-0.004626,0.012057,-0.015138,-0.491444,-0.081249,0.556987,-262.577944,-1.229397,71.056873
1.0564,0.026137,0.017202,-0.081817,0.004189,-0.004623,0.012134,-0.015559,-0.491387,-0.082078,0.556987,-262.577944,-1.229397,71.056873
1.0766,0.025916,0.016606,-0.080733,0.004193,-0.004621,0.012198,-0.015423,-0.491248,-0.081437,0.579407,-262.575961,-1.235014,71.06191
1.0962,0.025811,0.016535,-0.083199,0.004194,-0.004621,0.012273,-0.015226,-0.491697,-0.080777,0.579407,-262.575961,-1.235014,71.06191
1.1161,0.025689,0.016685,-0.080571,0.004196,-0.00462,0.012336,-0.015226,-0.491697,-0.080777,0.579407,-262.575961,-1.235014,71.06191
1.1362,0.025491,0.016464,-0.081074,0.004197,-0.00462,0.012388,-0.015199,-0.491867,-0.080062,0.593638,-262.573936,-1.236492,71.067025
1.1563,0.02571,0.016507,-0.080302,0.004206,-0.004612,0.012445,-0.015437,-0.491888,-0.080426,0.593638,-262.573936,-1.236492,71.067025
1.1761,0.025321,0.016285,-0.079584,0.004214,-0.004605,0.012492,-0.01508,-0.492005,-0.079913,0.611873,-262.571887,-1.239092,71.072175
1.1962,0.02541,0.016537,-0.080381,0.00422,-0.004601,0.012542,-0.015209,-0.4921,-0.07959,0.611873,-262.571887,-1.239092,71.072175
1.2164,0.025567,0.016188,-0.080009,0.004225,-0.004597,0.012583,-0.015209,-0.4921,-0.07959,0.611873,-262.571887,-1.239092,71.072175
1.2364,0.025431,0.015775,-0.081834,0.004229,-0.004594,0.012618,-0.015035,-0.492384,-0.079492,0.622494,-262.569831,-1.239112,71.077305
1.2564,0.02561,0.015748,-0.078956,0.004246,-0.004576,0.012648,-0.015519,-0.492463,-0.080394,0.622494,-262.569831,-1.239112,71.077305
1.2763,0.025441,0.015912,-0.080056,0.004261,-0.004562,0.012673,-0.014494,-0.492819,-0.078556,0.634418,-262.567732,-1.239625,71.082504
1.2962,0.025085,0.015793,-0.079187,0.004269,-0.004554,0.012701,-0.015269,-0.492491,-0.079914,0.634418,-262.567732,-1.239625,71.082504
1.3162,0.025501,0.01574,-0.079596,0.004276,-0.004548,0.012725,-0.015269,-0.492491,-0.079914,0.634418,-262.567732,-1.239625,71.082504
1.3365,0.025391,0.015485,-0.076529,0.004283,-0.004543,0.012745,-0.014888,-0.492848,-0.079068,0.640969,-262.56561,-1.23739,71.087702
1.3566,0.025347,0.015354,-0.080144,0.004276,-0.004551,0.012769,-0.014337,-0.492944,-0.077956,0.640969,-262.56561,-1.23739,71.087702
1.3763,0.024676,0.015152,-0.077716,0.004271,-0.004559,0.012789,-0.015359,-0.493163,-0.07974,0.647826,-262.563464,-1.236423,71.092917
1.3963,0.025163,0.015239,-0.077691,0.004285,-0.004543,0.012803,-0.014951,-0.493304,-0.07787,0.647826,-262.563464,-1.236423,71.092917
1.4163,0.025263,0.015418,-0.078628,0.004297,-0.00453,0.012816,-0.014951,-0.493304,-0.07787,0.647826,-262.563464,-1.236423,71.092917
1.4362,0.025299,0.014978,-0.078928,0.004308,-0.004518,0.012827,-0.014633,-0.49321,-0.078093,0.650841,-262.561318,-1.238353,71.098148
1.4564,0.02487,0.01528,-0.074999,0.004314,-0.004513,0.012841,-0.014729,-0.493326,-0.078375,0.650841,-262.561318,-1.238353,71.098148
1.4767,0.024588,0.015179,-0.076936,0.004319,-0.004508,0.012853,-0.013218,-0.49344,-0.074591,0.65594,-262.559147,-1.2352,71.103371
1.4969,0.024872,0.014915,-0.074566,0.004318,-0.004511,0.012867,-0.014479,-0.493332,-0.076705,0.65594,-262.559147,-1.2352,71.103371
1.5167,0.024938,0.014863,-0.076864,0.004316,-0.004514,0.012879,-0.014479,-0.493332,-0.076705,0.65594,-262.559147,-1.2352,71.103371
1.5368,0.024553,0.014808,-0.077041,0.004315,-0.004516,0.012889,-0.014058,-0.493833,-0.076326,0.658434,-262.556963,-1.234565,71.108607
1.5571,0.024869,0.014668,-0.075998,0.004319,-0.004512,0.012898,-0.014301,-0.493794,-0.076556,0.658434,-262.556963,-1.234565,71.108607
1.577,0.024252,0.014608,-0.07615,0.004323,-0.004508,0.012905,-0.013725,-0.494016,-0.075583,0.660965,-262.554776,-1.235592,71.113854
1.5966,0.024568,0.014365,-0.076134,0.004331,-0.004499,0.012912,-0.014466,-0.493931,-0.076078,0.660965,-262.554776,-1.235592,71.113854
1.6168,0.024615,0.014446,-0.074777,0.004339,-0.00449,0.012918,-0.014466,-0.493931,-0.076078,0.660965,-262.554776,-1.235592,71.113854
1.6364,0.0241,0.014588,-0.076037,0.004345,-0.004483,0.012923,-0.013319,-0.494331,-0.074237,0.662696,-262.552583,-1.235125,71.119103
1.6567,0.024403,0.014257,-0.074346,0.004342,-0.004487,0.012932,-0.01384,-0.494194,-0.07491,0.662696,-262.552583,-1.235125,71.119103
1.6763,0.024236,0.014794,-0.073662,0.004339,-0.004491,0.012939,-0.013351,-0.494487,-0.073935,0.665286,-262.550375,-1.233134,71.124348
1.6965,0.023952,0.014349,-0.074268,0.004318,-0.004515,0.012952,-0.013296,-0.49389,-0.073665,0.665286,-262.550375,-1.233134,71.124348
1.7166,0.024627,0.013939,-0.072768,0.0043,-0.004535,0.012961,-0.013296,-0.49389,-0.073665,0.665286,-262.550375,-1.233134,71.124348
1.7369,0.024134,0.01377,-0.072139,0.004284,-0.004552,0.012968,-0.012284,-0.494913,-0.072224,0.666289,-262.548158,-1.233998,71.129621
1.757,0.024399,0.013648,-0.073491,0.004269,-0.004567,0.012975,-0.012404,-0.494932,-0.072127,0.666289,-262.548158,-1.233998,71.129621
1.7761,0.024034,0.013799,-0.072834,0.004256,-0.004579,0.012979,-0.012922,-0.49513,-0.073078,0.666313,-262.545988,-1.239939,71.134873
1.7962,0.023841,0.013725,-0.071586,0.00426,-0.004573,0.012979,-0.013058,-0.494882,-0.072835,0.666313,-262.545988,-1.239939,71.134873
1.8163,0.024226,0.013847,-0.073312,0.004264,-0.004568,0.012979,-0.013058,-0.494882,-0.072835,0.666313,-262.545988,-1.239939,71.134873
1.8364,0.023904,0.013824,-0.072007,0.004267,-0.004564,0.012979,-0.012966,-0.494987,-0.07277,0.666569,-262.543822,-1.242792,71.140156
1.8567,0.023977,0.013584,-0.072213,0.004266,-0.004564,0.01298,-0.012875,-0.494957,-0.072397,0.666569,-262.543822,-1.242792,71.140156
1.8763,0.023748,0.013158,-0.073282,0.004266,-0.004564,0.012982,-0.012694,-0.495242,-0.071799,0.667408,-262.541624,-1.241645,71.145497
1.897,0.024096,0.013078,-0.073728,0.004291,-0.004533,0.012976,-0.013534,-0.495464,-0.073179,0.667408,-262.541624,-1.241645,71.145497
1.9168,0.023857,0.013452,-0.070759,0.004313,-0.004507,0.012972,-0.013534,-0.495464,-0.073179,0.667408,-262.541624,-1.241645,71.145497
1.9367,0.023638,0.013212,-0.071184,0.004332,-0.004485,0.01297,-0.012037,-0.495472,-0.070222,0.667811,-262.539457,-1.24174,71.150763
1.9566,0.023709,0.013011,-0.069441,0.004318,-0.004501,0.012978,-0.012274,-0.495506,-0.070572,0.667811,-262.539457,-1.24174,71.150763
1.9761,0.02347,0.012687,-0.070926,0.004306,-0.004515,0.012984,-0.011552,-0.49591,-0.069033,0.670518,-262.53726,-1.234833,71.155984
1.9964,0.023606,0.012988,-0.071473,0.004315,-0.004504,0.012984,-0.012571,-0.496028,-0.070747,0.670518,-262.53726,-1.234833,71.155984
2.0163,0.023728,0.012723,-0.069108,0.004322,-0.004495,0.012984,-0.012571,-0.496028,-0.070747,0.670518,-262.53726,-1.234833,71.155984
2.0363,0.022914,0.012944,-0.06925,0.004329,-0.004487,0.012984,-0.011322,-0.49626,-0.068566,0.670555,-262.535068,-1.23765,71.161235
2.0562,0.023448,0.012401,-0.069153,0.004313,-0.004504,0.012991,-0.011731,-0.49611,-0.068782,0.670555,-262.535068,-1.23765,71.161235
2.0762,0.023234,0.012553,-0.06926,0.0043,-0.004517,0.012995,-0.011665,-0.496532,-0.06874,0.671843,-262.532856,-1.235354,71.166494
2.0967,0.023281,0.012245,-0.0682,0.0043,-0.004517,0.012996,-0.012018,-0.49626,-0.069192,0.671843,-262.532856,-1.235354,71.166494
2.1165,0.023337,0.012461,-0.069506,0.0043,-0.004516,0.012996,-0.012018,-0.49626,-0.069192,0.671843,-262.532856,-1.235354,71.166494
2.1365,0.023199,0.012127,-0.067081,0.0043,-0.004515,0.012996,-0.011916,-0.496508,-0.068962,0.671785,-262.530659,-1.238327,71.171764
2.1569,0.023037,0.011901,-0.068816,0.004295,-0.00452,0.012998,-0.011516,-0.496621,-0.06813,0.671785,-262.530659,-1.238327,71.171764
2.1763,0.022879,0.011942,-0.067956,0.00429,-0.004524,0.013,-0.011904,-0.497045,-0.068401,0.672153,-262.528441,-1.238283,71.177081
2.1968,0.023393,0.011664,-0.067348,0.004299,-0.004513,0.012997,-0.011757,-0.496897,-0.06797,0.672153,-262.528441,-1.238283,71.177081
2.2167,0.023303,0.011839,-0.068583,0.004306,-0.004503,0.012995,-0.011757,-0.496897,-0.06797,0.672153,-262.528441,-1.238283,71.177081
2.2364,0.022683,0.011766,-0.065651,0.004313,-0.004495,0.012994,-0.011482,-0.497161,-0.068044,0.672349,-262.526267,-1.2393,71.182307
2.257,0.022723,0.01176,-0.066747,0.004309,-0.004498,0.012996,-0.011176,-0.497174,-0.06701,0.672349,-262.526267,-1.2393,71.182307
2.2766,0.022851,0.011821,-0.066215,0.004305,-0.004501,0.012998,-0.011162,-0.497259,-0.066325,0.67344,-262.524046,-1.236858,71.187603
2.2969,0.022944,0.011373,-0.066692,0.004291,-0.004514,0.013002,-0.010725,-0.497305,-0.065604,0.67344,-262.524046,-1.236858,71.187603
2.3169,0.022461,0.011693,-0.06599,0.004279,-0.004526,0.013005,-0.010725,-0.497305,-0.065604,0.67344,-262.524046,-1.236858,71.187603
2.3362,0.022642,0.011075,-0.065923,0.004269,-0.004535,0.013007,-0.011004,-0.497396,-0.06545,0.673808,-262.521857,-1.237615,71.192834
2.3565,0.02248,0.011172,-0.065383,0.004275,-0.004527,0.013004,-0.010964,-0.497591,-0.06558,0.673808,-262.521857,-1.237615,71.192834
2.3762,0.022632,0.011104,-0.064464,0.00428,-0.00452,0.013002,-0.010715,-0.497892,-0.064966,0.673795,-262.519666,-1.241161,71.198123
2.3963,0.022756,0.011138,-0.065136,0.004269,-0.00453,0.013005,-0.01026,-0.49785,-0.064488,0.673795,-262.519666,-1.241161,71.198123
2.4163,0.022507,0.01138,-0.065245,0.004259,-0.004538,0.013006,-0.01026,-0.49785,-0.064488,0.673795,-262.519666,-1.241161,71.198123
2.4367,0.022453,0.010586,-0.062857,0.004251,-0.004545,0.013007,-0.010578,-0.497735,-0.064702,0.674277,-262.517481,-1.239967,71.203379
2.4565,0.022135,0.010571,-0.064527,0.004245,-0.004549,0.013008,-0.010157,-0.49803,-0.063893,0.674277,-262.517481,-1.239967,71.203379
2.4761,0.022401,0.010803,-0.065498,0.00424,-0.004553,0.013007,-0.010625,-0.498521,-0.064112,0.674496,-262.515304,-1.242716,71.208656
2.4966,0.022163,0.010436,-0.062579,0.004264,-0.004525,0.012999,-0.01094,-0.498149,-0.065352,0.674496,-262.515304,-1.242716,71.208656
2.5165,0.02216,0.010807,-0.062256,0.004284,-0.004501,0.012993,-0.01094,-0.498149,-0.065352,0.674496,-262.515304,-1.242716,71.208656
2.5362,0.022154,0.010287,-0.061802,0.004301,-0.004481,0.012989,-0.009404,-0.498407,-0.061711,0.674659,-262.513132,-1.243669,71.213934
2.5566,0.022143,0.010565,-0.063999,0.004274,-0.004507,0.012999,-0.009361,-0.498565,-0.061685,0.674659,-262.513132,-1.243669,71.213934
2.5761,0.02172,0.010168,-0.061896,0.004251,-0.004529,0.013006,-0.010346,-0.498542,-0.063585,0.676391,-262.510927,-1.237321,71.219185
2.5967,0.022261,0.010041,-0.062031,0.004257,-0.00452,0.013003,-0.009867,-0.498835,-0.062026,0.676391,-262.510927,-1.237321,71.219185
2.617,0.022002,0.009976,-0.062669,0.004263,-0.004512,0.013,-0.009867,-0.498835,-0.062026,0.676391,-262.510927,-1.237321,71.219185
2.6364,0.021916,0.009939,-0.060852,0.004267,-0.004505,0.012999,-0.009773,-0.499223,-0.062124,0.676655,-262.508743,-1.242284,71.224464
2.6567,0.021812,0.010206,-0.061065,0.004268,-0.004501,0.012998,-0.009478,-0.499203,-0.06154,0.676655,-262.508743,-1.242284,71.224464
2.6764,0.021529,0.009847,-0.062991,0.004269,-0.004497,0.012998,-0.009185,-0.498995,-0.060651,0.677563,-262.506557,-1.240472,71.229716
2.6966,0.021642,0.009657,-0.062437,0.004299,-0.004461,0.012989,-0.010439,-0.499135,-0.062752,0.677563,-262.506557,-1.240472,71.229716
2.7164,0.022051,0.009555,-0.06113,0.004325,-0.004431,0.012983,-0.010439,-0.499135,-0.062752,0.677563,-262.506557,-1.240472,71.229716
2.7361,0.021495,0.009648,-0.059433,0.004347,-0.004406,0.01298,-0.008939,-0.499691,-0.060586,0.678373,-262.504363,-1.240094,71.234976
2.7566,0.021371,0.009653,-0.059398,0.004325,-0.004426,0.012989,-0.008862,-0.499616,-0.060053,0.678373,-262.504363,-1.240094,71.234976
2.7766,0.021465,0.009458,-0.059523,0.004308,-0.004443,0.012996,-0.008774,-0.499596,-0.058985,0.68092,-262.502128,-1.231953,71.2402
2.797,0.021539,0.00943,-0.059716,0.004293,-0.004457,0.013001,-0.008858,-0.499643,-0.059453,0.68092,-262.502128,-1.231953,71.2402
2.817,0.021586,0.009298,-0.060167,0.00428,-0.004469,0.013004,-0.008858,-0.499643,-0.059453,0.68092,-262.502128,-1.231953,71.2402
2.8366,0.021032,0.00897,-0.060235,0.004269,-0.004479,0.013006,-0.008912,-0.499975,-0.059623,0.681492,-262.49991,-1.235977,71.245442
2.8564,0.021629,0.008773,-0.056939,0.004286,-0.004457,0.012999,-0.009201,-0.500051,-0.05981,0.681492,-262.49991,-1.235977,71.245442
2.8764,0.021129,0.008777,-0.058091,0.0043,-0.004438,0.012995,-0.007266,-0.50055,-0.056525,0.681732,-262.497711,-1.239767,71.250695
2.8966,0.021354,0.009058,-0.056991,0.00429,-0.004444,0.012998,-0.008362,-0.500388,-0.057925,0.681732,-262.497711,-1.239767,71.250695
2.9164,0.02109,0.008849,-0.058297,0.004282,-0.004449,0.013,-0.008362,-0.500388,-0.057925,0.681732,-262.497711,-1.239767,71.250695
2.9366,0.020614,0.008404,-0.057877,0.004275,-0.004452,0.013001,-0.008455,-0.500481,-0.057753,0.682976,-262.495495,-1.236386,71.255934
2.9569,0.021253,0.008667,-0.057673,0.004286,-0.004436,0.012997,-0.008612,-0.50061,-0.057741,0.682976,-262.495495,-1.236386,71.255934
2.9764,0.020606,0.008465,-0.057439,0.004296,-0.004421,0.012994,-0.008016,-0.500634,-0.057259,0.684384,-262.493288,-1.238635,71.261177
2.9967,0.020507,0.008392,-0.055852,0.004306,-0.004406,0.012991,-0.008607,-0.500696,-0.057402,0.684384,-262.493288,-1.238635,71.261177
3.0165,0.021222,0.008392,-0.057676,0.004316,-0.004393,0.012989,-0.008607,-0.500696,-0.057402,0.684384,-262.493288,-1.238635,71.261177
3.0362,0.020546,0.008384,-0.057092,0.004323,-0.004383,0.012987,-0.008007,-0.500955,-0.05713,0.685674,-262.491068,-1.236227,71.26641
3.0566,0.020733,0.008288,-0.056587,0.004321,-0.004381,0.012989,-0.008209,-0.500909,-0.057053,0.685674,-262.491068,-1.236227,71.26641
3.0766,0.020542,0.008215,-0.05605,0.00432,-0.00438,0.012991,-0.007981,-0.501043,-0.056173,0.687403,-262.488831,-1.233182,71.27163
3.097,0.020847,0.007824,-0.055072,0.004313,-0.004384,0.012993,-0.008017,-0.500998,-0.05604,0.687403,-262.488831,-1.233182,71.27163
3.117,0.020613,0.008083,-0.0565,0.004307,-0.004387,0.012995,-0.008017,-0.500998,-0.05604,0.687403,-262.488831,-1.233182,71.27163
3.1374,0.020422,0.007991,-0.054469,0.004302,-0.00439,0.012996,-0.008016,-0.501296,-0.055956,0.688477,-262.486585,-1.23342,71.27687
3.1564,0.020577,0.007784,-0.055293,0.004296,-0.004391,0.012997,-0.007726,-0.501302,-0.055295,0.688477,-262.486585,-1.23342,71.27687
3.1761,0.020453,0.007524,-0.056094,0.00429,-0.004392,0.012998,-0.007479,-0.501584,-0.05488,0.689615,-262.484363,-1.235038,71.282071
3.1963,0.020643,0.00775,-0.053775,0.004315,-0.004356,0.012989,-0.008073,-0.501673,-0.055963,0.689615,-262.484363,-1.235038,71.282071
3.2173,0.020304,0.007589,-0.053817,0.004336,-0.004327,0.012983,-0.008073,-0.501673,-0.055963,0.689615,-262.484363,-1.235038,71.282071
3.2365,0.020464,0.007345,-0.055253,0.004353,-0.004302,0.012979,-0.006957,-0.501869,-0.053265,0.6908,-262.482137,-1.235936,71.287294
3.2564,0.020191,0.007461,-0.053887,0.004338,-0.004311,0.012985,-0.007226,-0.501893,-0.053974,0.6908,-262.482137,-1.235936,71.287294
3.2762,0.020405,0.007086,-0.053562,0.004324,-0.004319,0.012989,-0.007147,-0.501942,-0.053474,0.694315,-262.479856,-1.228786,71.292519
3.2962,0.020183,0.006923,-0.051956,0.004308,-0.004325,0.012993,-0.006911,-0.50217,-0.053537,0.694315,-262.479856,-1.228786,71.292519
3.3161,0.020117,0.007263,-0.051962,0.004294,-0.00433,0.012995,-0.006911,-0.50217,-0.053537,0.694315,-262.479856,-1.228786,71.292519
3.3365,0.020128,0.006723,-0.052288,0.004283,-0.004334,0.012996,-0.006203,-0.502236,-0.051424,0.69622,-262.477619,-1.231502,71.297677
3.3567,0.019777,0.006955,-0.0526,0.004247,-0.004356,0.013002,-0.006316,-0.502399,-0.051715,0.69622,-262.477619,-1.231502,71.297677
3.3763,0.019955,0.006804,-0.049446,0.004217,-0.004373,0.013006,-0.006908,-0.502484,-0.052187,0.699421,-262.475369,-1.235008,71.302902
3.3964,0.019911,0.006969,-0.053949,0.004129,-0.004429,0.013024,-0.005372,-0.502572,-0.049635,0.699421,-262.475369,-1.235008,71.302902
3.4166,0.020229,0.006616,-0.051673,0.004057,-0.004474,0.013034,-0.005372,-0.502572,-0.049635,0.699421,-262.475369,-1.235008,71.302902
3.4364,0.020147,0.006836,-0.049288,0.003997,-0.004512,0.013038,-0.005947,-0.502894,-0.051132,0.702518,-262.473173,-1.240943,71.308077
3.4568,0.019989,0.006557,-0.050997,0.003969,-0.004521,0.01303,-0.005535,-0.502774,-0.050321,0.702518,-262.473173,-1.240943,71.308077
3.4765,0.019516,0.006558,-0.05137,0.003946,-0.004528,0.013022,-0.005889,-0.502929,-0.050585,0.712292,-262.471074,-1.260768,71.313283
3.4966,0.019712,0.005854,-0.050915,0.003998,-0.004475,0.012995,-0.006598,-0.50279,-0.051282,0.712292,-262.471074,-1.260768,71.313283
3.5166,0.019385,0.006375,-0.049838,0.00404,-0.004432,0.012975,-0.006598,-0.50279,-0.051282,0.712292,-262.471074,-1.260768,71.313283
3.5368,0.019605,0.006031,-0.05101,0.004076,-0.004396,0.01296,-0.005867,-0.503189,-0.049294,0.714848,-262.468987,-1.264569,71.31851
3.557,0.019546,0.006182,-0.050422,0.004095,-0.004362,0.01295,-0.006066,-0.503259,-0.04993,0.714848,-262.468987,-1.264569,71.31851
3.5761,0.019328,0.005684,-0.049448,0.004111,-0.004334,0.012943,-0.006036,-0.503316,-0.050009,0.712196,-262.46684,-1.251065,71.323682
3.5963,0.019452,0.006149,-0.049527,0.004131,-0.004288,0.012931,-0.005888,-0.503666,-0.049477,0.712196,-262.46684,-1.251065,71.323682
3.6164,0.019638,0.005829,-0.047647,0.004148,-0.00425,0.012923,-0.005888,-0.503666,-0.049477,0.712196,-262.46684,-1.251065,71.323682
3.6362,0.018948,0.005634,-0.047909,0.004162,-0.004219,0.012917,-0.00449,-0.503781,-0.047105,0.715166,-262.464663,-1.246751,71.328844
3.6568,0.019132,0.005704,-0.048237,0.004095,-0.004242,0.012936,-0.004871,-0.503803,-0.047368,0.715166,-262.464663,-1.246751,71.328844
3.6763,0.018981,0.005603,-0.047375,0.00404,-0.00426,0.012946,-0.005333,-0.503844,-0.047823,0.722663,-262.462447,-1.239732,71.333957
3.6962,0.018951,0.005255,-0.048124,0.004024,-0.004254,0.012942,-0.00518,-0.503834,-0.047395,0.722663,-262.462447,-1.239732,71.333957
3.7162,0.019176,0.005533,-0.047146,0.004011,-0.004249,0.012937,-0.00518,-0.503834,-0.047395,0.722663,-262.462447,-1.239732,71.333957
3.7362,0.018905,0.005363,-0.046169,0.004,-0.004245,0.012932,-0.004699,-0.504085,-0.046607,0.73434,-262.460279,-1.250233,71.339065
3.7566,0.018893,0.005422,-0.046845,0.003954,-0.004247,0.012936,-0.004653,-0.50411,-0.046365,0.73434,-262.460279,-1.250233,71.339065
3.7765,0.018521,0.004836,-0.047201,0.003916,-0.004249,0.012937,-0.004869,-0.504159,-0.046433,0.740063,-262.458113,-1.252573,71.344176
3.7964,0.018589,0.00515,-0.047846,0.00398,-0.004154,0.012901,-0.005476,-0.504564,-0.047111,0.740063,-262.458113,-1.252573,71.344176
3.8164,0.018905,0.005012,-0.045675,0.004033,-0.004078,0.012874,-0.005476,-0.504564,-0.047111,0.740063,-262.458113,-1.252573,71.344176
3.8369,0.019094,0.00485,-0.045872,0.004077,-0.004016,0.012856,-0.004226,-0.50464,-0.045135,0.750557,-262.455976,-1.258979,71.34927
3.8569,0.018532,0.004746,-0.044984,0.003994,-0.004028,0.01288,-0.004235,-0.504651,-0.045374,0.750557,-262.455976,-1.258979,71.34927
3.8764,0.018299,0.004548,-0.046259,0.003927,-0.004038,0.012894,-0.004278,-0.504871,-0.044576,0.754903,-262.45375,-1.239926,71.354261
3.8964,0.018395,0.004636,-0.046188,0.003981,-0.00396,0.012862,-0.005187,-0.50491,-0.046086,0.754903,-262.45375,-1.239926,71.354261
3.9165,0.018338,0.00488,-0.044794,0.004025,-0.003898,0.01284,-0.005187,-0.50491,-0.046086,0.754903,-262.45375,-1.239926,71.354261
3.9367,0.018517,0.004381,-0.044758,0.004062,-0.003849,0.012824,-0.004344,-0.504784,-0.044259,0.773817,-262.451573,-1.252363,71.359235
3.9569,0.018335,0.004458,-0.045919,0.004004,-0.003856,0.012841,-0.004309,-0.504936,-0.0444,0.773817,-262.451573,-1.252363,71.359235
3.9764,0.018133,0.004511,-0.043634,0.003956,-0.003862,0.012851,-0.004952,-0.505132,-0.045513,0.775549,-262.449307,-1.236086,71.36416
3.9968,0.018283,0.003952,-0.044948,0.003905,-0.003863,0.01286,-0.004182,-0.505022,-0.043782,0.775549,-262.449307,-1.236086,71.36416
4.0166,0.01813,0.004685,-0.044259,0.003864,-0.003864,0.012863,-0.004182,-0.505022,-0.043782,0.775549,-262.449307,-1.236086,71.36416
4.0365,0.017872,0.004372,-0.042407,0.00383,-0.003866,0.012863,-0.004277,-0.504984,-0.043722,0.789302,-262.44707,-1.24501,71.369084
4.0566,0.018249,0.003916,-0.04397,0.003787,-0.003867,0.012865,-0.004045,-0.505079,-0.043128,0.789302,-262.44707,-1.24501,71.369084
4.0765,0.017878,0.004071,-0.044047,0.003752,-0.003869,0.012863,-0.004053,-0.505719,-0.043563,0.805955,-262.44486,-1.25501,71.37401
4.0966,0.017504,0.003812,-0.043406,0.003796,-0.00379,0.012831,-0.004532,-0.505463,-0.04399,0.805955,-262.44486,-1.25501,71.37401
4.1163,0.018195,0.004015,-0.045038,0.003832,-0.003728,0.012806,-0.004532,-0.505463,-0.04399,0.805955,-262.44486,-1.25501,71.37401
4.1363,0.017797,0.003708,-0.042548,0.003862,-0.003679,0.012789,-0.004618,-0.505635,-0.044504,0.81583,-262.442683,-1.261131,71.378907
4.1562,0.018062,0.003467,-0.043141,0.003871,-0.003611,0.012778,-0.004303,-0.505735,-0.043636,0.81583,-262.442683,-1.261131,71.378907
4.1763,0.017782,0.003705,-0.041693,0.003878,-0.003557,0.01277,-0.003816,-0.50618,-0.042737,0.819231,-262.440431,-1.24657,71.383732
4.1963,0.017448,0.003641,-0.041595,0.003781,-0.00353,0.012802,-0.0035,-0.505887,-0.041766,0.819231,-262.440431,-1.24657,71.383732
4.2162,0.017813,0.00347,-0.04211,0.003704,-0.003509,0.01282,-0.0035,-0.505887,-0.041766,0.819231,-262.440431,-1.24657,71.383732
4.2361,0.017781,0.00322,-0.041505,0.003641,-0.003494,0.012829,-0.003501,-0.506233,-0.041576,0.830197,-262.438134,-1.241693,71.388528
4.2565,0.017343,0.003278,-0.040291,0.003594,-0.003411,0.012828,-0.003433,-0.506295,-0.041485,0.830197,-262.438134,-1.241693,71.388528
4.2764,0.017825,0.003524,-0.041698,0.003556,-0.003348,0.012823,-0.003093,-0.50642,-0.039897,0.872925,-262.435947,-1.259819,71.39312
4.2963,0.017493,0.002988,-0.040989,0.003515,-0.003342,0.012822,-0.003399,-0.506073,-0.041516,0.872925,-262.435947,-1.259819,71.39312
4.3163,0.016976,0.003239,-0.040866,0.003481,-0.003338,0.012819,-0.003399,-0.506073,-0.041516,0.872925,-262.435947,-1.259819,71.39312
4.3364,0.016663,0.003071,-0.038485,0.003455,-0.003336,0.012813,-0.003719,-0.506479,-0.040336,0.900245,-262.433686,-1.262818,71.397756
4.3568,0.01757,0.00301,-0.040772,0.003444,-0.003251,0.012797,-0.003394,-0.506525,-0.039523,0.900245,-262.433686,-1.262818,71.397756
4.3765,0.017027,0.002928,-0.040623,0.003437,-0.003185,0.012784,-0.003113,-0.506677,-0.040365,0.915003,-262.43143,-1.270642,71.402409
4.3965,0.017022,0.003121,-0.039033,0.00347,-0.003098,0.012756,-0.003628,-0.506659,-0.040579,0.915003,-262.43143,-1.270642,71.402409
4.4165,0.01692,0.003203,-0.040152,0.003498,-0.00303,0.012735,-0.003628,-0.506659,-0.040579,0.915003,-262.43143,-1.270642,71.402409
4.4365,0.01706,0.002764,-0.039564,0.003521,-0.002978,0.012719,-0.003414,-0.506524,-0.039619,0.931449,-262.429136,-1.267782,71.406995
4.4566,0.016551,0.002916,-0.039203,0.003487,-0.002951,0.012729,-0.003275,-0.506668,-0.039535,0.931449,-262.429136,-1.267782,71.406995
4.4764,0.016445,0.002336,-0.036826,0.003461,-0.002931,0.012735,-0.003329,-0.506791,-0.0388,0.936902,-262.426756,-1.254133,71.411522
4.4963,0.016922,0.002685,-0.036846,0.003284,-0.002809,0.012793,-0.002406,-0.507281,-0.036964,0.936902,-262.426756,-1.254133,71.411522
4.5166,0.016894,0.002667,-0.037832,0.003148,-0.002719,0.012827,-0.002406,-0.507281,-0.036964,0.936902,-262.426756,-1.254133,71.411522
4.5364,0.016341,0.002525,-0.038421,0.003043,-0.002652,0.012845,-0.002257,-0.507095,-0.037304,0.950745,-262.424392,-1.258199,71.41599
4.5562,0.016552,0.002329,-0.037422,0.003009,-0.002636,0.012835,-0.002643,-0.507111,-0.037696,0.950745,-262.424392,-1.258199,71.41599
4.5762,0.016352,0.002362,-0.036773,0.002983,-0.002624,0.012824,-0.002446,-0.50739,-0.037069,1.025427,-262.422281,-1.288623,71.419823
4.5964,0.016394,0.002436,-0.036942,0.002916,-0.002582,0.012826,-0.002398,-0.507302,-0.036778,1.025427,-262.422281,-1.288623,71.419823
4.6164,0.016587,0.002326,-0.036526,0.002864,-0.00255,0.012822,-0.002398,-0.507302,-0.036778,1.025427,-262.422281,-1.288623,71.419823
4.6366,0.01641,0.002254,-0.037254,0.002824,-0.002528,0.012815,-0.00192,-0.507445,-0.036004,1.05063,-262.419936,-1.292892,71.42407
4.6565,0.016483,0.00248,-0.038653,0.002747,-0.002487,0.012822,-0.002178,-0.507437,-0.036454,1.05063,-262.419936,-1.292892,71.42407
4.6764,0.015918,0.002228,-0.03414,0.002688,-0.002458,0.012822,-0.00314,-0.507222,-0.038252,1.081143,-262.417555,-1.30453,71.428327
4.6963,0.016362,0.002665,-0.035165,0.002499,-0.002453,0.012868,-0.001599,-0.50746,-0.034404,1.081143,-262.417555,-1.30453,71.428327
4.7162,0.016423,0.00236,-0.034691,0.002353,-0.002452,0.012892,-0.001599,-0.50746,-0.034404,1.081143,-262.417555,-1.30453,71.428327
4.7366,0.015893,0.002072,-0.034144,0.00224,-0.002455,0.012902,-0.00116,-0.507438,-0.034167,1.106942,-262.415199,-1.315257,71.432497
4.7565,0.016,0.002061,-0.035692,0.002069,-0.002451,0.012928,-0.001295,-0.50753,-0.034096,1.106942,-262.415199,-1.315257,71.432497
4.7761,0.015989,0.001974,-0.034316,0.001936,-0.002452,0.012938,-0.002137,-0.507686,-0.035326,1.179292,-262.413094,-1.35738,71.436289
4.7963,0.015922,0.001901,-0.035182,0.001907,-0.002396,0.012908,-0.001556,-0.507726,-0.034379,1.179292,-262.413094,-1.35738,71.436289
4.8165,0.015779,0.001823,-0.034828,0.001886,-0.002356,0.012881,-0.001556,-0.507726,-0.034379,1.179292,-262.413094,-1.35738,71.436289
4.8363,0.015361,0.001583,-0.033435,0.001869,-0.002326,0.012856,-0.001907,-0.507968,-0.034315,1.229417,-262.41091,-1.385918,71.440267
4.8565,0.015673,0.001732,-0.033388,0.001922,-0.002208,0.012808,-0.00181,-0.508045,-0.033902,1.229417,-262.41091,-1.385918,71.440267
4.8764,0.015324,0.001777,-0.033799,0.001966,-0.002119,0.012771,-0.001295,-0.50806,-0.032979,1.244646,-262.408585,-1.389183,71.44439
4.8963,0.014969,0.001519,-0.033069,0.002013,-0.002079,0.01274,-0.001846,-0.507948,-0.033694,1.244646,-262.408585,-1.389183,71.44439
4.9162,0.015069,0.001631,-0.03292,0.00205,-0.002048,0.012718,-0.001846,-0.507948,-0.033694,1.244646,-262.408585,-1.389183,71.44439
4.9362,0.014886,0.002047,-0.03135,0.00208,-0.002024,0.012703,-0.001638,-0.508183,-0.032387,1.237604,-262.40619,-1.375105,71.448419
4.9564,0.015022,0.001578,-0.033448,0.001991,-0.002006,0.012732,-0.00141,-0.507998,-0.031905,1.237604,-262.40619,-1.375105,71.448419
4.976,0.014937,0.001656,-0.031681,0.001922,-0.001994,0.012749,-0.001969,-0.508203,-0.033046,1.222784,-262.403766,-1.36127,71.452393
4.9962,0.01502,0.001558,-0.031401,0.001834,-0.00196,0.012769,-0.001282,-0.508102,-0.031783,1.222784,-262.403766,-1.36127,71.452393
5.0164,0.014403,0.001611,-0.03033,0.001767,-0.001937,0.012779,-0.001282,-0.508102,-0.031783,1.222784,-262.403766,-1.36127,71.452393
5.0364,0.014733,0.001247,-0.031593,0.001715,-0.00192,0.012783,-0.000986,-0.508239,-0.029805,1.250348,-262.401364,-1.376713,71.456317
5.0564,0.014391,0.001096,-0.031522,0.00163,-0.001836,0.012796,-0.001136,-0.508354,-0.030471,1.250348,-262.401364,-1.376713,71.456317
5.077,0.014085,0.001274,-0.03003,0.001566,-0.001775,0.0128,-0.001631,-0.508712,-0.031124,1.287287,-262.398975,-1.396259,71.460164
5.0966,0.014799,0.001334,-0.031912,0.001556,-0.001674,0.012788,-0.001267,-0.508522,-0.030121,1.287287,-262.398975,-1.396259,71.460164
5.1172,0.014315,0.001373,-0.030078,0.00155,-0.001598,0.012776,-0.001267,-0.508522,-0.030121,1.287287,-262.398975,-1.396259,71.460164
5.1364,0.014264,0.001283,-0.030022,0.001547,-0.001541,0.012767,-0.000961,-0.508471,-0.029551,1.317228,-262.396524,-1.408961,71.463981
5.1564,0.014122,0.001523,-0.029643,0.001462,-0.001517,0.012787,-0.000988,-0.508486,-0.029681,1.317228,-262.396524,-1.408961,71.463981
5.1771,0.013999,0.001134,-0.029023,0.001398,-0.0015,0.012797,-0.000946,-0.508303,-0.029236,1.328367,-262.393951,-1.406613,71.467759
5.1969,0.013852,0.00126,-0.03012,0.001289,-0.001447,0.012821,-0.000812,-0.508622,-0.029021,1.328367,-262.393951,-1.406613,71.467759
5.2169,0.013515,0.001482,-0.029301,0.001205,-0.00141,0.012833,-0.000812,-0.508622,-0.029021,1.328367,-262.393951,-1.406613,71.467759
5.2364,0.013921,0.001233,-0.028705,0.001142,-0.001383,0.012837,-0.00137,-0.508363,-0.028771,1.353035,-262.391398,-1.421874,71.471477
5.2568,0.013525,0.00144,-0.029054,0.00119,-0.001418,0.012805,-0.0011,-0.508449,-0.028684,1.353035,-262.391398,-1.421874,71.471477
5.2764,0.013164,0.001042,-0.028434,0.001227,-0.001443,0.012783,-0.001257,-0.508388,-0.02866,1.395768,-262.388878,-1.447623,71.475049
5.2965,0.013647,0.001302,-0.028894,0.001318,-0.001372,0.012744,-0.001326,-0.50872,-0.028435,1.395768,-262.388878,-1.447623,71.475049
5.3163,0.013239,0.001387,-0.029004,0.001391,-0.001316,0.012718,-0.001326,-0.50872,-0.028435,1.395768,-262.388878,-1.447623,71.475049
5.3367,0.012945,0.001295,-0.026224,0.001448,-0.001273,0.012702,-0.001501,-0.50846,-0.028472,1.380313,-262.386299,-1.438922,71.478763
5.3565,0.013136,0.00076,-0.024975,0.001418,-0.001318,0.012721,-0.001057,-0.508495,-0.027492,1.380313,-262.386299,-1.438922,71.478763
5.3768,0.01286,0.000866,-0.026831,0.001394,-0.001354,0.012734,0.000444,-0.509122,-0.024581,1.351045,-262.383708,-1.41175,71.482329
5.3964,0.012829,0.001121,-0.027849,0.001247,-0.001224,0.012783,-0.000705,-0.508968,-0.026606,1.351045,-262.383708,-1.41175,71.482329
5.4168,0.012612,0.001101,-0.025436,0.001136,-0.001128,0.012813,-0.000705,-0.508968,-0.026606,1.351045,-262.383708,-1.41175,71.482329
5.4363,0.012337,0.000724,-0.024811,0.001052,-0.001058,0.01283,-0.000303,-0.508793,-0.024903,1.35712,-262.381078,-1.41931,71.486025
5.4566,0.012285,0.000736,-0.025621,0.000842,-0.001021,0.012884,-0.000301,-0.508933,-0.024804,1.35712,-262.381078,-1.41931,71.486025
5.4761,0.012185,0.000719,-0.026365,0.00068,-0.000997,0.012916,-0.00075,-0.509129,-0.025242,1.416818,-262.378515,-1.45306,71.489371
5.4967,0.01244,0.000905,-0.025674,0.000863,-0.000917,0.012828,-0.001224,-0.509106,-0.026274,1.416818,-262.378515,-1.45306,71.489371
5.5167,0.012054,0.000562,-0.026128,0.001008,-0.000854,0.012768,-0.001224,-0.509106,-0.026274,1.416818,-262.378515,-1.45306,71.489371
5.5368,0.01178,0.000655,-0.024893,0.001122,-0.000802,0.012728,-0.001244,-0.509303,-0.025631,1.472508,-262.375963,-1.494467,71.492655
5.5569,0.011931,0.000467,-0.025417,0.001174,-0.000708,0.012713,-0.001105,-0.50926,-0.025269,1.472508,-262.375963,-1.494467,71.492655
5.5762,0.01191,0.000602,-0.024727,0.001216,-0.000634,0.012704,-0.000999,-0.509392,-0.025054,1.411232,-262.37342,-1.440714,71.495769
5.5966,0.01193,0.000537,-0.025469,0.001126,-0.000581,0.012739,-0.000723,-0.509256,-0.024736,1.411232,-262.37342,-1.440714,71.495769
5.6166,0.011715,0.000908,-0.025038,0.001058,-0.000542,0.012761,-0.000723,-0.509256,-0.024736,1.411232,-262.37342,-1.440714,71.495769
5.6364,0.011794,0.000271,-0.023593,0.001006,-0.000513,0.012775,-0.001004,-0.50896,-0.024512,1.401682,-262.370558,-1.426868,71.499129
5.6567,0.011608,0.000518,-0.022395,0.000955,-0.000508,0.012787,-0.000684,-0.50922,-0.024075,1.401682,-262.370558,-1.426868,71.499129
5.6771,0.011376,0.000732,-0.02086,0.000916,-0.000505,0.012794,0.000218,-0.509371,-0.021999,1.433656,-262.367674,-1.450412,71.502412
5.6969,0.011095,0.000724,-0.023486,0.000382,-0.000504,0.012949,0.000699,-0.509175,-0.02093,1.433656,-262.367674,-1.450412,71.502412
5.7168,0.01118,0.000967,-0.024775,-3.7e-05,-0.000509,0.013046,0.000699,-0.509175,-0.02093,1.433656,-262.367674,-1.450412,71.502412
5.7366,0.010749,0.000554,-0.022195,-0.000366,-0.000518,0.013103,-0.001417,-0.508899,-0.024244,1.446149,-262.364754,-1.461146,71.505728
5.757,0.010817,0.001048,-0.020709,1.1e-05,-0.000602,0.012934,-0.00107,-0.509072,-0.023354,1.446149,-262.364754,-1.461146,71.505728
5.7765,0.010874,0.000371,-0.022663,0.000303,-0.000661,0.012818,0.000261,-0.50885,-0.020532,1.520775,-262.363483,-1.535771,71.507175
5.7962,0.010978,0.000623,-0.021493,0.000384,-0.000569,0.012772,-0.000598,-0.50944,-0.022462,1.520775,-262.363483,-1.535771,71.507175
5.8161,0.010807,0.000621,-0.021611,0.000448,-0.000498,0.012739,-0.000598,-0.50944,-0.022462,1.520775,-262.363483,-1.535771,71.507175
5.8365,0.010398,0.001127,-0.022259,0.0005,-0.000443,0.012716,-0.000201,-0.509287,-0.021076,1.528518,-262.360617,-1.535099,71.510569
5.8564,0.010567,0.000703,-0.022184,0.000521,-0.00054,0.01271,-0.000506,-0.509071,-0.021495,1.528518,-262.360617,-1.535099,71.510569
5.8763,0.010133,0.000933,-0.022086,0.000535,-0.000613,0.012706,-0.000731,-0.509186,-0.021787,1.502628,-262.357741,-1.509968,71.513792
5.8966,0.010543,0.000498,-0.021315,0.000739,-0.000701,0.012641,-0.001093,-0.508965,-0.022039,1.502628,-262.357741,-1.509968,71.513792
5.9163,0.010247,0.000796,-0.019085,0.000896,-0.000765,0.012599,-0.001093,-0.508965,-0.022039,1.502628,-262.357741,-1.509968,71.513792
5.9365,0.009759,0.000288,-0.020723,0.001019,-0.000811,0.012575,0.000536,-0.509137,-0.018553,1.496078,-262.354877,-1.506991,71.517145
5.9566,0.010127,0.000309,-0.018318,0.000715,-0.000709,0.012685,-7e-06,-0.509329,-0.019372,1.496078,-262.354877,-1.506991,71.517145
5.9764,0.009738,0.0008,-0.020189,0.000483,-0.000637,0.012756,0.000814,-0.509629,-0.017967,1.423554,-262.352447,-1.451384,71.520137
5.9966,0.009777,0.000679,-0.019846,0.000475,-0.000661,0.012748,-0.000432,-0.509145,-0.01997,1.423554,-262.352447,-1.451384,71.520137
6.0165,0.00994,0.001039,-0.019057,0.000468,-0.000679,0.01274,-0.000432,-0.509145,-0.01997,1.423554,-262.352447,-1.451384,71.520137
6.0364,0.009451,0.000861,-0.017487,0.000463,-0.000694,0.012734,0.000239,-0.508891,-0.018604,1.498564,-262.35,-1.513575,71.523018
6.0565,0.009343,0.000433,-0.018269,0.000167,-0.00076,0.012812,0.000364,-0.508965,-0.018082,1.498564,-262.35,-1.513575,71.523018
6.0766,0.008934,0.000403,-0.017869,-6.4e-05,-0.000815,0.01286,4.1e-05,-0.509504,-0.017866,1.505586,-262.347179,-1.516247,71.52639
6.0968,0.009007,0.000448,-0.017653,-7.1e-05,-0.000658,0.01283,-0.000158,-0.509515,-0.017848,1.505586,-262.347179,-1.516247,71.52639
6.1164,0.009296,0.000865,-0.017309,-7.6e-05,-0.000539,0.012805,-0.000158,-0.509515,-0.017848,1.505586,-262.347179,-1.516247,71.52639
6.1362,0.008967,2.6e-05,-0.019432,-7.7e-05,-0.00045,0.012785,0.000466,-0.509087,-0.016846,1.579822,-262.344754,-1.578125,71.529376
6.1565,0.0086,0.000574,-0.016881,-9.3e-05,-0.000422,0.01277,-0.000108,-0.509413,-0.017845,1.579822,-262.344754,-1.578125,71.529376
6.1763,0.008791,0.000568,-0.019727,-0.000105,-0.000401,0.012758,-1.1e-05,-0.509367,-0.016472,1.581322,-262.341811,-1.580176,71.532679
6.1967,0.008686,0.000638,-0.019053,0.000244,-0.00042,0.012637,-0.001156,-0.509337,-0.019413,1.581322,-262.341811,-1.580176,71.532679
6.2166,0.008464,0.000548,-0.017252,0.000517,-0.000429,0.012557,-0.001156,-0.509337,-0.019413,1.581322,-262.341811,-1.580176,71.532679
6.2364,0.008235,0.000371,-0.016415,0.000732,-0.00043,0.012508,-0.000339,-0.509393,-0.016718,1.584991,-262.338855,-1.583601,71.535956
6.2565,0.008238,0.000218,-0.015641,0.00059,-0.000375,0.012572,-0.000257,-0.509463,-0.016533,1.584991,-262.338855,-1.583601,71.535956
6.2765,0.008159,0.000187,-0.016766,0.000482,-0.000335,0.012615,0.000272,-0.509729,-0.015369,1.509985,-262.336882,-1.508594,71.538162
6.2964,0.00786,0.000308,-0.0161,0.000417,-0.000194,0.012642,-0.00033,-0.509741,-0.016625,1.509985,-262.336882,-1.508594,71.538162
6.3163,0.007536,0.00019,-0.014569,0.000369,-8.7e-05,0.01266,-0.00033,-0.509741,-0.016625,1.509985,-262.336882,-1.508594,71.538162
6.3367,0.00787,0.000991,-0.015737,0.000335,-5e-06,0.012671,0.000126,-0.50977,-0.014041,1.505533,-262.333929,-1.510955,71.541383
6.3562,0.007513,0.000413,-0.014021,0.000192,-6e-05,0.012695,1.4e-05,-0.509436,-0.01467,1.505533,-262.333929,-1.510955,71.541383
6.3763,0.007183,0.000326,-0.016059,8e-05,-0.000102,0.012706,0.000373,-0.509538,-0.013622,1.527516,-262.33087,-1.527577,71.544446
6.3964,0.007501,0.000289,-0.016164,0.00031,-8.5e-05,0.012622,-0.00088,-0.509602,-0.015816,1.527516,-262.33087,-1.527577,71.544446
6.4166,0.007152,0.000391,-0.01449,0.00049,-6.7e-05,0.012566,-0.00088,-0.509602,-0.015816,1.527516,-262.33087,-1.527577,71.544446
6.4367,0.006927,0.000269,-0.013162,0.000631,-5.1e-05,0.012532,-0.000235,-0.50956,-0.013976,1.56038,-262.327911,-1.560651,71.547483
6.4569,0.007072,0.000621,-0.01442,0.000442,-1.5e-05,0.01257,-5.2e-05,-0.509612,-0.013586,1.56038,-262.327911,-1.560651,71.547483
6.4762,0.006787,0.000482,-0.014615,0.000296,1e-05,0.012589,-0.000265,-0.509327,-0.014081,1.487969,-262.325327,-1.489051,71.550102
6.4963,0.006878,0.000511,-0.015492,0.000406,-4.8e-05,0.012547,-0.00063,-0.509451,-0.01455,1.487969,-262.325327,-1.489051,71.550102
6.5164,0.007117,0.000269,-0.013557,0.000491,-9e-05,0.012519,-0.00063,-0.509451,-0.01455,1.487969,-262.325327,-1.489051,71.550102
6.537,0.006425,0.000564,-0.014543,0.000557,-0.000121,0.012502,0.000215,-0.509684,-0.01306,1.532412,-262.322429,-1.532316,71.552993
6.5572,0.006416,0.000697,-0.013908,0.000471,-9.3e-05,0.012515,-0.00027,-0.509563,-0.013601,1.532412,-262.322429,-1.532316,71.552993
6.5762,0.006221,0.000186,-0.010915,0.000406,-7.3e-05,0.012521,-0.00066,-0.509257,-0.013522,1.496868,-262.319527,-1.499158,71.555987
6.5965,0.006417,0.00024,-0.01265,5.7e-05,3.6e-05,0.012488,0.000534,-0.509736,-0.011135,1.496868,-262.319527,-1.499158,71.555987
6.6168,0.006061,0.00042,-0.012892,-0.000217,0.000115,0.012444,0.000534,-0.509736,-0.011135,1.496868,-262.319527,-1.499158,71.555987
6.6363,0.006034,0.000301,-0.012726,-0.00043,0.000173,0.012394,-0.000497,-0.509541,-0.012374,1.517233,-262.316531,-1.518245,71.559041
6.6565,0.006234,0.000528,-0.012124,-0.000211,0.000128,0.012307,-0.000479,-0.509588,-0.012457,1.517233,-262.316531,-1.518245,71.559041
6.6765,0.00576,0.000358,-0.012735,-4.3e-05,9.7e-05,0.01225,4.8e-05,-0.509431,-0.011855,1.592227,-262.314414,-1.593239,71.561064
6.6965,0.00587,0.000481,-0.010679,0.000155,7.2e-05,0.012192,-0.000674,-0.509587,-0.012654,1.592227,-262.314414,-1.593239,71.561064
6.7163,0.005714,0.001082,-0.01203,0.000308,5.6e-05,0.012157,-0.000674,-0.509587,-0.012654,1.592227,-262.314414,-1.593239,71.561064
6.7365,0.005386,0.000634,-0.010405,0.000428,4.6e-05,0.012137,-0.000423,-0.508878,-0.011523,1.576459,-262.311423,-1.576608,71.563977
6.7564,0.005395,0.000447,-0.010861,0.000385,-0.00015,0.012081,-0.00022,-0.509063,-0.011014,1.576459,-262.311423,-1.576608,71.563977
6.7762,0.005308,0.000613,-0.010244,0.000347,-0.000302,0.012034,-0.000132,-0.509522,-0.010521,1.5135,-262.308796,-1.512788,71.566573
6.7966,0.005128,0.00018,-0.008581,0.0002,-0.000289,0.011965,6.5e-05,-0.509375,-0.010251,1.5135,-262.308796,-1.512788,71.566573
6.8165,0.004967,0.000153,-0.010239,8.5e-05,-0.000282,0.011904,6.5e-05,-0.509375,-0.010251,1.5135,-262.308796,-1.512788,71.566573
6.8367,0.004979,0.00042,-0.01003,-6e-06,-0.00028,0.01185,-0.000241,-0.509833,-0.009737,1.521568,-262.305983,-1.525443,71.569626
6.8571,0.005065,0.000477,-0.009508,1.5e-05,-0.000142,0.011726,-0.000197,-0.509721,-0.009799,1.521568,-262.305983,-1.525443,71.569626
6.8761,0.004798,0.000418,-0.008465,3.1e-05,-3.7e-05,0.011631,0.000216,-0.509508,-0.009156,1.571648,-262.303399,-1.571585,71.572417
6.8966,0.005042,0.000101,-0.008044,-0.000185,9e-06,0.011467,0.000457,-0.509559,-0.008509,1.571648,-262.303399,-1.571585,71.572417
6.9167,0.004531,0.000345,-0.009638,-0.000358,3.9e-05,0.011331,0.000457,-0.509559,-0.008509,1.571648,-262.303399,-1.571585,71.572417
6.9365,0.004265,0.000296,-0.007322,-0.000495,5.9e-05,0.01122,-0.000383,-0.509633,-0.009151,1.566347,-262.300575,-1.566393,71.575271
6.9566,0.004517,0.000558,-0.007702,-0.000426,0.000102,0.011049,-9e-06,-0.509657,-0.008348,1.566347,-262.300575,-1.566393,71.575271
6.9763,0.004056,0.000625,-0.007293,-0.000375,0.000135,0.010922,0.000576,-0.509425,-0.007406,1.641331,-262.298277,-1.641377,71.577529
6.9964,0.004059,0.00061,-0.007065,-0.000452,6.9e-05,0.010694,0.000357,-0.509367,-0.007288,1.641331,-262.298277,-1.641377,71.577529
7.0165,0.004085,0.000709,-0.009442,-0.000517,1.6e-05,0.010519,0.000357,-0.509367,-0.007288,1.641331,-262.298277,-1.641377,71.577529
7.0364,0.003875,0.0008,-0.008538,-0.000573,-2.6e-05,0.010385,-0.000746,-0.509262,-0.008987,1.625804,-262.29557,-1.628063,71.580131
7.0567,0.003829,0.000384,-0.007914,-0.000261,-0.000151,0.010382,-0.000639,-0.509229,-0.008752,1.625804,-262.29557,-1.628063,71.580131
7.0761,0.003794,0.00062,-0.007412,-2e-05,-0.000243,0.010394,-0.000225,-0.509601,-0.007595,1.66126,-262.293125,-1.660525,71.582595
7.0966,0.003269,0.000425,-0.007159,-5.6e-05,-0.000223,0.010291,-9e-06,-0.509387,-0.007413,1.66126,-262.293125,-1.660525,71.582595
7.1167,0.003778,0.000489,-0.008914,-8.5e-05,-0.000209,0.010212,-9e-06,-0.509387,-0.007413,1.66126,-262.293125,-1.660525,71.582595
7.1363,0.003413,0.000295,-0.006167,-0.000109,-0.000201,0.010151,-0.000771,-0.509499,-0.008573,1.586254,-262.291207,-1.585518,71.584666
7.1565,0.003419,0.000118,-0.006608,-7e-06,-0.000128,0.010083,-0.000348,-0.50958,-0.007552,1.586254,-262.291207,-1.585518,71.584666
7.1763,0.002945,0.000598,-0.00534,7.4e-05,-7.2e-05,0.010036,4.6e-05,-0.509877,-0.006284,1.588984,-262.288808,-1.587842,71.587226
7.1963,0.003101,0.000661,-0.007607,-3.9e-05,-3.4e-05,0.009611,0.000206,-0.509437,-0.005407,1.588984,-262.288808,-1.587842,71.587226
7.2164,0.003274,0.000236,-0.006248,-0.000134,-9e-06,0.0093,0.000206,-0.509437,-0.005407,1.588984,-262.288808,-1.587842,71.587226
7.2362,0.002952,0.000334,-0.006581,-0.000212,5e-06,0.009071,9e-05,-0.509756,-0.00584,1.558655,-262.286451,-1.558937,71.589638
7.2563,0.002829,0.000678,-0.004974,-0.000176,0.000105,0.009025,-0.000112,-0.509715,-0.006097,1.558655,-262.286451,-1.558937,71.589638
7.2763,0.002297,0.000345,-0.00411,-0.000148,0.000181,0.008993,0.000286,-0.509316,-0.004708,1.609043,-262.284405,-1.609115,71.591681
7.2962,0.002283,0.000719,-0.006209,-0.000214,0.000247,0.008475,0.000208,-0.50962,-0.00415,1.609043,-262.284405,-1.609115,71.591681
7.3164,0.002516,0.000121,-0.004698,-0.000273,0.000293,0.008103,0.000208,-0.50962,-0.00415,1.609043,-262.284405,-1.609115,71.591681
7.3363,0.001979,0.00067,-0.005031,-0.000325,0.000325,0.007835,0.000114,-0.509866,-0.004323,1.59694,-262.282144,-1.598718,71.593798
7.3563,0.002033,0.00035,-0.004884,-0.000229,0.000337,0.007722,-0.000173,-0.509644,-0.004569,1.59694,-262.282144,-1.598718,71.593798
7.3763,0.001993,0.000635,-0.003685,-0.000157,0.000346,0.007643,-0.000468,-0.509634,-0.004647,1.63424,-262.280204,-1.643456,71.595492
7.3964,0.00205,0.000543,-0.00423,-0.000169,0.000271,0.007363,6.2e-05,-0.509385,-0.003759,1.63424,-262.280204,-1.643456,71.595492
7.4164,0.002214,0.000546,-0.003571,-0.000184,0.00021,0.007162,6.2e-05,-0.509385,-0.003759,1.63424,-262.280204,-1.643456,71.595492
7.4368,0.001727,0.000701,-0.003608,-0.000201,0.000162,0.007017,0.000387,-0.509436,-0.003263,1.602088,-262.278272,-1.607099,71.597158
7.4564,0.001748,0.000396,-0.003854,-0.000258,0.000132,0.006789,0.000184,-0.509378,-0.003367,1.602088,-262.278272,-1.607099,71.597158
7.4763,0.001828,0.000263,-0.004436,-0.000306,0.000106,0.006623,-0.000224,-0.509595,-0.003631,1.616005,-262.2765,-1.619561,71.5988
7.4964,0.002058,0.000595,-0.003562,-0.000149,0.000186,0.006744,-0.000415,-0.509719,-0.004351,1.616005,-262.2765,-1.619561,71.5988
7.5167,0.001307,0.000322,-0.003877,-2.4e-05,0.000249,0.00684,-0.000415,-0.509719,-0.004351,1.616005,-262.2765,-1.619561,71.5988
7.5364,0.001528,0.000482,-0.003189,7.5e-05,0.0003,0.006915,-0.000682,-0.50967,-0.003607,1.644399,-262.274878,-1.648344,71.600339
7.5565,0.001968,0.000547,-0.003951,0.000189,0.000314,0.006668,-0.000446,-0.509607,-0.003406,1.644399,-262.274878,-1.648344,71.600339
7.5765,0.001106,0.000592,-0.002606,0.000275,0.000324,0.006495,-4.7e-05,-0.509442,-0.003785,1.569397,-262.273506,-1.573342,71.60153
7.5968,0.001328,0.000727,-0.005297,0.000272,0.000272,0.006124,-0.000209,-0.509408,-0.002692,1.569397,-262.273506,-1.573342,71.60153
7.6167,0.0013,0.00043,-0.00426,0.000264,0.00023,0.005859,-0.000209,-0.509408,-0.002692,1.569397,-262.273506,-1.573342,71.60153
7.6365,0.001324,0.000379,-0.002115,0.000254,0.000196,0.005668,-0.000863,-0.509554,-0.004029,1.506891,-262.272046,-1.498027,71.60277
7.6563,0.001027,0.000468,-0.003453,0.000306,0.000221,0.005716,-0.000422,-0.509579,-0.003242,1.506891,-262.272046,-1.498027,71.60277
7.6761,0.001296,0.000466,-0.001879,0.000347,0.00024,0.005753,-0.000726,-0.509523,-0.003273,1.501403,-262.27058,-1.493084,71.604079
7.6961,0.000958,0.000598,-0.00182,0.000153,0.000276,0.005343,0.000242,-0.509532,-0.001996,1.501403,-262.27058,-1.493084,71.604079
7.7163,0.001248,0.000522,-0.002136,-4e-06,0.000299,0.005041,0.000242,-0.509532,-0.001996,1.501403,-262.27058,-1.493084,71.604079
7.7363,0.001072,0.000695,-0.002554,-0.000131,0.000313,0.004817,0.000173,-0.509467,-0.0019,1.47868,-262.269103,-1.465289,71.605369
7.7565,0.001157,0.000939,-0.000955,-0.000142,0.000257,0.004692,1e-05,-0.509399,-0.002141,1.47868,-262.269103,-1.465289,71.605369
7.7761,0.000918,0.00094,-0.000704,-0.000154,0.000212,0.004601,0.000671,-0.509055,-0.000876,1.553679,-262.268431,-1.540289,71.605912
7.7964,0.000937,0.000716,-0.000895,-0.000317,8.8e-05,0.003875,0.000567,-0.509059,-0.000713,1.553679,-262.268431,-1.540289,71.605912
7.8169,0.001071,0.000546,-0.001646,-0.000456,-1.1e-05,0.003342,0.000567,-0.509059,-0.000713,1.553679,-262.268431,-1.540289,71.605912
7.8362,0.000811,0.000605,-9.2e-05,-0.000574,-9e-05,0.002951,0.000227,-0.509447,-0.00149,1.621694,-262.26745,-1.615819,71.606756
7.8565,0.001148,0.000749,-0.002659,-0.000657,-2.2e-05,0.002759,0.000445,-0.509425,-0.000904,1.621694,-262.26745,-1.615819,71.606756
7.8761,0.000904,0.00058,-0.002707,-0.000725,2.6e-05,0.002616,-0.000208,-0.509249,-0.002659,1.547222,-262.26745,-1.541347,71.606756
7.8962,0.000977,0.000727,-0.001015,-0.000482,-9e-06,0.00321,-0.000453,-0.509403,-0.002703,1.547222,-262.26745,-1.541347,71.606756
7.9163,0.000694,0.000567,-0.002316,-0.000287,-3e-05,0.003661,-0.000453,-0.509403,-0.002703,1.547222,-262.26745,-1.541347,71.606756
7.9361,0.000807,0.000837,-0.000779,-0.000131,-4.2e-05,0.004002,-0.000487,-0.509431,-0.002316,1.472175,-262.26745,-1.4663,71.606756
7.9561,0.000983,0.000808,-0.003018,-0.000104,-5.2e-05,0.00388,-0.000126,-0.509323,-0.001697,1.472175,-262.26745,-1.4663,71.606756
7.9763,0.000681,0.000929,-0.001352,-8.5e-05,-6e-05,0.003793,-0.000555,-0.50919,-0.002959,1.547079,-262.267006,-1.541204,71.607215
7.9966,0.000782,0.000629,-0.000965,-8.4e-05,-0.000153,0.003646,-5.7e-05,-0.509081,-0.001493,1.547079,-262.267006,-1.541204,71.607215
8.0168,0.000736,0.000688,-0.001621,-8.6e-05,-0.000225,0.00354,-5.7e-05,-0.509081,-0.001493,1.547079,-262.267006,-1.541204,71.607215
8.0364,0.000788,0.00062,-0.001805,-9.1e-05,-0.00028,0.003463,-9.4e-05,-0.509314,-0.001482,1.608409,-262.266212,-1.606506,71.608051
8.0562,0.00072,0.000232,-0.001285,-8.9e-05,-0.000228,0.003455,-0.00011,-0.509341,-0.001597,1.608409,-262.266212,-1.606506,71.608051
8.0767,0.000734,0.000555,-0.0025,-8.7e-05,-0.000189,0.003449,6.2e-05,-0.509777,-0.001175,1.620109,-262.265479,-1.608586,71.609008
8.0969,0.000488,0.000586,-0.001749,3.4e-05,-0.000131,0.003734,-0.000487,-0.509473,-0.002376,1.620109,-262.265479,-1.608586,71.609008
8.1168,0.000733,0.000714,-0.000346,0.000133,-8.4e-05,0.003948,-0.000487,-0.509473,-0.002376,1.620109,-262.265479,-1.608586,71.609008
8.1363,0.00062,0.000633,-0.000806,0.000214,-4.5e-05,0.004108,0.000553,-0.509294,-0.000201,1.616293,-262.264707,-1.608813,71.609931
8.1564,0.000687,0.000477,-0.000991,-2e-06,-1.8e-05,0.003386,0.000409,-0.509325,-0.000437,1.616293,-262.264707,-1.608813,71.609931
8.176,0.00046,0.001039,0.000327,-0.000178,-1e-06,0.002856,0.000183,-0.509523,-0.000914,1.540918,-262.264121,-1.533437,71.610539
8.1964,0.00038,0.000811,-0.002405,-0.000349,-9.9e-05,0.002133,0.000586,-0.509011,0.000219,1.540918,-262.264121,-1.533437,71.610539
8.2163,0.000755,0.000607,-0.001403,-0.000494,-0.000176,0.001595,0.000586,-0.509011,0.000219,1.540918,-262.264121,-1.533437,71.610539
8.2363,0.000626,0.000533,0.000305,-0.000615,-0.000238,0.001195,3.8e-05,-0.509393,-0.001337,1.615542,-262.263732,-1.608061,71.610928
8.2567,9.9e-05,0.000694,-0.00259,-0.000677,-0.000153,0.001356,0.00034,-0.509423,-0.000662,1.615542,-262.263732,-1.608061,71.610928
8.2763,0.000282,0.000208,-0.002216,-0.000725,-9e-05,0.001469,-0.001222,-0.509304,-0.00259,1.540486,-262.263732,-1.533006,71.610928
8.2964,0.000371,0.000651,-0.001287,-0.000366,2e-05,0.002136,-0.000882,-0.509746,-0.00225,1.540486,-262.263732,-1.533006,71.610928
8.3163,0.000144,0.000738,-0.002406,-7.5e-05,0.000113,0.002646,-0.000882,-0.509746,-0.00225,1.540486,-262.263732,-1.533006,71.610928
8.3365,0.000309,0.00044,-0.00236,0.000161,0.000193,0.003036,-0.001083,-0.50926,-0.002406,1.465542,-262.263732,-1.458061,71.610928
8.3564,0.000881,0.000834,-0.001265,0.0004,0.00012,0.003372,-0.001006,-0.509382,-0.002387,1.465542,-262.263732,-1.458061,71.610928
8.3764,0.000116,0.00066,-0.002505,0.000591,7e-05,0.00363,0.000241,-0.50916,-0.00117,1.492371,-262.262925,-1.474218,71.611584
8.3965,0.000363,0.000646,-0.002077,0.000754,1.5e-05,0.003822,-0.00103,-0.509321,-0.002375,1.492371,-262.262925,-1.474218,71.611584
8.4164,0.00029,0.000682,-0.000676,0.000885,-2.2e-05,0.003971,-0.00103,-0.509321,-0.002375,1.492371,-262.262925,-1.474218,71.611584
8.4364,0.000579,0.000321,-0.002226,0.00099,-4.7e-05,0.004087,-4.9e-05,-0.509317,-0.000617,1.417466,-262.262566,-1.399313,71.611923
8.4564,0.000508,0.000803,-0.000466,0.000824,2.3e-05,0.003766,-0.000254,-0.509463,-0.001263,1.417466,-262.262566,-1.399313,71.611923
8.4761,1e-06,0.000187,-0.001916,0.000694,7.2e-05,0.003531,0.000275,-0.509197,-0.000436,1.34247,-262.26233,-1.324317,71.612166
8.4965,0.000455,0.000984,-0.000798,0.000787,0.0002,0.00354,-0.000864,-0.509757,-0.001781,1.34247,-262.26233,-1.324317,71.612166
8.5166,-2e-05,0.000466,0.000959,0.000863,0.0003,0.003551,-0.000864,-0.509757,-0.001781,1.34247,-262.26233,-1.324317,71.612166
8.5366,8.9e-05,0.000343,-0.001436,0.000926,0.000378,0.003564,0.000493,-0.509531,0.001083,1.268896,-262.261547,-1.24938,71.612903
8.5563,0.000396,0.000904,-0.001093,0.000703,0.000412,0.002725,3e-05,-0.509582,6.6e-05,1.268896,-262.261547,-1.24938,71.612903
8.5766,0.000156,0.000737,-0.000512,0.000521,0.000435,0.002106,-0.000143,-0.509088,-0.001017,1.223184,-262.26083,-1.174269,71.613437
8.5964,0.000141,0.000652,-7.5e-05,0.000419,0.000305,0.001971,-0.000108,-0.509245,-0.000558,1.223184,-262.26083,-1.174269,71.613437
8.6163,0.000111,0.000499,-0.000646,0.000335,0.000203,0.001868,-0.000108,-0.509245,-0.000558,1.223184,-262.26083,-1.174269,71.613437
8.6364,0.000179,0.000398,-0.000288,0.000265,0.000123,0.001789,-0.000205,-0.509489,-0.000587,1.276857,-262.260357,-1.099388,71.613699
8.6566,0.00057,0.000264,-0.001042,0.000199,0.000177,0.001677,-0.000106,-0.509535,-0.000457,1.276857,-262.260357,-1.099388,71.613699
8.6764,0.000114,0.000651,-0.001273,0.000146,0.000216,0.001592,4.4e-05,-0.509734,-0.001017,1.352046,-262.260127,-1.174577,71.613885
8.6965,0.000418,0.000521,-0.00179,0.000233,0.000158,0.001896,-0.00049,-0.509378,-0.001252,1.352046,-262.260127,-1.174577,71.613885
8.7166,0.000101,0.000136,-0.00093,0.000303,0.000117,0.002123,-0.00049,-0.509378,-0.001252,1.352046,-262.260127,-1.174577,71.613885
8.7365,-1.5e-05,0.000142,-0.001524,0.000359,8.7e-05,0.002291,-0.00037,-0.50986,-0.000902,1.427254,-262.259918,-1.249785,71.61402
8.7571,0.000411,0.000652,0.000358,0.00041,0.000258,0.002367,-0.000548,-0.509859,-0.001161,1.427254,-262.259918,-1.249785,71.61402
8.7766,0.000271,0.000562,-0.00124,0.000454,0.00039,0.002424,0.000603,-0.509345,0.000418,1.35218,-262.259413,-1.303744,71.614468
8.7965,0.00026,0.000869,-0.001063,0.000407,0.000326,0.002458,-0.000275,-0.509429,-0.001089,1.35218,-262.259413,-1.303744,71.614468
8.8166,0.000178,0.000759,-0.002183,0.000369,0.000277,0.002482,-0.000275,-0.509429,-0.001089,1.35218,-262.259413,-1.303744,71.614468
8.8363,0.00029,0.000513,-0.000307,0.00034,0.000239,0.002498,-0.000922,-0.509227,-0.002105,1.332601,-262.258824,-1.229208,71.61483
8.8566,-1.8e-05,0.000693,-0.001097,0.000392,0.000165,0.002615,-0.000485,-0.509333,-0.001354,1.332601,-262.258824,-1.229208,71.61483
8.8763,0.000154,0.000543,0.000195,0.000432,0.000109,0.002703,-0.000568,-0.5093,-0.001029,1.38074,-262.258204,-1.304322,71.615289
8.8962,0.000213,0.000767,0.00179,0.000246,0.000146,0.002081,0.000184,-0.509443,9.3e-05,1.38074,-262.258204,-1.304322,71.615289
8.9162,-0.000147,0.000605,-0.000246,9.4e-05,0.00017,0.00162,0.000184,-0.509443,9.3e-05,1.38074,-262.258204,-1.304322,71.615289
8.9362,0.000414,0.000439,-0.001756,-3e-05,0.000186,0.001277,-0.000255,-0.50939,-0.000138,1.330002,-262.257509,-1.29751,71.615903
8.9563,-6.7e-05,0.000561,-0.001234,4.7e-05,0.000173,0.001439,-0.000347,-0.50946,-0.000793,1.330002,-262.257509,-1.29751,71.615903
8.9762,0.000235,0.000814,6.1e-05,0.000108,0.000165,0.00156,-0.000696,-0.509438,-0.001231,1.404954,-262.257488,-1.372463,71.615916
8.9963,0.000176,0.000806,0.001535,-1.6e-05,8.7e-05,0.001308,0.000183,-0.509208,-5.1e-05,1.404954,-262.257488,-1.372463,71.615916
9.0163,-8e-06,0.000372,0.000112,-0.000117,2.4e-05,0.001119,0.000183,-0.509208,-5.1e-05,1.404954,-262.257488,-1.372463,71.615916
9.0364,-5.2e-05,0.000777,-0.000642,-0.000199,-2.6e-05,0.000976,5.3e-05,-0.509622,0.000168,1.474716,-262.257097,-1.434766,71.616192
9.0564,0.000191,0.000595,0.000483,-0.000161,2.2e-05,0.000895,-0.000126,-0.509456,-0.00016,1.474716,-262.257097,-1.434766,71.616192
9.0762,0.000559,0.000685,0.000484,-0.000133,5.7e-05,0.000836,0.000437,-0.509405,0.000483,1.399672,-262.257097,-1.359722,71.616192
9.0964,-0.000134,0.000248,0.001278,-0.000419,6.6e-05,0.000548,0.000773,-0.509323,0.000484,1.399672,-262.257097,-1.359722,71.616192
9.1164,-5.7e-05,0.000242,-0.000183,-0.000647,6.9e-05,0.000324,0.000773,-0.509323,0.000484,1.399672,-262.257097,-1.359722,71.616192
9.1362,9.9e-05,0.000875,0.000647,-0.000828,6.8e-05,0.00015,-0.000151,-0.509758,-0.000183,1.324806,-262.257097,-1.284855,71.616192
9.1563,-8.4e-05,0.000751,-0.000869,-0.000737,0.000107,0.000116,8.4e-05,-0.509502,0.000153,1.324806,-262.257097,-1.284855,71.616192
9.1761,0.00017,0.000553,-0.000192,-0.000667,0.000137,9.3e-05,-0.000527,-0.509249,-0.000869,1.249801,-262.257097,-1.209851,71.616192
9.1962,0.000175,0.000332,-0.000817,-0.000598,0.000122,0.000296,1.7e-05,-0.509429,-0.000254,1.249801,-262.257097,-1.209851,71.616192
9.2162,0.000253,0.001047,-0.000541,-0.000543,0.000113,0.000445,1.7e-05,-0.509429,-0.000254,1.249801,-262.257097,-1.209851,71.616192
9.2362,3.6e-05,0.000182,-0.00099,-0.000499,0.000107,0.000556,-2.3e-05,-0.508953,-0.000541,1.174796,-262.257097,-1.134845,71.616192
9.2561,-0.000223,0.000781,-0.000102,0.0,0.0,0.0,-0.000208,-0.509313,-0.000728,1.174796,-262.257097,-1.134845,71.616192
