mach0312/omni-docking-bench/src/icros_test_setup/results/MPPI_sample/timeseries/trial_093.csv
t,x,y,yaw,vx,vy,wz,bl_x,bl_y,bl_yaw,front_steering_joint,front_wheel_joint,rear_steering_joint,rear_wheel_joint
0.0,-0.020424,0.028981,0.034135,0.006242,0.002676,0.002018,-0.003913,-0.481201,0.034199,0.559447,-263.103957,0.227255,66.204859
0.0003,-0.020721,0.028423,0.034568,0.005728,0.002456,0.001852,-0.003913,-0.481201,0.034199,0.559447,-263.100789,0.227255,66.207614
0.0006,-0.020226,0.029151,0.033433,0.005167,0.002215,0.00167,-0.003366,-0.481367,0.03499,0.559447,-263.098085,0.227255,66.209966
0.0008,-0.020129,0.028763,0.035352,0.004562,0.001956,0.001475,-0.003366,-0.481367,0.03499,0.559447,-263.096234,0.227255,66.211577
0.001,-0.019814,0.028838,0.035905,0.003916,0.001679,0.001266,-0.003366,-0.481367,0.03499,0.559447,-263.096234,0.227255,66.211577
0.0012,-0.020074,0.029219,0.034722,0.003222,0.001381,0.001042,-0.003867,-0.481083,0.033855,0.559447,-263.096234,0.227255,66.211577
0.0015,-0.019772,0.029511,0.033555,0.002481,0.001064,0.000802,-0.003867,-0.481083,0.033855,0.559447,-263.096234,0.227255,66.211577
0.0081,-0.020009,0.028861,0.035056,0.0,0.0,0.0,-0.002501,-0.480126,0.033608,0.559447,-263.096234,0.227255,66.211577
0.0281,-0.020048,0.029048,0.034806,0.0,0.0,0.0,-0.002331,-0.480406,0.034212,0.559447,-263.096234,0.227255,66.211577
0.0481,-0.019525,0.02893,0.035409,0.0,0.0,0.0,-0.002222,-0.480606,0.034831,0.559447,-263.095065,0.227255,66.212594
0.0682,-0.019711,0.028805,0.032429,0.0,0.0,0.0,-0.001532,-0.480736,0.035359,0.559447,-263.095065,0.227255,66.212594
0.0879,-0.019163,0.029159,0.034552,0.0,0.0,0.0,-0.001532,-0.480736,0.035359,0.559447,-263.095065,0.227255,66.212594
0.1079,-0.019503,0.028884,0.035733,0.0,0.0,0.0,-0.001545,-0.480536,0.034552,0.559447,-263.095065,0.227255,66.212594
0.128,-0.019507,0.029071,0.035905,0.002597,-0.002198,-0.010281,-0.001437,-0.480641,0.03504,0.559447,-263.095065,0.227255,66.212594
0.148,-0.019954,0.02931,0.035418,0.002744,-0.002386,-0.010844,-0.001199,-0.4806,0.035905,0.559447,-263.095065,0.227255,66.212594
0.1682,-0.019797,0.028819,0.035323,0.002877,-0.002552,-0.01131,-0.001839,-0.480388,0.035457,0.559447,-263.095065,0.227255,66.212594
0.1877,-0.019452,0.029099,0.035351,0.002986,-0.002699,-0.01168,-0.001839,-0.480388,0.035457,0.559447,-263.095065,0.227255,66.212594
0.2078,-0.020013,0.029369,0.033533,0.002986,-0.002699,-0.01168,-0.001427,-0.480582,0.035351,0.484293,-263.095065,0.302408,66.212594
0.2277,-0.019678,0.028924,0.036621,0.003168,-0.002942,-0.012246,-0.002045,-0.480483,0.034595,0.484293,-263.095065,0.302408,66.212594
0.2477,-0.019814,0.029126,0.032821,0.003236,-0.003043,-0.012445,-0.001005,-0.480734,0.036621,0.409305,-263.095065,0.377397,66.212594
0.2678,-0.019705,0.029216,0.035527,0.003323,-0.003131,-0.012627,-0.002892,-0.480612,0.033163,0.409305,-263.095065,0.377397,66.212594
0.2877,-0.019586,0.029239,0.035851,0.003394,-0.003208,-0.012772,-0.002892,-0.480612,0.033163,0.409305,-263.095065,0.377397,66.212594
0.308,-0.01993,0.029003,0.034216,0.003394,-0.003208,-0.012772,-0.001306,-0.480434,0.035851,0.334575,-263.095065,0.452127,66.212594
0.3278,-0.019504,0.029355,0.03539,0.003438,-0.003339,-0.013097,-0.001792,-0.480543,0.035176,0.334575,-263.095065,0.452127,66.212594
0.3482,-0.019392,0.028937,0.035088,0.003455,-0.003393,-0.013213,-0.001459,-0.480326,0.03539,0.259467,-263.095065,0.527235,66.212594
0.368,-0.019626,0.028958,0.03557,0.00346,-0.003441,-0.013306,-0.001497,-0.480709,0.035117,0.259467,-263.095065,0.527235,66.212594
0.3883,-0.019487,0.029216,0.034792,0.003464,-0.003482,-0.013381,-0.001497,-0.480709,0.035117,0.259467,-263.095065,0.527235,66.212594
0.4082,-0.019769,0.029203,0.034431,0.003464,-0.003482,-0.013381,-0.001747,-0.480476,0.034792,0.184581,-263.095065,0.60212,66.212594
0.4282,-0.019508,0.029054,0.035047,0.003498,-0.003552,-0.013496,-0.001935,-0.480484,0.034646,0.184581,-263.095065,0.60212,66.212594
0.4477,-0.020001,0.028843,0.034968,0.003511,-0.00358,-0.013538,-0.001638,-0.480633,0.035047,0.109575,-263.095065,0.677126,66.212594
0.4676,-0.019244,0.028992,0.03488,0.00353,-0.003605,-0.013573,-0.002129,-0.480828,0.034974,0.109575,-263.095065,0.677126,66.212594
0.4879,-0.019649,0.029091,0.034292,0.003546,-0.003628,-0.013602,-0.002129,-0.480828,0.034974,0.109575,-263.095065,0.677126,66.212594
0.5077,-0.019586,0.028997,0.035597,0.003546,-0.003628,-0.013602,-0.002164,-0.480609,0.034292,0.034248,-263.095065,0.752454,66.212594
0.5277,-0.019562,0.029134,0.035468,0.003554,-0.003665,-0.013641,-0.001863,-0.480638,0.034831,0.034248,-263.095065,0.752454,66.212594
0.5475,-0.019796,0.029227,0.034338,0.003557,-0.003681,-0.013655,-0.001477,-0.480545,0.035468,-0.040539,-263.095064,0.827241,66.212594
0.5677,-0.019855,0.029316,0.03434,0.003571,-0.003694,-0.013669,-0.002213,-0.480479,0.034441,-0.040539,-263.095064,0.827241,66.212594
0.5875,-0.019468,0.029362,0.034558,0.003582,-0.003706,-0.01368,-0.002213,-0.480479,0.034441,-0.040539,-263.095064,0.827241,66.212594
0.6079,-0.019642,0.028862,0.035075,0.003582,-0.003706,-0.01368,-0.001847,-0.480334,0.034558,-0.115457,-263.095064,0.902159,66.212594
0.628,-0.019602,0.029307,0.034335,0.003576,-0.003726,-0.013692,-0.00181,-0.480538,0.034773,-0.115457,-263.095064,0.902159,66.212594
0.6482,-0.019837,0.029218,0.036038,0.003573,-0.003735,-0.013697,-0.002094,-0.480392,0.034335,-0.19066,-263.095063,0.914312,66.212594
0.6679,-0.019664,0.029071,0.035127,0.00356,-0.003743,-0.013699,-0.001517,-0.480446,0.035888,-0.19066,-263.095063,0.914312,66.212594
0.6884,-0.019824,0.028857,0.034191,0.00355,-0.003749,-0.013701,-0.001517,-0.480446,0.035888,-0.19066,-263.095063,0.914312,66.212594
0.7081,-0.019493,0.029079,0.035583,0.00355,-0.003749,-0.013701,-0.00239,-0.480844,0.034191,-0.26552,-263.095063,0.913582,66.212595
0.7282,-0.019836,0.029497,0.034342,0.003562,-0.00376,-0.013711,-0.001966,-0.480744,0.034758,-0.26552,-263.095063,0.913582,66.212595
0.7479,-0.019747,0.029264,0.03419,0.003567,-0.003764,-0.013714,-0.002326,-0.480203,0.034342,-0.340433,-263.095062,0.915568,66.212595
0.7677,-0.019549,0.029101,0.035992,0.003582,-0.003768,-0.013719,-0.002315,-0.480417,0.034204,-0.340433,-263.095062,0.915568,66.212595
0.7879,-0.019391,0.029295,0.031919,0.003595,-0.003771,-0.013722,-0.002315,-0.480417,0.034204,-0.340433,-263.095062,0.915568,66.212595
0.8076,-0.019628,0.029163,0.033229,0.003595,-0.003771,-0.013722,-0.003115,-0.480445,0.031919,-0.415437,-263.095062,0.912426,66.212595
0.828,-0.019869,0.029315,0.034708,0.003654,-0.003774,-0.013733,-0.002933,-0.480492,0.032472,-0.415437,-263.095062,0.912426,66.212595
0.8481,-0.019694,0.028993,0.035624,0.003677,-0.003776,-0.013735,-0.002172,-0.480378,0.034708,-0.490805,-263.095061,0.908488,66.212595
0.8682,-0.019783,0.029374,0.035435,0.00365,-0.003779,-0.013729,-0.001584,-0.480657,0.035546,-0.490805,-263.095061,0.908488,66.212595
0.8878,-0.019615,0.029183,0.034581,0.003628,-0.003781,-0.013724,-0.001584,-0.480657,0.035546,-0.490805,-263.095061,0.908488,66.212595
0.9081,-0.019757,0.029603,0.034003,0.003628,-0.003781,-0.013724,-0.001982,-0.480512,0.034581,-0.565566,-263.095061,0.897864,66.212596
0.9281,-0.019499,0.02923,0.03489,0.003629,-0.003785,-0.013725,-0.002161,-0.480345,0.034344,-0.565566,-263.095061,0.897864,66.212596
0.9476,-0.019476,0.029279,0.035564,0.003629,-0.003786,-0.013725,-0.001709,-0.48046,0.03489,-0.640411,-263.09506,0.903047,66.212596
0.9681,-0.019783,0.029019,0.033758,0.003603,-0.003788,-0.013721,-0.001375,-0.480404,0.035503,-0.640411,-263.09506,0.903047,66.212596
0.9884,-0.019731,0.028989,0.034738,0.003581,-0.003789,-0.013718,-0.001375,-0.480404,0.035503,-0.640411,-263.09506,0.903047,66.212596
1.008,-0.019777,0.029248,0.034776,0.003581,-0.003789,-0.013718,-0.002018,-0.480703,0.034738,-0.715416,-263.095055,0.902524,66.212598
1.028,-0.019567,0.028854,0.033468,0.003588,-0.003791,-0.013722,-0.002029,-0.480598,0.034753,-0.715416,-263.095055,0.902524,66.212598
1.0481,-0.01982,0.029031,0.033511,0.00359,-0.003791,-0.013724,-0.0025,-0.480861,0.033467,-0.790425,-263.095033,0.908156,66.212608
1.0678,-0.019365,0.029052,0.035081,0.003616,-0.003791,-0.013729,-0.002713,-0.480698,0.033507,-0.790425,-263.095033,0.908156,66.212608
1.0883,-0.019475,0.028933,0.033778,0.003637,-0.003791,-0.013733,-0.002713,-0.480698,0.033507,-0.790425,-263.095033,0.908156,66.212608
1.1083,-0.019961,0.029215,0.034105,0.003637,-0.003791,-0.013733,-0.002248,-0.480778,0.03377,-0.865596,-263.094946,0.907038,66.212648
1.1283,-0.019858,0.028954,0.034665,0.00365,-0.003792,-0.013733,-0.002383,-0.480656,0.03391,-0.865596,-263.094946,0.907038,66.212648
1.1475,-0.019882,0.028872,0.032844,0.003655,-0.003792,-0.013733,-0.002172,-0.480745,0.034642,-0.940925,-263.09465,0.901358,66.212785
1.1682,-0.019549,0.028959,0.034983,0.003682,-0.003791,-0.013736,-0.003046,-0.480844,0.033007,-0.940925,-263.09465,0.901358,66.212785
1.188,-0.019735,0.029266,0.035287,0.003705,-0.00379,-0.013739,-0.003046,-0.480844,0.033007,-0.940925,-263.09465,0.901358,66.212785
1.2079,-0.019469,0.029084,0.033819,0.003705,-0.00379,-0.013739,-0.001708,-0.480436,0.035206,-1.015426,-263.093859,0.898871,66.21315
1.2281,-0.019552,0.02889,0.034946,0.00367,-0.003792,-0.013729,-0.001924,-0.480518,0.034606,-1.015426,-263.093859,0.898871,66.21315
1.2485,-0.019298,0.028874,0.034074,0.003656,-0.003792,-0.013726,-0.001682,-0.480832,0.034809,-1.090943,-263.092169,0.892882,66.213934
1.2681,-0.019397,0.029006,0.034611,0.003645,-0.003793,-0.013724,-0.001895,-0.480832,0.034142,-1.090943,-263.092169,0.892882,66.213934
1.2882,-0.019332,0.0291,0.033454,0.003635,-0.003793,-0.013723,-0.001895,-0.480832,0.034142,-1.090943,-263.092169,0.892882,66.213934
1.3082,-0.019345,0.028765,0.035655,0.003635,-0.003793,-0.013723,-0.002168,-0.480695,0.033139,-1.165415,-263.089294,0.898278,66.215261
1.3281,-0.01904,0.02841,0.034043,0.003611,-0.003795,-0.013885,-0.001747,-0.480792,0.03413,-1.165415,-263.089294,0.898278,66.215261
1.3479,-0.018663,0.028503,0.034631,0.003602,-0.003795,-0.013943,-0.001579,-0.481387,0.033694,-1.240418,-263.085179,0.900752,66.217157
1.368,-0.018613,0.028394,0.034494,0.003572,-0.003796,-0.014045,-0.001048,-0.481212,0.034536,-1.240418,-263.085179,0.900752,66.217157
1.3879,-0.018521,0.028885,0.03386,0.003546,-0.003796,-0.014127,-0.001048,-0.481212,0.034536,-1.240418,-263.085179,0.900752,66.217157
1.4077,-0.018091,0.028905,0.033064,0.003546,-0.003796,-0.014127,-0.001106,-0.480971,0.033299,-1.286138,-263.080246,0.918989,66.219441
1.4279,-0.017927,0.028557,0.033633,0.003509,-0.003798,-0.014365,-0.00114,-0.480925,0.033139,-1.286138,-263.080246,0.918989,66.219441
1.448,-0.017836,0.028312,0.032685,0.003495,-0.003799,-0.014452,-0.000661,-0.481271,0.033187,-1.292797,-263.075112,0.937712,66.221822
1.4682,-0.01753,0.028554,0.031449,0.003482,-0.0038,-0.014582,-0.001121,-0.481408,0.032706,-1.292797,-263.075112,0.937712,66.221822
1.4881,-0.017549,0.028501,0.031875,0.003472,-0.0038,-0.014688,-0.001121,-0.481408,0.032706,-1.292797,-263.075112,0.937712,66.221822
1.508,-0.016831,0.028487,0.030957,0.003472,-0.0038,-0.014688,-0.001146,-0.481392,0.031276,-1.300751,-263.069928,0.963365,66.224245
1.5281,-0.017147,0.028232,0.03106,0.003454,-0.003802,-0.014937,-0.001087,-0.481359,0.031076,-1.300751,-263.069928,0.963365,66.224245
1.5475,-0.016459,0.028265,0.030372,0.003447,-0.003803,-0.01503,-0.001195,-0.481638,0.030597,-1.305384,-263.064668,0.979515,66.22672
1.5679,-0.016248,0.028046,0.030051,0.003438,-0.003804,-0.015147,-0.000986,-0.481518,0.030368,-1.305384,-263.064668,0.979515,66.22672
1.588,-0.016368,0.028246,0.030892,0.00343,-0.003805,-0.015244,-0.000986,-0.481518,0.030368,-1.305384,-263.064668,0.979515,66.22672
1.6078,-0.015555,0.027992,0.029474,0.00343,-0.003805,-0.015244,-0.000467,-0.481665,0.030268,-1.311257,-263.059337,1.000628,66.229255
1.6279,-0.0158,0.027778,0.030017,0.003386,-0.003807,-0.015453,-0.000474,-0.481732,0.029873,-1.311257,-263.059337,1.000628,66.229255
1.6479,-0.014854,0.027919,0.028402,0.003369,-0.003808,-0.015532,-0.000381,-0.48211,0.029534,-1.314979,-263.053928,1.013559,66.231843
1.668,-0.015111,0.027768,0.029876,0.003351,-0.003808,-0.015629,-0.000366,-0.481902,0.028477,-1.314979,-263.053928,1.013559,66.231843
1.6875,-0.015162,0.027808,0.029998,0.003336,-0.003809,-0.01571,-0.000366,-0.481902,0.028477,-1.314979,-263.053928,1.013559,66.231843
1.7081,-0.01478,0.028086,0.029071,0.003336,-0.003809,-0.01571,0.000279,-0.482116,0.029354,-1.322606,-263.04849,1.035355,66.234461
1.7281,-0.014828,0.027854,0.027781,0.003275,-0.00381,-0.015874,0.0002,-0.481964,0.029164,-1.322606,-263.04849,1.035355,66.234461
1.7478,-0.01397,0.027515,0.026734,0.003251,-0.00381,-0.015937,-0.000552,-0.482068,0.027283,-1.326845,-263.042971,1.047719,66.23713
1.7676,-0.01424,0.027216,0.026327,0.003252,-0.003811,-0.016011,-0.000351,-0.482288,0.026757,-1.326845,-263.042971,1.047719,66.23713
1.7876,-0.014187,0.027584,0.028188,0.003252,-0.003812,-0.016072,-0.000351,-0.482288,0.026757,-1.326845,-263.042971,1.047719,66.23713
1.8079,-0.013937,0.027635,0.027498,0.003252,-0.003812,-0.016072,0.000326,-0.482367,0.027528,-1.335197,-263.037455,1.068855,66.239806
1.8276,-0.013357,0.027046,0.027718,0.003213,-0.003813,-0.016179,0.000244,-0.482306,0.027439,-1.335197,-263.037455,1.068855,66.239806
1.8479,-0.013054,0.027148,0.025967,0.003198,-0.003813,-0.016221,0.000885,-0.482877,0.027205,-1.336536,-263.031853,1.07438,66.242536
1.868,-0.013206,0.027158,0.026319,0.003185,-0.003814,-0.016263,0.000256,-0.482704,0.026053,-1.336536,-263.031853,1.07438,66.242536
1.8878,-0.012854,0.026643,0.025756,0.003175,-0.003814,-0.016298,0.000256,-0.482704,0.026053,-1.336536,-263.031853,1.07438,66.242536
1.9078,-0.01251,0.026597,0.024398,0.003175,-0.003814,-0.016298,0.000418,-0.483344,0.025078,-1.341819,-263.026236,1.087556,66.24528
1.9283,-0.01237,0.026722,0.024176,0.003161,-0.003815,-0.01636,0.000236,-0.483324,0.024724,-1.341819,-263.026236,1.087556,66.24528
1.9479,-0.012056,0.026729,0.025034,0.003156,-0.003816,-0.016384,6.3e-05,-0.483248,0.023657,-1.344165,-263.02056,1.093585,66.248057
1.9679,-0.012144,0.027004,0.023791,0.003136,-0.003815,-0.016404,0.000665,-0.483127,0.024905,-1.344165,-263.02056,1.093585,66.248057
1.9876,-0.012041,0.026723,0.024211,0.00312,-0.003815,-0.016422,0.000665,-0.483127,0.024905,-1.344165,-263.02056,1.093585,66.248057
2.0079,-0.011444,0.026567,0.02283,0.00312,-0.003815,-0.016422,0.00044,-0.483283,0.02353,-1.346305,-263.014885,1.099345,66.250839
2.0279,-0.010995,0.026388,0.023396,0.003117,-0.003817,-0.016458,0.000354,-0.483309,0.023154,-1.346305,-263.014885,1.099345,66.250839
2.0477,-0.010628,0.026281,0.022819,0.003116,-0.003817,-0.016473,0.001037,-0.48359,0.022879,-1.349172,-263.00923,1.105543,66.253609
2.0682,-0.010281,0.026322,0.023157,0.003091,-0.003816,-0.016482,0.001016,-0.483592,0.022799,-1.349172,-263.00923,1.105543,66.253609
2.088,-0.010811,0.026273,0.021703,0.00307,-0.003815,-0.016491,0.001016,-0.483592,0.022799,-1.349172,-263.00923,1.105543,66.253609
2.1077,-0.010126,0.026129,0.02337,0.00307,-0.003815,-0.016491,0.00039,-0.483763,0.021016,-1.349939,-263.003559,1.107913,66.256391
2.1277,-0.01023,0.026488,0.021486,0.003041,-0.003815,-0.01651,0.000978,-0.483768,0.021898,-1.349939,-263.003559,1.107913,66.256391
2.1479,-0.009709,0.026013,0.023434,0.00303,-0.003814,-0.016518,0.000827,-0.483514,0.020962,-1.353232,-262.997849,1.114611,66.259189
2.1678,-0.009445,0.02599,0.020704,0.002977,-0.00381,-0.016518,0.002136,-0.483827,0.023218,-1.353232,-262.997849,1.114611,66.259189
2.1878,-0.009656,0.026208,0.01986,0.002932,-0.003807,-0.016519,0.002136,-0.483827,0.023218,-1.353232,-262.997849,1.114611,66.259189
2.2081,-0.00875,0.025886,0.019743,0.002932,-0.003807,-0.016519,0.0006,-0.483847,0.019173,-1.3562,-262.992188,1.120863,66.261961
2.2279,-0.00873,0.025712,0.019051,0.002953,-0.003809,-0.016544,0.000909,-0.483934,0.019327,-1.3562,-262.992188,1.120863,66.261961
2.2477,-0.00817,0.025758,0.020032,0.002961,-0.003809,-0.016553,0.001081,-0.484315,0.018527,-1.362856,-262.986527,1.134126,66.264724
2.2678,-0.0087,0.02561,0.020238,0.002927,-0.003807,-0.016554,0.001964,-0.484161,0.019871,-1.362856,-262.986527,1.134126,66.264724
2.2881,-0.008168,0.025697,0.018004,0.002899,-0.003804,-0.016555,0.001964,-0.484161,0.019871,-1.362856,-262.986527,1.134126,66.264724
2.3082,-0.007783,0.025895,0.017478,0.002899,-0.003804,-0.016555,0.00114,-0.484378,0.017311,-1.361204,-262.980836,1.131493,66.267508
2.328,-0.007745,0.025441,0.017294,0.002917,-0.003806,-0.016568,0.00115,-0.484253,0.017299,-1.361204,-262.980836,1.131493,66.267508
2.348,-0.00724,0.025123,0.017775,0.002924,-0.003807,-0.016573,0.001169,-0.484602,0.016769,-1.365404,-262.975159,1.139933,66.270281
2.3681,-0.007111,0.025395,0.016559,0.002904,-0.003805,-0.016574,0.001771,-0.484785,0.017658,-1.365404,-262.975159,1.139933,66.270281
2.3885,-0.007228,0.025584,0.018419,0.002888,-0.003804,-0.016575,0.001771,-0.484785,0.017658,-1.365404,-262.975159,1.139933,66.270281
2.4077,-0.006741,0.025065,0.017376,0.002888,-0.003804,-0.016575,0.002291,-0.484487,0.017724,-1.363896,-262.969466,1.13724,66.273065
2.4283,-0.006494,0.024852,0.017207,0.002831,-0.003798,-0.016573,0.002236,-0.484655,0.017503,-1.363896,-262.969466,1.13724,66.273065
2.4478,-0.005684,0.025096,0.016413,0.002809,-0.003796,-0.016574,0.002375,-0.485192,0.016679,-1.366335,-262.96378,1.142175,66.275842
2.4676,-0.005662,0.025237,0.016521,0.002776,-0.003793,-0.016568,0.002662,-0.484874,0.01641,-1.366335,-262.96378,1.142175,66.275842
2.4876,-0.006028,0.025085,0.015835,0.002748,-0.00379,-0.016564,0.002662,-0.484874,0.01641,-1.366335,-262.96378,1.142175,66.275842
2.5076,-0.005502,0.025025,0.014685,0.002748,-0.00379,-0.016564,0.002167,-0.485008,0.015143,-1.371627,-262.958113,1.152872,66.278605
2.528,-0.005412,0.024671,0.014539,0.002751,-0.003797,-0.016535,0.002108,-0.48499,0.014877,-1.371627,-262.958113,1.152872,66.278605
2.5475,-0.005259,0.024585,0.014558,0.002752,-0.003799,-0.016525,0.002091,-0.485394,0.014012,-1.375713,-262.952451,1.161034,66.28136
2.5676,-0.005026,0.024433,0.013786,0.002751,-0.003802,-0.01651,0.002163,-0.48537,0.014481,-1.375713,-262.952451,1.161034,66.28136
2.5876,-0.004714,0.024951,0.013833,0.002751,-0.003805,-0.016497,0.002163,-0.48537,0.014481,-1.375713,-262.952451,1.161034,66.28136
2.6077,-0.004603,0.024666,0.014862,0.002751,-0.003805,-0.016497,0.002457,-0.485158,0.013141,-1.375215,-262.946777,1.158557,66.284112
2.6279,-0.004655,0.0241,0.012465,0.002721,-0.00381,-0.016442,0.002685,-0.485225,0.01377,-1.375215,-262.946777,1.158557,66.284112
2.6476,-0.003816,0.023824,0.014144,0.002709,-0.003812,-0.016422,0.001791,-0.48598,0.01194,-1.37516,-262.941126,1.157396,66.286847
2.6677,-0.003664,0.024029,0.013602,0.002672,-0.003809,-0.016405,0.003258,-0.486118,0.01392,-1.37516,-262.941126,1.157396,66.286847
2.688,-0.003947,0.024396,0.011909,0.00264,-0.003806,-0.016393,0.003258,-0.486118,0.01392,-1.37516,-262.941126,1.157396,66.286847
2.7078,-0.003435,0.023827,0.012031,0.00264,-0.003806,-0.016393,0.002242,-0.485726,0.011221,-1.377517,-262.935486,1.159904,66.289559
2.7281,-0.003506,0.023961,0.012029,0.002684,-0.003834,-0.016193,0.002441,-0.485911,0.011471,-1.377517,-262.935486,1.159904,66.289559
2.7481,-0.00253,0.02359,0.011476,0.0027,-0.003844,-0.016124,0.002715,-0.486122,0.011507,-1.382011,-262.929867,1.168594,66.292253
2.768,-0.002778,0.023686,0.010587,0.002678,-0.003846,-0.01606,0.00327,-0.486359,0.011451,-1.382011,-262.929867,1.168594,66.292253
2.7879,-0.002865,0.023631,0.010528,0.002659,-0.003848,-0.016011,0.00327,-0.486359,0.011451,-1.382011,-262.929867,1.168594,66.292253
2.8078,-0.002362,0.023816,0.012273,0.002659,-0.003848,-0.016011,0.002618,-0.486499,0.009857,-1.376085,-262.924313,1.14819,66.294872
2.8281,-0.00233,0.023768,0.010276,0.002647,-0.00386,-0.01585,0.003156,-0.486372,0.010771,-1.376085,-262.924313,1.14819,66.294872
2.8477,-0.002009,0.023665,0.010581,0.002642,-0.003863,-0.015795,0.002997,-0.486327,0.009767,-1.378061,-262.918772,1.149233,66.297466
2.8679,-0.001487,0.023314,0.008358,0.002632,-0.003867,-0.015724,0.003356,-0.486314,0.010482,-1.378061,-262.918772,1.149233,66.297466
2.8877,-0.001442,0.02335,0.010327,0.002623,-0.003869,-0.015669,0.003356,-0.486314,0.010482,-1.378061,-262.918772,1.149233,66.297466
2.9076,-0.00141,0.023371,0.009449,0.002623,-0.003869,-0.015669,0.003937,-0.486783,0.009666,-1.377654,-262.913271,1.142232,66.300007
2.9279,-0.000995,0.023011,0.00749,0.002586,-0.003878,-0.015384,0.003734,-0.486729,0.009502,-1.377654,-262.913271,1.142232,66.300007
2.9478,-0.000546,0.023141,0.009261,0.002571,-0.00388,-0.015291,0.002909,-0.487097,0.00699,-1.378047,-262.907779,1.139587,66.302524
2.9679,-0.000596,0.023319,0.007122,0.002546,-0.003881,-0.015152,0.004076,-0.486864,0.009049,-1.378047,-262.907779,1.139587,66.302524
2.9886,-0.000653,0.023228,0.007868,0.002525,-0.00388,-0.015048,0.004076,-0.486864,0.009049,-1.378047,-262.907779,1.139587,66.302524
3.0084,3.2e-05,0.02291,0.008339,0.002525,-0.00388,-0.015048,0.003468,-0.486917,0.00723,-1.378701,-262.902408,1.130677,66.304931
3.0278,0.000202,0.022921,0.006549,0.002512,-0.003906,-0.014446,0.003813,-0.486999,0.007608,-1.378701,-262.902408,1.130677,66.304931
3.0478,0.000393,0.022874,0.006362,0.002508,-0.003911,-0.014261,0.003623,-0.487191,0.00607,-1.37999,-262.89709,1.126973,66.30728
3.068,0.000112,0.022551,0.006439,0.002508,-0.003931,-0.013789,0.003641,-0.487129,0.006311,-1.37999,-262.89709,1.126973,66.30728
3.0879,0.000453,0.02296,0.007697,0.002509,-0.003943,-0.013454,0.003641,-0.487129,0.006311,-1.37999,-262.89709,1.126973,66.30728
3.1079,0.0007,0.023021,0.005991,0.002509,-0.003943,-0.013454,0.004482,-0.487184,0.007113,-1.37464,-262.892052,1.089227,66.3094
3.1282,0.001058,0.022303,0.0036,0.002472,-0.003938,-0.01317,0.004197,-0.487115,0.006587,-1.37464,-262.892052,1.089227,66.3094
3.148,0.00146,0.022235,0.00555,0.002458,-0.003933,-0.013087,0.002971,-0.487814,0.003187,-1.367316,-262.887288,1.039893,66.311301
3.1676,0.001298,0.022268,0.004157,0.002439,-0.003944,-0.012641,0.004174,-0.487769,0.005314,-1.367316,-262.887288,1.039893,66.311301
3.1883,0.001396,0.022327,0.005319,0.002423,-0.003948,-0.012326,0.004174,-0.487769,0.005314,-1.367316,-262.887288,1.039893,66.311301
3.2082,0.001785,0.022067,0.00485,0.002423,-0.003948,-0.012326,0.004212,-0.48783,0.004772,-1.367562,-262.882431,1.026512,66.313194
3.2277,0.001681,0.022194,0.004713,0.00239,-0.003956,-0.011596,0.004243,-0.487888,0.004741,-1.367562,-262.882431,1.026512,66.313194
3.2475,0.002594,0.022115,0.003031,0.002377,-0.003954,-0.011386,0.004159,-0.487921,0.004335,-1.362748,-262.87793,0.975895,66.314853
3.2677,0.002328,0.022085,0.003869,0.002365,-0.003982,-0.010547,0.004146,-0.487892,0.00313,-1.362748,-262.87793,0.975895,66.314853
3.2875,0.002389,0.021999,0.004582,0.002356,-0.003995,-0.009959,0.004146,-0.487892,0.00313,-1.362748,-262.87793,0.975895,66.314853
3.3077,0.002672,0.021935,0.004451,0.002356,-0.003995,-0.009959,0.004817,-0.488147,0.004147,-1.356214,-262.873853,0.900904,66.316251
3.3277,0.002675,0.021552,0.003414,0.002291,-0.00395,-0.010074,0.004879,-0.488129,0.004222,-1.356214,-262.873853,0.900904,66.316251
3.3475,0.002566,0.021709,0.003314,0.002266,-0.003932,-0.010116,0.00446,-0.48852,0.003218,-1.34118,-262.871346,0.825886,66.317014
3.3675,0.003019,0.021703,0.003939,0.002266,-0.003938,-0.009765,0.004276,-0.488313,0.003296,-1.34118,-262.871346,0.825886,66.317014
3.3878,0.002806,0.021645,0.002664,0.002266,-0.003939,-0.009517,0.004276,-0.488313,0.003296,-1.34118,-262.871346,0.825886,66.317014
3.4079,0.003091,0.02147,0.002436,0.002266,-0.003939,-0.009517,0.004257,-0.488512,0.002254,-1.350326,-262.867318,0.781025,66.318254
3.4276,0.003163,0.02121,0.002833,0.002253,-0.003966,-0.008374,0.004299,-0.488537,0.002283,-1.350326,-262.867318,0.781025,66.318254
3.4475,0.003481,0.02127,0.000909,0.00225,-0.003968,-0.008041,0.004671,-0.488896,0.002568,-1.342441,-262.863797,0.705722,66.319288
3.4678,0.003754,0.021274,0.00249,0.002255,-0.003995,-0.007132,0.003999,-0.488746,0.001017,-1.342441,-262.863797,0.705722,66.319288
3.4877,0.003841,0.021477,0.002789,0.00226,-0.004007,-0.006479,0.003999,-0.488746,0.001017,-1.342441,-262.863797,0.705722,66.319288
3.5075,0.003695,0.021587,0.003478,0.00226,-0.004007,-0.006479,0.005282,-0.488553,0.002716,-1.322632,-262.863032,0.630504,66.319492
3.5277,0.003795,0.021169,0.002052,0.002182,-0.003917,-0.00746,0.00536,-0.488498,0.003018,-1.322632,-262.863032,0.630504,66.319492
3.548,0.003621,0.020943,0.001253,0.002152,-0.003887,-0.007764,0.004841,-0.48883,0.002052,-1.294373,-262.86303,0.556063,66.319492
3.5682,0.003748,0.021425,0.002234,0.002159,-0.003909,-0.007139,0.004305,-0.489039,0.001314,-1.294373,-262.86303,0.556063,66.319492
3.5877,0.003755,0.021318,0.001133,0.002167,-0.003921,-0.006686,0.004305,-0.489039,0.001314,-1.294373,-262.86303,0.556063,66.319492
3.6077,0.004094,0.021238,0.001407,0.002167,-0.003921,-0.006686,0.004384,-0.488775,0.000938,-1.32639,-262.860923,0.480665,66.320041
3.6277,0.003945,0.021273,0.00243,0.002162,-0.00393,-0.005956,0.004573,-0.48878,0.001115,-1.32639,-262.860923,0.480665,66.320041
3.6475,0.003585,0.021045,0.00153,0.00216,-0.003929,-0.005735,0.005189,-0.488733,0.002415,-1.306449,-262.860706,0.405445,66.320098
3.6676,0.003564,0.021161,0.002051,0.002167,-0.003914,-0.00587,0.004435,-0.488936,0.001604,-1.306449,-262.860706,0.405445,66.320098
3.688,0.003742,0.021126,0.002787,0.002172,-0.003903,-0.005967,0.004435,-0.488936,0.001604,-1.306449,-262.860706,0.405445,66.320098
3.708,0.003669,0.021095,0.002301,0.002172,-0.003903,-0.005967,0.005163,-0.488873,0.002786,-1.287926,-262.860699,0.330906,66.3201
3.7279,0.004026,0.021119,-0.000135,0.002145,-0.003843,-0.006933,0.005019,-0.488887,0.002568,-1.287926,-262.860699,0.330906,66.3201
3.7474,0.003609,0.020947,0.003126,0.002134,-0.003826,-0.00723,0.003959,-0.488885,-0.000143,-1.290611,-262.86059,0.254806,66.32013
3.7676,0.00359,0.020834,0.00319,0.002124,-0.003807,-0.007579,0.005097,-0.489037,0.002846,-1.290611,-262.86059,0.254806,66.32013
3.7875,0.003754,0.020935,0.003592,0.002115,-0.003795,-0.007831,0.005097,-0.489037,0.002846,-1.290611,-262.86059,0.254806,66.32013
3.8076,0.003946,0.021266,0.001866,0.002115,-0.003795,-0.007831,0.005664,-0.48918,0.003359,-1.317427,-262.858003,0.269741,66.321008
3.8276,0.004121,0.021184,0.001372,0.00208,-0.003781,-0.008029,0.005346,-0.489003,0.002695,-1.317427,-262.858003,0.269741,66.321008
3.8477,0.004008,0.020543,0.002276,0.002067,-0.003777,-0.008085,0.004864,-0.488894,0.001219,-1.329051,-262.855771,0.345186,66.321597
3.868,0.004161,0.020776,0.001641,0.002058,-0.003786,-0.00788,0.005144,-0.489409,0.002174,-1.329051,-262.855771,0.345186,66.321597
3.8877,0.003909,0.020723,0.001517,0.002051,-0.003792,-0.007733,0.005144,-0.489409,0.002174,-1.329051,-262.855771,0.345186,66.321597
3.9076,0.004419,0.020855,0.000933,0.002051,-0.003792,-0.007733,0.004739,-0.48938,0.001305,-1.33795,-262.853477,0.419633,66.322204
3.9277,0.004064,0.020715,0.00129,0.002062,-0.003842,-0.006612,0.00481,-0.489295,0.001127,-1.33795,-262.853477,0.419633,66.322204
3.9475,0.004511,0.020661,-0.000413,0.002067,-0.003854,-0.006274,0.004787,-0.489405,0.001045,-1.334419,-262.849985,0.425848,66.323103
3.9679,0.004653,0.020372,0.001184,0.002088,-0.003894,-0.00528,0.004348,-0.489351,-0.000292,-1.334419,-262.849985,0.425848,66.323103
3.988,0.004853,0.020202,0.000157,0.002105,-0.003919,-0.00455,0.004348,-0.489351,-0.000292,-1.334419,-262.849985,0.425848,66.323103
4.0081,0.004891,0.020416,0.00079,0.002105,-0.003919,-0.00455,0.004936,-0.489804,0.000145,-1.308044,-262.849849,0.351037,66.323138
4.0279,0.004503,0.020757,0.000337,0.002067,-0.0039,-0.00426,0.005082,-0.489715,0.000406,-1.308044,-262.849849,0.351037,66.323138
4.048,0.004602,0.020611,0.001119,0.002054,-0.003891,-0.004174,0.004675,-0.489243,0.000337,-1.266344,-262.849849,0.276029,66.323138
4.0679,0.004877,0.020113,-0.000267,0.002046,-0.003869,-0.004476,0.005128,-0.489376,0.001049,-1.266344,-262.849849,0.276029,66.323138
4.0879,0.005137,0.020491,0.000733,0.002039,-0.003853,-0.004696,0.005128,-0.489376,0.001049,-1.266344,-262.849849,0.276029,66.323138
4.1077,0.004854,0.020539,0.001432,0.002039,-0.003853,-0.004696,0.00551,-0.489509,0.000733,-1.262122,-262.849849,0.201037,66.323138
4.1278,0.004735,0.020499,0.002049,0.001994,-0.003825,-0.004953,0.005541,-0.489489,0.001018,-1.262122,-262.849849,0.201037,66.323138
4.1479,0.004652,0.02074,0.001628,0.001977,-0.003815,-0.005032,0.00578,-0.4895,0.002049,-1.276215,-262.849847,0.126039,66.323139
4.1677,0.004488,0.020537,0.000586,0.001969,-0.003795,-0.005438,0.00551,-0.489281,0.001666,-1.276215,-262.849847,0.126039,66.323139
4.1877,0.004365,0.020371,0.002069,0.001962,-0.003782,-0.005735,0.00551,-0.489281,0.001666,-1.276215,-262.849847,0.126039,66.323139
4.2079,0.004671,0.020549,-0.000419,0.001962,-0.003782,-0.005735,0.005422,-0.489631,0.002064,-1.291293,-262.84979,0.051034,66.323155
4.2281,0.004732,0.020682,0.000161,0.001979,-0.003797,-0.005544,0.005031,-0.489558,0.001056,-1.291293,-262.84979,0.051034,66.323155
4.2479,0.004786,0.020127,0.000948,0.001985,-0.003802,-0.005486,0.004849,-0.489382,5.8e-05,-1.307668,-262.848132,-0.023967,66.323591
4.2681,0.004874,0.020378,0.000794,0.001978,-0.003807,-0.005328,0.005234,-0.489833,0.000865,-1.307668,-262.848132,-0.023967,66.323591
4.2878,0.004432,0.020188,0.001617,0.001971,-0.00381,-0.005214,0.005234,-0.489833,0.000865,-1.307668,-262.848132,-0.023967,66.323591
4.3081,0.00522,0.020684,-0.000262,0.001971,-0.00381,-0.005214,0.005301,-0.489892,0.001493,-1.300053,-262.846574,-0.09909,66.324018
4.3282,0.004609,0.020646,0.000122,0.001966,-0.003816,-0.004971,0.005217,-0.489663,0.000751,-1.300053,-262.846574,-0.09909,66.324018
4.3482,0.004804,0.020301,0.00198,0.001964,-0.003817,-0.004897,0.004703,-0.489412,3.6e-05,-1.296077,-262.84513,-0.174151,66.324429
4.3679,0.005029,0.020193,0.000248,0.001946,-0.003788,-0.005406,0.005715,-0.489676,0.0018,-1.296077,-262.84513,-0.174151,66.324429
4.3877,0.004872,0.019907,0.000889,0.00193,-0.003769,-0.005777,0.005715,-0.489676,0.0018,-1.296077,-262.84513,-0.174151,66.324429
4.4076,0.005273,0.020187,-0.000956,0.00193,-0.003769,-0.005777,0.005363,-0.490161,0.000793,-1.289868,-262.84387,-0.248996,66.324808
4.4277,0.005145,0.019746,0.000144,0.001932,-0.003816,-0.004626,0.005131,-0.490027,6.8e-05,-1.289868,-262.84387,-0.248996,66.324808
4.4477,0.005301,0.019902,0.001256,0.001933,-0.003827,-0.004272,0.005266,-0.490348,4e-06,-1.312274,-262.84153,-0.174027,66.325411
4.4677,0.005519,0.020025,-0.000872,0.001904,-0.003801,-0.004619,0.00589,-0.490122,0.00115,-1.312274,-262.84153,-0.174027,66.325411
4.4877,0.005327,0.019968,0.000923,0.001879,-0.003781,-0.004871,0.00589,-0.490122,0.00115,-1.312274,-262.84153,-0.174027,66.325411
4.5077,0.004972,0.020262,-0.000647,0.001879,-0.003781,-0.004871,0.005805,-0.490044,0.000906,-1.279078,-262.841307,-0.24934,66.325487
4.5278,0.005651,0.019832,0.001297,0.001886,-0.003802,-0.004319,0.005309,-0.489915,0.000242,-1.279078,-262.841307,-0.24934,66.325487
4.5482,0.005144,0.020412,-0.00146,0.001889,-0.003807,-0.00415,0.006353,-0.490246,0.001191,-1.299486,-262.839433,-0.324652,66.326033
4.5677,0.005406,0.019931,-0.000819,0.001925,-0.003849,-0.003319,0.004578,-0.489651,-0.001226,-1.299486,-262.839433,-0.324652,66.326033
4.588,0.00557,0.019638,0.000556,0.001954,-0.003876,-0.002705,0.004578,-0.489651,-0.001226,-1.299486,-262.839433,-0.324652,66.326033
4.6081,0.005528,0.019918,-0.000214,0.001954,-0.003876,-0.002705,0.00588,-0.490409,0.000498,-1.281261,-262.838608,-0.399063,66.326317
4.6284,0.005608,0.020178,0.001633,0.001901,-0.003828,-0.003117,0.005686,-0.490275,0.000188,-1.281261,-262.838608,-0.399063,66.326317
4.6483,0.005772,0.019894,0.000886,0.00188,-0.003812,-0.003242,0.006443,-0.489825,0.00163,-1.23097,-262.838531,-0.474525,66.326356
4.6676,0.005369,0.020069,0.000226,0.001844,-0.003778,-0.00376,0.006244,-0.490081,0.000953,-1.23097,-262.838531,-0.474525,66.326356
4.6884,0.005643,0.019791,-0.000978,0.001813,-0.003753,-0.004137,0.006244,-0.490081,0.000953,-1.23097,-262.838531,-0.474525,66.326356
4.7082,0.005649,0.020016,-1.5e-05,0.001813,-0.003753,-0.004137,0.005165,-0.490244,-0.001014,-1.256952,-262.837956,-0.54903,66.326604
4.7278,0.005684,0.0196,-0.000274,0.001826,-0.003796,-0.003175,0.005372,-0.490136,-0.000589,-1.256952,-262.837956,-0.54903,66.326604
4.7481,0.005808,0.019587,-0.000967,0.00183,-0.003806,-0.002875,0.005599,-0.490513,-0.000397,-1.289712,-262.835483,-0.594947,66.327432
4.7683,0.00588,0.019388,-0.001664,0.001832,-0.003818,-0.002496,0.00534,-0.490426,-0.000927,-1.289712,-262.835483,-0.594947,66.327432
4.7882,0.005827,0.019596,-0.000113,0.001833,-0.003825,-0.002218,0.00534,-0.490426,-0.000927,-1.289712,-262.835483,-0.594947,66.327432
4.8078,0.006417,0.019634,-0.000592,0.001833,-0.003825,-0.002218,0.0058,-0.490459,-0.000161,-1.252886,-262.834631,-0.669592,66.327832
4.8281,0.005853,0.019476,-0.000429,0.001789,-0.003795,-0.002363,0.005932,-0.490427,-0.000343,-1.252886,-262.834631,-0.669592,66.327832
4.8476,0.005745,0.019762,-0.001525,0.001772,-0.003784,-0.002407,0.005655,-0.490561,-0.000455,-1.23062,-262.833918,-0.744304,66.328231
4.868,0.006168,0.019396,-0.002354,0.0018,-0.00381,-0.001947,0.00503,-0.490268,-0.001431,-1.23062,-262.833918,-0.744304,66.328231
4.8879,0.006359,0.019498,0.001774,0.001822,-0.003827,-0.00161,0.00503,-0.490268,-0.001431,-1.23062,-262.833918,-0.744304,66.328231
4.9075,0.006127,0.019635,-0.002743,0.001822,-0.003827,-0.00161,0.007313,-0.490596,0.001708,-1.245465,-262.832552,-0.819319,66.32895
4.9277,0.005752,0.019558,0.000248,0.001754,-0.003769,-0.002268,0.006264,-0.490512,-0.000116,-1.245465,-262.832552,-0.819319,66.32895
4.9478,0.006108,0.019491,-0.001551,0.001728,-0.003751,-0.002467,0.005914,-0.49051,0.000215,-1.208707,-262.831368,-0.894306,66.329727
4.968,0.00638,0.019441,-0.001965,0.001744,-0.003776,-0.002011,0.005373,-0.490512,-0.001393,-1.208707,-262.831368,-0.894306,66.329727
4.9876,0.005886,0.019048,-0.000812,0.001757,-0.003792,-0.001674,0.005373,-0.490512,-0.001393,-1.208707,-262.831368,-0.894306,66.329727
5.0077,0.006143,0.019286,-0.001566,0.001757,-0.003792,-0.001674,0.005541,-0.491103,-0.000911,-1.253303,-262.829235,-0.914765,66.330819
5.0282,0.006483,0.019157,-0.001642,0.001758,-0.003796,-0.001386,0.005468,-0.490959,-0.001193,-1.253303,-262.829235,-0.914765,66.330819
5.0476,0.006162,0.01888,-0.001418,0.001759,-0.003795,-0.001296,0.005694,-0.490946,-0.001689,-1.22095,-262.827469,-0.989906,66.331949
5.0676,0.006393,0.01884,-0.001488,0.001758,-0.003798,-0.001126,0.005463,-0.49111,-0.001444,-1.22095,-262.827469,-0.989906,66.331949
5.0878,0.006566,0.019002,-0.0016,0.001756,-0.003799,-0.001001,0.005463,-0.49111,-0.001444,-1.22095,-262.827469,-0.989906,66.331949
5.1078,0.006704,0.018617,-0.000741,0.001756,-0.003799,-0.001001,0.005819,-0.491149,-0.001652,-1.204619,-262.825595,-1.040993,66.333276
5.1282,0.006591,0.01888,-0.001842,0.001699,-0.003773,-0.000949,0.006034,-0.491262,-0.001286,-1.204619,-262.825595,-1.040993,66.333276
5.1479,0.006737,0.018488,-0.000351,0.001677,-0.003763,-0.000934,0.005707,-0.491239,-0.001873,-1.191771,-262.823719,-1.06712,66.334715
5.1678,0.006694,0.0185,-0.002252,0.001635,-0.00373,-0.001309,0.006489,-0.491495,-0.000481,-1.191771,-262.823719,-1.06712,66.334715
5.1876,0.006907,0.018537,-0.002029,0.0016,-0.003706,-0.00158,0.006489,-0.491495,-0.000481,-1.191771,-262.823719,-1.06712,66.334715
5.2082,0.006821,0.018368,-0.001829,0.0016,-0.003706,-0.00158,0.005942,-0.491618,-0.002068,-1.201518,-262.821878,-1.087145,66.336144
5.2277,0.006696,0.018045,-0.000171,0.001585,-0.003743,-0.000799,0.005928,-0.491642,-0.001975,-1.201518,-262.821878,-1.087145,66.336144
5.2476,0.007192,0.018297,-0.00123,0.001579,-0.003751,-0.000558,0.006656,-0.492067,-0.000218,-1.240839,-262.820012,-1.042508,66.337343
5.2676,0.007077,0.018535,-0.001968,0.001544,-0.003726,-0.00072,0.006576,-0.491742,-0.001141,-1.240839,-262.820012,-1.042508,66.337343
5.2878,0.007201,0.018131,-0.001568,0.001515,-0.003706,-0.000835,0.006576,-0.491742,-0.001141,-1.240839,-262.820012,-1.042508,66.337343
5.3076,0.006844,0.01807,-0.000526,0.001515,-0.003706,-0.000835,0.006458,-0.492001,-0.001589,-1.202485,-262.818525,-1.117496,66.338617
5.3283,0.006985,0.018417,-0.000103,0.001466,-0.003678,-0.000969,0.006513,-0.491987,-0.001153,-1.202485,-262.818525,-1.117496,66.338617
5.3477,0.007143,0.017806,-0.003611,0.001448,-0.003668,-0.001008,0.00698,-0.4917,-0.000129,-1.22592,-262.816746,-1.12823,66.340022
5.3677,0.006976,0.017755,-0.001552,0.00148,-0.003717,-0.000306,0.005432,-0.492158,-0.003345,-1.22592,-262.816746,-1.12823,66.340022
5.3878,0.007014,0.017506,-0.000467,0.001507,-0.003752,0.000215,0.005432,-0.492158,-0.003345,-1.22592,-262.816746,-1.12823,66.340022
5.4076,0.007088,0.017419,-0.000528,0.001507,-0.003752,0.000215,0.006836,-0.492646,-0.000508,-1.244966,-262.814956,-1.128003,66.341359
5.428,0.007493,0.018022,-0.001861,0.001413,-0.00365,-0.000991,0.006836,-0.492637,-0.000521,-1.244966,-262.814956,-1.128003,66.341359
5.4479,0.007162,0.017374,-0.001322,0.001376,-0.00362,-0.001349,0.006585,-0.49208,-0.001855,-1.176307,-262.813607,-1.200568,66.342792
5.4679,0.007259,0.017846,-0.002614,0.001361,-0.003623,-0.001207,0.006496,-0.492593,-0.001357,-1.176307,-262.813607,-1.200568,66.342792
5.4876,0.007426,0.017436,-0.001655,0.001348,-0.003624,-0.001101,0.006496,-0.492593,-0.001357,-1.176307,-262.813607,-1.200568,66.342792
5.5076,0.007342,0.017579,-0.00172,0.001348,-0.003624,-0.001101,0.006627,-0.492678,-0.001697,-1.251997,-262.812183,-1.124878,66.343746
5.5277,0.00745,0.017232,-0.002342,0.001323,-0.003633,-0.000726,0.006564,-0.492583,-0.001711,-1.251997,-262.812183,-1.124878,66.343746
5.5475,0.0074,0.01722,-0.002031,0.001314,-0.003634,-0.000608,0.006297,-0.49288,-0.002376,-1.266716,-262.810403,-1.142249,66.345029
5.5676,0.007052,0.017606,-0.001176,0.001312,-0.003644,-0.00039,0.00636,-0.492793,-0.002061,-1.266716,-262.810403,-1.142249,66.345029
5.5876,0.007569,0.016909,-0.001901,0.001311,-0.003649,-0.00023,0.00636,-0.492793,-0.002061,-1.266716,-262.810403,-1.142249,66.345029
5.6076,0.007305,0.016734,-0.001752,0.001311,-0.003649,-0.00023,0.006652,-0.493236,-0.001926,-1.25377,-262.80878,-1.18786,66.346383
5.628,0.007489,0.017387,-0.002195,0.001276,-0.003633,-0.000153,0.00656,-0.493265,-0.001858,-1.25377,-262.80878,-1.18786,66.346383
5.6478,0.007706,0.016861,-0.001164,0.001263,-0.003626,-0.000129,0.00641,-0.492727,-0.002202,-1.23775,-262.807192,-1.213234,66.347865
5.6683,0.007391,0.016438,-0.001555,0.001232,-0.003599,-0.000368,0.007059,-0.493111,-0.001247,-1.23775,-262.807192,-1.213234,66.347865
5.688,0.0073,0.01665,-0.001697,0.001206,-0.003579,-0.000539,0.007059,-0.493111,-0.001247,-1.23775,-262.807192,-1.213234,66.347865
5.7078,0.007226,0.016877,-0.000656,0.001206,-0.003579,-0.000539,0.006487,-0.493499,-0.001702,-1.242329,-262.805637,-1.228813,66.349362
5.7278,0.007427,0.016439,-0.002107,0.001192,-0.003564,-0.000736,0.006659,-0.493362,-0.001272,-1.242329,-262.805637,-1.228813,66.349362
5.7476,0.007566,0.016468,4.9e-05,0.001186,-0.00356,-0.000795,0.006389,-0.493672,-0.002124,-1.271525,-262.804028,-1.215457,66.350725
5.7677,0.007599,0.016722,-0.002683,0.00114,-0.003515,-0.001411,0.007489,-0.49355,-0.000139,-1.271525,-262.804028,-1.215457,66.350725
5.7877,0.007584,0.016527,-0.001836,0.001102,-0.003485,-0.001855,0.007489,-0.49355,-0.000139,-1.271525,-262.804028,-1.215457,66.350725
5.8082,0.007419,0.016125,-0.001789,0.001102,-0.003485,-0.001855,0.006696,-0.49362,-0.001869,-1.285522,-262.802344,-1.202535,66.352041
5.8278,0.007991,0.016269,-0.002071,0.001107,-0.003537,-0.001043,0.006622,-0.493745,-0.001839,-1.285522,-262.802344,-1.202535,66.352041
5.8476,0.007788,0.016241,-0.000707,0.001109,-0.003551,-0.000789,0.006966,-0.493827,-0.002123,-1.336568,-262.800669,-1.13267,66.352957
5.8679,0.008051,0.016053,-0.002087,0.001075,-0.003523,-0.001039,0.007388,-0.49377,-0.000836,-1.336568,-262.800669,-1.13267,66.352957
5.8878,0.007992,0.016245,-0.001945,0.001046,-0.003503,-0.001218,0.007388,-0.49377,-0.000836,-1.336568,-262.800669,-1.13267,66.352957
5.9077,0.007903,0.016166,-0.000729,0.001046,-0.003503,-0.001218,0.00704,-0.493881,-0.001974,-1.302484,-262.799231,-1.207224,66.35408
5.9283,0.008341,0.016036,-0.000332,0.001008,-0.003501,-0.000943,0.007248,-0.493876,-0.001462,-1.302484,-262.799231,-1.207224,66.35408
5.9479,0.007995,0.015659,-0.000843,0.000994,-0.003498,-0.000857,0.008205,-0.494074,-0.00037,-1.329394,-262.797505,-1.208506,66.355244
5.9679,0.008229,0.015395,-0.001633,0.000955,-0.003469,-0.001098,0.007625,-0.494322,-0.000802,-1.329394,-262.797505,-1.208506,66.355244
5.988,0.008044,0.015862,-0.001579,0.000923,-0.003447,-0.001272,0.007625,-0.494322,-0.000802,-1.329394,-262.797505,-1.208506,66.355244
6.0079,0.007954,0.015958,-0.001532,0.000923,-0.003447,-0.001272,0.007279,-0.49428,-0.001614,-1.328542,-262.795889,-1.248335,66.356467
6.0279,0.007826,0.015789,-0.001715,0.00091,-0.003462,-0.000882,0.00724,-0.4942,-0.001585,-1.328542,-262.795889,-1.248335,66.356467
6.0475,0.008341,0.015361,-0.001314,0.000905,-0.003465,-0.000762,0.00698,-0.494319,-0.001755,-1.355548,-262.794173,-1.237863,66.357589
6.0679,0.008262,0.015631,-0.001787,0.000875,-0.003448,-0.000769,0.007621,-0.494619,-0.001349,-1.355548,-262.794173,-1.237863,66.357589
6.0877,0.008477,0.015646,-0.001597,0.000849,-0.003434,-0.000775,0.007621,-0.494619,-0.001349,-1.355548,-262.794173,-1.237863,66.357589
6.1078,0.00826,0.015493,-0.001492,0.000849,-0.003434,-0.000775,0.007699,-0.494494,-0.001627,-1.344377,-262.792606,-1.2776,66.358806
6.1278,0.008136,0.015331,-0.002773,0.000813,-0.003423,-0.000617,0.00762,-0.494515,-0.001574,-1.344377,-262.792606,-1.2776,66.358806
6.1478,0.008403,0.015327,-0.003469,0.0008,-0.003418,-0.00057,0.006748,-0.494775,-0.002797,-1.356801,-262.791022,-1.291523,66.360026
6.1678,0.008228,0.015048,-0.004226,0.000834,-0.003466,5.1e-05,0.006646,-0.494685,-0.00341,-1.356801,-262.791022,-1.291523,66.360026
6.1878,0.007934,0.015093,-0.002129,0.000862,-0.003502,0.000509,0.006646,-0.494685,-0.00341,-1.356801,-262.791022,-1.291523,66.360026
6.2081,0.008487,0.015097,-0.00353,0.000862,-0.003502,0.000509,0.006881,-0.495047,-0.002153,-1.36145,-262.789497,-1.315811,66.361283
6.2282,0.008001,0.014977,-0.003083,0.00088,-0.003514,0.000739,0.006806,-0.495003,-0.002718,-1.36145,-262.789497,-1.315811,66.361283
6.2477,0.008516,0.014461,-0.001131,0.000887,-0.003517,0.000808,0.006454,-0.495125,-0.003068,-1.307065,-262.788257,-1.348551,66.362749
6.2683,0.008513,0.014731,-0.002869,0.000832,-0.003457,0.000317,0.007809,-0.495507,-0.001301,-1.307065,-262.788257,-1.348551,66.362749
6.2883,0.008039,0.014866,-0.001184,0.000786,-0.003413,-3.1e-05,0.007809,-0.495507,-0.001301,-1.307065,-262.788257,-1.348551,66.362749
6.3083,0.008178,0.014825,-0.003011,0.000786,-0.003413,-3.1e-05,0.007472,-0.495281,-0.00115,-1.285327,-262.787,-1.353083,66.364388
6.3278,0.008125,0.014659,-0.00409,0.000786,-0.003411,-3e-05,0.007139,-0.495254,-0.001903,-1.285327,-262.787,-1.353083,66.364388
6.3479,0.008342,0.0143,-0.001006,0.000786,-0.00341,-2.8e-05,0.006062,-0.495439,-0.004091,-1.345622,-262.785674,-1.343217,66.3657
6.3677,0.008429,0.014344,7.2e-05,0.000749,-0.003377,-0.000299,0.007695,-0.495684,-0.001242,-1.345622,-262.785674,-1.343217,66.3657
6.3875,0.008402,0.014275,-0.001206,0.000718,-0.003352,-0.000492,0.007695,-0.495684,-0.001242,-1.345622,-262.785674,-1.343217,66.3657
6.4076,0.008354,0.014008,-0.00145,0.000718,-0.003352,-0.000492,0.00782,-0.495867,-0.001208,-1.345346,-262.784275,-1.343141,66.367086
6.4276,0.008565,0.014431,-0.002195,0.000654,-0.003313,-0.000673,0.00774,-0.495934,-0.001306,-1.345346,-262.784275,-1.343141,66.367086
6.4478,0.008265,0.014309,-0.002312,0.000629,-0.0033,-0.000726,0.007468,-0.495673,-0.002211,-1.37682,-262.782801,-1.339897,66.368328
6.4678,0.008321,0.014183,-0.002073,0.000646,-0.003332,-0.000387,0.007115,-0.495693,-0.002305,-1.37682,-262.782801,-1.339897,66.368328
6.4879,0.008736,0.014223,-0.002481,0.00066,-0.003354,-0.000138,0.007115,-0.495693,-0.002305,-1.37682,-262.782801,-1.339897,66.368328
6.5075,0.008397,0.013633,-0.001586,0.00066,-0.003354,-0.000138,0.007496,-0.495911,-0.002511,-1.404235,-262.781308,-1.353929,66.369478
6.5279,0.008265,0.013736,-0.000779,0.000622,-0.003344,7.9e-05,0.007538,-0.496117,-0.002127,-1.404235,-262.781308,-1.353929,66.369478
6.5475,0.008778,0.01366,-0.001529,0.000608,-0.003339,0.000145,0.007888,-0.496369,-0.000783,-1.381096,-262.779932,-1.371556,66.370789
6.5678,0.008643,0.013764,-0.002987,0.000568,-0.003303,-6.9e-05,0.007989,-0.496348,-0.001461,-1.381096,-262.779932,-1.371556,66.370789
6.5877,0.008811,0.014029,-0.003047,0.000535,-0.003275,-0.000222,0.007989,-0.496348,-0.001461,-1.381096,-262.779932,-1.371556,66.370789
6.6077,0.008768,0.013565,-0.001921,0.000535,-0.003275,-0.000222,0.007282,-0.496107,-0.003041,-1.385956,-262.778615,-1.395314,66.372175
6.6278,0.008739,0.013489,-0.003778,0.000533,-0.003305,0.000288,0.007499,-0.496262,-0.002567,-1.385956,-262.778615,-1.395314,66.372175
6.6479,0.008291,0.013591,-0.002698,0.000531,-0.003313,0.000443,0.006828,-0.49661,-0.003785,-1.415129,-262.777261,-1.401903,66.373425
6.668,0.008914,0.013175,-0.002592,0.000557,-0.003335,0.000622,0.006907,-0.496431,-0.002798,-1.415129,-262.777261,-1.401903,66.373425
6.688,0.008772,0.013408,-0.001716,0.000578,-0.003351,0.000751,0.006907,-0.496431,-0.002798,-1.415129,-262.777261,-1.401903,66.373425
6.708,0.008524,0.013394,-0.000751,0.000578,-0.003351,0.000751,0.007918,-0.496728,-0.001698,-1.397861,-262.77604,-1.423563,66.374856
6.728,0.008841,0.013527,-0.000429,0.000495,-0.003256,-4.6e-05,0.008011,-0.496694,-0.001313,-1.397861,-262.77604,-1.423563,66.374856
6.7478,0.008574,0.013114,-0.002064,0.000463,-0.003226,-0.00028,0.00864,-0.496578,-0.000405,-1.37338,-262.774872,-1.420098,66.376382
6.7679,0.008463,0.013236,-0.004217,0.00045,-0.003225,-0.000199,0.007624,-0.496863,-0.001913,-1.37338,-262.774872,-1.420098,66.376382
6.7877,0.008896,0.013037,-0.002928,0.00044,-0.003223,-0.000139,0.007624,-0.496863,-0.001913,-1.37338,-262.774872,-1.420098,66.376382
6.8077,0.008708,0.013347,-0.003418,0.00044,-0.003223,-0.000139,0.007421,-0.497088,-0.002939,-1.435251,-262.773582,-1.420304,66.377545
6.8276,0.008771,0.013031,-0.0019,0.000459,-0.003278,0.00062,0.007237,-0.496924,-0.003135,-1.435251,-262.773582,-1.420304,66.377545
6.8475,0.008648,0.012937,-0.002318,0.000466,-0.003294,0.000853,0.007816,-0.49707,-0.001904,-1.438593,-262.772251,-1.431547,66.378809
6.8677,0.008625,0.012978,-0.00169,0.000453,-0.003276,0.000749,0.007498,-0.497068,-0.002281,-1.438593,-262.772251,-1.431547,66.378809
6.8877,0.008921,0.012988,-0.001602,0.000443,-0.003263,0.000675,0.007498,-0.497068,-0.002281,-1.438593,-262.772251,-1.431547,66.378809
6.9079,0.008803,0.012595,-0.002152,0.000443,-0.003263,0.000675,0.008123,-0.497146,-0.001567,-1.404396,-262.771152,-1.449323,66.38031
6.9279,0.008959,0.01257,-0.000631,0.000375,-0.003196,0.00028,0.007955,-0.497267,-0.001802,-1.404396,-262.771152,-1.449323,66.38031
6.9475,0.008958,0.012422,-0.001735,0.000349,-0.003174,0.000164,0.008651,-0.497534,-0.00061,-1.416705,-262.770001,-1.450897,66.381787
6.9679,0.008614,0.012757,-0.001821,0.00031,-0.003142,1.6e-05,0.008126,-0.497579,-0.001632,-1.416705,-262.770001,-1.450897,66.381787
6.9881,0.00863,0.012223,-0.001739,0.000278,-0.003117,-8.9e-05,0.008126,-0.497579,-0.001632,-1.416705,-262.770001,-1.450897,66.381787
7.0082,0.008986,0.012327,-0.002957,0.000278,-0.003117,-8.9e-05,0.007757,-0.497906,-0.001732,-1.457597,-262.7688,-1.464459,66.383066
7.028,0.008789,0.012227,-0.001535,0.000257,-0.003123,0.000163,0.007648,-0.497827,-0.00222,-1.457597,-262.7688,-1.464459,66.383066
7.0478,0.00892,0.012322,-0.002576,0.00025,-0.003124,0.00024,0.008015,-0.49787,-0.001537,-1.483388,-262.767545,-1.480292,66.384278
7.0679,0.00862,0.012125,-0.002687,0.000247,-0.003132,0.000385,0.007643,-0.497699,-0.002483,-1.483388,-262.767545,-1.480292,66.384278
7.0878,0.009277,0.011751,-0.000973,0.000245,-0.003137,0.000489,0.007643,-0.497699,-0.002483,-1.483388,-262.767545,-1.480292,66.384278
7.1079,0.008595,0.01222,-0.002339,0.000245,-0.003137,0.000489,0.008791,-0.498379,-0.000963,-1.487132,-262.766354,-1.494606,66.385585
7.1279,0.008932,0.012218,-0.00338,0.000164,-0.003056,2e-06,0.008225,-0.498149,-0.001524,-1.487132,-262.766354,-1.494606,66.385585
7.148,0.008823,0.011815,-0.001245,0.000134,-0.003028,-0.000142,0.007216,-0.49788,-0.003365,-1.484536,-262.765215,-1.499464,66.386962
7.1684,0.008797,0.011932,-8.8e-05,0.000114,-0.003009,-0.000285,0.008101,-0.498163,-0.001436,-1.484536,-262.765215,-1.499464,66.386962
7.1882,0.008489,0.012008,-0.002859,9.7e-05,-0.002995,-0.000387,0.008101,-0.498163,-0.001436,-1.484536,-262.765215,-1.499464,66.386962
7.208,0.008756,0.011558,-0.002408,9.7e-05,-0.002995,-0.000387,0.007036,-0.498112,-0.002865,-1.527885,-262.764018,-1.525357,66.388093
7.2279,0.00845,0.011675,-0.002902,0.000149,-0.003069,0.000258,0.007236,-0.498259,-0.00268,-1.527885,-262.764018,-1.525357,66.388093
7.2475,0.008725,0.011392,-0.001921,0.000169,-0.003092,0.000456,0.006972,-0.498418,-0.002915,-1.540672,-262.76273,-1.535521,66.389193
7.2676,0.008804,0.011419,-0.001939,0.00015,-0.003072,0.000375,0.007674,-0.498595,-0.002012,-1.540672,-262.76273,-1.535521,66.389193
7.2878,0.00875,0.011496,-0.000767,0.000134,-0.003057,0.000318,0.007674,-0.498595,-0.002012,-1.540672,-262.76273,-1.535521,66.389193
7.3078,0.008437,0.011568,-0.00184,0.000134,-0.003057,0.000318,0.008365,-0.498631,-0.000749,-1.510931,-262.761622,-1.520805,66.390519
7.3278,0.009143,0.011423,-0.001619,8.1e-05,-0.002988,-0.000348,0.008013,-0.498564,-0.001191,-1.510931,-262.761622,-1.520805,66.390519
7.3479,0.008891,0.011102,-0.000865,6.1e-05,-0.002967,-0.000545,0.008321,-0.498673,-0.001609,-1.524045,-262.760481,-1.529617,66.391815
7.3676,0.008935,0.011238,-0.00046,1.3e-05,-0.002924,-0.000803,0.008438,-0.498882,-0.000933,-1.524045,-262.760481,-1.529617,66.391815
7.3875,0.009061,0.011355,-0.002386,-2.8e-05,-0.002891,-0.000987,0.008438,-0.498882,-0.000933,-1.524045,-262.760481,-1.529617,66.391815
7.408,0.008837,0.011474,-0.002435,-2.8e-05,-0.002891,-0.000987,0.007847,-0.498766,-0.002409,-1.552236,-262.759184,-1.547544,66.39285
7.4278,0.008675,0.011238,-0.003391,-1.3e-05,-0.002953,-0.0002,0.007744,-0.498681,-0.002422,-1.552236,-262.759184,-1.547544,66.39285
7.4478,0.008836,0.011123,-0.002332,-8e-06,-0.002971,4.4e-05,0.006945,-0.498849,-0.003421,-1.578739,-262.75783,-1.582923,66.393738
7.468,0.008934,0.010971,-0.001926,-2e-06,-0.002984,0.000225,0.007584,-0.498878,-0.002431,-1.578739,-262.75783,-1.582923,66.393738
7.4878,0.008872,0.011129,-0.002722,3e-06,-0.002993,0.000356,0.007584,-0.498878,-0.002431,-1.578739,-262.75783,-1.582923,66.393738
7.5078,0.008884,0.011095,-0.000188,3e-06,-0.002993,0.000356,0.007483,-0.498993,-0.00272,-1.573509,-262.756654,-1.57346,66.394934
7.5279,0.008702,0.0108,-0.00128,-3.5e-05,-0.002942,5.1e-05,0.008016,-0.498971,-0.001686,-1.573509,-262.756654,-1.57346,66.394934
7.5479,0.008717,0.011099,-0.002495,-4.9e-05,-0.002925,-4e-05,0.008049,-0.499295,-0.001269,-1.569554,-262.755545,-1.569723,66.396218
7.5677,0.008791,0.010743,-0.002584,-3.4e-05,-0.002947,0.000146,0.007501,-0.498942,-0.002379,-1.569554,-262.755545,-1.569723,66.396218
7.5879,0.00917,0.010738,-0.001991,-2.1e-05,-0.002963,0.000281,0.007501,-0.498942,-0.002379,-1.569554,-262.755545,-1.569723,66.396218
7.608,0.009065,0.010751,-0.002049,-2.1e-05,-0.002963,0.000281,0.008152,-0.499382,-0.001993,-1.587491,-262.754377,-1.587773,66.397366
7.6278,0.008695,0.010695,-0.001526,-8.5e-05,-0.002911,0.000244,0.008098,-0.499342,-0.002016,-1.587491,-262.754377,-1.587773,66.397366
7.6477,0.00875,0.010323,-0.002023,-0.000109,-0.002893,0.000233,0.007917,-0.499399,-0.001517,-1.578195,-262.753264,-1.577385,66.398616
7.668,0.008742,0.010465,0.000102,-0.000121,-0.002881,0.000208,0.007736,-0.499656,-0.001977,-1.578195,-262.753264,-1.577385,66.398616
7.6875,0.008964,0.010271,-8e-05,-0.000131,-0.002871,0.000191,0.007736,-0.499656,-0.001977,-1.578195,-262.753264,-1.577385,66.398616
7.7081,0.008526,0.01023,-0.001523,-0.000131,-0.002871,0.000191,0.008919,-0.499846,-7e-05,-1.610305,-262.752196,-1.606606,66.399795
7.7281,0.008792,0.01003,-0.00323,-0.000223,-0.002755,-0.000849,0.008441,-0.499829,-0.000661,-1.610305,-262.752196,-1.606606,66.399795
7.7478,0.008835,0.009976,-0.001462,-0.000257,-0.002719,-0.00116,0.00714,-0.500059,-0.003224,-1.618476,-262.751095,-1.614763,66.400989
7.7681,0.008832,0.009799,-0.000532,-0.000273,-0.002723,-0.000942,0.008003,-0.500032,-0.001622,-1.618476,-262.751095,-1.614763,66.400989
7.7882,0.008433,0.01047,-0.001921,-0.000286,-0.002724,-0.000781,0.008003,-0.500032,-0.001622,-1.618476,-262.751095,-1.614763,66.400989
7.8081,0.008729,0.010184,-0.001325,-0.000286,-0.002724,-0.000781,0.007444,-0.49963,-0.001964,-1.645686,-262.749879,-1.689769,66.401705
7.8281,0.008727,0.009885,-0.002644,-0.000253,-0.002764,-0.000527,0.00769,-0.499717,-0.00171,-1.645686,-262.749879,-1.689769,66.401705
7.8481,0.008545,0.010042,-0.002934,-0.000241,-0.002778,-0.000447,0.007369,-0.5002,-0.002669,-1.659899,-262.748599,-1.697377,66.402608
7.8682,0.008677,0.010042,-0.002999,-0.000205,-0.002829,1.3e-05,0.007078,-0.499982,-0.002911,-1.659899,-262.748599,-1.697377,66.402608
7.8881,0.008795,0.010291,-0.003584,-0.000176,-0.002866,0.00035,0.007078,-0.499982,-0.002911,-1.659899,-262.748599,-1.697377,66.402608
7.9077,0.008562,0.009839,-0.000758,-0.000176,-0.002866,0.00035,0.006957,-0.49982,-0.003602,-1.649537,-262.747395,-1.666622,66.403597
7.9277,0.009176,0.009434,-0.001931,-0.000171,-0.002874,0.000534,0.007448,-0.499971,-0.002455,-1.649537,-262.747395,-1.666622,66.403597
7.948,0.008276,0.009541,-0.002193,-0.000169,-0.002875,0.00059,0.008185,-0.500654,-0.00192,-1.636916,-262.74636,-1.627756,66.404799
7.968,0.008898,0.009894,-0.004277,-0.000176,-0.002861,0.000532,0.007252,-0.50048,-0.002167,-1.636916,-262.74636,-1.627756,66.404799
7.9879,0.008681,0.009449,-0.000931,-0.000182,-0.00285,0.00049,0.007252,-0.50048,-0.002167,-1.636916,-262.74636,-1.627756,66.404799
8.0079,0.00862,0.009378,-0.002784,-0.000182,-0.00285,0.00049,0.008199,-0.500671,-0.000907,-1.637888,-262.745352,-1.622976,66.406094
8.0277,0.0087,0.009906,-0.002379,-0.000258,-0.002766,0.000117,0.007793,-0.500664,-0.001666,-1.637888,-262.745352,-1.622976,66.406094
8.0477,0.008929,0.009548,-0.000955,-0.000286,-0.002737,6e-06,0.007481,-0.500183,-0.002363,-1.642088,-262.74433,-1.628568,66.407355
8.0678,0.008717,0.009553,-0.000644,-0.000328,-0.002688,-0.000332,0.008354,-0.500432,-0.001082,-1.642088,-262.74433,-1.628568,66.407355
8.0876,0.008773,0.009041,-0.002275,-0.000364,-0.002651,-0.000574,0.008354,-0.500432,-0.001082,-1.642088,-262.74433,-1.628568,66.407355
8.1084,0.008686,0.009344,-0.002765,-0.000364,-0.002651,-0.000574,0.007601,-0.501066,-0.002275,-1.675091,-262.743286,-1.674807,66.408402
8.1277,0.008605,0.009346,-0.002726,-0.000369,-0.002688,6.5e-05,0.00747,-0.500914,-0.002471,-1.675091,-262.743286,-1.674807,66.408402
8.1483,0.008782,0.008928,-0.002753,-0.000371,-0.002698,0.000262,0.007203,-0.500732,-0.002744,-1.691319,-262.742134,-1.727514,66.409289
8.1684,0.00854,0.008681,-0.002554,-0.000372,-0.002709,0.000495,0.007362,-0.501044,-0.002753,-1.691319,-262.742134,-1.727514,66.409289
8.1881,0.008602,0.00885,-0.002029,-0.000373,-0.002716,0.000663,0.007362,-0.501044,-0.002753,-1.691319,-262.742134,-1.727514,66.409289
8.2076,0.008732,0.009233,-0.000185,-0.000373,-0.002716,0.000663,0.007552,-0.50126,-0.002018,-1.716035,-262.741122,-1.69999,66.410426
8.2276,0.008479,0.008825,-0.002569,-0.000439,-0.002615,-0.000125,0.008012,-0.501063,-0.001237,-1.716035,-262.741122,-1.69999,66.410426
8.2482,0.008837,0.008611,-0.002565,-0.000463,-0.002583,-0.000358,0.007156,-0.501259,-0.002548,-1.730747,-262.740198,-1.689686,66.411667
8.2683,0.008444,0.00907,-0.000904,-0.00047,-0.002599,-1.8e-05,0.007495,-0.50138,-0.002563,-1.730747,-262.740198,-1.689686,66.411667
8.2882,0.008349,0.008651,-0.00113,-0.000476,-0.002609,0.000231,0.007495,-0.50138,-0.002563,-1.730747,-262.740198,-1.689686,66.411667
8.3076,0.008628,0.009015,-0.003003,-0.000476,-0.002609,0.000231,0.007772,-0.501348,-0.00113,-1.734673,-262.740198,-1.615296,66.411667
8.3279,0.009089,0.009013,-0.002661,-0.000469,-0.002603,0.00013,0.007497,-0.501199,-0.001892,-1.734673,-262.740198,-1.615296,66.411667
8.3478,0.008594,0.008707,-0.001241,-0.000467,-0.002601,0.000101,0.007732,-0.500985,-0.002661,-1.659671,-262.740198,-1.690298,66.411667
8.368,0.008614,0.008574,-0.002519,-0.000491,-0.002568,-0.000133,0.007941,-0.501265,-0.001368,-1.659671,-262.740198,-1.690298,66.411667
8.3879,0.008435,0.008925,-0.003043,-0.00051,-0.002543,-0.000301,0.007941,-0.501265,-0.001368,-1.659671,-262.740198,-1.690298,66.411667
8.4079,0.00889,0.008958,-0.003494,-0.00051,-0.002543,-0.000301,0.006883,-0.501073,-0.003043,-1.584669,-262.740198,-1.744414,66.411667
8.428,0.008865,0.009005,-0.001146,-0.000423,-0.002663,0.000584,0.006975,-0.501059,-0.003227,-1.584669,-262.740198,-1.744414,66.411667
8.4474,0.008762,0.008663,-0.001267,-0.00039,-0.002702,0.000858,0.008281,-0.500995,-0.001146,-1.509666,-262.740198,-1.669411,66.411667
8.4676,0.008761,0.00863,-0.000758,-0.000438,-0.002631,0.000344,0.008131,-0.501306,-0.001256,-1.509666,-262.740198,-1.669411,66.411667
8.4876,0.008838,0.008615,-0.002207,-0.000477,-0.002579,-2e-05,0.008131,-0.501306,-0.001256,-1.509666,-262.740198,-1.669411,66.411667
8.5076,0.007997,0.008845,-0.002085,-0.000477,-0.002579,-2e-05,0.007713,-0.501384,-0.002207,-1.434675,-262.740199,-1.691215,66.411667
8.528,0.008434,0.008656,-0.003454,-0.000463,-0.002601,0.000159,0.007393,-0.50129,-0.002157,-1.434675,-262.740199,-1.691215,66.411667
8.5478,0.008656,0.008957,-0.001265,-0.000458,-0.002608,0.000215,0.006673,-0.501341,-0.003454,-1.359676,-262.740199,-1.616216,66.411667
8.5681,0.009003,0.008785,-0.002957,-0.00047,-0.002585,-2e-05,0.007894,-0.501069,-0.001457,-1.359676,-262.740199,-1.616216,66.411667
8.588,0.00861,0.008832,-0.001358,-0.00048,-0.002568,-0.000186,0.007894,-0.501069,-0.001457,-1.359676,-262.740199,-1.616216,66.411667
8.6081,0.008501,0.009052,-0.00139,-0.00048,-0.002568,-0.000186,0.007918,-0.501168,-0.001358,-1.28462,-262.740199,-1.691272,66.411667
8.6277,0.008565,0.008856,-0.002696,-0.000489,-0.00255,-0.000455,0.007867,-0.501078,-0.001371,-1.28462,-262.740199,-1.691272,66.411667
8.6477,0.008608,0.008844,-0.000482,-0.000493,-0.002546,-0.000534,0.00719,-0.501142,-0.002696,-1.209678,-262.740199,-1.61633,66.411667
8.668,0.008688,0.008591,-0.002605,-0.000518,-0.00251,-0.000919,0.008256,-0.501155,-0.000683,-1.209678,-262.740199,-1.61633,66.411667
8.6877,0.00873,0.009167,-0.00251,-0.00054,-0.002484,-0.001195,0.008256,-0.501155,-0.000683,-1.209678,-262.740199,-1.61633,66.411667
8.708,0.008538,0.008642,-0.002536,-0.00054,-0.002484,-0.001195,0.00745,-0.500831,-0.00251,-1.284675,-262.740199,-1.541334,66.411667
8.7284,0.008713,0.00857,-0.000802,-0.000478,-0.002592,-0.000264,0.007366,-0.501045,-0.00252,-1.284675,-262.740199,-1.541334,66.411667
8.7483,0.008881,0.008778,-0.001164,-0.000455,-0.002627,2.8e-05,0.008304,-0.50143,-0.000802,-1.359675,-262.740199,-1.466334,66.411667
8.7685,0.00901,0.008583,-0.000991,-0.000493,-0.002576,-0.000298,0.008288,-0.501241,-0.00113,-1.359675,-262.740199,-1.466334,66.411667
8.7885,0.008825,0.009026,-0.00212,-0.000524,-0.002537,-0.00053,0.008288,-0.501241,-0.00113,-1.359675,-262.740199,-1.466334,66.411667
8.8082,0.008893,0.008811,-0.001642,-0.000524,-0.002537,-0.00053,0.007744,-0.500976,-0.00212,-1.434685,-262.740171,-1.541344,66.411695
8.8279,0.008801,0.008755,-0.000499,-0.000521,-0.002557,-0.000246,0.007871,-0.501063,-0.001925,-1.434685,-262.740171,-1.541344,66.411695
8.8478,0.008744,0.008876,-0.001529,-0.00052,-0.002562,-0.000157,0.008546,-0.501245,-0.000499,-1.359683,-262.740171,-1.466342,66.411695
8.8676,0.009079,0.008506,-0.001687,-0.000528,-0.002546,-0.000289,0.008016,-0.501135,-0.001437,-1.359683,-262.740171,-1.466342,66.411695
8.8877,0.008852,0.008756,-0.001883,-0.000535,-0.002534,-0.000384,0.008016,-0.501135,-0.001437,-1.359683,-262.740171,-1.466342,66.411695
8.9077,0.008688,0.008529,-0.001273,-0.000535,-0.002534,-0.000384,0.007892,-0.501243,-0.001883,-1.284685,-262.740171,-1.391343,66.411695
8.9277,0.008533,0.008534,-0.001134,-0.000556,-0.002517,-0.000353,0.007952,-0.501336,-0.001635,-1.284685,-262.740171,-1.391343,66.411695
8.9475,0.009201,0.008569,-0.002047,-0.000564,-0.00251,-0.000343,0.007955,-0.501465,-0.001134,-1.209693,-262.740171,-1.316352,66.411695
8.9676,0.008715,0.008923,-0.001974,-0.000585,-0.002501,-0.000203,0.008139,-0.501433,-0.001965,-1.209693,-262.740171,-1.316352,66.411695
8.988,0.009106,0.008939,-0.001876,-0.000602,-0.002492,-0.000102,0.008139,-0.501433,-0.001965,-1.209693,-262.740171,-1.316352,66.411695
9.0079,0.008531,0.008537,-0.002398,-0.000602,-0.002492,-0.000102,0.008149,-0.50106,-0.001876,-1.13468,-262.740171,-1.241339,66.411695
9.0283,0.008885,0.008995,-0.002218,-0.000579,-0.00252,9.1e-05,0.007806,-0.501224,-0.002089,-1.13468,-262.740171,-1.241339,66.411695
9.0483,0.00858,0.008705,-0.001578,-0.000571,-0.002528,0.000149,0.007754,-0.501004,-0.002218,-1.059685,-262.740171,-1.166344,66.411695
9.0679,0.00852,0.008864,-0.000765,-0.000563,-0.002524,1.2e-05,0.007773,-0.501269,-0.001635,-1.059685,-262.740171,-1.166344,66.411695
9.0879,0.008819,0.008973,-0.00177,-0.000557,-0.002522,-8.6e-05,0.007773,-0.501269,-0.001635,-1.059685,-262.740171,-1.166344,66.411695
9.1079,0.008987,0.00879,-0.001005,-0.000557,-0.002522,-8.6e-05,0.007916,-0.501026,-0.00177,-0.98469,-262.740171,-1.091349,66.411695
9.1279,0.008658,0.008969,-0.002455,-0.00057,-0.002498,-0.000329,0.008142,-0.501101,-0.00146,-0.98469,-262.740171,-1.091349,66.411695
9.1479,0.008841,0.00914,-0.003019,-0.000575,-0.002491,-0.000402,0.007405,-0.50103,-0.002455,-0.909691,-262.740171,-1.01635,66.411695
9.1678,0.00853,0.008542,-0.002096,-0.000524,-0.00256,6.1e-05,0.00731,-0.500873,-0.002969,-0.909691,-262.740171,-1.01635,66.411695
9.1878,0.009006,0.008616,-0.001336,-0.000483,-0.002612,0.000401,0.00731,-0.500873,-0.002969,-0.909691,-262.740171,-1.01635,66.411695
9.208,0.008714,0.008739,-0.001292,-0.000483,-0.002612,0.000401,0.008324,-0.501384,-0.001336,-0.83469,-262.740171,-0.941349,66.411695
9.2278,0.008809,0.00891,-0.002395,-0.000544,-0.002525,-0.000194,0.008214,-0.501333,-0.001318,-0.83469,-262.740171,-0.941349,66.411695
9.2478,0.008843,0.008422,-0.001604,-0.000566,-0.002497,-0.00037,0.007588,-0.501089,-0.002395,-0.759694,-262.740171,-1.016345,66.411695
9.2679,0.008751,0.008922,-0.001323,-0.000583,-0.002485,-0.000342,0.007986,-0.501533,-0.001675,-0.759694,-262.740171,-1.016345,66.411695
9.2877,0.008932,0.008449,-0.002004,-0.000597,-0.002475,-0.000321,0.007986,-0.501533,-0.001675,-0.759694,-262.740171,-1.016345,66.411695
9.3081,0.008629,0.008731,-0.003231,-0.000597,-0.002475,-0.000321,0.00791,-0.50155,-0.002004,-0.684697,-262.740171,-0.941349,66.411695
9.3283,0.008688,0.008803,-0.000893,-0.000564,-0.002535,0.000214,0.00753,-0.501434,-0.002506,-0.684697,-262.740171,-0.941349,66.411695
9.3479,0.00841,0.009056,-0.001848,-0.000552,-0.002553,0.000378,0.008233,-0.501197,-0.000893,-0.609685,-262.740171,-0.866336,66.411695
9.3681,0.008671,0.008824,-0.003175,-0.000521,-0.002565,0.000223,0.007527,-0.500963,-0.001774,-0.609685,-262.740171,-0.866336,66.411695
9.3882,0.00889,0.008622,-0.001011,-0.000496,-0.002577,0.000113,0.007527,-0.500963,-0.001774,-0.609685,-262.740171,-0.866336,66.411695
9.408,0.008982,0.008981,-0.001548,-0.000496,-0.002577,0.000113,0.008375,-0.501378,-0.001011,-0.534335,-262.740171,-0.790986,66.411695
9.4278,0.008558,0.00863,-0.00276,-0.000552,-0.002504,-0.000403,0.008299,-0.501228,-0.001234,-0.534335,-262.740171,-0.790986,66.411695
9.4481,0.008781,0.00909,-0.002042,-0.000574,-0.00248,-0.000555,0.007151,-0.501368,-0.00276,-0.459269,-262.740171,-0.71592,66.411695
9.468,0.008834,0.008557,-0.00246,-0.000548,-0.002518,-0.000322,0.007686,-0.50095,-0.002107,-0.459269,-262.740171,-0.71592,66.411695
9.4879,0.008534,0.009055,-0.002248,-0.000527,-0.002546,-0.000151,0.007686,-0.50095,-0.002107,-0.459269,-262.740171,-0.71592,66.411695
9.5077,0.008656,0.008607,-0.00385,-0.000527,-0.002546,-0.000151,0.007388,-0.500944,-0.002248,-0.384689,-262.740171,-0.641341,66.411695
9.5276,0.008673,0.008732,-0.003374,-0.000447,-0.002645,0.000504,0.007102,-0.501127,-0.002905,-0.384689,-262.740171,-0.641341,66.411695
9.5479,0.008773,0.00919,-0.001773,-0.000418,-0.002678,0.000706,0.006952,-0.501265,-0.003374,-0.309589,-262.740171,-0.566241,66.411695
9.5676,0.008713,0.009056,-0.002991,-0.000421,-0.002661,0.000514,0.007788,-0.50085,-0.001915,-0.309589,-262.740171,-0.566241,66.411695
9.5876,0.008768,0.009153,-0.003144,-0.000423,-0.002649,0.000378,0.007788,-0.50085,-0.001915,-0.309589,-262.740171,-0.566241,66.411695
9.6076,0.008587,0.008905,-0.001727,-0.000423,-0.002649,0.000378,0.007165,-0.500844,-0.003144,-0.234637,-262.740171,-0.641193,66.411695
9.6279,0.008723,0.008589,-0.002558,-0.000394,-0.002685,0.000608,0.007385,-0.500946,-0.002568,-0.234637,-262.740171,-0.641193,66.411695
9.6475,0.008729,0.008586,-0.002801,-0.000384,-0.002697,0.000678,0.007418,-0.501409,-0.002558,-0.309581,-262.740171,-0.716136,66.411695
9.6677,0.008511,0.008473,-0.00197,-0.00039,-0.002697,0.000801,0.007311,-0.501412,-0.00278,-0.309581,-262.740171,-0.716136,66.411695
9.6875,0.008576,0.008861,-0.002204,-0.000396,-0.002696,0.00089,0.007311,-0.501412,-0.00278,-0.309581,-262.740171,-0.716136,66.411695
9.7077,0.008639,0.008732,-0.001711,-0.000396,-0.002696,0.00089,0.007452,-0.501138,-0.002204,-0.384716,-262.740171,-0.791271,66.411695
9.7276,0.008392,0.008472,-0.001062,-0.000413,-0.002655,0.000534,0.00758,-0.50119,-0.002003,-0.384716,-262.740171,-0.791271,66.411695
9.7475,0.008621,0.008752,-0.000509,-0.00042,-0.002643,0.000429,0.00785,-0.501528,-0.001062,-0.309849,-262.740171,-0.866138,66.411695
9.7675,0.008673,0.008448,-0.001986,-0.000466,-0.002568,-0.000309,0.008318,-0.501272,-0.000556,-0.309849,-262.740171,-0.866138,66.411695
9.7875,0.008658,0.008692,-0.002703,-0.000505,-0.002514,-0.000835,0.008318,-0.501272,-0.000556,-0.309849,-262.740171,-0.866138,66.411695
9.8076,0.008577,0.008347,-0.001458,-0.000505,-0.002514,-0.000835,0.007279,-0.501306,-0.002703,-0.2347,-262.740171,-0.941286,66.411695
9.8276,0.008229,0.009113,-0.001609,-0.000502,-0.002557,-0.000262,0.007512,-0.501452,-0.00218,-0.2347,-262.740171,-0.941286,66.411695
9.8475,0.008812,0.009042,-0.001498,-0.000501,-0.002569,-8.2e-05,0.007409,-0.500886,-0.001609,-0.309945,-262.740171,-0.866042,66.411695
9.8675,0.008471,0.008862,-0.00268,-0.000503,-0.002559,-0.000212,0.00799,-0.500951,-0.001508,-0.309945,-262.740171,-0.866042,66.411695
9.8876,0.008656,0.008952,-0.002053,-0.000506,-0.002552,-0.000304,0.00799,-0.500951,-0.001508,-0.309945,-262.740171,-0.866042,66.411695
9.9075,0.008869,0.008783,-0.00061,-0.000506,-0.002552,-0.000304,0.00761,-0.501047,-0.002053,-0.235333,-262.740171,-0.791431,66.411695
9.9277,0.008445,0.00852,-0.001486,-0.000522,-0.002532,-0.000443,0.007996,-0.501116,-0.001465,-0.235333,-262.740171,-0.791431,66.411695
9.9475,0.008895,0.008686,-0.001876,-0.000529,-0.002526,-0.000483,0.007687,-0.501479,-0.001486,-0.160348,-262.740171,-0.716445,66.411695
9.9684,0.008441,0.008951,-0.000479,-0.00054,-0.002526,-0.000357,0.007916,-0.501328,-0.001841,-0.160348,-262.740171,-0.716445,66.411695
9.9876,0.008402,0.008864,-0.001144,-0.000549,-0.002524,-0.000265,0.007916,-0.501328,-0.001841,-0.160348,-262.740171,-0.716445,66.411695
10.0079,0.00869,0.009013,-0.001876,-0.000549,-0.002524,-0.000265,0.007818,-0.501136,-0.001144,-0.085292,-262.740171,-0.641389,66.411695
10.028,0.00859,0.009032,-0.000592,-0.000528,-0.002532,-0.000438,0.007784,-0.501075,-0.001444,-0.085292,-262.740171,-0.641389,66.411695
10.0475,0.008628,0.008584,-0.001581,-0.00052,-0.002535,-0.000489,0.008288,-0.500968,-0.000592,-0.010219,-262.740171,-0.566316,66.411695
10.068,0.008661,0.00875,-0.00249,-0.000531,-0.002526,-0.000496,0.007859,-0.50138,-0.001503,-0.010219,-262.740171,-0.566316,66.411695
10.0879,0.008553,0.008875,-0.002875,-0.00054,-0.002519,-0.0005,0.007859,-0.50138,-0.001503,-0.010219,-262.740171,-0.566316,66.411695
10.1079,0.009011,0.008784,-0.001608,-0.00054,-0.002519,-0.0005,0.007087,-0.501123,-0.002875,0.065026,-262.740171,-0.491071,66.411695
10.1279,0.008382,0.008826,-0.000914,-0.000506,-0.002581,3.4e-05,0.007542,-0.501161,-0.002353,0.065026,-262.740171,-0.491071,66.411695
10.1478,0.008324,0.009199,-0.003176,-0.000493,-0.002599,0.000198,0.007915,-0.501174,-0.000914,0.139808,-262.740171,-0.41629,66.411695
10.1677,0.008462,0.008512,-0.001377,-0.000425,-0.002665,0.000497,0.006816,-0.500833,-0.002968,0.139808,-262.740171,-0.41629,66.411695
10.1875,0.008691,0.009073,-0.002402,-0.000369,-0.002717,0.000716,0.006816,-0.500833,-0.002968,0.139808,-262.740171,-0.41629,66.411695
10.2081,0.008922,0.00867,-0.001094,-0.000369,-0.002717,0.000716,0.007466,-0.500925,-0.002402,0.214667,-262.740171,-0.341431,66.411695
10.2276,0.008365,0.008865,-0.00145,-0.000412,-0.002656,0.000363,0.007831,-0.50109,-0.00187,0.214667,-262.740171,-0.341431,66.411695
10.2476,0.008839,0.009049,-0.003659,-0.000428,-0.002635,0.000259,0.007625,-0.501134,-0.00145,0.289666,-262.740171,-0.41643,66.411695
10.2676,0.008676,0.009231,-0.001313,-0.00039,-0.00269,0.000689,0.007026,-0.500963,-0.003478,0.289666,-262.740171,-0.41643,66.411695
10.2875,0.008947,0.00907,-0.002188,-0.000359,-0.002731,0.001004,0.007026,-0.500963,-0.003478,0.289666,-262.740171,-0.41643,66.411695
10.3076,0.008653,0.008698,-0.002575,-0.000359,-0.002731,0.001004,0.007831,-0.500929,-0.002188,0.365058,-262.740171,-0.491822,66.411695
10.3277,0.008362,0.009131,-0.00217,-0.000386,-0.002693,0.000809,0.00763,-0.501081,-0.002347,0.365058,-262.740171,-0.491822,66.411695
10.3478,0.008715,0.008618,-0.001226,-0.000396,-0.00268,0.000751,0.007255,-0.500867,-0.00217,0.439702,-262.740171,-0.566466,66.411695
10.3678,0.008321,0.008932,-0.000855,-0.000434,-0.002623,0.000294,0.008014,-0.501335,-0.001312,0.439702,-262.740171,-0.566466,66.411695
10.3877,0.008659,0.008689,-0.000897,-0.000466,-0.00258,-3e-05,0.008014,-0.501335,-0.001312,0.439702,-262.740171,-0.566466,66.411695
10.408,0.008791,0.008697,-0.000856,-0.000466,-0.00258,-3e-05,0.008202,-0.501311,-0.000897,0.514664,-262.740171,-0.641428,66.411695
10.4279,0.008904,0.008811,-0.001076,-0.000534,-0.002492,-0.000776,0.008264,-0.501307,-0.00088,0.514664,-262.740171,-0.641428,66.411695
10.4478,0.008677,0.008841,-0.003808,-0.00056,-0.002465,-0.000997,0.008355,-0.501188,-0.001076,0.589678,-262.740171,-0.566414,66.411695
10.4679,0.008621,0.008577,-0.003273,-0.000497,-0.002558,-0.000236,0.006881,-0.501159,-0.003561,0.589678,-262.740171,-0.566414,66.411695
10.4882,0.008803,0.008375,-0.001599,-0.000446,-0.00263,0.000334,0.006881,-0.501159,-0.003561,0.589678,-262.740171,-0.566414,66.411695
10.5079,0.008799,0.009213,-0.00194,-0.000446,-0.00263,0.000334,0.007987,-0.501624,-0.001599,0.664664,-262.740171,-0.491428,66.411695
10.5279,0.008746,0.00862,-0.002874,-0.000486,-0.002578,7e-05,0.007913,-0.501273,-0.001742,0.664664,-262.740171,-0.491428,66.411695
10.5481,0.008763,0.008717,-0.001336,-0.000501,-0.002561,-6e-06,0.00728,-0.501378,-0.002874,0.740097,-262.740171,-0.56686,66.411695
10.5676,0.008873,0.008684,-0.001262,-0.000519,-0.002537,-0.000168,0.008009,-0.501291,-0.001476,0.740097,-262.740171,-0.56686,66.411695
10.5876,0.008553,0.008826,-0.000662,-0.000533,-0.00252,-0.000283,0.008009,-0.501291,-0.001476,0.740097,-262.740171,-0.56686,66.411695
10.6078,0.008741,0.008785,-0.000409,-0.000533,-0.00252,-0.000283,0.008216,-0.501174,-0.000662,0.814679,-262.740171,-0.492278,66.411695
10.6276,0.008299,0.008696,-0.000697,-0.000578,-0.002447,-0.001186,0.008345,-0.50119,-0.000559,0.814679,-262.740171,-0.492278,66.411695
10.6478,0.00878,0.009089,-0.001843,-0.000595,-0.002427,-0.001456,0.007944,-0.501303,-0.000697,0.889679,-262.740171,-0.417278,66.411695
10.668,0.008628,0.008454,-0.002185,-0.000575,-0.002468,-0.001121,0.00785,-0.500946,-0.001739,0.889679,-262.740171,-0.417278,66.411695
10.6882,0.008742,0.009111,-0.003006,-0.000558,-0.002499,-0.000873,0.00785,-0.500946,-0.001739,0.889679,-262.740171,-0.417278,66.411695
10.7076,0.008397,0.009012,-0.001478,-0.000558,-0.002499,-0.000873,0.007209,-0.500887,-0.003006,0.964673,-262.740171,-0.342284,66.411695
10.7279,0.008257,0.008958,-0.00296,-0.000484,-0.002599,-0.000166,0.007385,-0.500928,-0.002386,0.964673,-262.740171,-0.342284,66.411695
10.748,0.008552,0.008844,-0.002013,-0.000457,-0.002632,5.4e-05,0.006748,-0.50104,-0.00296,1.039673,-262.740171,-0.267284,66.411695
10.7682,0.008698,0.008814,-0.003016,-0.000447,-0.002639,0.000118,0.007455,-0.501145,-0.002098,1.039673,-262.740171,-0.267284,66.411695
10.7879,0.008586,0.008861,-0.002954,-0.00044,-0.002644,0.000166,0.007455,-0.501145,-0.002098,1.039673,-262.740171,-0.267284,66.411695
10.8075,0.008815,0.008652,-0.002148,-0.00044,-0.002644,0.000166,0.007079,-0.501137,-0.002954,1.114668,-262.740171,-0.342278,66.411695
10.8278,0.009049,0.009081,-0.003495,-0.000422,-0.002675,0.000535,0.007341,-0.501223,-0.002624,1.114668,-262.740171,-0.342278,66.411695
10.8475,0.008611,0.00908,-0.002099,-0.000415,-0.002684,0.000648,0.007267,-0.500915,-0.003495,1.189677,-262.740171,-0.417288,66.411695
10.8681,0.008299,0.008597,-0.002449,-0.000407,-0.002683,0.000583,0.00752,-0.500919,-0.002202,1.189677,-262.740171,-0.417288,66.411695
10.8881,0.008467,0.008671,-0.003342,-0.000401,-0.002682,0.000537,0.00752,-0.500919,-0.002202,1.189677,-262.740171,-0.417288,66.411695
10.9081,0.008687,0.008489,-0.001441,-0.000401,-0.002682,0.000537,0.006763,-0.501327,-0.003342,1.2652,-262.740171,-0.49281,66.411696
10.9277,0.008453,0.008523,-0.000965,-0.0004,-0.002687,0.000699,0.007249,-0.501402,-0.002565,1.2652,-262.740171,-0.49281,66.411696
10.9478,0.008644,0.008881,-0.001228,-0.0004,-0.002688,0.000747,0.007961,-0.501477,-0.000965,1.339672,-262.740171,-0.567282,66.411696
10.968,0.008739,0.008952,-0.002598,-0.00043,-0.002634,0.000242,0.008014,-0.501149,-0.001206,1.339672,-262.740171,-0.567282,66.411696
10.988,0.008754,0.008389,-0.002605,-0.000454,-0.002595,-0.000117,0.008014,-0.501149,-0.001206,1.339672,-262.740171,-0.567282,66.411696
11.0082,0.008859,0.008262,-0.000922,-0.000454,-0.002595,-0.000117,0.007426,-0.501609,-0.002605,1.39341,-262.740171,-0.642562,66.411696
11.028,0.008558,0.008585,-0.001758,-0.000516,-0.002548,-4.3e-05,0.007834,-0.501663,-0.001891,1.39341,-262.740171,-0.642562,66.411696
11.0479,0.008825,0.008757,-0.002624,-0.000539,-0.00253,-1.9e-05,0.007661,-0.501414,-0.001758,1.402136,-262.740171,-0.567334,66.411696
11.0679,0.008996,0.008694,-0.002155,-0.000522,-0.00256,0.000221,0.007503,-0.501258,-0.002544,1.402136,-262.740171,-0.567334,66.411696
11.0882,0.008541,0.008926,-0.002084,-0.000508,-0.002582,0.000395,0.007503,-0.501258,-0.002544,1.402136,-262.740171,-0.567334,66.411696
11.1082,0.008215,0.008895,-0.003128,-0.000508,-0.002582,0.000395,0.007478,-0.501073,-0.002084,1.361663,-262.740171,-0.492901,66.411696
11.128,0.008569,0.008636,-0.00063,-0.000435,-0.002648,0.000579,0.00713,-0.501085,-0.002507,1.361663,-262.740171,-0.492901,66.411696
11.1483,0.008631,0.008776,-0.002089,-0.000407,-0.002671,0.000635,0.008248,-0.501364,-0.00063,1.357106,-262.740171,-0.417839,66.411695
11.1683,0.008713,0.008899,-0.002746,-0.000419,-0.00265,0.000485,0.007628,-0.501236,-0.001956,1.357106,-262.740171,-0.417839,66.411695
11.1883,0.008737,0.008895,-0.00096,-0.000429,-0.002635,0.000378,0.007628,-0.501236,-0.001956,1.357106,-262.740171,-0.417839,66.411695
11.2083,0.00872,0.009037,-0.001111,-0.000429,-0.002635,0.000378,0.008248,-0.501105,-0.00096,1.394227,-262.740172,-0.49284,66.411696
11.2282,0.008623,0.008709,-0.001332,-0.000484,-0.002551,-0.000449,0.008208,-0.501045,-0.001024,1.394227,-262.740172,-0.49284,66.411696
11.2479,0.008597,0.008639,-0.002735,-0.000505,-0.002526,-0.000693,0.007944,-0.501291,-0.001332,1.393993,-262.740172,-0.568278,66.411696
11.2681,0.008804,0.008784,-0.001525,-0.000484,-0.002571,-0.000259,0.007268,-0.501353,-0.00261,1.393993,-262.740172,-0.568278,66.411696
11.2881,0.008669,0.008814,-0.001088,-0.000468,-0.002604,6.1e-05,0.007268,-0.501353,-0.00261,1.393993,-262.740172,-0.568278,66.411696
11.3076,0.008253,0.008931,-0.00163,-0.000468,-0.002604,6.1e-05,0.008114,-0.501186,-0.001088,1.401354,-262.740172,-0.493715,66.411696
11.3278,0.008403,0.00904,-0.001818,-0.000482,-0.002567,-0.000383,0.007832,-0.501138,-0.001309,1.401354,-262.740172,-0.493715,66.411696
11.3478,0.00846,0.008847,-0.001605,-0.000488,-0.002557,-0.000513,0.007476,-0.500959,-0.001818,1.390513,-262.740172,-0.418698,66.411695
11.3677,0.008427,0.008578,-0.002512,-0.000482,-0.002565,-0.000471,0.007626,-0.501135,-0.001624,1.390513,-262.740172,-0.418698,66.411695
11.3877,0.008909,0.00882,-0.002245,-0.000477,-0.002572,-0.00044,0.007626,-0.501135,-0.001624,1.390513,-262.740172,-0.418698,66.411695
11.4078,0.008446,0.009165,-0.001334,-0.000477,-0.002572,-0.00044,0.007764,-0.501179,-0.002245,1.402427,-262.740172,-0.343716,66.411695
11.4279,0.008655,0.008496,-0.003187,-0.000476,-0.002587,-0.000224,0.007764,-0.50104,-0.001877,1.402427,-262.740172,-0.343716,66.411695
11.4479,0.008739,0.008619,-0.002663,-0.000476,-0.002591,-0.000158,0.00703,-0.501501,-0.003187,1.404503,-262.740172,-0.268704,66.411695
11.4681,0.008736,0.008775,-0.002022,-0.000467,-0.002617,0.000175,0.00735,-0.50139,-0.002708,1.404503,-262.740172,-0.268704,66.411695
11.4878,0.008426,0.008699,-0.002347,-0.00046,-0.002635,0.000416,0.00735,-0.50139,-0.002708,1.404503,-262.740172,-0.268704,66.411695
11.5079,0.008566,0.009067,-0.001866,-0.00046,-0.002635,0.000416,0.007229,-0.501299,-0.002347,1.395497,-262.740172,-0.193593,66.411695
11.5279,0.008436,0.008922,-6.1e-05,-0.000434,-0.002647,0.00039,0.007386,-0.50115,-0.002151,1.395497,-262.740172,-0.193593,66.411695
11.5479,0.008944,0.008634,-0.002585,-0.000425,-0.002652,0.000383,0.008404,-0.501078,-6.1e-05,1.380037,-262.740172,-0.268471,66.411695
11.5682,0.008745,0.008612,-0.002055,-0.000442,-0.002642,0.000466,0.007688,-0.501342,-0.002385,1.380037,-262.740172,-0.268471,66.411695
11.5883,0.008556,0.008507,-0.002508,-0.000457,-0.002632,0.000526,0.007688,-0.501342,-0.002385,1.380037,-262.740172,-0.268471,66.411695
11.6077,0.008722,0.008263,-0.00159,-0.000457,-0.002632,0.000526,0.007276,-0.501491,-0.002508,1.396839,-262.740172,-0.343788,66.411695
11.6278,0.008594,0.008692,-0.000963,-0.000483,-0.0026,0.000441,0.007542,-0.501594,-0.002125,1.396839,-262.740172,-0.343788,66.411695
11.6477,0.008539,0.009039,-0.000363,-0.000493,-0.002588,0.000415,0.008103,-0.501308,-0.000963,1.375672,-262.740173,-0.418835,66.411696
11.6676,0.008652,0.008955,-0.001742,-0.000515,-0.002531,-0.000401,0.008336,-0.500986,-0.000407,1.375672,-262.740173,-0.418835,66.411696
11.6878,0.008647,0.008745,-0.001283,-0.000534,-0.002491,-0.000984,0.008336,-0.500986,-0.000407,1.375672,-262.740173,-0.418835,66.411696
11.708,0.008231,0.009275,-0.001867,-0.000534,-0.002491,-0.000984,0.007993,-0.501255,-0.001283,1.362603,-262.740173,-0.493954,66.411696
11.7281,0.008751,0.008517,-0.001444,-0.000508,-0.00253,-0.000777,0.007699,-0.501036,-0.001524,1.362603,-262.740173,-0.493954,66.411696
11.7482,0.008698,0.008914,-0.002142,-0.000499,-0.002543,-0.000709,0.008015,-0.501483,-0.001444,1.399849,-262.740173,-0.419298,66.411696
11.768,0.008768,0.009036,-0.000674,-0.000491,-0.002567,-0.000443,0.007643,-0.501121,-0.002079,1.399849,-262.740173,-0.419298,66.411696
11.788,0.00862,0.009234,-0.001197,-0.000485,-0.002584,-0.000247,0.007643,-0.501121,-0.002079,1.399849,-262.740173,-0.419298,66.411696
11.808,0.00852,0.009223,-0.001365,-0.000485,-0.002584,-0.000247,0.008009,-0.500765,-0.001197,1.404788,-262.740173,-0.344444,66.411696
11.828,0.008738,0.008366,-0.001807,-0.000477,-0.002574,-0.000572,0.007934,-0.50077,-0.001265,1.404788,-262.740173,-0.344444,66.411696
11.8481,0.008635,0.008483,-0.002657,-0.000474,-0.002572,-0.000668,0.007816,-0.501633,-0.001807,1.395193,-262.740173,-0.269439,66.411695
11.8679,0.008457,0.009125,-0.003063,-0.00047,-0.0026,-0.000242,0.007328,-0.501526,-0.00258,1.395193,-262.740173,-0.269439,66.411695
11.8879,0.008866,0.008557,-0.001846,-0.000467,-0.00262,7.2e-05,0.007328,-0.501526,-0.00258,1.395193,-262.740173,-0.269439,66.411695
11.9076,0.009032,0.009048,-0.001095,-0.000467,-0.00262,7.2e-05,0.007925,-0.501442,-0.001846,1.413211,-262.740173,-0.194449,66.411695
11.9277,0.008637,0.008673,-0.003235,-0.00052,-0.002555,-0.00019,0.008153,-0.501239,-0.001534,1.413211,-262.740173,-0.194449,66.411695
11.9476,0.008518,0.008666,-0.001458,-0.00054,-0.002533,-0.000268,0.006987,-0.501325,-0.003235,1.391273,-262.740173,-0.269627,66.411695
11.9678,0.008702,0.008957,-0.0018,-0.000537,-0.002533,-0.000293,0.007704,-0.501333,-0.001618,1.391273,-262.740173,-0.269627,66.411695
11.9881,0.008939,0.008666,-0.001454,-0.000535,-0.002533,-0.00031,0.007704,-0.501333,-0.001618,1.391273,-262.740173,-0.269627,66.411695
12.0078,0.008463,0.008875,-0.001074,-0.000535,-0.002533,-0.00031,0.008197,-0.501334,-0.001454,1.373164,-262.740173,-0.194798,66.411695
12.0276,0.008892,0.008893,-0.002131,-0.00056,-0.0025,-0.000567,0.008077,-0.501245,-0.001293,1.373164,-262.740173,-0.194798,66.411695
12.048,0.00917,0.00881,-0.003047,-0.000569,-0.002489,-0.000644,0.007806,-0.501106,-0.002131,1.37687,-262.740173,-0.119265,66.411695
12.068,0.008677,0.009083,-0.00158,-0.000551,-0.002537,-0.00011,0.007633,-0.50118,-0.002966,1.37687,-262.740173,-0.119265,66.411695
12.0882,0.008471,0.0091,-0.00182,-0.000536,-0.002572,0.000282,0.007633,-0.50118,-0.002966,1.37687,-262.740173,-0.119265,66.411695
12.1081,0.008733,0.008851,-0.002374,-0.000536,-0.002572,0.000282,0.007543,-0.500899,-0.00182,1.375872,-262.740174,-0.044656,66.411695
12.128,0.008815,0.008898,-0.002588,-0.00049,-0.0026,0.000247,0.007535,-0.501,-0.002046,1.375872,-262.740174,-0.044656,66.411695
12.1479,0.009,0.008583,-0.000997,-0.000473,-0.00261,0.000238,0.007495,-0.501101,-0.002588,1.351224,-262.740174,0.030204,66.411695
12.1682,0.008472,0.008911,-0.00198,-0.000519,-0.002549,-0.000141,0.008402,-0.501389,-0.001139,1.351224,-262.740174,0.030204,66.411695
12.1879,0.008558,0.008565,-0.001948,-0.000558,-0.002503,-0.000411,0.008402,-0.501389,-0.001139,1.351224,-262.740174,0.030204,66.411695
12.2079,0.008698,0.008874,-0.000871,-0.000558,-0.002503,-0.000411,0.007564,-0.501434,-0.001948,1.381284,-262.740174,0.105196,66.411695
12.2276,0.008738,0.00897,-0.001646,-0.000559,-0.0025,-0.000468,0.007845,-0.501308,-0.001509,1.381284,-262.740174,0.105196,66.411695
12.248,0.008499,0.008554,-0.002249,-0.000559,-0.0025,-0.000483,0.007899,-0.50103,-0.001646,1.370952,-262.740174,0.180202,66.411695
12.268,0.008663,0.008498,-0.001375,-0.000539,-0.002532,-0.000231,0.007391,-0.501415,-0.002206,1.370952,-262.740174,0.180202,66.411695
12.2878,0.008855,0.008611,-0.002046,-0.000523,-0.002556,-4.6e-05,0.007391,-0.501415,-0.002206,1.370952,-262.740174,0.180202,66.411695
12.308,0.008465,0.00883,0.000232,-0.000523,-0.002556,-4.6e-05,0.007812,-0.501388,-0.002046,1.373368,-262.740174,0.255671,66.411695
12.3279,0.008915,0.009148,-0.002616,-0.00056,-0.002498,-0.000574,0.008126,-0.501299,-0.001119,1.373368,-262.740174,0.255671,66.411695
12.3479,0.008702,0.008534,-0.002296,-0.000574,-0.00248,-0.000732,0.007581,-0.50085,-0.002616,1.371142,-262.740174,0.330221,66.411695
12.3677,0.008415,0.008385,-0.002934,-0.00056,-0.002515,-0.000373,0.007535,-0.501412,-0.002323,1.371142,-262.740174,0.330221,66.411695
12.3878,0.008756,0.008863,-0.002154,-0.000548,-0.002541,-0.000109,0.007535,-0.501412,-0.002323,1.371142,-262.740174,0.330221,66.411695
12.408,0.008528,0.008744,-0.001449,-0.000548,-0.002541,-0.000109,0.007657,-0.501136,-0.002154,1.377093,-262.740174,0.405358,66.411695
12.4281,0.008928,0.009018,-0.000771,-0.00053,-0.002553,-6.7e-05,0.007712,-0.501186,-0.00186,1.377093,-262.740174,0.405358,66.411695
12.4479,0.008754,0.008787,-0.000863,-0.000524,-0.002558,-5.3e-05,0.008535,-0.500982,-0.000771,1.363654,-262.740174,0.480463,66.411694
12.4677,0.008696,0.008735,-0.001292,-0.00055,-0.002514,-0.000489,0.008334,-0.501192,-0.000855,1.363654,-262.740174,0.480463,66.411694
12.4877,0.008885,0.008904,-0.00215,-0.000571,-0.002482,-0.000801,0.008334,-0.501192,-0.000855,1.363654,-262.740174,0.480463,66.411694
12.5077,0.008422,0.008684,-0.002479,-0.000571,-0.002482,-0.000801,0.007789,-0.501095,-0.00215,1.371236,-262.740174,0.555199,66.411694
12.5278,0.008468,0.009284,-0.000891,-0.000528,-0.002556,-0.000177,0.007528,-0.501185,-0.002286,1.371236,-262.740174,0.555199,66.411694
12.548,0.008629,0.008826,-0.00123,-0.000512,-0.00258,1.7e-05,0.008013,-0.500716,-0.000891,1.380816,-262.740175,0.630291,66.411694
12.5679,0.008702,0.008475,-0.002572,-0.000521,-0.002554,-0.000275,0.008002,-0.501137,-0.001203,1.380816,-262.740175,0.630291,66.411694
12.5879,0.008542,0.008904,-0.001914,-0.000529,-0.002536,-0.000483,0.008002,-0.501137,-0.001203,1.380816,-262.740175,0.630291,66.411694
12.6082,0.008349,0.008748,-0.001669,-0.000529,-0.002536,-0.000483,0.007566,-0.501095,-0.001914,1.374263,-262.740175,0.705532,66.411694
12.6279,0.008463,0.008568,-0.004159,-0.000498,-0.00257,-0.000298,0.007538,-0.501159,-0.001814,1.374263,-262.740175,0.705532,66.411694
12.6479,0.008354,0.008567,-0.00298,-0.000487,-0.002581,-0.00024,0.006342,-0.501428,-0.004159,1.386206,-262.740176,0.780353,66.411693
12.6679,0.008436,0.009068,-0.000782,-0.000444,-0.002639,0.000215,0.00679,-0.501431,-0.003086,1.386206,-262.740176,0.780353,66.411693
12.6875,0.008128,0.008958,-0.003303,-0.000408,-0.002682,0.00055,0.00679,-0.501431,-0.003086,1.386206,-262.740176,0.780353,66.411693
12.7079,0.008801,0.008693,-0.001196,-0.000408,-0.002682,0.00055,0.006444,-0.50104,-0.003303,1.394206,-262.740179,0.855202,66.41169
12.728,0.008771,0.008708,-0.001743,-0.000377,-0.002704,0.00062,0.007166,-0.50115,-0.002433,1.394206,-262.740179,0.855202,66.41169
12.7481,0.009024,0.008627,-0.002887,-0.000365,-0.002712,0.000643,0.007882,-0.501292,-0.001743,1.398564,-262.740182,0.930304,66.411686
12.7681,0.008768,0.009126,-0.002982,-0.000388,-0.0027,0.000782,0.007581,-0.501364,-0.002785,1.398564,-262.740182,0.930304,66.411686
12.7879,0.008172,0.008564,-0.000264,-0.000407,-0.00269,0.000882,0.007581,-0.501364,-0.002785,1.398564,-262.740182,0.930304,66.411686
12.808,0.008794,0.008948,-0.001424,-0.000407,-0.00269,0.000882,0.008037,-0.501437,-0.000263,1.41477,-262.740191,1.005191,66.411674
12.8283,0.008791,0.008746,-0.002462,-0.000473,-0.002565,-0.000456,0.00805,-0.50128,-0.000736,1.41477,-262.740191,1.005191,66.411674
12.8478,0.008531,0.008864,-0.001673,-0.000497,-0.002528,-0.00085,0.007533,-0.501255,-0.002462,1.383889,-262.740226,1.080204,66.411622
12.8681,0.008594,0.009066,-0.000856,-0.000493,-0.002545,-0.000679,0.007665,-0.501146,-0.001744,1.383889,-262.740226,1.080204,66.411622
12.8878,0.007997,0.009166,-0.001896,-0.000489,-0.002557,-0.00055,0.007665,-0.501146,-0.001744,1.383889,-262.740226,1.080204,66.411622
12.9082,0.008607,0.008545,-0.00238,-0.000489,-0.002557,-0.00055,0.00702,-0.500871,-0.00191,1.409112,-262.740679,1.155198,66.411319
12.9283,0.008646,0.008487,-0.001149,-0.000428,-0.002628,-0.000162,0.007169,-0.50111,-0.002101,1.409112,-262.740679,1.155198,66.411319
12.9481,0.008551,0.008776,-0.002698,-0.000405,-0.002651,-4e-05,0.00805,-0.501555,-0.001159,1.40344,-262.741299,1.230274,66.410838
12.9681,0.008787,0.008474,-0.001172,-0.000397,-0.002672,0.00021,0.007251,-0.501253,-0.002564,1.40344,-262.741299,1.230274,66.410838
12.9881,0.008638,0.008566,-0.001035,-0.000391,-0.002686,0.000392,0.007251,-0.501253,-0.002564,1.40344,-262.741299,1.230274,66.410838
13.008,0.008659,0.008597,-0.001926,-0.000391,-0.002686,0.000392,0.008097,-0.501496,-0.001037,1.42048,-262.74191,1.305309,66.410238
13.0279,0.008569,0.008627,-0.001128,-0.000464,-0.002592,-0.000131,0.007925,-0.501465,-0.001398,1.42048,-262.74191,1.305309,66.410238
13.0481,0.008888,0.008496,-0.001716,-0.000491,-0.002561,-0.000285,0.007982,-0.501437,-0.00112,1.412397,-262.742656,1.380218,66.409349
13.0682,0.008566,0.00875,-0.003495,-0.00052,-0.002537,-0.000282,0.00801,-0.501501,-0.001662,1.412397,-262.742656,1.380218,66.409349
13.088,0.008508,0.008541,-0.001915,-0.000544,-0.002518,-0.000279,0.00801,-0.501501,-0.001662,1.412397,-262.742656,1.380218,66.409349
13.1079,0.008733,0.008266,-0.00149,-0.000544,-0.002518,-0.000279,0.007511,-0.501565,-0.001927,1.392992,-262.74376,1.36769,66.408381
13.1282,0.008539,0.008589,-0.002692,-0.000562,-0.002507,-0.000216,0.007696,-0.501646,-0.00175,1.392992,-262.74376,1.36769,66.408381
13.1478,0.0084,0.008214,-0.001055,-0.000569,-0.002502,-0.000196,0.007149,-0.501488,-0.002701,1.370964,-262.744836,1.342934,66.407435
13.1679,0.008517,0.008062,-0.002064,-0.000586,-0.002475,-0.000414,0.007796,-0.501762,-0.001207,1.370964,-262.744836,1.342934,66.407435
13.188,0.008723,0.008264,-0.002656,-0.000601,-0.002455,-0.000571,0.007796,-0.501762,-0.001207,1.370964,-262.744836,1.342934,66.407435
13.2076,0.008448,0.008324,-0.000593,-0.000601,-0.002455,-0.000571,0.007345,-0.501838,-0.002664,1.357203,-262.745905,1.336454,66.40646
13.2282,0.008586,0.007934,-0.001791,-0.000614,-0.00246,-0.000315,0.007666,-0.501785,-0.001828,1.357203,-262.745905,1.336454,66.40646
13.248,0.008697,0.00814,-0.002313,-0.000619,-0.002459,-0.000236,0.007654,-0.502141,-0.001809,1.359775,-262.747018,1.293014,66.40561
13.2678,0.008378,0.007966,-0.002785,-0.000621,-0.002471,-1.9e-05,0.007529,-0.501888,-0.002268,1.359775,-262.747018,1.293014,66.40561
13.2875,0.00859,0.008064,-0.002649,-0.000622,-0.002477,0.000138,0.007529,-0.501888,-0.002268,1.359775,-262.747018,1.293014,66.40561
13.3076,0.008464,0.007773,-0.000895,-0.000622,-0.002477,0.000138,0.007213,-0.502036,-0.002658,1.337248,-262.748075,1.309393,66.404663
13.3276,0.008346,0.007558,-0.002222,-0.000646,-0.002449,0.000131,0.007536,-0.502125,-0.001937,1.337248,-262.748075,1.309393,66.404663
13.3477,0.008026,0.007698,-0.002519,-0.000655,-0.002438,0.000128,0.007193,-0.502518,-0.002218,1.316382,-262.749056,1.332485,66.403618
13.3676,0.008427,0.007833,-0.002439,-0.000626,-0.00247,0.000315,0.006773,-0.50232,-0.002497,1.316382,-262.749056,1.332485,66.403618
13.3878,0.008475,0.008002,-0.001544,-0.000603,-0.002494,0.000451,0.006773,-0.50232,-0.002497,1.316382,-262.749056,1.332485,66.403618
13.4082,0.008397,0.007878,-0.001973,-0.000603,-0.002494,0.000451,0.007661,-0.502098,-0.001539,1.300199,-262.750025,1.316262,66.402589
13.4282,0.008347,0.007656,-0.001245,-0.000633,-0.002443,0.000134,0.007549,-0.502119,-0.001714,1.300199,-262.750025,1.316262,66.402589
13.4475,0.008255,0.007531,-0.00062,-0.000645,-0.002426,4e-05,0.007694,-0.502421,-0.001231,1.305556,-262.750917,1.356547,66.401489
13.4679,0.008423,0.007316,-0.001241,-0.00069,-0.002358,-0.000509,0.007916,-0.502469,-0.000674,1.305556,-262.750917,1.356547,66.401489
13.4883,0.008071,0.007515,-0.001507,-0.000727,-0.002307,-0.000902,0.007916,-0.502469,-0.000674,1.305556,-262.750917,1.356547,66.401489
13.508,0.008375,0.007293,-0.003466,-0.000727,-0.002307,-0.000902,0.007276,-0.502583,-0.001505,1.308519,-262.751882,1.313485,66.400505
13.5284,0.008387,0.007524,-0.003139,-0.000708,-0.002366,-0.000213,0.007002,-0.502643,-0.0023,1.308519,-262.751882,1.313485,66.400505
13.5475,0.008242,0.007404,-0.003697,-0.0007,-0.002383,2e-06,0.00677,-0.502529,-0.00316,1.321717,-262.75276,1.23855,66.39994
13.5679,0.008235,0.007023,-0.00168,-0.000651,-0.002451,0.000546,0.006392,-0.50259,-0.00365,1.321717,-262.75276,1.23855,66.39994
13.588,0.008418,0.00711,-0.002602,-0.000611,-0.002502,0.000947,0.006392,-0.50259,-0.00365,1.321717,-262.75276,1.23855,66.39994
13.6077,0.008458,0.007149,-0.003929,-0.000611,-0.002502,0.000947,0.007063,-0.502982,-0.002602,1.284881,-262.753698,1.285134,66.399001
13.6278,0.008406,0.007114,-0.002601,-0.000635,-0.002487,0.00123,0.006811,-0.502938,-0.003145,1.284881,-262.753698,1.285134,66.399001
13.6476,0.008449,0.007132,-0.003197,-0.000644,-0.002479,0.001316,0.007062,-0.502953,-0.002575,1.263132,-262.754402,1.360058,66.397906
13.6681,0.008228,0.007219,-0.001867,-0.00065,-0.002473,0.001375,0.00684,-0.502877,-0.003138,1.263132,-262.754402,1.360058,66.397906
13.6881,0.008299,0.007047,-0.001332,-0.000655,-0.002467,0.001417,0.00684,-0.502877,-0.003138,1.263132,-262.754402,1.360058,66.397906
13.7076,0.008216,0.006847,-0.002675,-0.000655,-0.002467,0.001417,0.007594,-0.503051,-0.00128,1.203764,-262.755078,1.377014,66.396646
13.7277,0.008207,0.00679,-0.003049,-0.00073,-0.002345,0.000703,0.007288,-0.503103,-0.001844,1.203764,-262.755078,1.377014,66.396646
13.7475,0.008027,0.006957,-0.001053,-0.000757,-0.002305,0.000492,0.00663,-0.503285,-0.003004,1.182421,-262.755765,1.376649,66.395297
13.7677,0.007972,0.006766,-0.001899,-0.000785,-0.002258,7.5e-05,0.007411,-0.503068,-0.001228,1.182421,-262.755765,1.376649,66.395297
13.7877,0.008004,0.006962,-0.003879,-0.000807,-0.002223,-0.000221,0.007411,-0.503068,-0.001228,1.182421,-262.755765,1.376649,66.395297
13.808,0.008046,0.006853,-0.002899,-0.000807,-0.002223,-0.000221,0.005998,-0.503118,-0.003861,1.209648,-262.756512,1.301647,66.394351
13.8278,0.008447,0.006502,-0.002449,-0.000712,-0.00236,0.000736,0.006228,-0.503139,-0.003465,1.209648,-262.756512,1.301647,66.394351
13.8475,0.00825,0.006188,-0.002069,-0.000677,-0.002405,0.001035,0.007177,-0.503556,-0.002454,1.241119,-262.757349,1.226639,66.3936
13.8677,0.008204,0.006248,-0.002777,-0.000745,-0.002321,0.000839,0.007192,-0.503791,-0.002104,1.241119,-262.757349,1.226639,66.3936
13.8878,0.008155,0.00658,-0.002451,-0.0008,-0.002255,0.000699,0.007192,-0.503791,-0.002104,1.241119,-262.757349,1.226639,66.3936
13.9079,0.008004,0.006433,-0.001306,-0.0008,-0.002255,0.000699,0.006881,-0.503494,-0.002419,1.206117,-262.757928,1.301632,66.392649
13.9281,0.008296,0.006573,-0.001533,-0.000843,-0.002198,0.000428,0.007064,-0.503533,-0.001963,1.206117,-262.757928,1.301632,66.392649
13.9478,0.007919,0.006183,-0.000918,-0.000859,-0.002179,0.000348,0.00749,-0.503495,-0.001512,1.158279,-262.758694,1.280924,66.391575
13.9675,0.007867,0.005993,-0.002309,-0.000906,-0.002106,-0.000141,0.007453,-0.503793,-0.000968,1.158279,-262.758694,1.280924,66.391575
13.9877,0.007968,0.00639,-0.002728,-0.000945,-0.002052,-0.00049,0.007453,-0.503793,-0.000968,1.158279,-262.758694,1.280924,66.391575
14.0081,0.00793,0.00658,-0.001053,-0.000945,-0.002052,-0.00049,0.006542,-0.503695,-0.002714,1.158976,-262.759512,1.226008,66.390607
14.0277,0.007924,0.006711,-0.001751,-0.000926,-0.002097,-0.000149,0.006886,-0.503592,-0.002033,1.158976,-262.759512,1.226008,66.390607
14.048,0.007645,0.006387,-0.002822,-0.00092,-0.002112,-4.3e-05,0.007012,-0.503334,-0.00176,1.18866,-262.760209,1.150993,66.390059
14.0682,0.00801,0.006374,-0.001276,-0.000873,-0.002172,0.000261,0.006275,-0.50359,-0.002731,1.18866,-262.760209,1.150993,66.390059
14.088,0.007835,0.006353,-0.001333,-0.000835,-0.002218,0.000483,0.006275,-0.50359,-0.002731,1.18866,-262.760209,1.150993,66.390059
14.108,0.008325,0.00596,-0.003238,-0.000835,-0.002218,0.000483,0.007117,-0.503734,-0.001334,1.164567,-262.761132,1.155543,66.389155
14.1279,0.008004,0.006183,-0.002292,-0.000885,-0.002161,0.000429,0.00693,-0.50387,-0.002121,1.164567,-262.761132,1.155543,66.389155
14.1477,0.007928,0.006312,-0.000475,-0.000904,-0.00214,0.000414,0.006812,-0.503876,-0.002279,1.161145,-262.761857,1.230637,66.38824
14.1678,0.007359,0.006261,-0.001779,-0.000946,-0.002065,-0.000265,0.007606,-0.503708,-0.000636,1.161145,-262.761857,1.230637,66.38824
14.1877,0.007839,0.006021,-0.001301,-0.00098,-0.00201,-0.000749,0.007606,-0.503708,-0.000636,1.161145,-262.761857,1.230637,66.38824
14.2075,0.007612,0.006189,-0.00242,-0.00098,-0.00201,-0.000749,0.007139,-0.504065,-0.001285,1.124287,-262.76267,1.209715,66.387245
14.2277,0.007624,0.006252,-0.0018,-0.000981,-0.002027,-0.000472,0.006824,-0.503971,-0.001746,1.124287,-262.76267,1.209715,66.387245
14.2476,0.007797,0.006011,-0.003283,-0.00098,-0.002032,-0.000384,0.006692,-0.503779,-0.00181,1.19264,-262.763181,1.134722,66.386893
14.2678,0.0078,0.005609,-0.001591,-0.000936,-0.002102,0.000134,0.006172,-0.50397,-0.003155,1.19264,-262.763181,1.134722,66.386893
14.2878,0.007647,0.005889,-0.001502,-0.000899,-0.002154,0.000515,0.006172,-0.50397,-0.003155,1.19264,-262.763181,1.134722,66.386893
14.3078,0.00773,0.006154,-0.000841,-0.000899,-0.002154,0.000515,0.006843,-0.504189,-0.001517,1.162477,-262.764092,1.071441,66.386137
14.328,0.007642,0.005787,-0.002336,-0.000953,-0.002056,-0.000187,0.007025,-0.504058,-0.001243,1.162477,-262.764092,1.071441,66.386137
14.3475,0.007952,0.005931,-0.002284,-0.000973,-0.002025,-0.000393,0.006429,-0.504257,-0.002326,1.116219,-262.764643,1.146348,66.38543
14.3679,0.007862,0.005823,-0.002722,-0.000976,-0.00204,-0.000129,0.006752,-0.504088,-0.002288,1.116219,-262.764643,1.146348,66.38543
14.3878,0.007709,0.005913,-0.000996,-0.000978,-0.002049,6.5e-05,0.006752,-0.504088,-0.002288,1.116219,-262.764643,1.146348,66.38543
14.408,0.007342,0.005264,-0.00257,-0.000978,-0.002049,6.5e-05,0.007165,-0.504161,-0.001011,1.164915,-262.765518,1.071525,66.384708
14.428,0.007566,0.005932,-0.000441,-0.001005,-0.002001,-7.8e-05,0.006676,-0.504415,-0.00168,1.164915,-262.765518,1.071525,66.384708
14.4475,0.007366,0.005387,-0.001563,-0.001014,-0.001985,-0.000119,0.007314,-0.504126,-0.000439,1.117999,-262.766324,1.133026,66.383877
14.4679,0.007951,0.005444,-0.000563,-0.001028,-0.001958,-0.000238,0.006634,-0.504571,-0.001462,1.117999,-262.766324,1.133026,66.383877
14.4878,0.007503,0.005637,-0.001943,-0.00104,-0.001938,-0.000323,0.006634,-0.504571,-0.001462,1.117999,-262.766324,1.133026,66.383877
14.5082,0.007271,0.0059,-0.00124,-0.00104,-0.001938,-0.000323,0.006471,-0.504441,-0.001948,1.112779,-262.767205,1.08303,66.383045
14.5276,0.007329,0.00572,-0.002332,-0.001018,-0.001962,-0.000295,0.006535,-0.504311,-0.00166,1.112779,-262.767205,1.08303,66.383045
14.5477,0.007192,0.005096,-0.000966,-0.00101,-0.00197,-0.000285,0.006108,-0.504338,-0.002342,1.117805,-262.768117,1.032426,66.382267
14.5677,0.007539,0.005665,-0.001476,-0.001041,-0.001919,-0.000515,0.006641,-0.504852,-0.0011,1.117805,-262.768117,1.032426,66.382267
14.5877,0.007655,0.005745,-0.001618,-0.001067,-0.001879,-0.000681,0.006641,-0.504852,-0.0011,1.117805,-262.768117,1.032426,66.382267
14.6082,0.007341,0.005075,-0.000608,-0.001067,-0.001879,-0.000681,0.006788,-0.504335,-0.00163,1.130631,-262.769053,1.058603,66.381453
14.6282,0.00755,0.005447,-0.003977,-0.001102,-0.00184,-0.0008,0.006883,-0.504588,-0.00121,1.130631,-262.769053,1.058603,66.381453
14.6479,0.007541,0.0059,-0.002145,-0.001115,-0.001827,-0.000836,0.005495,-0.504597,-0.003993,1.135767,-262.769862,0.983512,66.380874
14.6678,0.007028,0.004971,-0.001984,-0.001067,-0.001903,-0.000449,0.00636,-0.504146,-0.002312,1.135767,-262.769862,0.983512,66.380874
14.6879,0.007325,0.005288,-0.001792,-0.001028,-0.001961,-0.000165,0.00636,-0.504146,-0.002312,1.135767,-262.769862,0.983512,66.380874
14.7079,0.007096,0.004913,-0.001048,-0.001028,-0.001961,-0.000165,0.006374,-0.504774,-0.001819,1.125674,-262.770696,0.908628,66.380319
14.7281,0.007379,0.005457,-0.001015,-0.001062,-0.0019,-0.000308,0.006445,-0.504908,-0.00151,1.125674,-262.770696,0.908628,66.380319
14.7475,0.007286,0.005037,-0.002218,-0.001074,-0.001878,-0.000351,0.006838,-0.504584,-0.00102,1.108279,-262.771315,0.983553,66.379747
14.7681,0.007614,0.005404,-0.002566,-0.00107,-0.001889,-0.000145,0.006207,-0.504934,-0.002125,1.108279,-262.771315,0.983553,66.379747
14.788,0.007329,0.005048,-0.000544,-0.001067,-0.001895,4e-06,0.006207,-0.504934,-0.002125,1.108279,-262.771315,0.983553,66.379747
14.8079,0.007702,0.005105,-0.001617,-0.001067,-0.001895,4e-06,0.007007,-0.505029,-0.000558,1.096535,-262.772247,0.997635,66.378963
14.8281,0.0071,0.004919,-0.002916,-0.001148,-0.00177,-0.000624,0.006949,-0.504984,-0.000988,1.096535,-262.772247,0.997635,66.378963
14.8482,0.007448,0.005063,-0.000348,-0.001177,-0.001729,-0.000813,0.005581,-0.505135,-0.002916,1.057411,-262.77305,1.05848,66.378158
14.8679,0.00734,0.004903,-0.002445,-0.00121,-0.001679,-0.001175,0.007141,-0.504954,-0.000543,1.057411,-262.77305,1.05848,66.378158
14.8879,0.007307,0.004819,-0.003668,-0.001236,-0.001642,-0.001436,0.007141,-0.504954,-0.000543,1.057411,-262.77305,1.05848,66.378158
14.9078,0.007294,0.004821,-0.002251,-0.001236,-0.001642,-0.001436,0.00542,-0.505204,-0.003678,1.084142,-262.77341,0.983037,66.377914
