mach0312/omni-docking-bench/src/icros_test_setup/results/MPPI_sample/timeseries/trial_004.csv
t,x,y,yaw,vx,vy,wz,bl_x,bl_y,bl_yaw,front_steering_joint,front_wheel_joint,rear_steering_joint,rear_wheel_joint
0.0,0.059028,-0.000371,-0.043325,0.007664,-0.000549,-0.014219,0.034738,-0.509805,-0.041872,-0.878002,-263.946591,0.815195,62.547368
0.0004,0.05874,-7e-05,-0.045032,0.00656,-0.00047,-0.012171,0.035231,-0.509562,-0.042362,-0.878002,-263.938699,0.815195,62.554719
0.0007,0.059707,-0.000545,-0.045155,0.005416,-0.000388,-0.010048,0.035231,-0.509562,-0.042362,-0.878002,-263.931633,0.815195,62.5613
0.001,0.059561,-0.000177,-0.046653,0.004174,-0.000299,-0.007744,0.035231,-0.509562,-0.042362,-0.878002,-263.926133,0.815195,62.566423
0.0013,0.060419,-0.000754,-0.044974,0.002865,-0.000205,-0.005316,0.034709,-0.509889,-0.044684,-0.878002,-263.922064,0.815195,62.570213
0.0017,0.060476,-0.000231,-0.045406,0.001476,-0.000106,-0.002739,0.034709,-0.509889,-0.044684,-0.878002,-263.920278,0.815195,62.571876
0.002,0.060431,-0.000679,-0.045447,1.2e-05,-1e-06,-2.3e-05,0.034993,-0.509764,-0.044777,-0.878002,-263.920278,0.815195,62.571876
0.0022,0.060675,-0.000323,-0.047133,0.0,0.0,0.0,0.034993,-0.509764,-0.044777,-0.878002,-263.920278,0.815195,62.571876
0.0025,0.060919,-0.000498,-0.046822,0.0,0.0,0.0,0.035831,-0.509792,-0.044814,-0.878002,-263.920278,0.815195,62.571876
0.0164,0.060689,-0.000675,-0.045874,0.0,0.0,0.0,0.037049,-0.509939,-0.046822,-0.878002,-263.92027,0.815195,62.571883
0.0368,0.060748,-0.000272,-0.047022,0.0,0.0,0.0,0.03728,-0.510121,-0.045956,-0.878002,-263.92027,0.815195,62.571883
0.0565,0.060526,-0.000503,-0.046924,0.0,0.0,0.0,0.03728,-0.510121,-0.045956,-0.878002,-263.92027,0.815195,62.571883
0.0765,0.060659,-0.000534,-0.047651,0.0,0.0,0.0,0.036604,-0.509942,-0.046924,-0.878002,-263.92027,0.815195,62.571883
0.0964,0.060395,-0.000388,-0.044239,0.0,0.0,0.0,0.036506,-0.509948,-0.047223,-0.878002,-263.92027,0.815195,62.571883
0.1164,0.060595,-0.000397,-0.046,-0.003411,0.000346,0.003574,0.037841,-0.509889,-0.044239,-0.878002,-263.92027,0.815195,62.571883
0.1364,0.060427,-0.000637,-0.046564,-0.003697,0.000368,0.004271,0.037207,-0.50986,-0.045839,-0.878002,-263.92027,0.815195,62.571883
0.1566,0.060754,-0.000125,-0.046823,-0.003936,0.000386,0.004793,0.037207,-0.50986,-0.045839,-0.878002,-263.92027,0.815195,62.571883
0.1763,0.0609,-0.000258,-0.045066,-0.004134,0.0004,0.005181,0.036874,-0.509565,-0.046809,-0.803009,-263.920395,0.740202,62.571769
0.1968,0.060852,-0.000649,-0.048295,-0.004299,0.000406,0.005769,0.0373,-0.509636,-0.046098,-0.803009,-263.920395,0.740202,62.571769
0.2165,0.060478,-0.000401,-0.046979,-0.004437,0.00041,0.006217,0.036154,-0.510045,-0.048189,-0.727993,-263.921718,0.665186,62.570564
0.2369,0.060412,-0.000439,-0.045089,-0.00455,0.000418,0.006821,0.03649,-0.509857,-0.047083,-0.727993,-263.921718,0.665186,62.570564
0.2571,0.060216,-0.000987,-0.044691,-0.004643,0.000424,0.007293,0.03649,-0.509857,-0.047083,-0.727993,-263.921718,0.665186,62.570564
0.2764,0.059848,-0.000352,-0.047198,-0.004721,0.000428,0.007662,0.03725,-0.510453,-0.044435,-0.758896,-263.92412,0.651998,62.568372
0.2967,0.060042,-0.00044,-0.044335,-0.004784,0.000441,0.008164,0.036632,-0.510178,-0.045532,-0.758896,-263.92412,0.651998,62.568372
0.3163,0.059823,-0.000395,-0.046231,-0.004835,0.000451,0.008562,0.037312,-0.509922,-0.04413,-0.824745,-263.926455,0.726973,62.566239
0.3366,0.059365,-0.000141,-0.044043,-0.004878,0.00045,0.009039,0.036342,-0.509856,-0.046032,-0.824745,-263.926455,0.726973,62.566239
0.3567,0.059554,-0.000478,-0.045309,-0.004913,0.000448,0.009422,0.036342,-0.509856,-0.046032,-0.824745,-263.926455,0.726973,62.566239
0.3763,0.059461,1e-06,-0.044337,-0.004941,0.000446,0.009728,0.036267,-0.509929,-0.044975,-0.865587,-263.929242,0.779388,62.563699
0.3965,0.058996,-0.000227,-0.044924,-0.004963,0.000443,0.010064,0.036489,-0.509748,-0.044673,-0.865587,-263.929242,0.779388,62.563699
0.4162,0.058878,-0.000151,-0.044835,-0.00498,0.00044,0.010336,0.03595,-0.509693,-0.044642,-0.912424,-263.932189,0.838484,62.561002
0.4369,0.058698,-0.000572,-0.045946,-0.004994,0.000434,0.010668,0.036007,-0.509642,-0.044804,-0.912424,-263.932189,0.838484,62.561002
0.4569,0.058754,2e-05,-0.042951,-0.005003,0.000429,0.010941,0.036007,-0.509642,-0.044804,-0.912424,-263.932189,0.838484,62.561002
0.4766,0.058291,-0.000342,-0.042788,-0.00501,0.000424,0.011165,0.036653,-0.509483,-0.042528,-0.935283,-263.935467,0.867461,62.557994
0.4967,0.058365,-0.000651,-0.043362,-0.005015,0.000423,0.011399,0.036558,-0.509638,-0.042584,-0.935283,-263.935467,0.867461,62.557994
0.5168,0.058118,-0.000315,-0.044084,-0.005017,0.000422,0.011592,0.036104,-0.510152,-0.043019,-0.965671,-263.938856,0.906198,62.554868
0.5369,0.05766,-0.000313,-0.043033,-0.005018,0.000425,0.011784,0.035676,-0.509849,-0.043971,-0.965671,-263.938856,0.906198,62.554868
0.5571,0.058139,-0.000205,-0.043868,-0.005018,0.000428,0.011942,0.035676,-0.509849,-0.043971,-0.965671,-263.938856,0.906198,62.554868
0.577,0.057241,-0.000232,-0.042439,-0.005017,0.00043,0.012073,0.035565,-0.509688,-0.043386,-0.981278,-263.942434,0.924997,62.551563
0.5967,0.056844,-0.000239,-0.042873,-0.005016,0.000429,0.012214,0.035557,-0.509719,-0.042947,-0.981278,-263.942434,0.924997,62.551563
0.6166,0.056403,-3.5e-05,-0.041545,-0.005014,0.000428,0.012331,0.034829,-0.50975,-0.042493,-0.999405,-263.946099,0.945042,62.548179
0.6366,0.056746,-0.000101,-0.041343,-0.005011,0.000426,0.012459,0.035178,-0.509608,-0.041611,-0.999405,-263.946099,0.945042,62.548179
0.657,0.056476,-3.2e-05,-0.042491,-0.005009,0.000423,0.012566,0.035178,-0.509608,-0.041611,-0.999405,-263.946099,0.945042,62.548179
0.6765,0.05608,0.000418,-0.041715,-0.005006,0.000421,0.012655,0.034604,-0.509545,-0.041976,-1.008666,-263.949855,0.956108,62.544708
0.6965,0.055686,-3.7e-05,-0.042018,-0.005003,0.000413,0.012758,0.034665,-0.509376,-0.04181,-1.008666,-263.949855,0.956108,62.544708
0.7161,0.055532,1.1e-05,-0.041763,-0.005,0.000405,0.012844,0.034106,-0.509567,-0.041617,-1.02005,-263.953661,0.970231,62.541183
0.7363,0.055548,0.000425,-0.04164,-0.004996,0.000404,0.012935,0.03422,-0.509545,-0.041731,-1.02005,-263.953661,0.970231,62.541183
0.7565,0.055694,-7.8e-05,-0.0413,-0.004993,0.000403,0.013011,0.03422,-0.509545,-0.041731,-1.02005,-263.953661,0.970231,62.541183
0.7769,0.054965,-4.1e-05,-0.039927,-0.004989,0.000403,0.013075,0.034429,-0.509618,-0.040764,-1.025929,-263.957507,0.979053,62.53761
0.7969,0.05505,0.000351,-0.038622,-0.004985,0.000406,0.01314,0.034477,-0.509621,-0.040365,-1.025929,-263.957507,0.979053,62.53761
0.8167,0.054488,0.000296,-0.039941,-0.004982,0.000409,0.013195,0.0352,-0.50925,-0.038206,-1.034225,-263.961401,0.988837,62.533988
0.8364,0.054222,-0.000364,-0.038228,-0.004979,0.000402,0.013252,0.034212,-0.509292,-0.039764,-1.034225,-263.961401,0.988837,62.533988
0.8564,0.054225,-4.7e-05,-0.038108,-0.004977,0.000396,0.013299,0.034212,-0.509292,-0.039764,-1.034225,-263.961401,0.988837,62.533988
0.8766,0.054149,6e-05,-0.039057,-0.004974,0.000391,0.013339,0.034587,-0.509652,-0.037556,-1.038981,-263.965328,0.99353,62.530339
0.8966,0.053682,0.000208,-0.037639,-0.004971,0.000399,0.013383,0.03442,-0.509608,-0.038102,-1.038981,-263.965328,0.99353,62.530339
0.9167,0.053327,3.6e-05,-0.038668,-0.004968,0.000405,0.013419,0.034333,-0.509412,-0.037215,-1.043299,-263.969276,1.00056,62.526657
0.9366,0.053014,0.0002,-0.037154,-0.004965,0.000408,0.013457,0.033669,-0.509566,-0.038514,-1.043299,-263.969276,1.00056,62.526657
0.9569,0.053168,0.000155,-0.039423,-0.004963,0.000411,0.013489,0.033669,-0.509566,-0.038514,-1.043299,-263.969276,1.00056,62.526657
0.9764,0.052601,0.000329,-0.037792,-0.00496,0.000414,0.013516,0.032859,-0.509423,-0.038858,-1.047011,-263.973247,1.003168,62.522963
0.9968,0.052864,0.000215,-0.03863,-0.004959,0.000409,0.013543,0.033025,-0.509374,-0.038369,-1.047011,-263.973247,1.003168,62.522963
1.0166,0.05205,0.000563,-0.037781,-0.004957,0.000406,0.013567,0.03301,-0.509386,-0.038198,-1.051038,-263.977248,1.006752,62.519247
1.0374,0.052244,0.000131,-0.037853,-0.004956,0.000395,0.013591,0.032798,-0.509098,-0.037795,-1.051038,-263.977248,1.006752,62.519247
1.0573,0.052187,0.00024,-0.036897,-0.004954,0.000386,0.013611,0.032798,-0.509098,-0.037795,-1.051038,-263.977248,1.006752,62.519247
1.0765,0.051506,0.000642,-0.036355,-0.004953,0.000378,0.013628,0.033166,-0.509388,-0.036326,-1.052517,-263.981242,1.009284,62.515531
1.0964,0.051209,0.000732,-0.036056,-0.004951,0.000378,0.013647,0.033064,-0.50924,-0.036274,-1.052517,-263.981242,1.009284,62.515531
1.1164,0.050925,0.000442,-0.037353,-0.004949,0.000378,0.013662,0.032667,-0.508919,-0.035622,-1.053348,-263.985247,1.013372,62.511786
1.1365,0.050981,0.000405,-0.035702,-0.004948,0.000375,0.013679,0.031943,-0.509176,-0.037175,-1.053348,-263.985247,1.013372,62.511786
1.1566,0.050513,0.000327,-0.03492,-0.004947,0.000372,0.013692,0.031943,-0.509176,-0.037175,-1.053348,-263.985247,1.013372,62.511786
1.1767,0.050111,-2e-06,-0.034624,-0.004945,0.000369,0.013704,0.032501,-0.509339,-0.034348,-1.054668,-263.989262,1.014851,62.508031
1.1966,0.050347,0.000544,-0.034851,-0.004944,0.00038,0.013717,0.032459,-0.509483,-0.034395,-1.054668,-263.989262,1.014851,62.508031
1.2161,0.049579,0.000689,-0.035307,-0.004942,0.000389,0.013727,0.032421,-0.509129,-0.034416,-1.055806,-263.993273,1.017147,62.504274
1.2367,0.049669,0.000431,-0.034301,-0.004942,0.00038,0.013737,0.031646,-0.509004,-0.035203,-1.055806,-263.993273,1.017147,62.504274
1.2567,0.049686,0.000314,-0.034109,-0.004941,0.000372,0.013746,0.031646,-0.509004,-0.035203,-1.055806,-263.993273,1.017147,62.504274
1.2766,0.049065,0.000182,-0.033468,-0.00494,0.000366,0.013753,0.032087,-0.509366,-0.033532,-1.057806,-263.997305,1.017119,62.50051
1.2971,0.048619,0.000498,-0.035799,-0.004939,0.000377,0.013762,0.032028,-0.509431,-0.033441,-1.057806,-263.997305,1.017119,62.50051
1.3161,0.04819,0.000565,-0.034132,-0.004938,0.000386,0.013769,0.030208,-0.509158,-0.03536,-1.057562,-264.001337,1.019451,62.496731
1.3367,0.048342,0.000311,-0.032363,-0.004937,0.000382,0.013776,0.030731,-0.509139,-0.034213,-1.057562,-264.001337,1.019451,62.496731
1.3565,0.048524,0.000279,-0.034273,-0.004937,0.000379,0.013782,0.030731,-0.509139,-0.034213,-1.057562,-264.001337,1.019451,62.496731
1.3763,0.047937,0.000736,-0.033067,-0.004936,0.000376,0.013787,0.030843,-0.509398,-0.033698,-1.05924,-264.005367,1.019122,62.492967
1.3967,0.047779,0.000385,-0.032428,-0.004936,0.000378,0.013792,0.030915,-0.509225,-0.033371,-1.05924,-264.005367,1.019122,62.492967
1.4165,0.047336,0.000565,-0.030907,-0.004935,0.00038,0.013797,0.031087,-0.50933,-0.03199,-1.059419,-264.009401,1.020388,62.489193
1.4365,0.047034,0.000662,-0.030719,-0.004934,0.000383,0.013801,0.031526,-0.509203,-0.030978,-1.059419,-264.009401,1.020388,62.489193
1.4564,0.047403,0.000907,-0.032967,-0.004934,0.000386,0.013805,0.031526,-0.509203,-0.030978,-1.059419,-264.009401,1.020388,62.489193
1.4771,0.046397,0.000432,-0.031447,-0.004934,0.000388,0.013808,0.030387,-0.508793,-0.03239,-1.059984,-264.013432,1.020656,62.485423
1.4964,0.046519,0.000661,-0.031584,-0.004934,0.000381,0.013812,0.030353,-0.509003,-0.03194,-1.059984,-264.013432,1.020656,62.485423
1.5163,0.045653,0.000208,-0.02937,-0.004933,0.000376,0.013814,0.030257,-0.509067,-0.031144,-1.06087,-264.017481,1.02071,62.481642
1.5367,0.046221,0.000799,-0.031494,-0.004932,0.000392,0.013818,0.030634,-0.509528,-0.029499,-1.06087,-264.017481,1.02071,62.481642
1.5568,0.046085,0.000689,-0.030504,-0.004931,0.000406,0.013822,0.030634,-0.509528,-0.029499,-1.06087,-264.017481,1.02071,62.481642
1.577,0.045492,0.000661,-0.028394,-0.004931,0.000417,0.013825,0.030324,-0.509051,-0.029926,-1.060455,-264.021514,1.021604,62.477868
1.5966,0.045295,0.000688,-0.030709,-0.004931,0.000411,0.013826,0.030579,-0.509082,-0.029241,-1.060455,-264.021514,1.021604,62.477868
1.6166,0.044953,0.000584,-0.029281,-0.004931,0.000406,0.013828,0.029479,-0.509053,-0.030268,-1.062994,-264.02557,1.019945,62.474101
1.6365,0.045114,0.000501,-0.02761,-0.004931,0.000405,0.01383,0.029965,-0.509183,-0.029348,-1.062994,-264.02557,1.019945,62.474101
1.6569,0.044874,0.000773,-0.027627,-0.004931,0.000404,0.013832,0.029965,-0.509183,-0.029348,-1.062994,-264.02557,1.019945,62.474101
1.6762,0.044112,0.000899,-0.028028,-0.004931,0.000403,0.013833,0.03058,-0.509009,-0.027048,-1.062501,-264.02963,1.020578,62.470321
1.6968,0.044185,0.000731,-0.029769,-0.004932,0.000397,0.013834,0.030243,-0.508962,-0.027385,-1.062501,-264.02963,1.020578,62.470321
1.7161,0.043707,0.000716,-0.026616,-0.004932,0.000392,0.013835,0.028849,-0.509026,-0.02933,-1.062533,-264.033676,1.020907,62.466553
1.7366,0.043914,0.000541,-0.027594,-0.004931,0.000393,0.013836,0.030012,-0.509096,-0.026835,-1.062533,-264.033676,1.020907,62.466553
1.757,0.043593,0.000514,-0.0279,-0.004931,0.000394,0.013838,0.030012,-0.509096,-0.026835,-1.062533,-264.033676,1.020907,62.466553
1.7765,0.043077,0.000923,-0.027891,-0.004931,0.000395,0.013839,0.029159,-0.509266,-0.027321,-1.062023,-264.03773,1.02155,62.462771
1.7967,0.04299,0.001045,-0.029779,-0.004931,0.000394,0.01384,0.029011,-0.509104,-0.027489,-1.062023,-264.03773,1.02155,62.462771
1.8165,0.0426,0.000963,-0.026499,-0.004931,0.000393,0.013841,0.027649,-0.508712,-0.029339,-1.062299,-264.041782,1.021602,62.458992
1.8368,0.04237,0.000873,-0.025818,-0.004931,0.000384,0.013842,0.028955,-0.508844,-0.026723,-1.062299,-264.041782,1.021602,62.458992
1.8569,0.042476,0.000417,-0.025656,-0.004931,0.000376,0.013843,0.028955,-0.508844,-0.026723,-1.062299,-264.041782,1.021602,62.458992
1.8762,0.041701,0.000652,-0.024497,-0.004931,0.00037,0.013843,0.029188,-0.509394,-0.025077,-1.062338,-264.045834,1.021789,62.455211
1.8967,0.041657,0.000734,-0.025025,-0.00493,0.000384,0.013845,0.029173,-0.50931,-0.024771,-1.062338,-264.045834,1.021789,62.455211
1.9163,0.041,0.001167,-0.026001,-0.004929,0.000396,0.013846,0.028739,-0.50909,-0.024586,-1.061225,-264.049872,1.023086,62.451429
1.9366,0.040927,0.000746,-0.024152,-0.00493,0.00038,0.013847,0.027823,-0.508698,-0.025851,-1.061225,-264.049872,1.023086,62.451429
1.9569,0.041066,0.000952,-0.024865,-0.004931,0.000367,0.013847,0.027823,-0.508698,-0.025851,-1.061225,-264.049872,1.023086,62.451429
1.9764,0.040812,0.000847,-0.025071,-0.004931,0.000356,0.013847,0.02818,-0.508869,-0.024285,-1.062714,-264.053929,1.021957,62.447645
1.9963,0.040612,0.001252,-0.024434,-0.00493,0.000357,0.013848,0.028094,-0.508917,-0.024538,-1.062714,-264.053929,1.021957,62.447645
2.0168,0.039658,0.000882,-0.023152,-0.00493,0.000358,0.013849,0.027996,-0.508581,-0.023994,-1.060716,-264.057969,1.024046,62.443851
2.0367,0.039939,0.001069,-0.025524,-0.004929,0.000361,0.01385,0.027856,-0.508946,-0.023203,-1.060716,-264.057969,1.024046,62.443851
2.0564,0.040395,0.000799,-0.024982,-0.004929,0.000364,0.013851,0.027856,-0.508946,-0.023203,-1.060716,-264.057969,1.024046,62.443851
2.0763,0.039573,0.001171,-0.023182,-0.004929,0.000366,0.013852,0.02745,-0.509022,-0.024402,-1.060935,-264.062004,1.024065,62.440064
2.0964,0.039418,0.001093,-0.021074,-0.004929,0.000364,0.013852,0.027548,-0.508887,-0.023843,-1.060935,-264.062004,1.024065,62.440064
2.1166,0.038938,0.001066,-0.022254,-0.004929,0.000363,0.013853,0.028515,-0.508779,-0.020633,-1.06146,-264.066047,1.023834,62.436273
2.1366,0.039122,0.000886,-0.022026,-0.004929,0.00036,0.013853,0.027665,-0.508804,-0.022084,-1.06146,-264.066047,1.023834,62.436273
2.1567,0.038802,0.001496,-0.020845,-0.004929,0.000358,0.013853,0.027665,-0.508804,-0.022084,-1.06146,-264.066047,1.023834,62.436273
2.1768,0.038119,0.001117,-0.020788,-0.004929,0.000357,0.013854,0.027966,-0.508373,-0.020265,-1.061355,-264.07009,1.024047,62.432481
2.197,0.038572,0.001247,-0.021182,-0.004929,0.000347,0.013853,0.027759,-0.508534,-0.020412,-1.061355,-264.07009,1.024047,62.432481
2.2161,0.037736,0.000873,-0.02187,-0.004929,0.000339,0.013853,0.027613,-0.508624,-0.020741,-1.06111,-264.07413,1.024402,62.428687
2.2362,0.037685,0.001203,-0.022055,-0.004928,0.000346,0.013854,0.026668,-0.50897,-0.021745,-1.06111,-264.07413,1.024402,62.428687
2.2562,0.037221,0.001153,-0.020841,-0.004928,0.000352,0.013855,0.026668,-0.50897,-0.021745,-1.06111,-264.07413,1.024402,62.428687
2.2761,0.036964,0.00115,-0.018506,-0.004927,0.000357,0.013856,0.026387,-0.508718,-0.020262,-1.060181,-264.078171,1.025312,62.424881
2.2964,0.037053,0.00125,-0.019866,-0.004927,0.000355,0.013856,0.026834,-0.508734,-0.019469,-1.060181,-264.078171,1.025312,62.424881
2.3164,0.036504,0.001374,-0.018902,-0.004928,0.000352,0.013856,0.026765,-0.508635,-0.019424,-1.061324,-264.082214,1.024584,62.421085
2.3366,0.036612,0.001295,-0.019084,-0.004928,0.000344,0.013855,0.026848,-0.508543,-0.018925,-1.061324,-264.082214,1.024584,62.421085
2.3564,0.036232,0.001264,-0.018524,-0.004928,0.000336,0.013854,0.026848,-0.508543,-0.018925,-1.061324,-264.082214,1.024584,62.421085
2.3767,0.035737,0.001164,-0.018312,-0.004928,0.00033,0.013853,0.02658,-0.50863,-0.017945,-1.061066,-264.08625,1.024822,62.417293
2.3967,0.035782,0.001095,-0.018636,-0.004927,0.000331,0.013852,0.026482,-0.508677,-0.018028,-1.061066,-264.08625,1.024822,62.417293
2.4164,0.035522,0.001432,-0.018352,-0.004926,0.000331,0.013851,0.026122,-0.508803,-0.018195,-1.059883,-264.090282,1.02592,62.413488
2.4368,0.035169,0.001072,-0.016429,-0.004926,0.000324,0.013851,0.026152,-0.508509,-0.018317,-1.059883,-264.090282,1.02592,62.413488
2.4571,0.035231,0.001251,-0.0186,-0.004926,0.000318,0.013851,0.026152,-0.508509,-0.018317,-1.059883,-264.090282,1.02592,62.413488
2.4766,0.034936,0.001293,-0.017264,-0.004926,0.000312,0.01385,0.025539,-0.508643,-0.018019,-1.059994,-264.094332,1.02594,62.409668
2.4969,0.034898,0.001507,-0.016065,-0.004925,0.000313,0.01385,0.025764,-0.508636,-0.017636,-1.059994,-264.094332,1.02594,62.409668
2.5167,0.033869,0.001795,-0.016013,-0.004925,0.000314,0.013849,0.026549,-0.508414,-0.015627,-1.059085,-264.098336,1.026933,62.405879
2.5367,0.034252,0.001303,-0.0169,-0.004924,0.000296,0.013839,0.025768,-0.508162,-0.015958,-1.059085,-264.098336,1.026933,62.405879
2.5568,0.033965,0.001273,-0.017549,-0.004923,0.000282,0.013832,0.025768,-0.508162,-0.015958,-1.059085,-264.098336,1.026933,62.405879
2.5767,0.03337,0.001447,-0.015338,-0.004922,0.00027,0.013825,0.02481,-0.508632,-0.016969,-1.059221,-264.102355,1.026912,62.402077
2.5967,0.033399,0.001371,-0.01641,-0.004921,0.000275,0.013824,0.025085,-0.508574,-0.016242,-1.059221,-264.102355,1.026912,62.402077
2.6164,0.032989,0.001229,-0.014982,-0.00492,0.000279,0.013823,0.024873,-0.508549,-0.015969,-1.056613,-264.106358,1.028802,62.398261
2.6369,0.032653,0.001174,-0.013511,-0.004918,0.00029,0.013809,0.025297,-0.508698,-0.015048,-1.056613,-264.106358,1.028802,62.398261
2.6569,0.033231,0.001448,-0.015927,-0.004916,0.000299,0.013797,0.025297,-0.508698,-0.015048,-1.056613,-264.106358,1.028802,62.398261
2.6768,0.03234,0.00115,-0.014133,-0.004914,0.000306,0.013788,0.024902,-0.508473,-0.015346,-1.057151,-264.110401,1.028341,62.394412
2.6968,0.032127,0.001366,-0.013612,-0.004913,0.000308,0.013775,0.024976,-0.50861,-0.014762,-1.057151,-264.110401,1.028341,62.394412
2.7163,0.031807,0.001068,-0.013546,-0.004912,0.00031,0.013765,0.025032,-0.508575,-0.013179,-1.057966,-264.114369,1.026274,62.390654
2.7364,0.03188,0.001506,-0.013849,-0.004906,0.000324,0.013722,0.024903,-0.508857,-0.01349,-1.057966,-264.114369,1.026274,62.390654
2.7564,0.031471,0.001466,-0.013477,-0.004902,0.000336,0.013687,0.024903,-0.508857,-0.01349,-1.057966,-264.114369,1.026274,62.390654
2.7763,0.031057,0.001398,-0.012426,-0.004899,0.000345,0.013659,0.024392,-0.508472,-0.012901,-1.057668,-264.118371,1.025497,62.386866
2.7964,0.030624,0.001496,-0.012606,-0.004894,0.000339,0.013599,0.024501,-0.508507,-0.012642,-1.057668,-264.118371,1.025497,62.386866
2.8163,0.030762,0.001703,-0.011973,-0.004891,0.000333,0.013551,0.024038,-0.508451,-0.01217,-1.057289,-264.12236,1.021123,62.383116
2.8367,0.03051,0.001462,-0.011358,-0.004884,0.00032,0.013473,0.024593,-0.508277,-0.011969,-1.057289,-264.12236,1.021123,62.383116
2.8566,0.030495,0.001395,-0.012904,-0.00488,0.00031,0.013412,0.024593,-0.508277,-0.011969,-1.057289,-264.12236,1.021123,62.383116
2.8764,0.029628,0.001506,-0.012371,-0.004877,0.000301,0.013363,0.02371,-0.508546,-0.012336,-1.054192,-264.126324,1.018889,62.379381
2.8964,0.029955,0.001409,-0.014777,-0.004877,0.0003,0.013344,0.023526,-0.508507,-0.012285,-1.054192,-264.126324,1.018889,62.379381
2.9162,0.029324,0.00116,-0.011366,-0.004878,0.0003,0.013328,0.022264,-0.508523,-0.014353,-1.047989,-264.130254,1.015525,62.375659
2.9364,0.029509,0.001279,-0.010722,-0.004872,0.000314,0.013271,0.023433,-0.508787,-0.011557,-1.047989,-264.130254,1.015525,62.375659
2.9564,0.029251,0.001535,-0.01001,-0.004869,0.000325,0.013225,0.023433,-0.508787,-0.011557,-1.047989,-264.130254,1.015525,62.375659
2.9763,0.028812,0.001488,-0.010228,-0.004867,0.000334,0.013189,0.023943,-0.508425,-0.009457,-1.046796,-264.134123,1.014271,62.371994
2.9964,0.028683,0.001555,-0.010876,-0.004844,0.000327,0.012977,0.023779,-0.508448,-0.009706,-1.046796,-264.134123,1.014271,62.371994
3.0164,0.028053,0.001552,-0.008753,-0.00483,0.000321,0.012815,0.022981,-0.508402,-0.010456,-1.045121,-264.137999,1.008418,62.368346
3.0364,0.027976,0.001658,-0.009285,-0.004806,0.000314,0.012577,0.023525,-0.508425,-0.008889,-1.045121,-264.137999,1.008418,62.368346
3.0564,0.028332,0.00142,-0.009008,-0.004792,0.000308,0.012398,0.023525,-0.508425,-0.008889,-1.045121,-264.137999,1.008418,62.368346
3.0761,0.027571,0.00171,-0.009042,-0.004784,0.000303,0.012263,0.023536,-0.508544,-0.008473,-1.035705,-264.141777,0.999042,62.364786
3.0964,0.027512,0.00125,-0.008358,-0.004776,0.000298,0.012124,0.023278,-0.50843,-0.008644,-1.035705,-264.141777,0.999042,62.364786
3.1161,0.026973,0.001631,-0.008022,-0.004772,0.000294,0.012019,0.023099,-0.508722,-0.00797,-1.020232,-264.145406,0.983503,62.361359
3.1365,0.026899,0.001436,-0.0087,-0.004759,0.000286,0.011834,0.022893,-0.508386,-0.007998,-1.020232,-264.145406,0.983503,62.361359
3.1564,0.027485,0.00201,-0.008874,-0.004753,0.00028,0.011695,0.022893,-0.508386,-0.007998,-1.020232,-264.145406,0.983503,62.361359
3.1766,0.026817,0.001302,-0.007818,-0.004751,0.000275,0.011592,0.02276,-0.507956,-0.008371,-1.012143,-264.149,0.975521,62.357962
3.1968,0.026541,0.001368,-0.006622,-0.004753,0.000263,0.011528,0.022765,-0.508248,-0.00809,-1.012143,-264.149,0.975521,62.357962
3.2164,0.026045,0.00118,-0.006989,-0.004757,0.000254,0.011481,0.023014,-0.508611,-0.006255,-0.997285,-264.152484,0.961379,62.35466
3.2363,0.02569,0.001213,-0.005804,-0.004735,0.000271,0.011222,0.022519,-0.50879,-0.006907,-0.997285,-264.152484,0.961379,62.35466
3.2564,0.025516,0.001424,-0.007338,-0.004722,0.000285,0.011032,0.022519,-0.50879,-0.006907,-0.997285,-264.152484,0.961379,62.35466
3.2763,0.025866,0.001487,-0.007882,-0.004715,0.000295,0.010893,0.021575,-0.508551,-0.006859,-0.991145,-264.15595,0.957446,62.351362
3.2966,0.025451,0.001818,-0.007343,-0.004721,0.000289,0.010851,0.021662,-0.508528,-0.007219,-0.991145,-264.15595,0.957446,62.351362
3.3164,0.024999,0.001879,-0.004831,-0.004727,0.000283,0.01082,0.021558,-0.508158,-0.007,-0.974566,-264.159266,0.932652,62.348236
3.3365,0.025006,0.001859,-0.006153,-0.004687,0.000262,0.010238,0.022443,-0.508118,-0.005002,-0.974566,-264.159266,0.932652,62.348236
3.3567,0.024922,0.001713,-0.00608,-0.004663,0.000243,0.009825,0.022443,-0.508118,-0.005002,-0.974566,-264.159266,0.932652,62.348236
3.3763,0.02451,0.002139,-0.00604,-0.004649,0.000227,0.009531,0.021623,-0.508264,-0.005626,-0.969601,-264.162609,0.929042,62.345077
3.3963,0.024908,0.00192,-0.004832,-0.00466,0.000209,0.009522,0.021522,-0.508094,-0.005743,-0.969601,-264.162609,0.929042,62.345077
3.4162,0.023824,0.001714,-0.004901,-0.00467,0.000193,0.009516,0.022308,-0.508067,-0.004556,-0.915419,-264.165397,0.877335,62.342419
3.4363,0.024056,0.001651,-0.005744,-0.004659,0.000189,0.00927,0.021402,-0.508262,-0.004858,-0.915419,-264.165397,0.877335,62.342419
3.4564,0.023806,0.001865,-0.003872,-0.004654,0.000185,0.009093,0.021402,-0.508262,-0.004858,-0.915419,-264.165397,0.877335,62.342419
3.4766,0.023416,0.00181,-0.004741,-0.004653,0.000181,0.008966,0.021636,-0.508122,-0.003474,-0.909828,-264.168437,0.877323,62.339499
3.4964,0.023672,0.001709,-0.005781,-0.004636,0.000172,0.008577,0.021353,-0.508147,-0.003946,-0.909828,-264.168437,0.877323,62.339499
3.5163,0.023011,0.001477,-0.003806,-0.004628,0.000165,0.008301,0.020579,-0.508276,-0.005503,-0.882538,-264.171294,0.849857,62.33675
3.5368,0.023137,0.001392,-0.004655,-0.004625,0.000175,0.008104,0.021018,-0.508497,-0.003944,-0.882538,-264.171294,0.849857,62.33675
3.5568,0.022955,0.001924,-0.004341,-0.004626,0.000183,0.007966,0.021018,-0.508497,-0.003944,-0.882538,-264.171294,0.849857,62.33675
3.5768,0.022313,0.001861,-0.005833,-0.004629,0.000189,0.007867,0.020555,-0.508064,-0.004007,-0.846844,-264.173978,0.814421,62.33416
3.5967,0.02294,0.001901,-0.003959,-0.004653,0.000169,0.008032,0.020041,-0.50809,-0.004708,-0.846844,-264.173978,0.814421,62.33416
3.6171,0.02203,0.001644,-0.002435,-0.00467,0.000151,0.008151,0.020777,-0.508088,-0.003714,-0.823358,-264.176651,0.783971,62.331593
3.6369,0.022213,0.001522,-0.002882,-0.004636,0.000157,0.00745,0.020779,-0.508329,-0.002546,-0.823358,-264.176651,0.783971,62.331593
3.6568,0.022308,0.001634,-0.003525,-0.004617,0.000159,0.006955,0.020779,-0.508329,-0.002546,-0.823358,-264.176651,0.783971,62.331593
3.6762,0.021686,0.001746,-0.003987,-0.004609,0.000159,0.006605,0.020317,-0.508356,-0.003188,-0.83226,-264.179395,0.801884,62.328937
3.6964,0.022057,0.001274,-0.002354,-0.004627,0.000154,0.006722,0.020024,-0.508312,-0.003474,-0.83226,-264.179395,0.801884,62.328937
3.7161,0.021308,0.001473,-0.003553,-0.004641,0.000149,0.006807,0.020751,-0.508721,-0.002195,-0.757635,-264.18123,0.727259,62.327164
3.7363,0.021455,0.00162,-0.003213,-0.00465,0.000157,0.006857,0.019589,-0.508539,-0.00344,-0.757635,-264.18123,0.727259,62.327164
3.7566,0.021631,0.001378,-0.003054,-0.004658,0.000163,0.006893,0.019589,-0.508539,-0.00344,-0.757635,-264.18123,0.727259,62.327164
3.7763,0.021188,0.001955,-0.00159,-0.004664,0.000167,0.006918,0.019881,-0.508613,-0.002772,-0.748132,-264.183738,0.712398,62.324735
3.7966,0.021133,0.001534,-0.001663,-0.004644,0.000167,0.006457,0.020061,-0.508381,-0.002258,-0.748132,-264.183738,0.712398,62.324735
3.8166,0.0207,0.001552,-0.000487,-0.004635,0.000165,0.006128,0.020136,-0.508459,-0.001442,-0.755466,-264.186298,0.716022,62.322264
3.8368,0.020533,0.001659,-0.000773,-0.004596,0.000187,0.005033,0.020415,-0.508448,-0.000562,-0.755466,-264.186298,0.716022,62.322264
3.857,0.020829,0.002058,-0.001469,-0.004578,0.000198,0.004244,0.020415,-0.508448,-0.000562,-0.755466,-264.186298,0.716022,62.322264
3.8763,0.020122,0.00139,-0.001571,-0.004573,0.000203,0.003678,0.019905,-0.507935,-0.001238,-0.700486,-264.188488,0.657368,62.32015
3.8966,0.020099,0.001757,-0.002304,-0.004595,0.00018,0.003695,0.019644,-0.508213,-0.001349,-0.700486,-264.188488,0.657368,62.32015
3.9163,0.020266,0.001709,-0.002242,-0.004613,0.000161,0.003709,0.018897,-0.50824,-0.002274,-0.625358,-264.188902,0.58224,62.31975
3.9365,0.020318,0.001654,-0.001159,-0.00465,0.000145,0.004139,0.019101,-0.508285,-0.002244,-0.625358,-264.188902,0.58224,62.31975
3.9568,0.020568,0.001383,-0.000905,-0.004675,0.000132,0.00445,0.019101,-0.508285,-0.002244,-0.625358,-264.188902,0.58224,62.31975
3.9764,0.020207,0.001891,-0.000781,-0.004691,0.000122,0.004676,0.020014,-0.508614,-0.000817,-0.550502,-264.189935,0.507384,62.318745
3.9969,0.019946,0.001553,-0.000846,-0.00467,0.000132,0.004129,0.01992,-0.508408,-0.000792,-0.550502,-264.189935,0.507384,62.318745
4.0165,0.019697,0.002104,0.000103,-0.004659,0.000138,0.003735,0.019366,-0.508443,-0.000699,-0.565591,-264.192139,0.527643,62.316592
4.0367,0.020056,0.001846,-0.001019,-0.00464,0.000126,0.003006,0.019709,-0.507944,4e-05,-0.565591,-264.192139,0.527643,62.316592
4.0568,0.019522,0.001465,-0.001063,-0.004633,0.000113,0.002477,0.019709,-0.507944,4e-05,-0.565591,-264.192139,0.527643,62.316592
4.0765,0.019699,0.00198,0.000291,-0.004633,0.0001,0.002093,0.018833,-0.508531,-0.00094,-0.490462,-264.193742,0.452513,62.315026
4.0966,0.019232,0.002047,0.000158,-0.004647,0.000101,0.002068,0.019235,-0.508319,-0.000417,-0.490462,-264.193742,0.452513,62.315026
4.1162,0.019403,0.001827,-0.001161,-0.004659,0.000101,0.002049,0.019275,-0.507952,0.000184,-0.415473,-264.194258,0.377525,62.314515
4.1369,0.019322,0.00194,-0.000577,-0.004686,8.7e-05,0.002372,0.018849,-0.508154,-0.001042,-0.415473,-264.194258,0.377525,62.314515
4.1567,0.019646,0.001873,-0.00127,-0.004704,7.5e-05,0.002605,0.018849,-0.508154,-0.001042,-0.415473,-264.194258,0.377525,62.314515
4.1768,0.019084,0.001679,-0.001883,-0.004716,6.5e-05,0.002773,0.018891,-0.508125,-0.001211,-0.340504,-264.195346,0.302555,62.313439
4.1966,0.019376,0.001924,-0.001756,-0.004735,5.8e-05,0.003115,0.018565,-0.508204,-0.001479,-0.340504,-264.195346,0.302555,62.313439
4.2162,0.018955,0.001617,0.000313,-0.004746,5.2e-05,0.003362,0.018333,-0.508073,-0.001669,-0.356944,-264.197325,0.332478,62.311477
4.2364,0.019151,0.001638,-0.000829,-0.004717,7.3e-05,0.002691,0.019039,-0.508356,0.000144,-0.356944,-264.197325,0.332478,62.311477
4.2563,0.019285,0.001593,-0.00045,-0.0047,8.7e-05,0.002202,0.019039,-0.508356,0.000144,-0.356944,-264.197325,0.332478,62.311477
4.2763,0.018765,0.001617,-0.001109,-0.004692,9.6e-05,0.001847,0.018882,-0.508405,-0.000327,-0.417523,-264.199149,0.399088,62.309668
4.2965,0.019144,0.001932,-0.000639,-0.004707,9.6e-05,0.002014,0.018581,-0.508395,-0.000635,-0.417523,-264.199149,0.399088,62.309668
4.3163,0.018443,0.001904,-0.00248,-0.004717,9.6e-05,0.002135,0.018763,-0.508067,-0.000608,-0.342544,-264.199891,0.324109,62.308932
4.3365,0.018881,0.002025,-0.001323,-0.00477,6.8e-05,0.002992,0.017309,-0.508092,-0.002321,-0.342544,-264.199891,0.324109,62.308932
4.3565,0.018162,0.0019,-0.001388,-0.004799,4.5e-05,0.003625,0.017309,-0.508092,-0.002321,-0.342544,-264.199891,0.324109,62.308932
4.3765,0.018276,0.001708,-0.002049,-0.004814,2.7e-05,0.00409,0.017281,-0.508096,-0.001309,-0.288582,-264.201613,0.25058,62.307229
4.3965,0.018229,0.001754,0.000469,-0.004802,2e-05,0.004128,0.017241,-0.508175,-0.001603,-0.288582,-264.201613,0.25058,62.307229
4.4164,0.01796,0.001923,-0.000272,-0.004791,1.4e-05,0.004157,0.018429,-0.508246,0.000492,-0.363515,-264.202139,0.325513,62.306705
4.4365,0.017938,0.00194,-0.000723,-0.004751,1.9e-05,0.003451,0.017874,-0.508093,-0.000202,-0.363515,-264.202139,0.325513,62.306705
4.4567,0.017899,0.002007,-0.000626,-0.004726,2e-05,0.002941,0.017874,-0.508093,-0.000202,-0.363515,-264.202139,0.325513,62.306705
4.4763,0.018203,0.001929,-0.001309,-0.004712,1.8e-05,0.002573,0.017473,-0.507991,-0.000548,-0.43842,-264.203256,0.400417,62.30559
4.4966,0.018379,0.001698,-0.000148,-0.004719,4e-06,0.002654,0.017486,-0.508023,-0.000848,-0.43842,-264.203256,0.400417,62.30559
4.5163,0.017972,0.001783,0.00021,-0.004723,-7e-06,0.002714,0.018195,-0.5083,-8.4e-05,-0.363425,-264.204711,0.325423,62.304139
4.5364,0.018086,0.001719,0.000816,-0.004704,9e-06,0.002203,0.018084,-0.508225,0.000187,-0.363425,-264.204711,0.325423,62.304139
4.5566,0.018355,0.001568,-0.000918,-0.004695,2.1e-05,0.001832,0.018084,-0.508225,0.000187,-0.363425,-264.204711,0.325423,62.304139
4.5767,0.01758,0.00197,-0.002829,-0.004691,2.9e-05,0.001562,0.017692,-0.508432,-0.000806,-0.336112,-264.206683,0.338839,62.302165
4.5968,0.017446,0.00184,-0.000327,-0.004735,2.3e-05,0.002285,0.01704,-0.508268,-0.001612,-0.336112,-264.206683,0.338839,62.302165
4.6162,0.017506,0.001785,2.1e-05,-0.004762,1.8e-05,0.002816,0.017198,-0.50816,-0.000291,-0.26114,-264.207733,0.263867,62.301118
4.6365,0.017251,0.001957,-0.000276,-0.004739,2.3e-05,0.002377,0.017485,-0.508211,-4e-06,-0.26114,-264.207733,0.263867,62.301118
4.6563,0.017679,0.001815,8.5e-05,-0.004726,2.6e-05,0.002059,0.017485,-0.508211,-4e-06,-0.26114,-264.207733,0.263867,62.301118
4.6763,0.016886,0.002141,0.001211,-0.004719,2.7e-05,0.001828,0.017563,-0.508185,0.000177,-0.336242,-264.209346,0.338969,62.299509
4.6966,0.017221,0.001585,-0.000206,-0.004704,2.6e-05,0.001336,0.01752,-0.508052,0.000609,-0.336242,-264.209346,0.338969,62.299509
4.7161,0.016933,0.00169,0.001404,-0.004697,2.3e-05,0.000978,0.017012,-0.508415,-0.00016,-0.261339,-264.210707,0.264066,62.298151
4.7365,0.016671,0.001886,0.000967,-0.004683,4.6e-05,0.000406,0.017588,-0.508318,0.001271,-0.261339,-264.210707,0.264066,62.298151
4.7566,0.016984,0.001694,-0.000571,-0.004678,6.2e-05,-1.3e-05,0.017588,-0.508318,0.001271,-0.261339,-264.210707,0.264066,62.298151
4.7763,0.016976,0.001737,-0.00017,-0.004679,7.3e-05,-0.000319,0.016586,-0.508306,-0.000537,-0.186237,-264.21175,0.188964,62.297109
4.797,0.016741,0.002014,0.001187,-0.004721,5.7e-05,0.000317,0.016698,-0.508288,-0.000383,-0.186237,-264.21175,0.188964,62.297109
4.8164,0.016951,0.001682,-2.7e-05,-0.004747,4.5e-05,0.000777,0.017319,-0.507986,0.001192,-0.111219,-264.21209,0.113946,62.296769
4.8365,0.016617,0.001691,0.000628,-0.004752,4.1e-05,0.000857,0.01697,-0.508288,8.3e-05,-0.111219,-264.21209,0.113946,62.296769
4.8563,0.016669,0.001783,-0.001323,-0.004755,3.7e-05,0.000914,0.01697,-0.508288,8.3e-05,-0.111219,-264.21209,0.113946,62.296769
4.8767,0.016375,0.001774,5e-05,-0.004757,3.4e-05,0.000954,0.015797,-0.508214,-0.00129,-0.109081,-264.213982,0.090193,62.29488
4.8966,0.016934,0.001861,-0.000373,-0.004778,1.7e-05,0.001429,0.016018,-0.508218,-0.000746,-0.109081,-264.213982,0.090193,62.29488
4.9161,0.016211,0.001591,0.001029,-0.004789,4e-06,0.001775,0.016594,-0.508138,-0.000343,-0.12896,-264.21587,0.114778,62.292995
4.9374,0.015977,0.00143,-0.000939,-0.004758,2.7e-05,0.001157,0.016716,-0.508384,0.000908,-0.12896,-264.21587,0.114778,62.292995
4.9566,0.016237,0.001826,0.000249,-0.004739,4.3e-05,0.000705,0.016716,-0.508384,0.000908,-0.12896,-264.21587,0.114778,62.292995
4.9766,0.015735,0.001927,-0.000271,-0.00473,5.3e-05,0.000375,0.016219,-0.508173,0.000297,-0.203968,-264.217287,0.189786,62.291579
4.9965,0.015903,0.001629,0.000111,-0.004743,2.9e-05,0.000571,0.015951,-0.508133,7.3e-05,-0.203968,-264.217287,0.189786,62.291579
5.0164,0.016159,0.001779,-0.000481,-0.004751,9e-06,0.000712,0.015886,-0.50837,0.000126,-0.128979,-264.21822,0.114797,62.290647
5.0365,0.015678,0.001915,-8e-05,-0.004768,-2e-06,0.001087,0.015907,-0.508234,-0.000425,-0.128979,-264.21822,0.114797,62.290647
5.0568,0.0161,0.001757,5.3e-05,-0.004777,-1.1e-05,0.001359,0.015907,-0.508234,-0.000425,-0.128979,-264.21822,0.114797,62.290647
5.0765,0.015536,0.001742,0.00095,-0.00478,-1.7e-05,0.001556,0.015934,-0.508242,8.2e-05,-0.093265,-264.220071,0.089304,62.288797
5.0966,0.015381,0.001656,0.001583,-0.004764,-1.3e-05,0.001247,0.015947,-0.508248,0.000438,-0.093265,-264.220071,0.089304,62.288797
5.1166,0.015606,0.001918,0.000255,-0.004753,-1.1e-05,0.00102,0.016081,-0.508344,0.001613,-0.168267,-264.221447,0.164305,62.287419
5.1371,0.015674,0.001716,-0.000586,-0.004748,-2.3e-05,0.000896,0.015757,-0.508102,0.000358,-0.168267,-264.221447,0.164305,62.287419
5.1571,0.015713,0.001997,-7.3e-05,-0.004746,-3.3e-05,0.000805,0.015757,-0.508102,0.000358,-0.168267,-264.221447,0.164305,62.287419
5.1767,0.015442,0.00136,0.000927,-0.004745,-4.2e-05,0.000738,0.015484,-0.508003,-3.2e-05,-0.128,-264.223282,0.13274,62.285583
5.1966,0.015685,0.001868,0.000176,-0.004744,-3.8e-05,0.000686,0.015639,-0.508263,0.000364,-0.128,-264.223282,0.13274,62.285583
5.2161,0.015019,0.001722,3.4e-05,-0.004744,-3.6e-05,0.000647,0.015631,-0.508134,0.000198,-0.086007,-264.225105,0.103357,62.283757
5.2366,0.014965,0.001896,-0.000608,-0.004751,-4e-05,0.000791,0.015078,-0.508266,4.9e-05,-0.086007,-264.225105,0.103357,62.283757
5.2563,0.014788,0.001978,-0.000466,-0.004755,-4.3e-05,0.000895,0.015078,-0.508266,4.9e-05,-0.086007,-264.225105,0.103357,62.283757
5.277,0.0147,0.00197,0.000629,-0.004757,-4.5e-05,0.00097,0.014354,-0.508023,-0.000439,-0.075676,-264.226997,0.09057,62.281862
5.2964,0.01475,0.001882,0.000494,-0.004758,-6.9e-05,0.00105,0.014604,-0.508026,1e-06,-0.075676,-264.226997,0.09057,62.281862
5.3161,0.014168,0.002145,0.001093,-0.004758,-8.8e-05,0.001108,0.014858,-0.508119,0.000524,-0.114545,-264.22881,0.133207,62.280045
5.3365,0.014535,0.001807,0.000295,-0.004736,-0.0001,0.000608,0.01473,-0.507879,0.001043,-0.114545,-264.22881,0.133207,62.280045
5.3566,0.014667,0.002014,0.000336,-0.004723,-0.000113,0.000244,0.01473,-0.507879,0.001043,-0.114545,-264.22881,0.133207,62.280045
5.3764,0.014295,0.001509,0.001239,-0.004717,-0.000125,-2.2e-05,0.014642,-0.507989,0.000382,-0.1231,-264.230707,0.15932,62.278138
5.3967,0.01406,0.001799,0.001022,-0.004721,-0.000117,-6.2e-05,0.014737,-0.508196,0.00074,-0.1231,-264.230707,0.15932,62.278138
5.4165,0.013839,0.001395,0.002562,-0.004724,-0.000111,-9.2e-05,0.014504,-0.508202,0.00103,-0.048019,-264.231674,0.084239,62.277171
5.4366,0.013815,0.001702,-0.00026,-0.004696,-4.8e-05,-0.00083,0.015086,-0.508568,0.00243,-0.048019,-264.231674,0.084239,62.277171
5.4566,0.014252,0.001589,0.000499,-0.004683,-1e-06,-0.001375,0.015086,-0.508568,0.00243,-0.048019,-264.231674,0.084239,62.277171
5.4765,0.013559,0.001922,-2.6e-05,-0.00468,3.4e-05,-0.001777,0.014344,-0.508414,0.000496,0.026993,-264.233227,0.011526,62.27562
5.4967,0.013959,0.001618,0.000408,-0.004725,4e-06,-0.001072,0.014,-0.508278,0.000284,0.026993,-264.233227,0.011526,62.27562
5.5162,0.013801,0.001892,-2.8e-05,-0.004754,-1.8e-05,-0.000566,0.014136,-0.508383,0.000403,0.1019,-264.23362,-0.063381,62.275225
5.5366,0.013645,0.001759,0.001027,-0.004777,-5.1e-05,-5.5e-05,0.013815,-0.508131,8e-06,0.1019,-264.23362,-0.063381,62.275225
5.5572,0.013894,0.002212,0.000536,-0.004789,-7.7e-05,0.000314,0.013815,-0.508131,8e-06,0.1019,-264.23362,-0.063381,62.275225
5.5765,0.013285,0.002274,-3.4e-05,-0.004794,-9.7e-05,0.000579,0.01397,-0.507789,0.000513,0.076465,-264.235502,-0.068763,62.273344
5.5967,0.013553,0.002049,-0.000901,-0.004788,-0.000142,0.000615,0.013663,-0.507763,0.000289,0.076465,-264.235502,-0.068763,62.273344
5.6167,0.013362,0.001839,-0.00025,-0.004781,-0.000179,0.000639,0.013017,-0.507951,-0.000901,0.001622,-264.236467,0.006079,62.272377
5.6367,0.013296,0.001678,0.000702,-0.004788,-0.000185,0.000978,0.013215,-0.508146,-0.000297,0.001622,-264.236467,0.006079,62.272377
5.6567,0.013393,0.001916,-0.000876,-0.004789,-0.00019,0.001225,0.013215,-0.508146,-0.000297,0.001622,-264.236467,0.006079,62.272377
5.6772,0.01323,0.002056,0.000983,-0.004786,-0.000193,0.001404,0.012789,-0.508086,-0.000859,-0.044245,-264.237975,0.081587,62.27086
5.6973,0.013215,0.001905,0.000882,-0.004777,-0.000204,0.001423,0.013161,-0.508028,-9.5e-05,-0.044245,-264.237975,0.081587,62.27086
5.7167,0.013114,0.001983,-0.000676,-0.004768,-0.000213,0.001437,0.013564,-0.508097,0.000905,-0.119056,-264.239228,0.156399,62.269589
5.737,0.013363,0.00161,0.000927,-0.00477,-0.000226,0.001683,0.012837,-0.508024,-0.000529,-0.119056,-264.239228,0.156399,62.269589
5.7571,0.013229,0.001833,-0.000278,-0.004768,-0.000237,0.001863,0.012837,-0.508024,-0.000529,-0.119056,-264.239228,0.156399,62.269589
5.7771,0.012784,0.00219,0.000363,-0.004764,-0.000245,0.001994,0.012903,-0.508175,-0.000222,-0.138526,-264.241,0.22489,62.267788
5.7969,0.012733,0.001938,-0.000175,-0.004747,-0.000246,0.001792,0.012908,-0.508029,1.9e-05,-0.138526,-264.241,0.22489,62.267788
5.8172,0.01244,0.001539,0.000675,-0.004735,-0.000248,0.001646,0.012513,-0.508068,-0.00012,-0.201343,-264.242679,0.297948,62.266067
5.8369,0.012329,0.001776,0.002728,-0.004714,-0.000208,0.00123,0.012753,-0.508426,0.000607,-0.201343,-264.242679,0.297948,62.266067
5.8567,0.012766,0.00168,0.001216,-0.004702,-0.000178,0.000927,0.012753,-0.508426,0.000607,-0.201343,-264.242679,0.297948,62.266067
5.8763,0.012364,0.002001,0.000566,-0.004696,-0.000156,0.000706,0.013198,-0.50833,0.001281,-0.158664,-264.244496,0.258698,62.264211
5.8972,0.012263,0.001478,0.000511,-0.004687,-0.000151,0.000347,0.012955,-0.508197,0.000998,-0.158664,-264.244496,0.258698,62.264211
5.9163,0.012234,0.002017,0.00013,-0.004683,-0.000148,8.4e-05,0.012429,-0.508526,0.000532,-0.08368,-264.245696,0.183714,62.263004
5.9365,0.012151,0.001705,0.001015,-0.004699,-0.000178,0.000327,0.012307,-0.508033,0.000167,-0.08368,-264.245696,0.183714,62.263004
5.9566,0.012336,0.001548,0.002649,-0.00471,-0.000202,0.000503,0.012307,-0.508033,0.000167,-0.08368,-264.245696,0.183714,62.263004
5.9763,0.012064,0.001843,0.000783,-0.004716,-0.000221,0.000629,0.013568,-0.508457,0.00266,-0.008667,-264.246839,0.108702,62.261861
5.9967,0.011913,0.001506,0.000488,-0.004687,-0.000176,-9.6e-05,0.013102,-0.508335,0.001894,-0.008667,-264.246839,0.108702,62.261861
6.0162,0.012117,0.001754,0.001383,-0.004672,-0.000143,-0.000631,0.012015,-0.508501,0.000508,-0.034608,-264.248695,0.1277,62.25999
6.0363,0.011946,0.001758,0.001501,-0.004677,-0.000139,-0.00077,0.012746,-0.508268,0.001309,-0.034608,-264.248695,0.1277,62.25999
6.0567,0.012525,0.001593,0.000927,-0.004684,-0.000136,-0.000873,0.012746,-0.508268,0.001309,-0.034608,-264.248695,0.1277,62.25999
6.0762,0.011708,0.001796,0.001383,-0.00469,-0.000134,-0.000949,0.012915,-0.508411,0.000927,0.040394,-264.249485,0.052698,62.259204
6.0963,0.011539,0.001939,0.000155,-0.0047,-0.000131,-0.000913,0.0127,-0.508326,0.001114,0.040394,-264.249485,0.052698,62.259204
6.1163,0.01204,0.001946,0.000707,-0.004708,-0.000129,-0.000888,0.011531,-0.508065,0.000145,0.115293,-264.250585,-0.0222,62.258112
6.1365,0.011561,0.001904,0.000845,-0.004724,-0.00016,-0.00064,0.012317,-0.508056,0.000655,0.115293,-264.250585,-0.0222,62.258112
6.1567,0.011477,0.001407,0.000344,-0.004733,-0.000185,-0.000462,0.012317,-0.508056,0.000655,0.115293,-264.250585,-0.0222,62.258112
6.1763,0.011353,0.001761,-0.000136,-0.004738,-0.000205,-0.000333,0.01147,-0.508598,0.00031,0.141648,-264.252341,-0.087548,62.256366
6.1972,0.011171,0.001975,0.002776,-0.004749,-0.000197,5.1e-05,0.011374,-0.508453,0.000125,0.141648,-264.252341,-0.087548,62.256366
6.2169,0.011098,0.001429,0.001327,-0.004755,-0.000191,0.000329,0.01246,-0.508028,0.002766,0.085978,-264.253941,-0.012546,62.254773
6.2364,0.011219,0.00145,-0.001037,-0.00473,-0.000156,-0.000138,0.01183,-0.508521,0.001457,0.085978,-264.253941,-0.012546,62.254773
6.2569,0.010837,0.001784,-0.001574,-0.004715,-0.000131,-0.000479,0.01183,-0.508521,0.001457,0.085978,-264.253941,-0.012546,62.254773
6.2763,0.011092,0.001872,-0.000552,-0.004707,-0.000112,-0.000728,0.009882,-0.50822,-0.001568,0.010985,-264.255397,0.062447,62.253312
6.2965,0.011381,0.001443,-0.000397,-0.004763,-0.000171,0.000415,0.010245,-0.508183,-0.001151,0.010985,-264.255397,0.062447,62.253312
6.3166,0.010646,0.0014,0.001668,-0.004792,-0.000218,0.001258,0.011085,-0.508561,-0.000404,0.08611,-264.256584,-0.012678,62.25213
6.3364,0.010761,0.001573,0.001462,-0.004749,-0.00017,0.000542,0.011455,-0.508596,0.001483,0.08611,-264.256584,-0.012678,62.25213
6.3567,0.010883,0.001772,0.000781,-0.004722,-0.000135,1.6e-05,0.011455,-0.508596,0.001483,0.08611,-264.256584,-0.012678,62.25213
6.3765,0.011235,0.001696,0.000577,-0.004706,-0.000109,-0.000369,0.011231,-0.50823,0.000783,0.011186,-264.257061,0.062246,62.251646
6.3967,0.010917,0.001726,-0.000283,-0.004713,-0.000136,-0.000275,0.011346,-0.50826,0.0007,0.011186,-264.257061,0.062246,62.251646
6.4164,0.01022,0.001885,-0.000986,-0.004717,-0.000157,-0.00021,0.010647,-0.508278,-0.000292,0.070891,-264.258641,-0.012695,62.25007
6.4368,0.010819,0.001222,0.001366,-0.004754,-0.000221,0.000695,0.009793,-0.508129,-0.000926,0.070891,-264.258641,-0.012695,62.25007
6.4567,0.010424,0.001721,8.8e-05,-0.004771,-0.000271,0.001358,0.009793,-0.508129,-0.000926,0.070891,-264.258641,-0.012695,62.25007
6.4763,0.010317,0.001691,0.001687,-0.004775,-0.00031,0.001842,0.010273,-0.508285,7.9e-05,0.060378,-264.26052,0.006121,62.248194
6.4964,0.009991,0.001476,0.001274,-0.004739,-0.000295,0.001314,0.010622,-0.508295,0.00074,0.060378,-264.26052,0.006121,62.248194
6.5161,0.010493,0.001531,0.001267,-0.004714,-0.000285,0.000929,0.010623,-0.508524,0.001275,-0.014715,-264.260739,0.081214,62.247968
6.5364,0.010137,0.001638,0.000124,-0.00469,-0.000245,0.000394,0.011092,-0.508473,0.001268,-0.014715,-264.260739,0.081214,62.247968
6.5564,0.010236,0.0018,0.000566,-0.004676,-0.000215,4e-06,0.011092,-0.508473,0.001268,-0.014715,-264.260739,0.081214,62.247968
6.5762,0.010251,0.001768,-0.000565,-0.004669,-0.000193,-0.000282,0.010361,-0.508208,0.000595,-0.059863,-264.262309,0.156059,62.246376
6.5966,0.010066,0.001931,0.000755,-0.004687,-0.000229,9.7e-05,0.010181,-0.508219,0.000128,-0.059863,-264.262309,0.156059,62.246376
6.6161,0.009909,0.001429,0.000994,-0.004698,-0.000257,0.00037,0.010375,-0.508073,0.000759,0.015104,-264.263263,0.081092,62.245425
6.6363,0.009599,0.001512,0.002914,-0.004686,-0.000232,0.000127,0.010409,-0.508525,0.000973,0.015104,-264.263263,0.081092,62.245425
6.6564,0.010172,0.001615,-0.000502,-0.004679,-0.000214,-4.9e-05,0.010409,-0.508525,0.000973,0.015104,-264.263263,0.081092,62.245425
6.6765,0.009426,0.001534,0.001517,-0.004676,-0.0002,-0.000178,0.00972,-0.508395,-0.000487,0.006546,-264.265126,0.102366,62.243552
6.6962,0.009944,0.001728,0.000695,-0.004686,-0.000214,6.4e-05,0.009892,-0.508425,0.000328,0.006546,-264.265126,0.102366,62.243552
6.7161,0.009689,0.001427,0.001715,-0.004692,-0.000225,0.000239,0.010172,-0.508277,0.000691,0.065965,-264.266721,0.02731,62.241961
6.7369,0.009355,0.001637,0.000207,-0.00467,-0.000193,-0.000271,0.010528,-0.508549,0.001635,0.065965,-264.266721,0.02731,62.241961
6.7564,0.009405,0.001675,0.001017,-0.004659,-0.000169,-0.000644,0.010528,-0.508549,0.001635,0.065965,-264.266721,0.02731,62.241961
6.7762,0.009386,0.001359,0.001339,-0.004655,-0.000152,-0.000917,0.009743,-0.508334,0.001026,0.016908,-264.268446,0.078854,62.24023
6.7963,0.00906,0.001584,0.000212,-0.004662,-0.000166,-0.000894,0.009856,-0.508461,0.001156,0.016908,-264.268446,0.078854,62.24023
6.8172,0.009342,0.001946,0.001213,-0.004667,-0.000178,-0.000879,0.009096,-0.50842,0.000207,0.091666,-264.269347,0.004097,62.239336
6.8371,0.009119,0.001882,0.001436,-0.004671,-0.00023,-0.000859,0.009882,-0.508085,0.001125,0.091666,-264.269347,0.004097,62.239336
6.8572,0.009095,0.001635,0.001794,-0.004674,-0.000273,-0.000845,0.009882,-0.508085,0.001125,0.091666,-264.269347,0.004097,62.239336
6.8767,0.00904,0.001767,0.000858,-0.004675,-0.000307,-0.000836,0.009844,-0.508371,0.001764,0.152005,-264.270949,-0.070905,62.237748
6.8965,0.009111,0.001423,0.001638,-0.00467,-0.000307,-0.000953,0.009676,-0.508316,0.001393,0.152005,-264.270949,-0.070905,62.237748
6.9166,0.008806,0.001744,-7.4e-05,-0.004667,-0.000307,-0.001038,0.0098,-0.508587,0.001612,0.173073,-264.272815,-0.043631,62.235908
6.9364,0.008832,0.001111,-0.000535,-0.004689,-0.000339,-0.000416,0.008851,-0.508285,7.2e-05,0.173073,-264.272815,-0.043631,62.235908
6.9569,0.008881,0.001513,-5.9e-05,-0.004698,-0.000365,3.6e-05,0.008851,-0.508285,7.2e-05,0.173073,-264.272815,-0.043631,62.235908
6.9767,0.008286,0.001348,0.001811,-0.0047,-0.000384,0.000363,0.00866,-0.5085,-0.000101,0.198968,-264.274679,-0.069797,62.234077
6.9967,0.008639,0.000992,0.001612,-0.004684,-0.000358,0.000281,0.008862,-0.508563,0.000675,0.198968,-264.274679,-0.069797,62.234077
7.0166,0.008828,0.001621,0.001101,-0.004672,-0.000337,0.000222,0.00941,-0.509011,0.001607,0.123926,-264.275325,0.005246,62.233425
7.0366,0.008649,0.001695,0.002259,-0.004657,-0.000322,-6e-05,0.009389,-0.508436,0.001147,0.123926,-264.275325,0.005246,62.233425
7.0565,0.008652,0.001258,0.001807,-0.004649,-0.000311,-0.000265,0.009389,-0.508436,0.001147,0.123926,-264.275325,0.005246,62.233425
7.0771,0.0084,0.001792,-0.000679,-0.004644,-0.000303,-0.000415,0.009421,-0.508751,0.001811,0.04908,-264.276783,0.080092,62.231962
7.0964,0.008556,0.000956,0.001686,-0.004645,-0.000299,-0.000345,0.008845,-0.508531,0.000794,0.04908,-264.276783,0.080092,62.231962
7.1163,0.008422,0.001514,0.001075,-0.004645,-0.000295,-0.000295,0.00929,-0.509052,0.001675,0.119223,-264.27839,0.010714,62.230365
7.1365,0.00839,0.00179,0.001322,-0.004639,-0.000286,-0.000421,0.008989,-0.508528,0.001119,0.119223,-264.27839,0.010714,62.230365
7.1564,0.008107,0.001813,0.000326,-0.004636,-0.000279,-0.000513,0.008989,-0.508528,0.001119,0.119223,-264.27839,0.010714,62.230365
7.1764,0.008049,0.001762,0.000987,-0.004635,-0.000274,-0.00058,0.008081,-0.508199,0.000314,0.10196,-264.280233,0.024727,62.228532
7.1969,0.008062,0.001388,0.000399,-0.004638,-0.000333,-0.000359,0.00825,-0.508216,0.000585,0.10196,-264.280233,0.024727,62.228532
7.2161,0.008025,0.001348,0.000564,-0.004637,-0.00038,-0.000199,0.008124,-0.50862,0.000381,0.134716,-264.282022,-0.017294,62.226759
7.2369,0.007414,0.001863,0.000606,-0.004635,-0.000355,-5.7e-05,0.008289,-0.50865,0.000547,0.134716,-264.282022,-0.017294,62.226759
7.2567,0.007659,0.001778,0.000551,-0.004632,-0.000335,4.6e-05,0.008289,-0.50865,0.000547,0.134716,-264.282022,-0.017294,62.226759
7.2767,0.007591,0.001632,1.7e-05,-0.004629,-0.00032,0.000121,0.007764,-0.508236,0.000544,0.107661,-264.283714,0.055653,62.225074
7.2967,0.007324,0.001538,0.000522,-0.004622,-0.000374,0.000291,0.007677,-0.508292,0.000328,0.107661,-264.283714,0.055653,62.225074
7.3165,0.007472,0.001428,3e-06,-0.004613,-0.000417,0.000414,0.007451,-0.508472,0.000526,0.052983,-264.285457,0.084814,62.223327
7.3363,0.007295,0.001527,9.3e-05,-0.004607,-0.000416,0.000661,0.007464,-0.508563,5e-05,0.052983,-264.285457,0.084814,62.223327
7.3563,0.007201,0.001648,0.000559,-0.004599,-0.000415,0.00084,0.007464,-0.508563,5e-05,0.052983,-264.285457,0.084814,62.223327
7.3765,0.007326,0.001489,0.001523,-0.00459,-0.000414,0.000971,0.007304,-0.508369,0.000575,0.035589,-264.287196,0.144119,62.221571
7.3967,0.007237,0.001352,0.001525,-0.004565,-0.00042,0.000586,0.007609,-0.508429,0.000965,0.035589,-264.287196,0.144119,62.221571
7.4164,0.006375,0.00124,0.000849,-0.004547,-0.000426,0.000306,0.007892,-0.508659,0.001551,-0.038954,-264.288744,0.215983,62.219987
7.4369,0.006782,0.001107,0.001423,-0.004524,-0.000396,0.000139,0.006895,-0.508752,0.000911,-0.038954,-264.288744,0.215983,62.219987
7.4566,0.007181,0.00097,0.000562,-0.004507,-0.000374,1.8e-05,0.006895,-0.508752,0.000911,-0.038954,-264.288744,0.215983,62.219987
7.4769,0.006913,0.001488,0.001604,-0.004495,-0.000357,-7e-05,0.007318,-0.509043,0.000575,0.036092,-264.290174,0.140937,62.218546
7.4965,0.00681,0.001276,0.000298,-0.004495,-0.00032,-0.000181,0.00747,-0.508826,0.000999,0.036092,-264.290174,0.140937,62.218546
7.5166,0.006613,0.001526,-1.3e-05,-0.004497,-0.000291,-0.000263,0.006836,-0.508734,0.000296,0.088712,-264.291766,0.069828,62.216957
7.537,0.006272,0.00139,-0.000798,-0.004503,-0.000352,0.000198,0.00662,-0.508497,1.4e-05,0.088712,-264.291766,0.069828,62.216957
7.5569,0.006753,0.001399,-0.000421,-0.004502,-0.000399,0.000531,0.00662,-0.508497,1.4e-05,0.088712,-264.291766,0.069828,62.216957
7.577,0.00616,0.001547,-1.9e-05,-0.004496,-0.000436,0.000773,0.006356,-0.508613,-0.000431,0.100171,-264.293521,0.029119,62.21521
7.5967,0.006194,0.001425,0.001468,-0.004482,-0.000467,0.001104,0.006252,-0.50855,-0.000266,0.100171,-264.293521,0.029119,62.21521
7.6164,0.006347,0.001388,7.6e-05,-0.004466,-0.000491,0.001345,0.006867,-0.508579,0.001473,0.025275,-264.294456,0.104016,62.214256
7.6366,0.006158,0.001259,0.001375,-0.004445,-0.00049,0.001266,0.006425,-0.508609,0.0002,0.025275,-264.294456,0.104016,62.214256
7.6563,0.006058,0.001092,0.000939,-0.004429,-0.000489,0.00121,0.006425,-0.508609,0.0002,0.025275,-264.294456,0.104016,62.214256
7.6763,0.005955,0.001688,-0.000413,-0.004415,-0.000489,0.001168,0.006442,-0.508915,0.000957,-0.04973,-264.295355,0.179021,62.213321
7.6967,0.006123,0.001317,0.001107,-0.004392,-0.000483,0.001034,0.006147,-0.50867,0.000401,-0.04973,-264.295355,0.179021,62.213321
7.7161,0.00553,0.001233,-0.000834,-0.004374,-0.000479,0.000936,0.006563,-0.508696,0.001138,-0.050802,-264.296923,0.254003,62.211698
7.7369,0.005997,0.00147,0.001243,-0.00434,-0.00049,0.001447,0.005226,-0.508761,-0.00066,-0.050802,-264.296923,0.254003,62.211698
7.7568,0.005881,0.001544,0.000479,-0.004305,-0.000499,0.00182,0.005226,-0.508761,-0.00066,-0.050802,-264.296923,0.254003,62.211698
7.7773,0.005688,0.001182,0.000536,-0.004272,-0.000506,0.002092,0.005944,-0.508475,0.000518,-0.021329,-264.298651,0.235684,62.209922
7.7971,0.005415,0.001344,0.001476,-0.004251,-0.000508,0.001642,0.00593,-0.508617,0.00053,-0.021329,-264.298651,0.235684,62.209922
7.8162,0.005715,0.001281,0.003332,-0.004239,-0.000511,0.001314,0.006105,-0.508663,0.001497,-0.096817,-264.299418,0.311172,62.209104
7.8365,0.005277,0.001213,0.001002,-0.00422,-0.000426,7.6e-05,0.00729,-0.508712,0.003164,-0.096817,-264.299418,0.311172,62.209104
7.8567,0.005556,0.001298,0.000796,-0.004221,-0.000363,-0.00086,0.00729,-0.508712,0.003164,-0.096817,-264.299418,0.311172,62.209104
7.8763,0.005467,0.001684,0.000475,-0.004236,-0.000317,-0.001564,0.005786,-0.508724,0.00085,-0.06872,-264.301093,0.300467,62.207354
7.8964,0.005053,0.001229,0.001928,-0.004259,-0.000386,-0.001072,0.005736,-0.508564,0.000708,-0.06872,-264.301093,0.300467,62.207354
7.9161,0.005332,0.001597,0.002008,-0.00427,-0.000439,-0.000726,0.006035,-0.50877,0.001928,0.006276,-264.3011,0.225472,62.207347
7.9365,0.00582,0.001362,0.000962,-0.004272,-0.000466,-0.001086,0.006327,-0.508435,0.002001,0.006276,-264.3011,0.225472,62.207347
7.9566,0.005119,0.001637,0.002157,-0.004277,-0.000489,-0.001351,0.006327,-0.508435,0.002001,0.006276,-264.3011,0.225472,62.207347
7.9771,0.005581,0.001338,0.000671,-0.004284,-0.000508,-0.001548,0.006178,-0.508367,0.002159,0.081307,-264.301506,0.150441,62.206949
7.9967,0.005073,0.001267,0.000992,-0.004293,-0.000529,-0.001503,0.006071,-0.508486,0.001563,0.081307,-264.301506,0.150441,62.206949
8.0163,0.004805,0.001469,0.00198,-0.004299,-0.000545,-0.001474,0.00556,-0.508735,0.000991,0.156274,-264.30175,0.075474,62.206717
8.0368,0.005219,0.001096,0.000883,-0.004287,-0.000549,-0.001594,0.005792,-0.508548,0.001895,0.156274,-264.30175,0.075474,62.206717
8.0565,0.005283,0.001614,0.001362,-0.004279,-0.000553,-0.001682,0.005792,-0.508548,0.001895,0.156274,-264.30175,0.075474,62.206717
8.0769,0.005038,0.001262,0.001617,-0.004274,-0.000557,-0.001747,0.0059,-0.508395,0.001347,0.231387,-264.302522,0.000361,62.205984
8.0968,0.005025,0.001283,0.00023,-0.004283,-0.000567,-0.001602,0.005876,-0.508534,0.001454,0.231387,-264.302522,0.000361,62.205984
8.117,0.005121,0.001335,0.001778,-0.004288,-0.000574,-0.001498,0.00506,-0.508727,0.000204,0.306276,-264.303629,-0.074528,62.204941
8.1369,0.004934,0.001335,-0.000215,-0.00429,-0.000548,-0.001512,0.005947,-0.50867,0.001652,0.306276,-264.303629,-0.074528,62.204941
8.1569,0.005089,0.001376,-0.000273,-0.004293,-0.000528,-0.001522,0.005947,-0.50867,0.001652,0.306276,-264.303629,-0.074528,62.204941
8.1766,0.004751,0.001557,0.000806,-0.004295,-0.000513,-0.00153,0.004774,-0.508648,-0.000334,0.334266,-264.305413,-0.07936,62.203251
8.1964,0.004761,0.001273,0.000495,-0.004273,-0.000572,-0.000756,0.004911,-0.508567,0.000122,0.334266,-264.305413,-0.07936,62.203251
8.2166,0.004576,0.001064,-0.000991,-0.004245,-0.000617,-0.000196,0.004877,-0.508743,0.000446,0.324982,-264.307217,-0.097918,62.201533
8.2367,0.004488,0.001148,0.00083,-0.004171,-0.000598,0.000747,0.004132,-0.508921,-0.000871,0.324982,-264.307217,-0.097918,62.201533
8.2569,0.004527,0.001256,0.000432,-0.004101,-0.000583,0.001438,0.004132,-0.508921,-0.000871,0.324982,-264.307217,-0.097918,62.201533
8.2768,0.004279,0.001603,0.000625,-0.004035,-0.000572,0.001942,0.004689,-0.50875,0.000419,0.249828,-264.307779,-0.022764,62.200975
8.2965,0.004585,0.001104,0.000626,-0.003991,-0.000609,0.001562,0.004646,-0.508609,0.0005,0.249828,-264.307779,-0.022764,62.200975
8.3162,0.004685,0.001107,0.000177,-0.003959,-0.000638,0.001285,0.004903,-0.508896,0.000626,0.174984,-264.307784,0.05208,62.20097
8.3367,0.004654,0.001146,0.000403,-0.003952,-0.000593,0.001239,0.004786,-0.508893,0.000218,0.174984,-264.307784,0.05208,62.20097
8.3571,0.004611,0.001088,-0.000152,-0.003947,-0.000558,0.001204,0.004786,-0.508893,0.000218,0.174984,-264.307784,0.05208,62.20097
8.3766,0.004626,0.000999,0.000232,-0.003944,-0.000531,0.001178,0.004512,-0.508915,-0.000152,0.099979,-264.307975,0.127085,62.200767
8.3962,0.004207,0.001032,0.002951,-0.003933,-0.000504,0.00128,0.004603,-0.508949,1e-06,0.099979,-264.307975,0.127085,62.200767
8.4162,0.004406,0.001561,-0.001248,-0.003924,-0.000482,0.001354,0.005659,-0.508972,0.002959,0.024955,-264.308635,0.202109,62.200076
8.4367,0.004061,0.001174,0.001289,-0.003871,-0.000612,0.001856,0.00394,-0.508488,-0.000863,0.024955,-264.308635,0.202109,62.200076
8.4566,0.004231,0.001107,0.001212,-0.003821,-0.00071,0.002223,0.00394,-0.508488,-0.000863,0.024955,-264.308635,0.202109,62.200076
8.4764,0.003831,0.00145,-0.00057,-0.003776,-0.000784,0.002493,0.004741,-0.508905,0.001242,-0.05004,-264.309656,0.277103,62.199003
8.4964,0.004492,0.001154,0.002294,-0.003736,-0.000746,0.001965,0.004244,-0.508763,0.000513,-0.05004,-264.309656,0.277103,62.199003
8.5161,0.004094,0.001053,0.001955,-0.003709,-0.000718,0.00158,0.005634,-0.508848,0.002305,-0.125059,-264.309992,0.352123,62.198617
8.5368,0.004407,0.001432,0.000915,-0.003728,-0.000606,0.000644,0.005139,-0.508937,0.001987,-0.125059,-264.309992,0.352123,62.198617
8.5566,0.004332,0.001038,0.000585,-0.003757,-0.000524,-5.2e-05,0.005139,-0.508937,0.001987,-0.125059,-264.309992,0.352123,62.198617
8.5767,0.004204,0.001128,0.002558,-0.003789,-0.000463,-0.000567,0.004495,-0.508988,0.000642,-0.066554,-264.311282,0.425807,62.197204
8.5968,0.003777,0.001007,-0.001604,-0.003818,-0.000433,-0.000706,0.00489,-0.508943,0.001424,-0.066554,-264.311282,0.425807,62.197204
8.6165,0.004134,0.001003,0.000499,-0.003843,-0.00041,-0.00081,0.002956,-0.508993,-0.001603,0.008467,-264.311317,0.350787,62.19717
8.6368,0.003986,0.001018,0.00156,-0.003839,-0.00041,-0.000317,0.00426,-0.508997,0.000311,0.008467,-264.311317,0.350787,62.19717
8.6567,0.004173,0.001594,0.0023,-0.003831,-0.000409,3.8e-05,0.00426,-0.508997,0.000311,0.008467,-264.311317,0.350787,62.19717
8.6763,0.003907,0.000922,0.000741,-0.00382,-0.000409,0.000293,0.005338,-0.508406,0.002301,0.083461,-264.311389,0.275793,62.197099
8.6968,0.004233,0.001553,0.002108,-0.003834,-0.000441,-0.000197,0.004907,-0.50868,0.001664,0.083461,-264.311389,0.275793,62.197099
8.7166,0.003759,0.000823,0.000557,-0.00385,-0.000468,-0.000558,0.005214,-0.508459,0.002119,0.060121,-264.312579,0.200728,62.195897
8.7368,0.003545,0.000973,0.000431,-0.003824,-0.000423,-0.000339,0.004141,-0.509115,0.000695,0.060121,-264.312579,0.200728,62.195897
8.7569,0.003949,0.000662,-4.1e-05,-0.003801,-0.000389,-0.000181,0.004141,-0.509115,0.000695,0.060121,-264.312579,0.200728,62.195897
8.7768,0.003601,0.000903,0.001159,-0.003782,-0.000363,-6.9e-05,0.003856,-0.509347,-4.2e-05,0.135154,-264.313286,0.125695,62.195205
8.797,0.003515,0.001247,0.000614,-0.003754,-0.000314,0.00015,0.003983,-0.509247,0.000442,0.135154,-264.313286,0.125695,62.195205
8.8165,0.00355,0.001019,0.000837,-0.00373,-0.000277,0.000308,0.003712,-0.508765,0.000612,0.106685,-264.314748,0.084709,62.193746
8.8366,0.004125,0.000893,8.8e-05,-0.003698,-0.000323,0.000219,0.003948,-0.508962,0.000817,0.106685,-264.314748,0.084709,62.193746
8.857,0.003382,0.001256,0.000492,-0.003674,-0.000358,0.000155,0.003948,-0.508962,0.000817,0.106685,-264.314748,0.084709,62.193746
8.8766,0.003432,0.000813,0.001383,-0.003654,-0.000384,0.000107,0.003497,-0.508755,0.000503,0.031687,-264.31606,0.124182,62.192425
8.8968,0.003059,0.000724,0.000711,-0.003614,-0.000418,4.5e-05,0.00375,-0.508937,0.000873,0.031687,-264.31606,0.124182,62.192425
8.9162,0.003314,0.001344,0.000784,-0.003583,-0.000444,-0.0,0.003312,-0.509287,0.000715,0.087097,-264.317448,0.122436,62.191031
8.9366,0.003231,0.00112,0.001137,-0.003549,-0.000529,7e-06,0.003671,-0.508715,0.000778,0.087097,-264.317448,0.122436,62.191031
8.9566,0.003487,0.001032,-0.000651,-0.003521,-0.000594,1.3e-05,0.003671,-0.508715,0.000778,0.087097,-264.317448,0.122436,62.191031
8.9762,0.00285,0.001013,0.000206,-0.003497,-0.000643,1.8e-05,0.003008,-0.508986,-0.000651,0.123465,-264.318862,0.123399,62.189617
8.9965,0.003147,0.000648,4.1e-05,-0.003401,-0.000637,0.000613,0.002969,-0.508988,-0.000303,0.123465,-264.318862,0.123399,62.189617
9.0161,0.00294,0.001067,0.000712,-0.003319,-0.000632,0.001048,0.003067,-0.50937,4.1e-05,0.178782,-264.320136,0.184931,62.188342
9.0366,0.003162,0.001191,0.000712,-0.003276,-0.000615,0.000851,0.003277,-0.508973,0.000652,0.178782,-264.320136,0.184931,62.188342
9.0568,0.002835,0.001006,0.002378,-0.003244,-0.000603,0.000708,0.003277,-0.508973,0.000652,0.178782,-264.320136,0.184931,62.188342
9.0765,0.003209,0.000837,0.000909,-0.003221,-0.000595,0.000605,0.003998,-0.509002,0.002385,0.103761,-264.320599,0.259952,62.187846
9.0969,0.002628,0.000786,0.000801,-0.003252,-0.000524,6e-06,0.003861,-0.509068,0.001789,0.103761,-264.320599,0.259952,62.187846
9.1167,0.002536,0.001111,0.000503,-0.003284,-0.000473,-0.000435,0.002938,-0.509232,0.00082,0.069838,-264.321853,0.290789,62.18654
9.137,0.002435,0.00093,0.000765,-0.00319,-0.000536,-0.000161,0.002799,-0.508915,0.000527,0.069838,-264.321853,0.290789,62.18654
9.1567,0.002761,0.001112,0.000488,-0.003114,-0.000582,3.8e-05,0.002799,-0.508915,0.000527,0.069838,-264.321853,0.290789,62.18654
9.1771,0.002616,0.001103,0.000718,-0.003052,-0.000618,0.000182,0.002969,-0.508896,0.00049,0.145152,-264.322254,0.215476,62.186148
9.1972,0.002722,0.000799,-0.000586,-0.003029,-0.000643,0.000258,0.00297,-0.508897,0.000582,0.145152,-264.322254,0.215476,62.186148
9.2165,0.002508,0.000928,0.001107,-0.00301,-0.000662,0.000312,0.002327,-0.509221,-0.00058,0.164513,-264.323477,0.234361,62.184908
9.2366,0.001885,0.001132,-0.000466,-0.002991,-0.000612,0.00017,0.003,-0.509086,0.000955,0.164513,-264.323477,0.234361,62.184908
9.2569,0.00234,0.000733,-0.000674,-0.002979,-0.000575,6.6e-05,0.003,-0.509086,0.000955,0.164513,-264.323477,0.234361,62.184908
9.2763,0.002352,0.000942,0.000433,-0.00297,-0.000548,-1e-05,0.001874,-0.509294,-0.000662,0.155119,-264.324662,0.275934,62.183691
9.2963,0.002628,0.00102,0.001177,-0.002821,-0.000523,0.000548,0.002146,-0.5092,-0.000211,0.155119,-264.324662,0.275934,62.183691
9.3163,0.002097,0.000645,0.001225,-0.002701,-0.000506,0.000957,0.003148,-0.508995,0.001179,0.184234,-264.325693,0.200838,62.182661
9.3363,0.002022,0.000844,0.001214,-0.002697,-0.00042,0.000526,0.002754,-0.509325,0.001221,0.184234,-264.325693,0.200838,62.182661
9.3563,0.002041,0.000749,0.001721,-0.0027,-0.000357,0.000211,0.002754,-0.509325,0.001221,0.184234,-264.325693,0.200838,62.182661
9.3766,0.002046,0.000655,0.001537,-0.002706,-0.000311,-2e-05,0.002887,-0.509256,0.001726,0.109203,-264.325996,0.275869,62.182334
9.3967,0.002257,0.000871,0.000952,-0.002726,-0.000276,-0.000381,0.00286,-0.509294,0.001648,0.109203,-264.325996,0.275869,62.182334
9.4166,0.001606,0.000776,0.001876,-0.002747,-0.000251,-0.000645,0.002688,-0.509138,0.000955,0.118692,-264.326693,0.200729,62.181638
9.4369,0.001895,0.00067,0.000579,-0.002716,-0.000263,-0.000904,0.002571,-0.509216,0.001793,0.118692,-264.326693,0.200729,62.181638
9.4569,0.002473,0.000801,0.001017,-0.002695,-0.000274,-0.001093,0.002571,-0.509216,0.001793,0.118692,-264.326693,0.200729,62.181638
9.4766,0.002029,0.000789,0.000281,-0.002681,-0.000283,-0.001231,0.002958,-0.509204,0.001015,0.193439,-264.327021,0.125983,62.181318
9.4967,0.001782,0.00073,-0.000358,-0.002709,-0.000304,-0.000822,0.002637,-0.509208,0.000718,0.193439,-264.327021,0.125983,62.181318
9.5167,0.001921,0.00105,-0.000313,-0.002726,-0.000319,-0.00053,0.001587,-0.509272,-0.00036,0.268451,-264.327185,0.050971,62.181163
9.5366,0.001991,0.000715,0.001064,-0.002567,-0.000445,0.000208,0.001745,-0.508979,-0.000317,0.268451,-264.327185,0.050971,62.181163
9.5569,0.002336,0.000882,0.002603,-0.002436,-0.000539,0.000748,0.001745,-0.508979,-0.000317,0.268451,-264.327185,0.050971,62.181163
9.5768,0.002043,0.000462,-0.000171,-0.002327,-0.00061,0.001142,0.003557,-0.509129,0.002583,0.231472,-264.328233,-0.001639,62.180142
9.5967,0.00195,0.000789,0.00028,-0.002425,-0.000499,0.000556,0.002893,-0.509297,0.001459,0.231472,-264.328233,-0.001639,62.180142
9.6164,0.001943,0.000779,0.001148,-0.002509,-0.000417,0.000126,0.002093,-0.509211,0.00028,0.156488,-264.328237,0.073344,62.180138
9.6365,0.00186,0.001168,0.000741,-0.002525,-0.000398,-1.3e-05,0.002489,-0.50922,0.00107,0.156488,-264.328237,0.073344,62.180138
9.6565,0.001519,0.000295,0.002699,-0.002539,-0.000384,-0.000115,0.002489,-0.50922,0.00107,0.156488,-264.328237,0.073344,62.180138
9.6764,0.001786,0.000676,0.000878,-0.002552,-0.000373,-0.000191,0.002813,-0.509715,0.0027,0.13469,-264.329031,0.148342,62.179336
9.697,0.001686,0.000404,0.000142,-0.002552,-0.000238,-0.000625,0.002567,-0.509557,0.001957,0.13469,-264.329031,0.148342,62.179336
9.717,0.001806,0.000458,-0.000338,-0.00256,-0.000139,-0.000942,0.001684,-0.509607,0.000136,0.189812,-264.329988,0.100185,62.178391
9.737,0.001414,0.000583,0.000594,-0.002411,-0.000101,-6.8e-05,0.001635,-0.509548,-0.0003,0.189812,-264.329988,0.100185,62.178391
9.7567,0.001671,0.00074,0.002546,-0.002289,-7.4e-05,0.000568,0.001635,-0.509548,-0.0003,0.189812,-264.329988,0.100185,62.178391
9.7764,0.00177,0.000807,0.000465,-0.002189,-5.3e-05,0.001029,0.002939,-0.509263,0.00254,0.265065,-264.330282,0.024931,62.178104
9.7964,0.001875,0.000939,0.001679,-0.002273,-0.000101,0.000374,0.002556,-0.509235,0.001694,0.265065,-264.330282,0.024931,62.178104
9.8162,0.001915,0.000884,0.000433,-0.002345,-0.000139,-0.000108,0.002731,-0.50906,0.001679,0.190313,-264.330285,0.099683,62.178101
9.8363,0.001872,0.000846,0.000669,-0.002361,-0.000239,7.7e-05,0.002187,-0.509111,0.000539,0.190313,-264.330285,0.099683,62.178101
9.8562,0.001622,0.000579,0.001511,-0.00237,-0.000314,0.000209,0.002187,-0.509111,0.000539,0.190313,-264.330285,0.099683,62.178101
9.8765,0.00182,0.00069,0.000244,-0.002374,-0.00037,0.000304,0.002316,-0.509426,0.001505,0.115171,-264.331022,0.031112,62.177367
9.8965,0.002289,0.000696,-0.001103,-0.002356,-0.000315,0.000156,0.002155,-0.509379,0.000987,0.115171,-264.331022,0.031112,62.177367
9.9162,0.00163,0.000808,-0.000577,-0.002344,-0.000275,4.7e-05,0.001687,-0.509307,-0.001102,0.077253,-264.331515,0.106081,62.176862
9.9364,0.001669,0.000655,0.000568,-0.002175,-0.000342,0.000789,0.001364,-0.509202,-0.000622,0.077253,-264.331515,0.106081,62.176862
9.9564,0.001574,0.000358,0.000758,-0.002037,-0.000394,0.001333,0.001364,-0.509202,-0.000622,0.077253,-264.331515,0.106081,62.176862
9.9762,0.001404,0.000575,0.001653,-0.001925,-0.000432,0.001731,0.001865,-0.509654,0.00076,0.104494,-264.332437,0.128753,62.175937
9.9964,0.00162,0.000761,0.000819,-0.00195,-0.000295,0.001145,0.00201,-0.509561,0.001125,0.104494,-264.332437,0.128753,62.175937
10.0165,0.00151,0.000446,-0.000163,-0.001978,-0.000195,0.000714,0.002037,-0.509239,0.000819,0.029604,-264.332438,0.203643,62.175936
10.0366,0.001416,0.000449,0.002094,-0.001899,-0.000154,0.001012,0.001478,-0.509527,-7.9e-05,0.029604,-264.332438,0.203643,62.175936
10.0562,0.001374,0.000855,5.5e-05,-0.001837,-0.000123,0.001228,0.001478,-0.509527,-7.9e-05,0.029604,-264.332438,0.203643,62.175936
10.0765,0.001531,0.000969,0.001668,-0.001787,-0.0001,0.001384,0.001353,-0.509151,6.8e-05,-0.04554,-264.332901,0.278788,62.175454
10.0963,0.001434,0.000274,0.000861,-0.001812,-0.000222,0.001053,0.001771,-0.509102,0.000729,-0.04554,-264.332901,0.278788,62.175454
10.1166,0.001205,0.000669,0.000656,-0.001834,-0.000314,0.000811,0.001869,-0.509726,0.000863,-0.120497,-264.332953,0.353744,62.175399
10.1363,0.001323,0.000843,0.002062,-0.001797,-0.000298,0.000674,0.001563,-0.509359,0.000671,-0.120497,-264.332953,0.353744,62.175399
10.1567,0.001702,0.000872,0.001741,-0.00177,-0.000287,0.000573,0.001563,-0.509359,0.000671,-0.120497,-264.332953,0.353744,62.175399
10.1762,0.001144,0.000571,0.00042,-0.001751,-0.000279,0.000501,0.002519,-0.50914,0.001772,-0.098426,-264.333636,0.415995,62.174657
10.1962,0.001273,0.000532,0.001135,-0.001839,-0.000288,0.000182,0.002036,-0.50926,0.001223,-0.098426,-264.333636,0.415995,62.174657
10.2163,0.001247,0.000905,0.001287,-0.001911,-0.000295,-5.1e-05,0.001809,-0.509475,0.001148,-0.02396,-264.33418,0.341529,62.174083
10.2363,0.000996,0.000609,-0.000358,-0.001938,-0.000351,-0.000255,0.001893,-0.50913,0.001275,-0.02396,-264.33418,0.341529,62.174083
10.2564,0.001203,0.000704,-0.000439,-0.001961,-0.000393,-0.000404,0.001893,-0.50913,0.001275,-0.02396,-264.33418,0.341529,62.174083
10.2766,0.001213,0.000664,-0.000276,-0.001981,-0.000426,-0.000512,0.000957,-0.509299,-0.000435,0.051013,-264.334398,0.266556,62.173867
10.2961,0.001304,0.000575,0.001267,-0.001778,-0.00042,0.000251,0.001002,-0.509315,-0.000369,0.051013,-264.334398,0.266556,62.173867
10.3163,0.000882,0.000801,0.00105,-0.001616,-0.000418,0.000809,0.001943,-0.509426,0.001268,0.126118,-264.334488,0.191451,62.173781
10.3365,0.00106,0.000896,0.000454,-0.001597,-0.000428,0.000471,0.001463,-0.509219,0.001069,0.126118,-264.334488,0.191451,62.173781
10.3567,0.001054,0.000585,0.000995,-0.001585,-0.000438,0.000225,0.001463,-0.509219,0.001069,0.126118,-264.334488,0.191451,62.173781
10.3765,0.001033,0.000804,0.000275,-0.001578,-0.000446,4.5e-05,0.001553,-0.509416,0.000996,0.051143,-264.334562,0.266426,62.173697
10.3966,0.001215,0.000527,0.00176,0.0,0.0,0.0,0.001397,-0.509327,0.000702,0.051143,-264.334562,0.266426,62.173697
