mach0312/omni-docking-bench/src/icros_test_setup/results/MPPI_sample/timeseries/trial_083.csv
t,x,y,yaw,vx,vy,wz,bl_x,bl_y,bl_yaw,front_steering_joint,front_wheel_joint,rear_steering_joint,rear_wheel_joint
0.0,0.041003,0.018097,-0.029673,0.000846,0.001072,-0.002062,0.025289,-0.49315,-0.029145,-0.217491,-260.746548,1.222786,66.478811
0.0004,0.040574,0.018252,-0.029522,0.0,0.0,0.0,0.025289,-0.49315,-0.029145,-0.217491,-260.744502,1.222786,66.484668
0.0008,0.040935,0.017773,-0.031127,0.0,0.0,0.0,0.026172,-0.492129,-0.027612,-0.217491,-260.742952,1.222786,66.489108
0.0011,0.041292,0.017831,-0.028294,0.0,0.0,0.0,0.026172,-0.492129,-0.027612,-0.217491,-260.742277,1.222786,66.491039
0.0015,0.041216,0.017508,-0.030354,0.0,0.0,0.0,0.026172,-0.492129,-0.027612,-0.217491,-260.742277,1.222786,66.491039
0.0018,0.041288,0.017937,-0.030265,0.0,0.0,0.0,0.026146,-0.492009,-0.028584,-0.217491,-260.742277,1.222786,66.491039
0.002,0.041181,0.018108,-0.030102,0.0,0.0,0.0,0.026181,-0.491886,-0.028697,-0.217491,-260.742277,1.222786,66.491039
0.0023,0.041008,0.017928,-0.029992,0.0,0.0,0.0,0.026181,-0.491886,-0.028697,-0.217491,-260.742277,1.222786,66.491039
0.0026,0.041419,0.018021,-0.028289,0.0,0.0,0.0,0.025952,-0.491845,-0.029952,-0.217491,-260.742277,1.222786,66.491039
0.0169,0.041419,0.018473,-0.03104,0.0,0.0,0.0,0.026993,-0.491775,-0.028289,-0.217491,-260.742277,1.222786,66.491039
0.0371,0.041167,0.01818,-0.029717,0.0,0.0,0.0,0.025715,-0.491325,-0.030798,-0.217491,-260.742277,1.222786,66.491039
0.0567,0.041366,0.018339,-0.029407,0.0,0.0,0.0,0.025715,-0.491325,-0.030798,-0.217491,-260.742277,1.222786,66.491039
0.0768,0.041516,0.018285,-0.029531,0.0,0.0,0.0,0.026371,-0.49144,-0.029407,-0.217491,-260.742277,1.222786,66.491039
0.0969,0.041305,0.017909,-0.030696,0.0,0.0,0.0,0.026407,-0.491462,-0.029458,-0.217491,-260.742277,1.222786,66.491039
0.1168,0.041556,0.018047,-0.02785,-0.002233,-0.004505,0.007374,0.025652,-0.491851,-0.030696,-0.217491,-260.742277,1.222786,66.491039
0.1365,0.040967,0.017787,-0.028467,-0.002501,-0.004912,0.008086,0.027194,-0.491764,-0.028119,-0.217491,-260.742277,1.222786,66.491039
0.1566,0.041617,0.018477,-0.02939,-0.002738,-0.005264,0.008623,0.027194,-0.491764,-0.028119,-0.217491,-260.742277,1.222786,66.491039
0.1765,0.041112,0.018445,-0.030077,-0.002947,-0.005567,0.009026,0.02659,-0.491372,-0.029267,-0.142541,-260.742624,1.297736,66.489596
0.1966,0.040961,0.018146,-0.029764,-0.00311,-0.00585,0.009524,0.02625,-0.491361,-0.029586,-0.142541,-260.742624,1.297736,66.489596
0.2166,0.041233,0.017718,-0.029592,-0.003256,-0.006094,0.009899,0.025719,-0.49174,-0.029571,-0.067495,-260.7434,1.31085,66.48658
0.237,0.040745,0.017939,-0.029095,-0.003399,-0.006292,0.010374,0.026101,-0.492036,-0.029581,-0.067495,-260.7434,1.31085,66.48658
0.2565,0.040615,0.017948,-0.028883,-0.003526,-0.006462,0.010735,0.026101,-0.492036,-0.029581,-0.067495,-260.7434,1.31085,66.48658
0.2767,0.040691,0.017735,-0.026926,-0.003638,-0.006609,0.011008,0.025758,-0.492064,-0.028511,0.007461,-260.744569,1.308734,66.482069
0.2966,0.040266,0.017527,-0.027962,-0.003741,-0.006731,0.011348,0.026232,-0.492097,-0.027823,0.007461,-260.744569,1.308734,66.482069
0.3163,0.039991,0.017384,-0.026457,-0.003833,-0.006836,0.011606,0.025888,-0.492476,-0.027619,-0.031366,-260.745989,1.30445,66.476673
0.337,0.040184,0.01745,-0.025508,-0.003926,-0.006913,0.011994,0.02644,-0.492451,-0.026542,-0.031366,-260.745989,1.30445,66.476673
0.3566,0.040251,0.017406,-0.030037,-0.004007,-0.00698,0.012291,0.02644,-0.492451,-0.026542,-0.031366,-260.745989,1.30445,66.476673
0.3766,0.039573,0.017479,-0.028099,-0.004078,-0.007038,0.012518,0.024769,-0.492639,-0.029561,-0.065766,-260.747496,1.302214,66.471006
0.3965,0.039115,0.016734,-0.028493,-0.004121,-0.00711,0.012799,0.024945,-0.49254,-0.028908,-0.065766,-260.747496,1.302214,66.471006
0.4165,0.039266,0.016798,-0.027282,-0.004159,-0.007171,0.013017,0.024464,-0.493257,-0.028136,-0.140724,-260.748978,1.299878,66.465532
0.4366,0.038702,0.016636,-0.027638,-0.004211,-0.007206,0.013259,0.02527,-0.493044,-0.027339,-0.140724,-260.748978,1.299878,66.465532
0.4565,0.038702,0.01682,-0.02538,-0.004256,-0.007236,0.013446,0.02527,-0.493044,-0.027339,-0.140724,-260.748978,1.299878,66.465532
0.4766,0.038697,0.01641,-0.026095,-0.004296,-0.007262,0.013591,0.025584,-0.493302,-0.024853,-0.185145,-260.75062,1.302388,66.459446
0.4963,0.038549,0.015971,-0.025807,-0.004343,-0.007272,0.013784,0.025484,-0.493382,-0.025303,-0.185145,-260.75062,1.302388,66.459446
0.5168,0.038205,0.015775,-0.025431,-0.004384,-0.00728,0.013933,0.025253,-0.494077,-0.025393,-0.237222,-260.752313,1.301451,66.453261
0.5365,0.038088,0.015676,-0.025279,-0.004431,-0.007275,0.014127,0.025231,-0.494073,-0.025405,-0.237222,-260.752313,1.301451,66.453261
0.5567,0.037833,0.015726,-0.025264,-0.004471,-0.007271,0.014279,0.025231,-0.494073,-0.025405,-0.237222,-260.752313,1.301451,66.453261
0.5769,0.037725,0.015626,-0.02453,-0.004505,-0.007268,0.014397,0.024763,-0.494404,-0.024693,-0.273349,-260.754096,1.299971,66.446845
0.5965,0.037478,0.015589,-0.024544,-0.004537,-0.007262,0.014565,0.024925,-0.494364,-0.024561,-0.273349,-260.754096,1.299971,66.446845
0.6162,0.036963,0.015296,-0.026643,-0.004565,-0.007257,0.014696,0.024819,-0.494475,-0.024105,-0.326422,-260.755915,1.297332,66.440465
0.6365,0.037049,0.015252,-0.024386,-0.004572,-0.007272,0.014865,0.023493,-0.49453,-0.026405,-0.326422,-260.755915,1.297332,66.440465
0.6564,0.036909,0.015264,-0.022354,-0.004579,-0.007285,0.014999,0.023493,-0.49453,-0.026405,-0.326422,-260.755915,1.297332,66.440465
0.6765,0.036321,0.014966,-0.024507,-0.004585,-0.007295,0.015104,0.025316,-0.494902,-0.021751,-0.360065,-260.757828,1.296639,66.433852
0.6965,0.036187,0.015211,-0.023319,-0.00462,-0.007274,0.015241,0.024684,-0.494928,-0.022807,-0.360065,-260.757828,1.296639,66.433852
0.7163,0.03548,0.014972,-0.022105,-0.004649,-0.007256,0.015349,0.024148,-0.494873,-0.02285,-0.398345,-260.759771,1.300072,66.427156
0.7366,0.03579,0.014458,-0.024212,-0.004667,-0.007248,0.01547,0.024195,-0.494912,-0.022147,-0.398345,-260.759771,1.300072,66.427156
0.7567,0.035464,0.01456,-0.023714,-0.004683,-0.007242,0.015567,0.024195,-0.494912,-0.022147,-0.398345,-260.759771,1.300072,66.427156
0.7766,0.035234,0.014017,-0.022924,-0.004696,-0.007237,0.015643,0.023172,-0.495592,-0.023079,-0.427551,-260.761786,1.298201,66.420343
0.7967,0.035151,0.01438,-0.02415,-0.004713,-0.007226,0.015731,0.023299,-0.495729,-0.022944,-0.427551,-260.761786,1.298201,66.420343
0.8168,0.03417,0.014,-0.021239,-0.004726,-0.007216,0.015801,0.022682,-0.495696,-0.023657,-0.458362,-260.763849,1.298113,66.413474
0.8363,0.034375,0.013889,-0.023267,-0.004743,-0.007204,0.015875,0.02327,-0.495879,-0.021437,-0.458362,-260.763849,1.298113,66.413474
0.8564,0.034192,0.01403,-0.021248,-0.004757,-0.007194,0.015934,0.02327,-0.495879,-0.021437,-0.458362,-260.763849,1.298113,66.413474
0.8762,0.033917,0.013483,-0.020993,-0.004768,-0.007186,0.015981,0.023153,-0.496152,-0.02059,-0.475619,-260.76597,1.297572,66.406486
0.8966,0.03352,0.013625,-0.020282,-0.004787,-0.00717,0.016035,0.023154,-0.49629,-0.02068,-0.475619,-260.76597,1.297572,66.406486
0.9164,0.032946,0.013307,-0.021056,-0.004802,-0.007156,0.016078,0.023022,-0.496494,-0.019777,-0.495043,-260.768125,1.296526,66.399487
0.9367,0.032894,0.013237,-0.019805,-0.004809,-0.00715,0.016132,0.022269,-0.496583,-0.020924,-0.495043,-260.768125,1.296526,66.399487
0.9565,0.033198,0.013058,-0.018704,-0.004815,-0.007146,0.016174,0.022269,-0.496583,-0.020924,-0.495043,-260.768125,1.296526,66.399487
0.9764,0.032532,0.012819,-0.019427,-0.00482,-0.007142,0.016207,0.023455,-0.497147,-0.018035,-0.50649,-260.770317,1.295143,66.392444
0.9965,0.032622,0.01256,-0.017541,-0.004853,-0.00711,0.016239,0.023087,-0.497156,-0.018533,-0.50649,-260.770317,1.295143,66.392444
1.0162,0.031528,0.01273,-0.016924,-0.004879,-0.007082,0.016263,0.02352,-0.497585,-0.017028,-0.519505,-260.77253,1.295172,66.385385
1.0363,0.031686,0.012661,-0.018227,-0.004908,-0.007063,0.016271,0.022943,-0.497241,-0.016907,-0.519505,-260.77253,1.295172,66.385385
1.0565,0.031929,0.012491,-0.018302,-0.004932,-0.007047,0.016278,0.022943,-0.497241,-0.016907,-0.519505,-260.77253,1.295172,66.385385
1.0772,0.030966,0.011973,-0.017594,-0.004951,-0.007033,0.016283,0.022387,-0.497715,-0.017624,-0.528698,-260.774787,1.291524,66.378313
1.0967,0.030944,0.012049,-0.017443,-0.004969,-0.007012,0.01631,0.022202,-0.497844,-0.017532,-0.528698,-260.774787,1.291524,66.378313
1.1166,0.030355,0.011852,-0.017494,-0.004983,-0.006994,0.016332,0.021888,-0.498094,-0.016927,-0.531756,-260.777084,1.287048,66.371243
1.1366,0.030361,0.011694,-0.015978,-0.004991,-0.006985,0.016356,0.021465,-0.498083,-0.017419,-0.531756,-260.777084,1.287048,66.371243
1.1566,0.030591,0.011945,-0.017042,-0.004998,-0.006976,0.016376,0.021465,-0.498083,-0.017419,-0.531756,-260.777084,1.287048,66.371243
1.1768,0.029823,0.011286,-0.016081,-0.005004,-0.00697,0.016391,0.021688,-0.498269,-0.01636,-0.539073,-260.779404,1.285187,66.364176
1.1966,0.029952,0.011696,-0.015114,-0.005026,-0.006953,0.016381,0.021636,-0.498459,-0.016166,-0.539073,-260.779404,1.285187,66.364176
1.2167,0.029338,0.011188,-0.014316,-0.005044,-0.006939,0.016374,0.022082,-0.498465,-0.014594,-0.546117,-260.781743,1.284235,66.357103
1.237,0.029302,0.011237,-0.015695,-0.005078,-0.006924,0.01629,0.022033,-0.498745,-0.014314,-0.546117,-260.781743,1.284235,66.357103
1.2567,0.029136,0.011119,-0.016293,-0.005106,-0.006909,0.016228,0.022033,-0.498745,-0.014314,-0.546117,-260.781743,1.284235,66.357103
1.2765,0.028548,0.010698,-0.016488,-0.005129,-0.006896,0.016183,0.020611,-0.4991,-0.015609,-0.545551,-260.784104,1.2814,66.350031
1.2966,0.028596,0.01103,-0.012396,-0.005132,-0.006884,0.016225,0.020391,-0.499188,-0.015893,-0.545551,-260.784104,1.2814,66.350031
1.3167,0.028007,0.010411,-0.01289,-0.005134,-0.006875,0.016259,0.02211,-0.499147,-0.011885,-0.527454,-260.786464,1.274155,66.343054
1.3366,0.02759,0.010411,-0.013872,-0.005166,-0.006859,0.016095,0.021486,-0.499522,-0.012773,-0.527454,-260.786464,1.274155,66.343054
1.3564,0.027728,0.010355,-0.013329,-0.005193,-0.006842,0.015976,0.021486,-0.499522,-0.012773,-0.527454,-260.786464,1.274155,66.343054
1.3764,0.027333,0.0099,-0.011697,-0.005214,-0.006826,0.015891,0.020713,-0.499884,-0.012651,-0.536799,-260.78885,1.274307,66.336037
1.3964,0.027486,0.010278,-0.014108,-0.005238,-0.006806,0.015771,0.020956,-0.499991,-0.01218,-0.536799,-260.78885,1.274307,66.336037
1.4166,0.026209,0.010219,-0.011172,-0.005258,-0.006787,0.015685,0.020125,-0.499882,-0.013612,-0.504461,-260.791186,1.265256,66.329238
1.4363,0.026664,0.00973,-0.010834,-0.005264,-0.006791,0.015524,0.020468,-0.499772,-0.011367,-0.504461,-260.791186,1.265256,66.329238
1.4567,0.026452,0.010006,-0.010953,-0.005269,-0.006791,0.015411,0.020468,-0.499772,-0.011367,-0.504461,-260.791186,1.265256,66.329238
1.4772,0.025689,0.009626,-0.009953,-0.005273,-0.006788,0.015333,0.020643,-0.500244,-0.010299,-0.488267,-260.793556,1.259965,66.322395
1.4964,0.02575,0.009645,-0.010559,-0.005294,-0.006767,0.015083,0.020605,-0.500319,-0.010084,-0.488267,-260.793556,1.259965,66.322395
1.5161,0.025121,0.009112,-0.00991,-0.005311,-0.006746,0.014913,0.020199,-0.500537,-0.01008,-0.454472,-260.795863,1.255254,66.315715
1.5364,0.025011,0.009328,-0.012248,-0.005333,-0.006714,0.014763,0.02007,-0.500846,-0.009901,-0.454472,-260.795863,1.255254,66.315715
1.5565,0.025421,0.009251,-0.01013,-0.00535,-0.006686,0.014662,0.02007,-0.500846,-0.009901,-0.454472,-260.795863,1.255254,66.315715
1.5764,0.024219,0.008945,-0.009441,-0.005365,-0.00666,0.014594,0.020035,-0.500997,-0.009521,-0.418514,-260.798136,1.247568,66.309177
1.5969,0.02459,0.008876,-0.008333,-0.005379,-0.006636,0.014458,0.019752,-0.501043,-0.009418,-0.418514,-260.798136,1.247568,66.309177
1.6162,0.023614,0.008705,-0.009551,-0.00539,-0.006615,0.014366,0.020168,-0.501316,-0.00787,-0.397636,-260.800448,1.239038,66.302633
1.6363,0.023944,0.00858,-0.011204,-0.005396,-0.006601,0.014293,0.018857,-0.501286,-0.009384,-0.397636,-260.800448,1.239038,66.302633
1.6569,0.023915,0.008831,-0.008939,-0.0054,-0.006588,0.014245,0.018857,-0.501286,-0.009384,-0.397636,-260.800448,1.239038,66.302633
1.6764,0.023199,0.007912,-0.009065,-0.005404,-0.006577,0.014214,0.019129,-0.501423,-0.008339,-0.38108,-260.802761,1.233893,66.296139
1.6968,0.023647,0.008402,-0.007191,-0.005418,-0.006549,0.014023,0.018879,-0.501715,-0.008564,-0.38108,-260.802761,1.233893,66.296139
1.7167,0.022364,0.00832,-0.008234,-0.00543,-0.006524,0.013894,0.019807,-0.501793,-0.006739,-0.371383,-260.805085,1.230419,66.289651
1.737,0.022342,0.007726,-0.007595,-0.005432,-0.006514,0.013695,0.01828,-0.501681,-0.008103,-0.371383,-260.805085,1.230419,66.289651
1.757,0.022803,0.007571,-0.008414,-0.005433,-0.006503,0.013562,0.01828,-0.501681,-0.008103,-0.371383,-260.805085,1.230419,66.289651
1.7771,0.021748,0.00763,-0.006837,-0.005435,-0.006492,0.013474,0.018286,-0.502678,-0.007841,-0.346701,-260.807357,1.223657,66.283369
1.7975,0.021942,0.00792,-0.007613,-0.005461,-0.006444,0.013233,0.01825,-0.502581,-0.007373,-0.346701,-260.807357,1.223657,66.283369
1.8164,0.021334,0.007362,-0.006432,-0.005482,-0.0064,0.013072,0.017889,-0.502267,-0.007193,-0.309372,-260.809599,1.217161,66.277202
1.8368,0.021284,0.007303,-0.006291,-0.005498,-0.006371,0.012706,0.018032,-0.502608,-0.006474,-0.309372,-260.809599,1.217161,66.277202
1.8566,0.021399,0.007512,-0.005825,-0.005511,-0.00634,0.012463,0.018032,-0.502608,-0.006474,-0.309372,-260.809599,1.217161,66.277202
1.8767,0.020647,0.007012,-0.005393,-0.005521,-0.006311,0.012303,0.018202,-0.50274,-0.00529,-0.281241,-260.811841,1.206665,66.271156
1.8968,0.020756,0.007402,-0.005028,-0.005534,-0.006284,0.0118,0.01805,-0.50287,-0.00527,-0.281241,-260.811841,1.206665,66.271156
1.9171,0.019897,0.006781,-0.005563,-0.005546,-0.006253,0.011469,0.018028,-0.502778,-0.004664,-0.214593,-260.813935,1.190834,66.26564
1.9367,0.020565,0.007039,-0.004188,-0.005556,-0.00622,0.011314,0.017137,-0.503182,-0.005466,-0.214593,-260.813935,1.190834,66.26564
1.9568,0.020386,0.006762,-0.005245,-0.005564,-0.00619,0.011214,0.017137,-0.503182,-0.005466,-0.214593,-260.813935,1.190834,66.26564
1.9769,0.019992,0.006343,-0.004059,-0.00557,-0.006162,0.011152,0.017501,-0.503465,-0.004812,-0.139654,-260.815951,1.17463,66.260463
1.9967,0.019878,0.006181,-0.004682,-0.005587,-0.006122,0.010745,0.01765,-0.503569,-0.004453,-0.139654,-260.815951,1.17463,66.260463
2.0167,0.019449,0.005756,-0.002678,-0.005602,-0.006082,0.010475,0.017315,-0.504006,-0.004332,-0.116013,-260.818181,1.165254,66.254848
2.0373,0.018864,0.006121,-0.003891,-0.005624,-0.006037,0.009554,0.01802,-0.504233,-0.002784,-0.116013,-260.818181,1.165254,66.254848
2.0565,0.019142,0.006051,-0.00294,-0.005647,-0.005984,0.008945,0.01802,-0.504233,-0.002784,-0.116013,-260.818181,1.165254,66.254848
2.0763,0.018614,0.005684,-0.002306,-0.005666,-0.00593,0.00855,0.017424,-0.504185,-0.00253,-0.056202,-260.820277,1.14887,66.249738
2.0965,0.018622,0.00598,-0.002175,-0.005676,-0.005893,0.008092,0.017404,-0.504265,-0.002392,-0.056202,-260.820277,1.14887,66.249738
2.1166,0.018487,0.005336,-0.004164,-0.005686,-0.005855,0.007796,0.017409,-0.504121,-0.00201,0.01828,-260.82158,1.100688,66.246884
2.1367,0.018127,0.005576,-0.004012,-0.005699,-0.00579,0.008289,0.016458,-0.504614,-0.003948,0.01828,-260.82158,1.100688,66.246884
2.1563,0.01849,0.005651,-0.000154,-0.005709,-0.005741,0.00863,0.016458,-0.504614,-0.003948,0.01828,-260.82158,1.100688,66.246884
2.1765,0.018168,0.005677,-0.003026,-0.005716,-0.005704,0.008865,0.018263,-0.504493,5.9e-05,0.093252,-260.823011,1.079089,66.243906
2.1969,0.017981,0.005658,-0.004349,-0.00571,-0.005726,0.007627,0.017584,-0.50444,-0.001162,0.093252,-260.823011,1.079089,66.243906
2.2161,0.017557,0.004949,-0.001155,-0.005708,-0.005726,0.006783,0.015585,-0.504512,-0.004076,0.050654,-260.825226,1.095914,66.239069
2.2366,0.01758,0.005046,-0.001634,-0.00572,-0.005686,0.006351,0.016837,-0.505012,-0.001399,0.050654,-260.825226,1.095914,66.239069
2.2563,0.017593,0.005002,-0.001728,-0.00573,-0.005646,0.006065,0.016837,-0.505012,-0.001399,0.050654,-260.825226,1.095914,66.239069
2.2764,0.017141,0.005106,-0.002127,-0.005738,-0.005608,0.005879,0.016604,-0.505095,-0.001591,0.125714,-260.82627,1.046401,66.237059
2.2963,0.01715,0.005207,-0.001937,-0.005743,-0.005571,0.005973,0.016368,-0.505023,-0.001794,0.125714,-260.82627,1.046401,66.237059
2.3165,0.017201,0.004986,-0.000968,-0.005747,-0.005541,0.00604,0.016074,-0.504871,-0.001838,0.200706,-260.827427,1.013082,66.234998
2.3364,0.017296,0.004886,-0.002616,-0.005747,-0.00553,0.005652,0.016646,-0.505005,-0.001041,0.200706,-260.827427,1.013082,66.234998
2.3563,0.01713,0.004992,-9.9e-05,-0.005746,-0.005516,0.005386,0.016646,-0.505005,-0.001041,0.200706,-260.827427,1.013082,66.234998
2.3764,0.016779,0.004902,-0.002078,-0.005746,-0.005501,0.005204,0.016882,-0.505194,0.000113,0.275814,-260.829408,1.013879,66.231429
2.3967,0.016936,0.004691,-0.002626,-0.005747,-0.005486,0.00492,0.016377,-0.505176,-0.000771,0.275814,-260.829408,1.013879,66.231429
2.4169,0.016505,0.004746,-0.002478,-0.005747,-0.005469,0.004725,0.015446,-0.505447,-0.002487,0.350826,-260.83144,0.986002,66.228017
2.437,0.016571,0.004466,-0.000699,-0.005746,-0.005436,0.005498,0.015252,-0.505276,-0.002472,0.350826,-260.83144,0.986002,66.228017
2.4565,0.016599,0.004363,-0.003047,-0.005746,-0.005417,0.006027,0.015252,-0.505276,-0.002472,0.350826,-260.83144,0.986002,66.228017
2.4763,0.01622,0.004392,-0.000317,-0.005744,-0.005408,0.006389,0.014825,-0.505842,-0.002867,0.422492,-260.833745,0.968249,66.224308
2.4967,0.015946,0.004257,-0.001416,-0.005755,-0.005381,0.006293,0.015309,-0.50577,-0.001793,0.422492,-260.833745,0.968249,66.224308
2.5164,0.015731,0.004147,0.000312,-0.005763,-0.005359,0.006225,0.015113,-0.505853,-0.001299,0.347661,-260.835208,1.017946,66.221613
2.5363,0.015646,0.003917,-0.001057,-0.005762,-0.005375,0.005058,0.015815,-0.505859,0.000173,0.347661,-260.835208,1.017946,66.221613
2.5565,0.015686,0.003981,-0.001704,-0.005764,-0.005374,0.004245,0.015815,-0.505859,0.000173,0.347661,-260.835208,1.017946,66.221613
2.5767,0.015336,0.004106,-0.001525,-0.005766,-0.005362,0.003685,0.014602,-0.506219,-0.001474,0.272747,-260.837342,1.00926,66.217744
2.5968,0.015576,0.0035,-0.00187,-0.005775,-0.00531,0.004247,0.014559,-0.506108,-0.001468,0.272747,-260.837342,1.00926,66.217744
2.6166,0.015206,0.003996,0.000302,-0.00578,-0.005273,0.004635,0.014547,-0.506562,-0.001813,0.347838,-260.83839,0.934169,66.216217
2.6365,0.015095,0.003618,-0.000573,-0.005778,-0.005277,0.00398,0.015286,-0.506055,0.000123,0.347838,-260.83839,0.934169,66.216217
2.6567,0.014886,0.003929,-0.000425,-0.005777,-0.00527,0.003528,0.015286,-0.506055,0.000123,0.347838,-260.83839,0.934169,66.216217
2.6762,0.01469,0.003466,-0.000777,-0.005776,-0.005259,0.003217,0.014439,-0.506281,-0.000241,0.399761,-260.840778,0.951217,66.212428
2.6962,0.015124,0.003608,-0.001688,-0.005783,-0.005221,0.003335,0.014354,-0.506409,-0.000438,0.399761,-260.840778,0.951217,66.212428
2.7164,0.014716,0.00344,-0.002012,-0.005787,-0.005191,0.003418,0.014121,-0.506515,-0.001605,0.474628,-260.842801,0.896305,66.209614
2.7363,0.014601,0.003222,0.000306,-0.005794,-0.00514,0.004313,0.013721,-0.506562,-0.001971,0.474628,-260.842801,0.896305,66.209614
2.7565,0.014468,0.003579,-0.002531,-0.005799,-0.005107,0.00493,0.013721,-0.506562,-0.001971,0.474628,-260.842801,0.896305,66.209614
2.7763,0.014232,0.003337,-0.000193,-0.005802,-0.005086,0.005352,0.012936,-0.506635,-0.002388,0.492232,-260.845414,0.899023,66.205915
2.7964,0.013873,0.002797,-0.000365,-0.005804,-0.005078,0.005383,0.013397,-0.506672,-0.001475,0.492232,-260.845414,0.899023,66.205915
2.8163,0.013879,0.002904,-0.001044,-0.005804,-0.005071,0.005402,0.013592,-0.507294,-0.000284,0.41725,-260.846696,0.963834,66.203769
2.8367,0.013957,0.002542,0.000845,-0.005814,-0.005042,0.005128,0.013363,-0.507118,-0.000972,0.41725,-260.846696,0.963834,66.203769
2.8566,0.014008,0.002794,-0.001882,-0.005822,-0.005015,0.00494,0.013363,-0.507118,-0.000972,0.41725,-260.846696,0.963834,66.203769
2.8766,0.013721,0.002553,0.000114,-0.005827,-0.004991,0.00481,0.012857,-0.507378,-0.00171,0.342204,-260.848619,0.964471,66.200542
2.8969,0.013682,0.002938,0.000112,-0.005838,-0.004947,0.004706,0.013213,-0.507426,-0.000943,0.342204,-260.848619,0.964471,66.200542
2.9166,0.013474,0.002826,-0.000193,-0.005846,-0.00491,0.004635,0.013557,-0.507219,0.000264,0.338713,-260.851058,0.937009,66.196657
2.9366,0.013379,0.002262,0.002078,-0.00584,-0.004914,0.004115,0.013382,-0.507185,-0.000146,0.338713,-260.851058,0.937009,66.196657
2.9567,0.01302,0.002543,0.001317,-0.005837,-0.004911,0.003758,0.013382,-0.507185,-0.000146,0.338713,-260.851058,0.937009,66.196657
2.9769,0.012663,0.0021,0.001176,-0.005834,-0.004903,0.003515,0.013449,-0.507661,0.00151,0.34169,-260.853534,0.923976,66.192787
2.9963,0.012498,0.002038,-0.000181,-0.005836,-0.004889,0.002568,0.013344,-0.507783,0.001396,0.34169,-260.853534,0.923976,66.192787
3.0165,0.012599,0.002081,0.001291,-0.005839,-0.004866,0.001907,0.012252,-0.508089,-8.6e-05,0.416702,-260.855667,0.879476,66.189761
3.0363,0.012413,0.002062,0.000589,-0.005847,-0.004819,0.001549,0.013164,-0.507939,0.001179,0.416702,-260.855667,0.879476,66.189761
3.0565,0.012318,0.002277,0.001256,-0.005852,-0.004776,0.001304,0.013164,-0.507939,0.001179,0.416702,-260.855667,0.879476,66.189761
3.0767,0.012385,0.002154,0.001823,-0.005856,-0.004737,0.001139,0.0128,-0.507847,0.001316,0.491757,-260.857427,0.80442,66.187624
3.0964,0.012476,0.002067,-0.00021,-0.005854,-0.00472,0.000862,0.012992,-0.507861,0.00153,0.491757,-260.857427,0.80442,66.187624
3.1167,0.011827,0.001559,0.000715,-0.005852,-0.004702,0.000672,0.012222,-0.508047,-0.000177,0.566665,-260.859641,0.747853,66.185139
3.1365,0.011819,0.001919,0.001164,-0.005865,-0.004618,0.000992,0.012187,-0.508413,0.000643,0.566665,-260.859641,0.747853,66.185139
3.1565,0.011991,0.002085,0.000591,-0.005874,-0.004552,0.001212,0.012187,-0.508413,0.000643,0.566665,-260.859641,0.747853,66.185139
3.1766,0.011483,0.001458,0.002212,-0.005879,-0.004502,0.001363,0.012068,-0.508096,0.000617,0.632776,-260.862303,0.718086,66.182288
3.1963,0.011968,0.001533,0.000264,-0.005875,-0.004489,0.001143,0.012263,-0.508298,0.001269,0.632776,-260.862303,0.718086,66.182288
3.2167,0.011276,0.001045,0.001161,-0.005872,-0.004475,0.00099,0.011933,-0.508598,0.000304,0.55796,-260.864823,0.736856,66.179402
3.2375,0.011251,0.001171,-0.000319,-0.005881,-0.004399,0.000978,0.011865,-0.508929,0.001084,0.55796,-260.864823,0.736856,66.179402
3.2572,0.011621,0.001384,0.002006,-0.005887,-0.004337,0.00097,0.011865,-0.508929,0.001084,0.55796,-260.864823,0.736856,66.179402
3.2765,0.010846,0.001664,0.001919,-0.00589,-0.004286,0.000964,0.012403,-0.508799,0.002047,0.582772,-260.867583,0.713166,66.176354
3.2971,0.011004,0.00086,0.0022,-0.00588,-0.004297,0.000543,0.012139,-0.508631,0.001999,0.582772,-260.867583,0.713166,66.176354
3.3167,0.010732,0.000604,0.000517,-0.005872,-0.004299,0.000252,0.011941,-0.509274,0.00223,0.560581,-260.870322,0.691344,66.173343
3.3367,0.010705,0.000789,0.002006,-0.005886,-0.004189,0.000699,0.011072,-0.509392,0.000673,0.560581,-260.870322,0.691344,66.173343
3.3567,0.010963,0.001063,0.001784,-0.005893,-0.004104,0.001002,0.011072,-0.509392,0.000673,0.560581,-260.870322,0.691344,66.173343
3.3766,0.010566,0.00029,0.000881,-0.005897,-0.00404,0.001207,0.011644,-0.509104,0.001793,0.614662,-260.872988,0.648818,66.17061
3.3968,0.010399,0.000463,0.001405,-0.005893,-0.004012,0.000958,0.011363,-0.509369,0.001424,0.614662,-260.872988,0.648818,66.17061
3.4168,0.01029,0.000306,0.002488,-0.005889,-0.003987,0.000785,0.010962,-0.509645,0.001433,0.539632,-260.875222,0.680862,66.168101
3.4367,0.010418,0.000362,0.001853,-0.005883,-0.003956,0.000259,0.011496,-0.509693,0.002392,0.539632,-260.875222,0.680862,66.168101
3.4566,0.010359,0.000198,0.001272,-0.005878,-0.003923,-0.000108,0.011496,-0.509693,0.002392,0.539632,-260.875222,0.680862,66.168101
3.4769,0.009723,0.000261,0.002887,-0.005874,-0.003892,-0.000363,0.010765,-0.509966,0.001304,0.537111,-260.877934,0.648811,66.165177
3.4963,0.009849,0.000233,0.000785,-0.005874,-0.003829,-0.00037,0.010917,-0.509889,0.001969,0.537111,-260.877934,0.648811,66.165177
3.5168,0.009711,-0.000317,0.001121,-0.005872,-0.003778,-0.000375,0.0101,-0.509867,0.000777,0.610916,-260.880232,0.573402,66.162957
3.5364,0.00933,0.000497,0.000749,-0.005876,-0.003664,3.9e-05,0.01026,-0.510283,0.001091,0.610916,-260.880232,0.573402,66.162957
3.5566,0.010404,0.000215,0.001392,-0.005876,-0.003577,0.000316,0.01026,-0.510283,0.001091,0.610916,-260.880232,0.573402,66.162957
3.5765,0.009243,0.000257,0.00195,-0.005873,-0.003512,0.000498,0.010873,-0.50994,0.001376,0.598746,-260.88303,0.543628,66.160256
3.5965,0.009472,-0.000211,0.00209,-0.005862,-0.003522,0.000357,0.010584,-0.509876,0.001611,0.598746,-260.88303,0.543628,66.160256
3.6164,0.009187,-0.000103,0.002089,-0.005853,-0.003529,0.000255,0.010383,-0.510306,0.002101,0.523713,-260.885279,0.576195,66.157903
3.6368,0.008869,-0.000253,0.001351,-0.005843,-0.003518,-2.7e-05,0.010256,-0.510124,0.00209,0.523713,-260.885279,0.576195,66.157903
3.6568,0.009106,-0.00038,0.002322,-0.005834,-0.003504,-0.000224,0.010256,-0.510124,0.00209,0.523713,-260.885279,0.576195,66.157903
3.6763,0.008882,-0.000582,-5e-06,-0.005827,-0.003491,-0.000359,0.010047,-0.510527,0.002333,0.522803,-260.887968,0.561881,66.15515
3.6969,0.008581,-0.000606,0.002094,-0.005825,-0.003399,-0.000124,0.009546,-0.510566,0.001387,0.522803,-260.887968,0.561881,66.15515
3.7162,0.008593,-0.000551,0.001938,-0.00582,-0.003328,3.6e-05,0.009475,-0.510709,0.002083,0.566988,-260.890541,0.511533,66.152661
3.7363,0.008828,-0.000561,0.00138,-0.00581,-0.003289,-0.000119,0.009563,-0.51057,0.00195,0.566988,-260.890541,0.511533,66.152661
3.7566,0.008615,-0.000859,0.00189,-0.005801,-0.003255,-0.000226,0.009563,-0.51057,0.00195,0.566988,-260.890541,0.511533,66.152661
3.7765,0.008505,-0.000649,0.001597,-0.005793,-0.003226,-0.0003,0.009345,-0.510992,0.001891,0.516645,-260.893106,0.522341,66.150088
3.7965,0.008394,-0.000538,-0.000418,-0.005785,-0.003157,-0.000269,0.009308,-0.510869,0.001772,0.516645,-260.893106,0.522341,66.150088
3.8162,0.007855,-0.000993,0.001292,-0.005776,-0.003101,-0.000248,0.008002,-0.510638,-0.000427,0.531994,-260.895721,0.48375,66.147542
3.8363,0.007948,-0.000733,0.001479,-0.005762,-0.00301,8e-05,0.008458,-0.510965,0.001137,0.531994,-260.895721,0.48375,66.147542
3.8564,0.008202,-0.000656,0.002017,-0.005747,-0.002941,0.0003,0.008458,-0.510965,0.001137,0.531994,-260.895721,0.48375,66.147542
3.8766,0.007574,-0.001034,0.000835,-0.005732,-0.00289,0.000448,0.008991,-0.510784,0.002006,0.512764,-260.898351,0.472123,66.144968
3.8964,0.007708,-0.001245,0.001015,-0.005717,-0.002873,0.00035,0.008561,-0.5109,0.00153,0.512764,-260.898351,0.472123,66.144968
3.9164,0.007356,-0.001465,0.000749,-0.005705,-0.002858,0.00028,0.008066,-0.511326,0.001027,0.437784,-260.900561,0.504231,66.142672
3.9363,0.007644,-0.001521,0.001427,-0.005678,-0.002726,0.000628,0.00776,-0.511456,0.000775,0.437784,-260.900561,0.504231,66.142672
3.9563,0.007659,-0.001033,6.1e-05,-0.005654,-0.002625,0.000862,0.00776,-0.511456,0.000775,0.437784,-260.900561,0.504231,66.142672
3.9764,0.007317,-0.001115,0.00146,-0.005631,-0.002549,0.001017,0.007452,-0.511152,7.3e-05,0.440198,-260.903076,0.488093,66.140096
3.9965,0.007411,-0.001132,0.00026,-0.005612,-0.002529,0.001188,0.007675,-0.51115,0.000644,0.440198,-260.903076,0.488093,66.140096
4.0168,0.00713,-0.001547,0.000647,-0.005595,-0.002516,0.001301,0.007399,-0.5112,0.000283,0.365114,-260.905016,0.512709,66.13799
4.0367,0.007121,-0.001273,0.001059,-0.00557,-0.002445,0.001395,0.007448,-0.511521,0.000617,0.365114,-260.905016,0.512709,66.13799
4.0565,0.006824,-0.001437,0.000128,-0.005548,-0.00239,0.001455,0.007448,-0.511521,0.000617,0.365114,-260.905016,0.512709,66.13799
4.0772,0.006776,-0.001659,0.000946,-0.005528,-0.002347,0.001492,0.006673,-0.511534,0.000179,0.298537,-260.907186,0.53438,66.13558
4.0966,0.006809,-0.001432,0.001469,-0.00549,-0.002278,0.00158,0.006889,-0.511597,0.000501,0.298537,-260.907186,0.53438,66.13558
4.1169,0.006308,-0.00167,0.00137,-0.005457,-0.002225,0.001636,0.007388,-0.511504,0.001515,0.254052,-260.909393,0.532596,66.1331
4.1368,0.006467,-0.001755,0.000971,-0.005427,-0.002206,0.00121,0.007031,-0.511658,0.001385,0.254052,-260.909393,0.532596,66.1331
4.1571,0.006193,-0.001407,0.001295,-0.005403,-0.002186,0.000913,0.007031,-0.511658,0.001385,0.254052,-260.909393,0.532596,66.1331
4.177,0.006056,-0.001684,0.001127,-0.005384,-0.002166,0.000708,0.006629,-0.511499,0.001363,0.22106,-260.911592,0.533666,66.130608
4.1966,0.006199,-0.001769,0.003086,-0.005352,-0.00214,0.000616,0.006604,-0.511584,0.001275,0.22106,-260.911592,0.533666,66.130608
4.2165,0.005986,-0.00212,0.002247,-0.005325,-0.002119,0.000553,0.007639,-0.51182,0.003106,0.29606,-260.913361,0.458666,66.128739
4.2366,0.005597,-0.001867,0.002095,-0.005307,-0.002077,5.8e-05,0.007172,-0.512094,0.002327,0.29606,-260.913361,0.458666,66.128739
4.2566,0.006073,-0.001923,0.000148,-0.005294,-0.002037,-0.000286,0.007172,-0.512094,0.002327,0.29606,-260.913361,0.458666,66.128739
4.2765,0.005737,-0.002321,-0.000424,-0.005283,-0.002001,-0.000523,0.005929,-0.51201,0.00017,0.322743,-260.91556,0.432233,66.126442
4.2966,0.005431,-0.001842,0.001184,-0.005209,-0.001827,0.000554,0.005738,-0.512147,-6.9e-05,0.322743,-260.91556,0.432233,66.126442
4.3166,0.005566,-0.00201,0.000758,-0.005147,-0.001701,0.001285,0.005921,-0.511888,0.001179,0.397864,-260.917138,0.357112,66.124926
4.3365,0.005088,-0.002058,0.000304,-0.005109,-0.001669,0.001275,0.005944,-0.512002,0.000794,0.397864,-260.917138,0.357112,66.124926
4.3566,0.005073,-0.001725,0.002757,-0.005078,-0.001644,0.001262,0.005944,-0.512002,0.000794,0.397864,-260.917138,0.357112,66.124926
4.3766,0.005378,-0.001992,0.000811,-0.005052,-0.001625,0.001248,0.006396,-0.511757,0.002767,0.322891,-260.917963,0.432085,66.124024
4.3967,0.005296,-0.002071,0.001702,-0.005038,-0.001681,0.000671,0.00614,-0.511857,0.00197,0.322891,-260.917963,0.432085,66.124024
4.4166,0.005414,-0.002256,0.001487,-0.005029,-0.001718,0.000268,0.006055,-0.51211,0.001722,0.247885,-260.919361,0.441443,66.122499
4.4367,0.005063,-0.002164,0.001295,-0.005017,-0.001669,0.000202,0.006156,-0.512245,0.001509,0.247885,-260.919361,0.441443,66.122499
4.4564,0.005269,-0.001825,0.001477,-0.005007,-0.001628,0.000157,0.006156,-0.512245,0.001509,0.247885,-260.919361,0.441443,66.122499
4.4768,0.00503,-0.002335,0.001539,-0.004999,-0.001595,0.000125,0.005843,-0.511887,0.001488,0.299881,-260.921165,0.366535,66.12066
4.4968,0.005178,-0.002367,0.003788,-0.004976,-0.001579,9.8e-05,0.00581,-0.512077,0.00151,0.299881,-260.921165,0.366535,66.12066
4.5168,0.00451,-0.002066,0.000686,-0.004957,-0.001565,7.9e-05,0.006956,-0.512413,0.003791,0.294964,-260.92319,0.322753,66.118616
4.5368,0.004654,-0.002163,0.00158,-0.004883,-0.001489,0.000338,0.00504,-0.5121,0.000964,0.294964,-260.92319,0.322753,66.118616
4.5565,0.00458,-0.002109,0.001694,-0.004822,-0.001435,0.000513,0.00504,-0.5121,0.000964,0.294964,-260.92319,0.322753,66.118616
4.5767,0.004404,-0.002424,0.000671,-0.004773,-0.001395,0.000629,0.005237,-0.512174,0.001698,0.296987,-260.925261,0.314681,66.116533
4.5967,0.004565,-0.002559,0.002397,-0.004722,-0.00134,0.000544,0.005014,-0.512283,0.001281,0.296987,-260.925261,0.314681,66.116533
4.6168,0.003766,-0.002627,0.000941,-0.00468,-0.001297,0.000483,0.005658,-0.512597,0.002413,0.221998,-260.926936,0.356703,66.114785
4.6372,0.00349,-0.002219,0.001551,-0.004564,-0.001151,0.000548,0.004366,-0.512626,0.001074,0.221998,-260.926936,0.356703,66.114785
4.6568,0.004197,-0.002623,0.001868,-0.004471,-0.00104,0.000589,0.004366,-0.512626,0.001074,0.221998,-260.926936,0.356703,66.114785
4.677,0.003614,-0.002561,0.001729,-0.004397,-0.000955,0.000614,0.004957,-0.512676,0.001888,0.210865,-260.928825,0.327868,66.112834
4.6969,0.003983,-0.002724,0.00297,-0.004373,-0.00094,0.000271,0.004745,-0.512634,0.001825,0.210865,-260.928825,0.327868,66.112834
4.7166,0.003622,-0.002412,0.001934,-0.004354,-0.000924,3.3e-05,0.005374,-0.512749,0.002987,0.135724,-260.930397,0.293773,66.111205
4.7366,0.003886,-0.002799,0.002152,-0.004339,-0.000943,-0.000224,0.004669,-0.512442,0.002026,0.135724,-260.930397,0.293773,66.111205
4.7566,0.003144,-0.00245,0.001929,-0.004328,-0.000954,-0.0004,0.004669,-0.512442,0.002026,0.135724,-260.930397,0.293773,66.111205
4.777,0.003698,-0.002325,0.001872,-0.004319,-0.00096,-0.00052,0.003976,-0.512482,0.001931,0.204666,-260.931884,0.218808,66.109716
4.797,0.003521,-0.002661,0.002399,-0.004266,-0.000934,-0.000553,0.004235,-0.512421,0.001907,0.204666,-260.931884,0.218808,66.109716
4.8165,0.003286,-0.002819,0.003147,-0.004225,-0.000913,-0.000575,0.004631,-0.512685,0.002386,0.27965,-260.933369,0.14773,66.108276
4.8365,0.003328,-0.0026,0.001525,-0.004232,-0.000904,-0.001023,0.004862,-0.512806,0.003078,0.27965,-260.933369,0.14773,66.108276
4.8564,0.003243,-0.002631,0.00316,-0.004238,-0.000891,-0.001332,0.004862,-0.512806,0.003078,0.27965,-260.933369,0.14773,66.108276
4.8765,0.003209,-0.002339,0.001664,-0.004245,-0.000876,-0.001543,0.004679,-0.512667,0.003136,0.290786,-260.935126,0.132133,66.106578
4.8965,0.003008,-0.002878,0.001623,-0.004218,-0.00086,-0.001497,0.004404,-0.512537,0.00253,0.290786,-260.935126,0.132133,66.106578
4.9166,0.002729,-0.002319,0.001311,-0.004197,-0.000847,-0.001463,0.003757,-0.512895,0.001602,0.365914,-260.936182,0.057004,66.105608
4.9363,0.003309,-0.002699,0.002879,-0.004059,-0.000766,-0.000901,0.003425,-0.512369,0.001335,0.365914,-260.936182,0.057004,66.105608
4.9566,0.003038,-0.002768,0.000306,-0.003951,-0.00071,-0.000526,0.003425,-0.512369,0.001335,0.365914,-260.936182,0.057004,66.105608
4.9765,0.003028,-0.002576,0.002721,-0.003866,-0.000673,-0.000277,0.003033,-0.512801,0.00025,0.393129,-260.937852,-0.011016,66.104065
4.9963,0.002953,-0.003063,0.002607,-0.003812,-0.000597,-7.2e-05,0.003589,-0.51271,0.001271,0.393129,-260.937852,-0.011016,66.104065
5.0162,0.002603,-0.002377,0.001613,-0.003768,-0.000541,6.1e-05,0.00423,-0.513071,0.002596,0.318026,-260.93854,0.064087,66.103387
5.0366,0.002854,-0.00289,0.002794,-0.003732,-0.000567,-6.7e-05,0.003492,-0.512437,0.001697,0.318026,-260.93854,0.064087,66.103387
5.0563,0.002905,-0.002613,0.000667,-0.003704,-0.000587,-0.000159,0.003492,-0.512437,0.001697,0.318026,-260.93854,0.064087,66.103387
5.0765,0.002746,-0.002842,0.001311,-0.003683,-0.000602,-0.000225,0.003166,-0.512629,0.00066,0.243141,-260.939312,0.138972,66.102612
5.0964,0.002936,-0.002778,0.001514,-0.003625,-0.000522,0.000122,0.003259,-0.512718,0.000928,0.243141,-260.939312,0.138972,66.102612
5.1166,0.00263,-0.003104,0.002985,-0.003579,-0.000464,0.000355,0.003596,-0.512796,0.001507,0.198134,-260.940763,0.125427,66.101178
5.1367,0.002344,-0.00295,0.000132,-0.003625,-0.000478,-0.000311,0.004099,-0.513077,0.002858,0.198134,-260.940763,0.125427,66.101178
5.1566,0.002362,-0.002583,-0.000396,-0.003664,-0.00048,-0.000778,0.004099,-0.513077,0.002858,0.198134,-260.940763,0.125427,66.101178
5.1763,0.002692,-0.002641,0.002315,-0.003696,-0.000475,-0.001101,0.002053,-0.5126,-0.00039,0.123117,-260.941795,0.188008,66.100131
5.1964,0.002366,-0.003026,0.000382,-0.003554,-0.000391,-0.000347,0.002786,-0.512618,0.000719,0.123117,-260.941795,0.188008,66.100131
5.2163,0.002253,-0.002623,0.00157,-0.003444,-0.000335,0.000159,0.002533,-0.513031,0.000379,0.198116,-260.942157,0.113009,66.099784
5.2369,0.002529,-0.0027,0.003891,-0.003396,-0.00033,0.000102,0.003008,-0.512657,0.00147,0.198116,-260.942157,0.113009,66.099784
5.2565,0.002262,-0.002619,0.000212,-0.003359,-0.000326,5.7e-05,0.003008,-0.512657,0.00147,0.198116,-260.942157,0.113009,66.099784
5.2766,0.002071,-0.003051,0.00082,-0.00333,-0.000323,2.2e-05,0.002261,-0.512632,0.000212,0.123093,-260.943212,0.124857,66.098724
5.2965,0.002353,-0.002876,0.002263,-0.003176,-0.000216,0.000542,0.002342,-0.512806,0.000463,0.123093,-260.943212,0.124857,66.098724
5.3165,0.002021,-0.002768,0.002073,-0.003058,-0.000141,0.00089,0.003404,-0.512885,0.002263,0.092649,-260.944517,0.100697,66.097418
5.3365,0.002256,-0.0027,0.002122,-0.003099,-0.000197,0.000318,0.003102,-0.512777,0.00209,0.092649,-260.944517,0.100697,66.097418
5.3566,0.00207,-0.002389,0.001557,-0.003134,-0.000235,-8.3e-05,0.003102,-0.512777,0.00209,0.092649,-260.944517,0.100697,66.097418
5.3767,0.001547,-0.002764,-7.9e-05,-0.003161,-0.000259,-0.000362,0.002819,-0.512393,0.001563,0.017679,-260.944954,0.175668,66.096973
5.3967,0.00208,-0.002685,0.002132,-0.003045,-0.000223,2.3e-05,0.002277,-0.512545,0.000892,0.017679,-260.944954,0.175668,66.096973
5.4165,0.002435,-0.002888,0.001508,-0.002955,-0.000201,0.000281,0.003118,-0.512689,0.002132,0.092647,-260.945581,0.1007,66.096354
5.4366,0.002166,-0.00299,0.001183,-0.00304,-0.000217,0.000123,0.003194,-0.512871,0.001562,0.092647,-260.945581,0.1007,66.096354
5.4568,0.002259,-0.003051,0.001233,-0.003106,-0.000226,1.3e-05,0.003194,-0.512871,0.001562,0.092647,-260.945581,0.1007,66.096354
5.4763,0.001873,-0.003013,0.001319,-0.003157,-0.000231,-6.3e-05,0.002778,-0.513059,0.001243,0.017581,-260.946631,0.125429,66.095296
5.4968,0.001862,-0.003146,0.001385,-0.0031,-0.000153,2.7e-05,0.002669,-0.513041,0.001275,0.017581,-260.946631,0.125429,66.095296
5.5164,0.001831,-0.002504,0.001511,-0.003056,-9.4e-05,8.7e-05,0.002482,-0.513152,0.001384,0.085252,-260.94773,0.060849,66.094198
5.5364,0.001803,-0.002919,-0.000249,-0.003023,-0.000138,5e-06,0.002586,-0.512562,0.0015,0.085252,-260.94773,0.060849,66.094198
5.5567,0.001519,-0.002708,0.001774,-0.002999,-0.000172,-5.3e-05,0.002586,-0.512562,0.0015,0.085252,-260.94773,0.060849,66.094198
5.5769,0.000989,-0.002808,1.6e-05,-0.002981,-0.000198,-9.3e-05,0.002306,-0.512711,0.001778,0.013317,-260.948852,0.047975,66.093075
5.5967,0.00156,-0.002804,-0.001206,-0.002772,-0.000108,0.000111,0.001761,-0.512751,0.001063,0.013317,-260.948852,0.047975,66.093075
5.6161,0.001133,-0.002806,0.002251,-0.002614,-4.3e-05,0.000247,0.000857,-0.512809,-0.001209,0.085194,-260.949955,0.047289,66.091975
5.6365,0.001411,-0.002858,0.001784,-0.00258,-4e-05,-8.9e-05,0.002154,-0.512806,0.001953,0.085194,-260.949955,0.047289,66.091975
5.6564,0.001393,-0.0029,0.001272,-0.002556,-3.4e-05,-0.000322,0.002154,-0.512806,0.001953,0.085194,-260.949955,0.047289,66.091975
5.6767,0.001446,-0.00281,0.00249,-0.002538,-2.6e-05,-0.000484,0.001958,-0.512904,0.001276,0.010073,-260.950755,0.074233,66.091173
5.6963,0.000933,-0.003222,0.000474,-0.002546,-9e-06,-0.000513,0.002258,-0.512865,0.001772,0.010073,-260.950755,0.074233,66.091173
5.717,0.001526,-0.002836,-0.001041,-0.002553,4e-06,-0.000532,0.001135,-0.513224,0.000471,0.085022,-260.951245,-0.000716,66.090685
5.7368,0.001051,-0.00302,0.001764,-0.002243,0.000151,0.000952,0.001006,-0.512871,-0.000906,0.085022,-260.951245,-0.000716,66.090685
5.7567,0.000762,-0.003058,0.001361,-0.002009,0.000251,0.001965,0.001006,-0.512871,-0.000906,0.085022,-260.951245,-0.000716,66.090685
5.7763,0.001389,-0.003107,0.000354,-0.001832,0.000318,0.002651,0.001376,-0.513059,0.001348,0.12494,-260.952017,-0.07565,66.089912
5.7967,0.001198,-0.002906,0.00097,-0.001804,0.00033,0.002054,0.001446,-0.513079,0.00094,0.12494,-260.952017,-0.07565,66.089912
5.8166,0.00085,-0.002509,0.00263,-0.001783,0.000345,0.001632,0.001693,-0.512906,0.00097,0.049939,-260.952017,-0.000649,66.089912
5.837,0.001051,-0.002724,0.000741,-0.001941,0.000166,0.000656,0.002148,-0.512542,0.002486,0.049939,-260.952017,-0.000649,66.089912
5.8569,0.001108,-0.002543,0.000896,-0.002067,3.9e-05,-3.5e-05,0.002148,-0.512542,0.002486,0.049939,-260.952017,-0.000649,66.089912
5.8768,0.001282,-0.002873,0.001038,-0.002168,-4.9e-05,-0.000519,0.001565,-0.512543,0.000896,-0.025191,-260.952017,0.074481,66.089912
5.8966,0.001153,-0.002793,0.001319,-0.002144,-7e-06,-0.00014,0.001664,-0.512677,0.000954,-0.025191,-260.952017,0.074481,66.089912
5.9166,0.001031,-0.002949,0.001958,-0.002125,2.2e-05,0.000117,0.001805,-0.512793,0.001318,0.049677,-260.952276,-0.000387,66.089655
5.9367,0.000955,-0.002857,-0.000456,-0.002174,3.7e-05,-0.000165,0.002008,-0.512934,0.0019,0.049677,-260.952276,-0.000387,66.089655
5.9568,0.001403,-0.002851,0.001412,-0.002213,5.3e-05,-0.00036,0.002008,-0.512934,0.0019,0.049677,-260.952276,-0.000387,66.089655
5.9765,0.00082,-0.003065,0.000607,-0.002243,7e-05,-0.000493,0.002047,-0.512851,0.001415,-0.02532,-260.953009,0.023261,66.088922
5.9968,0.001158,-0.002663,0.001145,-0.002193,0.000133,-0.000185,0.001663,-0.512938,0.001085,-0.02532,-260.953009,0.023261,66.088922
6.0168,0.001092,-0.003082,0.002137,-0.002153,0.000178,2.4e-05,0.00171,-0.512662,0.001143,0.049678,-260.953404,-0.051737,66.088525
6.0366,0.000539,-0.003091,0.000701,-0.002219,0.000166,-0.000288,0.002138,-0.513044,0.002048,0.049678,-260.953404,-0.051737,66.088525
6.0574,0.000707,-0.002936,0.001276,-0.002271,0.000163,-0.000504,0.002138,-0.513044,0.002048,0.049678,-260.953404,-0.051737,66.088525
6.0767,0.000444,-0.002866,0.001405,-0.002311,0.000164,-0.000651,0.001292,-0.512933,0.001273,-0.02538,-260.954033,-0.075683,66.087896
6.0969,0.000345,-0.003018,0.002495,-0.00213,0.000225,-0.000408,0.001232,-0.512906,0.001326,-0.02538,-260.954033,-0.075683,66.087896
6.1166,0.000836,-0.00297,0.003364,-0.001993,0.000268,-0.000245,0.00158,-0.513015,0.002489,0.049611,-260.954503,-0.150675,66.087415
6.137,0.001224,-0.002692,0.002492,-0.002153,0.000172,-0.000909,0.002464,-0.512971,0.003287,0.049611,-260.954503,-0.150675,66.087415
6.1565,0.001068,-0.003072,0.000893,-0.002279,0.000109,-0.001377,0.002464,-0.512971,0.003287,0.049611,-260.954503,-0.150675,66.087415
6.1762,0.000767,-0.002495,0.001185,-0.002379,6.8e-05,-0.0017,0.001458,-0.513064,0.000883,-0.025393,-260.955131,-0.206312,66.086774
6.1965,0.001204,-0.002714,-0.000185,-0.002241,0.000148,-0.000929,0.001415,-0.512831,0.001005,-0.025393,-260.955131,-0.206312,66.086774
6.2163,0.00048,-0.002788,0.000263,-0.002135,0.000202,-0.000408,0.001107,-0.512714,-0.000185,0.049558,-260.955157,-0.281264,66.086747
6.2367,0.000793,-0.002919,0.001825,-0.001852,0.000283,0.000402,0.000656,-0.512782,0.000225,0.049558,-260.955157,-0.281264,66.086747
6.2567,0.000621,-0.002793,-0.000479,-0.001638,0.000336,0.000944,0.000656,-0.512782,0.000225,0.049558,-260.955157,-0.281264,66.086747
6.2768,0.000455,-0.002588,0.000346,-0.001476,0.00037,0.001302,0.000296,-0.512785,-0.000495,0.02231,-260.955933,-0.208266,66.085955
6.2966,0.000955,-0.002821,0.001381,-0.001282,0.000394,0.001766,0.000423,-0.512704,-0.000153,0.02231,-260.955933,-0.208266,66.085955
6.3164,0.000737,-0.002577,0.000421,-0.001136,0.000406,0.002071,0.001659,-0.51282,0.001381,-0.052673,-260.955933,-0.133283,66.085955
6.3365,0.000559,-0.002977,0.000139,-0.001203,0.000344,0.001871,0.001013,-0.512598,0.000505,-0.052673,-260.955933,-0.133283,66.085955
6.3564,0.000447,-0.002962,0.00045,-0.001255,0.000297,0.001726,0.001013,-0.512598,0.000505,-0.052673,-260.955933,-0.133283,66.085955
6.3769,0.000846,-0.002916,0.000728,-0.001295,0.000262,0.001621,0.000677,-0.512962,0.00045,-0.12768,-260.955933,-0.058276,66.085955
6.3966,0.00104,-0.003055,0.002558,-0.001286,0.000305,0.001521,0.000895,-0.512944,0.000562,-0.12768,-260.955933,-0.058276,66.085955
6.4164,0.000609,-0.002415,0.001194,-0.001278,0.000339,0.001449,0.002344,-0.513054,0.002558,-0.202567,-260.955933,0.016611,66.085955
6.4368,0.000698,-0.00303,0.000363,-0.001393,0.000226,0.000991,0.001315,-0.51247,0.001311,-0.202567,-260.955933,0.016611,66.085955
6.4565,0.000467,-0.00293,0.00186,-0.001483,0.000145,0.000674,0.001315,-0.51247,0.001311,-0.202567,-260.955933,0.016611,66.085955
6.4766,0.000738,-0.003146,0.000425,-0.001554,8.7e-05,0.000456,0.001415,-0.51293,0.00186,-0.277705,-260.955933,0.091749,66.085955
6.4963,0.000559,-0.003104,4.4e-05,-0.00157,0.000156,0.000338,0.001227,-0.513018,0.001273,-0.277705,-260.955933,0.091749,66.085955
6.5167,0.000699,-0.002735,0.001938,-0.001583,0.000211,0.000259,0.000535,-0.513102,5.8e-05,-0.230951,-260.95654,0.122791,66.08536
6.5367,0.000731,-0.003327,0.000337,-0.001686,0.000171,-3.8e-05,0.001585,-0.512766,0.001775,-0.230951,-260.95654,0.122791,66.08536
6.5566,0.000666,-0.002578,0.000217,-0.001766,0.000145,-0.000241,0.001585,-0.512766,0.001775,-0.230951,-260.95654,0.122791,66.08536
6.5768,0.000327,-0.002949,0.001504,-0.001828,0.000129,-0.000377,0.000732,-0.512573,0.000228,-0.229128,-260.956978,0.047827,66.084932
6.5967,0.000783,-0.003247,0.001262,-0.001691,0.000185,6.5e-05,0.000874,-0.512725,0.000748,-0.229128,-260.956978,0.047827,66.084932
6.617,0.00059,-0.003092,0.001779,-0.001586,0.000223,0.000365,0.00142,-0.513246,0.001263,-0.154217,-260.957055,-0.027084,66.084855
6.6371,0.000461,-0.002938,0.002234,-0.001653,0.00025,7.5e-05,0.00149,-0.513106,0.001729,-0.154217,-260.957055,-0.027084,66.084855
6.6565,0.000556,-0.003005,-7.6e-05,-0.001705,0.000275,-0.000126,0.00149,-0.513106,0.001729,-0.154217,-260.957055,-0.027084,66.084855
6.6765,0.000689,-0.002717,0.002601,-0.001745,0.000299,-0.000264,0.000465,-0.512999,-6.6e-05,-0.229343,-260.957571,-9.7e-05,66.084358
6.6968,0.000686,-0.002813,0.00123,-0.001681,0.000326,-2e-06,0.001085,-0.512883,0.001012,-0.229343,-260.957571,-9.7e-05,66.084358
6.7166,0.000167,-0.002623,0.000173,-0.001632,0.000345,0.000176,0.0013,-0.512811,0.001231,-0.154468,-260.957737,-0.074972,66.084187
6.7367,0.000708,-0.003014,0.000236,-0.001374,0.000364,0.000734,0.000349,-0.51264,0.000268,-0.154468,-260.957737,-0.074972,66.084187
6.7562,0.000411,-0.002884,0.001648,-0.00118,0.000373,0.001109,0.000349,-0.51264,0.000268,-0.154468,-260.957737,-0.074972,66.084187
6.7765,0.000671,-0.00292,0.002095,-0.001034,0.000375,0.001359,0.0012,-0.512874,0.001652,-0.229454,-260.958243,-0.144088,66.083694
6.7966,0.00055,-0.002496,0.003112,-0.001213,0.000315,0.000715,0.001414,-0.512891,0.001833,-0.229454,-260.958243,-0.144088,66.083694
6.8164,0.000189,-0.002817,0.000163,-0.001351,0.000277,0.000263,0.002137,-0.512494,0.003112,-0.304471,-260.958243,-0.06907,66.083694
6.8366,0.000427,-0.00248,0.001141,-0.001194,0.000329,0.000689,0.000436,-0.512788,0.000422,-0.304471,-260.958243,-0.06907,66.083694
6.8565,0.000192,-0.002967,0.002356,-0.001074,0.000364,0.000977,0.000436,-0.512788,0.000422,-0.304471,-260.958243,-0.06907,66.083694
6.8764,0.000417,-0.003101,0.0023,-0.000983,0.000387,0.00117,0.001337,-0.512954,0.002367,-0.313127,-260.958807,-0.085997,66.083155
6.8969,0.000366,-0.003186,0.001467,-0.001168,0.000332,0.000378,0.001434,-0.513012,0.002341,-0.313127,-260.958807,-0.085997,66.083155
6.9169,0.0005,-0.002808,0.001239,-0.001313,0.0003,-0.000178,0.001114,-0.513185,0.001467,-0.388064,-260.958808,-0.01106,66.083155
6.9363,0.000465,-0.0029,0.003174,-0.001363,0.000303,-8.4e-05,0.00113,-0.51284,0.001259,-0.388064,-260.958808,-0.01106,66.083155
6.9566,0.000426,-0.002716,0.003235,-0.001402,0.000305,-1.9e-05,0.00113,-0.51284,0.001259,-0.388064,-260.958808,-0.01106,66.083155
6.9767,6.2e-05,-0.002408,0.000912,-0.00143,0.000307,2.6e-05,0.00207,-0.512713,0.003236,-0.312931,-260.958859,-0.086193,66.083101
6.9967,0.000885,-0.002762,0.002108,-0.001531,0.000211,-0.000406,0.001432,-0.512587,0.002275,-0.312931,-260.958859,-0.086193,66.083101
7.0167,1.3e-05,-0.002794,0.000729,-0.00161,0.000143,-0.000704,0.001927,-0.512754,0.00211,-0.237934,-260.959275,-0.16119,66.082688
7.0364,0.000345,-0.002633,0.002032,-0.001417,0.000224,-0.000201,0.000522,-0.51279,0.000853,-0.237934,-260.959275,-0.16119,66.082688
7.0564,4.1e-05,-0.002838,0.001956,-0.00127,0.000281,0.000138,0.000522,-0.51279,0.000853,-0.237934,-260.959275,-0.16119,66.082688
7.0767,0.000365,-0.00294,0.001125,-0.001159,0.000321,0.000365,0.001036,-0.512837,0.001955,-0.163064,-260.959298,-0.23606,66.082664
7.0963,0.000388,-0.002776,0.002146,-0.001207,0.000318,0.000126,0.000996,-0.512879,0.001613,-0.163064,-260.959298,-0.23606,66.082664
7.1166,1.7e-05,-0.002482,0.000144,-0.001244,0.000319,-4.1e-05,0.001475,-0.512774,0.002147,-0.238155,-260.959401,-0.160969,66.08257
7.1365,0.000309,-0.002768,0.001186,-0.001037,0.000322,0.000552,0.00021,-0.512507,0.000317,-0.238155,-260.959401,-0.160969,66.08257
7.1565,0.000176,-0.00295,0.001469,-0.000881,0.000317,0.000952,0.00021,-0.512507,0.000317,-0.238155,-260.959401,-0.160969,66.08257
7.1763,-5.4e-05,-0.002657,0.002557,-0.000765,0.000309,0.001219,0.000883,-0.512939,0.001469,-0.231875,-260.959823,-0.235973,66.082144
7.1963,0.000157,-0.002911,0.000116,-0.000912,0.000272,0.00058,0.001027,-0.512822,0.001913,-0.231875,-260.959823,-0.235973,66.082144
7.2163,-0.000104,-0.002887,0.000911,-0.001026,0.000252,0.000132,0.000217,-0.512911,0.000116,-0.306778,-260.959823,-0.16107,66.082144
7.2363,0.000195,-0.002511,0.003209,-0.000922,0.000318,0.000358,0.000348,-0.512889,0.000841,-0.306778,-260.959823,-0.16107,66.082144
7.2563,-0.000203,-0.002731,0.002776,-0.000843,0.000366,0.000511,0.000348,-0.512889,0.000841,-0.306778,-260.959823,-0.16107,66.082144
7.2763,0.000308,-0.002714,0.002683,-0.000782,0.000402,0.000612,0.00117,-0.512719,0.002781,-0.313332,-260.960253,-0.165603,66.081729
7.2964,0.000163,-0.003013,0.002323,-0.001009,0.000287,-0.000166,0.001373,-0.512715,0.002741,-0.313332,-260.960253,-0.165603,66.081729
7.3166,9.4e-05,-0.002418,0.001591,-0.001186,0.00021,-0.000711,0.001347,-0.513011,0.002323,-0.388332,-260.960262,-0.090604,66.081722
7.3366,-7.5e-05,-0.002833,0.001945,-0.001223,0.000166,-0.000644,0.000945,-0.512471,0.001656,-0.388332,-260.960262,-0.090604,66.081722
7.3568,3.8e-05,-0.002816,0.001396,-0.001253,0.000133,-0.000597,0.000945,-0.512471,0.001656,-0.388332,-260.960262,-0.090604,66.081722
7.3764,-6e-05,-0.002685,0.001464,-0.001276,0.000108,-0.000562,0.00075,-0.512815,0.001396,-0.313425,-260.960262,-0.165511,66.081722
7.3968,0.000471,-0.00297,0.000562,-0.001227,0.000165,-0.000416,0.000724,-0.512762,0.001423,-0.313425,-260.960262,-0.165511,66.081722
7.4166,0.00036,-0.00286,0.001768,-0.001189,0.000207,-0.000317,0.000757,-0.512969,0.000562,-0.23842,-260.960268,-0.240515,66.081717
7.4369,0.000107,-0.002525,0.001191,-0.001293,0.000221,-0.000368,0.001217,-0.512869,0.001663,-0.23842,-260.960268,-0.240515,66.081717
7.4568,-1.9e-05,-0.003019,0.000681,-0.001373,0.000235,-0.000402,0.001217,-0.512869,0.001663,-0.23842,-260.960268,-0.240515,66.081717
7.4764,-0.000213,-0.003142,0.001893,-0.001433,0.000246,-0.000425,0.000309,-0.513015,0.000679,-0.163294,-260.960452,-0.315641,66.081522
7.4968,0.000109,-0.002816,0.001053,-0.001271,0.000342,-0.000175,0.000483,-0.513064,0.00116,-0.163294,-260.960452,-0.315641,66.081522
7.5169,0.000271,-0.00234,0.001611,-0.001146,0.000412,-7e-06,0.000618,-0.51281,0.001047,-0.08842,-260.960804,-0.33945,66.081148
7.5366,0.000254,-0.002882,0.002033,-0.001223,0.000292,-0.000116,0.001048,-0.512381,0.00156,-0.08842,-260.960804,-0.33945,66.081148
7.5574,0.000206,-0.002762,0.001459,-0.001284,0.000202,-0.000191,0.001048,-0.512381,0.00156,-0.08842,-260.960804,-0.33945,66.081148
7.5765,6.3e-05,-0.002777,0.001555,-0.001331,0.000135,-0.000243,0.000932,-0.512757,0.001456,-0.16343,-260.960977,-0.348486,66.080975
7.5966,-0.000196,-0.002677,0.000526,-0.001319,0.000172,-0.000237,0.000901,-0.512764,0.001495,-0.16343,-260.960977,-0.348486,66.080975
7.6164,-0.000151,-0.002653,0.001861,-0.001309,0.000201,-0.000233,5.3e-05,-0.512673,0.000523,-0.0883,-260.961218,-0.273356,66.080729
7.6366,-8.5e-05,-0.002458,0.001549,-0.001252,0.000204,-0.000346,0.000733,-0.512654,0.001745,-0.0883,-260.961218,-0.273356,66.080729
7.657,3.9e-05,-0.003188,0.001886,-0.00121,0.000207,-0.000424,0.000733,-0.512654,0.001745,-0.0883,-260.961218,-0.273356,66.080729
7.6764,0.000212,-0.00275,0.000798,-0.001179,0.000211,-0.000477,0.000948,-0.513179,0.001876,-0.044781,-260.961726,-0.256097,66.080204
7.6963,-7.8e-05,-0.002682,0.000585,-0.001173,0.000281,-0.000356,0.000804,-0.512998,0.001422,-0.044781,-260.961726,-0.256097,66.080204
7.7166,-2.5e-05,-0.002631,0.000794,-0.001168,0.000334,-0.000273,0.000198,-0.512679,0.000578,0.030587,-260.961998,-0.331465,66.07991
7.7371,-0.00023,-0.002773,-0.000331,-0.001034,0.000346,0.000129,0.000363,-0.512634,0.000775,0.030587,-260.961998,-0.331465,66.07991
7.7566,-0.000148,-0.002762,0.00108,-0.000932,0.00035,0.000399,0.000363,-0.512634,0.000775,0.030587,-260.961998,-0.331465,66.07991
7.7769,-2.7e-05,-0.002831,0.002,-0.000855,0.000349,0.00058,0.000375,-0.512755,0.001072,-0.044135,-260.962265,-0.405001,66.079622
7.7964,0.000173,-0.002682,0.00205,-0.000873,0.000343,0.000347,0.000623,-0.512785,0.001449,-0.044135,-260.962265,-0.405001,66.079622
7.8166,-0.000255,-0.002809,-0.000467,-0.000887,0.000341,0.000184,0.001219,-0.512681,0.00205,-0.118942,-260.962265,-0.330193,66.079622
7.8363,3.5e-05,-0.002613,0.000821,-0.000598,0.000407,0.001053,-0.000346,-0.512798,-0.000252,-0.118942,-260.962265,-0.330193,66.079622
7.8568,-0.000136,-0.002864,0.00221,-0.000379,0.000451,0.001642,-0.000346,-0.512798,-0.000252,-0.118942,-260.962265,-0.330193,66.079622
7.877,-0.000257,-0.002756,0.001143,-0.000212,0.000479,0.002037,0.000987,-0.512862,0.00221,-0.194072,-260.962312,-0.255063,66.079579
7.897,-0.000107,-0.003163,-0.000286,-0.000402,0.000409,0.001204,0.000718,-0.512819,0.001776,-0.194072,-260.962312,-0.255063,66.079579
7.9165,4e-05,-0.00292,0.001445,-0.000549,0.000364,0.000619,-0.000253,-0.513163,-0.000286,-0.268945,-260.962312,-0.180191,66.079579
7.9369,-0.000448,-0.003066,0.002922,-0.000654,0.000375,0.000436,0.000686,-0.512941,0.001292,-0.268945,-260.962312,-0.180191,66.079579
7.9568,-0.000382,-0.002857,0.000921,-0.000735,0.000387,0.000309,0.000686,-0.512941,0.001292,-0.268945,-260.962312,-0.180191,66.079579
7.9768,-8.7e-05,-0.002625,0.000738,-0.000796,0.000398,0.000222,8.8e-05,-0.512857,0.000921,-0.343994,-260.962312,-0.105141,66.079579
7.9968,1.4e-05,-0.002516,0.001278,-0.000686,0.000411,0.000405,0.00017,-0.512762,0.000846,-0.343994,-260.962312,-0.105141,66.079579
8.0167,-8.2e-05,-0.00301,0.001573,-0.000604,0.000418,0.00053,0.000661,-0.512514,0.001279,-0.418958,-260.962381,-0.180104,66.079518
8.0367,-0.000112,-0.002963,-0.000193,-0.000701,0.000415,0.000251,0.000715,-0.512967,0.001548,-0.418958,-260.962381,-0.180104,66.079518
8.0567,2.2e-05,-0.002778,8e-06,-0.000775,0.000417,5.9e-05,0.000715,-0.512967,0.001548,-0.418958,-260.962381,-0.180104,66.079518
8.0768,-4e-05,-0.002729,0.002151,-0.000832,0.000422,-7.3e-05,2.5e-05,-0.512778,8e-06,-0.494086,-260.962391,-0.155157,66.079512
8.0968,-0.00035,-0.002448,0.001077,-0.000802,0.000422,0.000179,0.000447,-0.512757,0.000884,-0.494086,-260.962391,-0.155157,66.079512
8.1166,-0.000312,-0.002931,0.00167,-0.000778,0.000419,0.000351,0.000196,-0.512447,0.001078,-0.425539,-260.962433,-0.230104,66.079467
8.137,-9.4e-05,-0.002716,0.002333,-0.000774,0.000415,9.9e-05,0.00051,-0.512888,0.001619,-0.425539,-260.962433,-0.230104,66.079467
8.1568,-0.00023,-0.002557,0.001027,-0.000772,0.000415,-7.4e-05,0.00051,-0.512888,0.001619,-0.425539,-260.962433,-0.230104,66.079467
8.1766,-0.000307,-0.002596,0.001752,-0.00077,0.000418,-0.000193,0.000282,-0.512552,0.00103,-0.500548,-260.962569,-0.257321,66.079359
8.1966,-7.8e-05,-0.00292,0.000977,-0.000739,0.000375,-0.000134,0.000405,-0.512569,0.001325,-0.500548,-260.962569,-0.257321,66.079359
8.2166,-9.7e-05,-0.00294,0.001274,-0.000716,0.000341,-9.3e-05,0.000417,-0.512919,0.000977,-0.425612,-260.962603,-0.332257,66.07932
8.2366,-0.000149,-0.003008,0.001059,-0.000742,0.000379,-2.3e-05,0.000541,-0.512938,0.001248,-0.425612,-260.962603,-0.332257,66.07932
8.2568,9.4e-05,-0.002337,-0.000523,-0.000761,0.000407,2.4e-05,0.000541,-0.512938,0.001248,-0.425612,-260.962603,-0.332257,66.07932
8.2765,-0.00016,-0.002568,0.001274,-0.000774,0.000429,5.7e-05,-0.000191,-0.512329,-0.000524,-0.377677,-260.962784,-0.407258,66.079127
8.2966,-0.00013,-0.002503,0.001632,-0.000639,0.000391,0.000664,8.6e-05,-0.512426,0.000212,-0.377677,-260.962784,-0.407258,66.079127
8.3168,-0.000275,-0.002557,0.001837,-0.000538,0.000356,0.001076,0.000687,-0.512495,0.001632,-0.452678,-260.963006,-0.471373,66.078914
8.3367,-0.000492,-0.002626,0.00022,-0.00064,0.00028,0.00051,0.000663,-0.512551,0.001818,-0.452678,-260.963006,-0.471373,66.078914
8.3567,-0.000385,-0.002546,0.002646,-0.00072,0.000228,0.000114,0.000663,-0.512551,0.001818,-0.452678,-260.963006,-0.471373,66.078914
8.3769,-0.000496,-0.002757,0.002717,-0.000783,0.000193,-0.00016,0.000965,-0.512545,0.002646,-0.527677,-260.963006,-0.396375,66.078914
8.3965,2e-06,-0.002714,0.00267,-0.000903,0.000149,-0.000689,0.000934,-0.51263,0.002675,-0.527677,-260.963006,-0.396375,66.078914
8.4164,-0.000171,-0.002638,0.001289,-0.000997,0.000122,-0.001054,0.001362,-0.512711,0.00267,-0.452726,-260.963026,-0.355135,66.078893
8.4365,-0.000221,-0.002845,0.000714,-0.000969,0.000164,-0.00075,0.000564,-0.512644,0.001411,-0.452726,-260.963026,-0.355135,66.078893
8.4565,-0.000406,-0.003147,0.002452,-0.000948,0.000194,-0.000542,0.000564,-0.512644,0.001411,-0.452726,-260.963026,-0.355135,66.078893
8.4768,-0.00024,-0.002946,0.00048,-0.000931,0.000215,-0.000399,0.000845,-0.513145,0.002452,-0.377679,-260.963026,-0.430182,66.078893
8.4967,-0.000181,-0.002699,0.002241,-0.000896,0.000298,-0.000412,0.000505,-0.513065,0.001654,-0.377679,-260.963026,-0.430182,66.078893
8.5164,-0.000152,-0.002768,0.00183,-0.000868,0.000362,-0.000422,0.00096,-0.512697,0.00224,-0.302731,-260.963049,-0.457573,66.078867
8.5368,-0.000164,-0.00274,0.001134,-0.000934,0.00034,-0.000536,0.000797,-0.512761,0.001867,-0.302731,-260.963049,-0.457573,66.078867
8.557,-0.000251,-0.002754,0.002323,-0.000983,0.000324,-0.000614,0.000797,-0.512761,0.001867,-0.302731,-260.963049,-0.457573,66.078867
8.5767,-8.2e-05,-0.002693,0.002632,-0.001021,0.000315,-0.000666,0.00092,-0.512747,0.002318,-0.22772,-260.963183,-0.532585,66.078703
8.5967,-0.000279,-0.002609,0.000913,0.0,0.0,0.0,0.001056,-0.512724,0.002445,-0.22772,-260.963183,-0.532585,66.078703
