mach0312/omni-docking-bench/src/icros_test_setup/results/MPPI_sample/timeseries/trial_047.csv
t,x,y,yaw,vx,vy,wz,bl_x,bl_y,bl_yaw,front_steering_joint,front_wheel_joint,rear_steering_joint,rear_wheel_joint
0.0,-0.000776,-0.021012,-0.03408,-0.004743,-0.000961,-0.001275,-0.017371,-0.530267,-0.033647,0.351538,-262.231376,0.038362,71.851583
0.0004,-0.000857,-0.021104,-0.034217,-0.00407,-0.000825,-0.001094,-0.017371,-0.530267,-0.033647,0.351538,-262.234356,0.038362,71.848784
0.0007,-0.001011,-0.02107,-0.032465,-0.003345,-0.000678,-0.000899,-0.018535,-0.530055,-0.035364,0.351538,-262.236889,0.038362,71.846404
0.0011,-0.001198,-0.021082,-0.03495,-0.002581,-0.000523,-0.000694,-0.018535,-0.530055,-0.035364,0.351538,-262.238621,0.038362,71.844777
0.0014,-0.001657,-0.020657,-0.033264,-0.001767,-0.000358,-0.000475,-0.017563,-0.530515,-0.032588,0.351538,-262.239722,0.038362,71.843742
0.0017,-0.001273,-0.021025,-0.033914,-0.000908,-0.000184,-0.000244,-0.017563,-0.530515,-0.032588,0.351538,-262.239722,0.038362,71.843742
0.0019,-0.001763,-0.020619,-0.033327,-1e-06,-0.0,-0.0,-0.017563,-0.530515,-0.032588,0.351538,-262.239722,0.038362,71.843742
0.0022,-0.001657,-0.021048,-0.033889,0.0,0.0,0.0,-0.017563,-0.530515,-0.032588,0.351538,-262.239722,0.038362,71.843742
0.0025,-0.00154,-0.020967,-0.034393,0.0,0.0,0.0,-0.018551,-0.530527,-0.035234,0.351538,-262.239722,0.038362,71.843742
0.0073,-0.001292,-0.020935,-0.03427,0.0,0.0,0.0,-0.019077,-0.530665,-0.034393,0.351538,-262.239722,0.038362,71.843742
0.0272,-0.000733,-0.02108,-0.034612,0.0,0.0,0.0,-0.01895,-0.530653,-0.034342,0.351538,-262.239722,0.038362,71.843742
0.0468,-0.001131,-0.021182,-0.034363,0.0,0.0,0.0,-0.018382,-0.530775,-0.034612,0.351538,-262.239722,0.038362,71.843742
0.0671,-0.001361,-0.021067,-0.03312,0.0,0.0,0.0,-0.018628,-0.530872,-0.034385,0.351538,-262.239722,0.038362,71.843742
0.0872,-0.001464,-0.020948,-0.035546,0.0,0.0,0.0,-0.018628,-0.530872,-0.034385,0.351538,-262.239722,0.038362,71.843742
0.1071,-0.001387,-0.021067,-0.033214,0.0,0.0,0.0,-0.019589,-0.530626,-0.035546,0.351538,-262.239722,0.038362,71.843742
0.127,-0.001594,-0.020812,-0.034103,0.004274,0.00799,0.004583,-0.019074,-0.530691,-0.034598,0.351538,-262.239722,0.038362,71.843742
0.1471,-0.001469,-0.02087,-0.033912,0.004546,0.008564,0.004907,-0.018983,-0.530516,-0.034103,0.351538,-262.239722,0.038362,71.843742
0.167,-0.001158,-0.021224,-0.034856,0.004766,0.009058,0.005225,-0.018781,-0.530572,-0.033929,0.351538,-262.239722,0.038362,71.843742
0.1874,-0.001492,-0.020818,-0.033294,0.004949,0.00948,0.005494,-0.018781,-0.530572,-0.033929,0.351538,-262.239722,0.038362,71.843742
0.207,-0.001423,-0.020704,-0.033025,0.004949,0.00948,0.005494,-0.018468,-0.530535,-0.033294,0.42653,-262.239722,0.113354,71.843742
0.227,-0.00123,-0.020968,-0.034281,0.005212,0.010159,0.005915,-0.018385,-0.530491,-0.033184,0.42653,-262.239722,0.113354,71.843742
0.2468,-0.001345,-0.021032,-0.033674,0.00531,0.010427,0.00608,-0.01871,-0.530669,-0.034281,0.501526,-262.239722,0.18835,71.843742
0.2672,-0.001423,-0.021112,-0.033241,0.005388,0.010659,0.00622,-0.018533,-0.530736,-0.033727,0.501526,-262.239722,0.18835,71.843742
0.2876,-0.000894,-0.021172,-0.034635,0.005453,0.010858,0.006339,-0.018533,-0.530736,-0.033727,0.501526,-262.239722,0.18835,71.843742
0.3072,-0.00132,-0.021068,-0.035484,0.005453,0.010858,0.006339,-0.018554,-0.530866,-0.034635,0.576588,-262.239722,0.263412,71.843742
0.3276,-0.001022,-0.021133,-0.034241,0.005558,0.01117,0.006526,-0.018898,-0.530818,-0.034975,0.576588,-262.239722,0.263412,71.843742
0.3473,-0.001158,-0.020885,-0.034409,0.005597,0.011294,0.0066,-0.018482,-0.530834,-0.034241,0.651585,-262.239722,0.338409,71.843742
0.3672,-0.001463,-0.020936,-0.035257,0.005628,0.011401,0.006662,-0.018683,-0.530606,-0.034394,0.651585,-262.239722,0.338409,71.843742
0.3872,-0.001638,-0.020909,-0.031663,0.005653,0.011494,0.006716,-0.018683,-0.530606,-0.034394,0.651585,-262.239722,0.338409,71.843742
0.4076,-0.001436,-0.021102,-0.033728,0.005653,0.011494,0.006716,-0.017783,-0.530653,-0.031663,0.726531,-262.239722,0.413356,71.843742
0.4276,-0.001336,-0.020837,-0.033625,0.005668,0.011659,0.0068,-0.018128,-0.530717,-0.032501,0.726531,-262.239722,0.413356,71.843742
0.4473,-0.001132,-0.02138,-0.034452,0.005673,0.011725,0.006834,-0.018482,-0.530549,-0.033625,0.801741,-262.239721,0.488565,71.843743
0.4673,-0.001088,-0.020902,-0.03416,0.005683,0.011779,0.006863,-0.018679,-0.53103,-0.034378,0.801741,-262.239721,0.488565,71.843743
0.4879,-0.001426,-0.021379,-0.032987,0.00569,0.011825,0.006888,-0.018679,-0.53103,-0.034378,0.801741,-262.239721,0.488565,71.843743
0.5073,-0.001484,-0.021223,-0.033993,0.00569,0.011825,0.006888,-0.018245,-0.5311,-0.032986,0.876533,-262.239707,0.563357,71.843751
0.5273,-0.001623,-0.021601,-0.033319,0.005694,0.011904,0.006928,-0.018475,-0.531031,-0.03339,0.876533,-262.239707,0.563357,71.843751
0.5472,-0.001356,-0.021245,-0.035213,0.005696,0.011936,0.006943,-0.018608,-0.531314,-0.033316,0.951645,-262.239608,0.63847,71.843806
0.5676,-0.001332,-0.020785,-0.033993,0.005714,0.011952,0.006958,-0.019248,-0.530963,-0.035043,0.951645,-262.239608,0.63847,71.843806
0.5881,-0.001109,-0.021224,-0.033842,0.005728,0.011965,0.00697,-0.019248,-0.530963,-0.035043,0.951645,-262.239608,0.63847,71.843806
0.6073,-0.001376,-0.021175,-0.032864,0.005728,0.011965,0.00697,-0.018342,-0.530903,-0.033823,1.026526,-262.239143,0.71335,71.844065
0.6276,-0.001476,-0.020941,-0.035532,0.005716,0.012012,0.006989,-0.018255,-0.530899,-0.033432,1.026526,-262.239143,0.71335,71.844065
0.6476,-0.001442,-0.020814,-0.033542,0.005711,0.01203,0.006996,-0.019535,-0.530538,-0.035479,1.101586,-262.237521,0.788411,71.84497
0.6675,-0.001477,-0.020599,-0.032461,0.005723,0.012036,0.007003,-0.01863,-0.530524,-0.03371,1.101586,-262.237521,0.788411,71.84497
0.6876,-0.001193,-0.021125,-0.033844,0.005732,0.012041,0.007009,-0.01863,-0.530524,-0.03371,1.101586,-262.237521,0.788411,71.84497
0.7074,-0.001261,-0.020877,-0.032783,0.005732,0.012041,0.007009,-0.018298,-0.530579,-0.033686,1.176582,-262.233848,0.863406,71.847019
0.727,-0.001073,-0.020312,-0.031581,0.005726,0.012063,0.007018,-0.018151,-0.530559,-0.033303,1.176582,-262.233848,0.863406,71.847019
0.747,-0.001047,-0.020138,-0.034226,0.005724,0.012071,0.007022,-0.017007,-0.529728,-0.031386,1.233072,-262.227773,0.934601,71.850407
0.7675,-0.001273,-0.019804,-0.033302,0.005741,0.012065,0.007075,-0.018364,-0.529814,-0.033977,1.233072,-262.227773,0.934601,71.850407
0.7876,-0.001518,-0.020128,-0.030973,0.005756,0.01206,0.007118,-0.018364,-0.529814,-0.033977,1.233072,-262.227773,0.934601,71.850407
0.8069,-0.000845,-0.019622,-0.03322,0.005756,0.01206,0.007118,-0.017058,-0.529387,-0.03068,1.234236,-262.220856,0.936673,71.854262
0.827,-0.001327,-0.019463,-0.034848,0.005757,0.012065,0.007228,-0.017324,-0.529311,-0.03168,1.234236,-262.220856,0.936673,71.854262
0.847,-0.001062,-0.019231,-0.031161,0.005757,0.012068,0.00727,-0.0189,-0.528776,-0.034621,1.233401,-262.213897,0.929663,71.858114
0.8672,-0.00081,-0.018525,-0.03209,0.005761,0.012068,0.007326,-0.017113,-0.528946,-0.031454,1.233401,-262.213897,0.929663,71.858114
0.8876,-0.000891,-0.018797,-0.032172,0.005764,0.012068,0.007372,-0.017113,-0.528946,-0.031454,1.233401,-262.213897,0.929663,71.858114
0.907,-0.000896,-0.018281,-0.032936,0.005764,0.012068,0.007372,-0.017039,-0.528036,-0.031868,1.235219,-262.206908,0.924249,71.861934
0.9272,-0.00077,-0.018205,-0.03383,0.005812,0.012034,0.007484,-0.017276,-0.527966,-0.03227,1.235219,-262.206908,0.924249,71.861934
0.9473,-0.000353,-0.017182,-0.030624,0.00583,0.01202,0.007526,-0.017824,-0.527536,-0.033595,1.236067,-262.19989,0.919754,71.865739
0.9671,-0.000581,-0.017581,-0.031726,0.005841,0.012011,0.007581,-0.016119,-0.526976,-0.030867,1.236067,-262.19989,0.919754,71.865739
0.9875,-0.000729,-0.017694,-0.031593,0.00585,0.012004,0.007626,-0.016119,-0.526976,-0.030867,1.236067,-262.19989,0.919754,71.865739
1.008,-0.000457,-0.01717,-0.030664,0.00585,0.012004,0.007626,-0.01658,-0.526946,-0.031279,1.233355,-262.192871,0.905065,71.869501
1.0269,-0.000366,-0.017102,-0.030721,0.005879,0.01198,0.007733,-0.016357,-0.526882,-0.031,1.233355,-262.192871,0.905065,71.869501
1.0473,-0.000859,-0.016306,-0.033306,0.00589,0.01197,0.007774,-0.015834,-0.526486,-0.030479,1.233125,-262.185825,0.898264,71.873248
1.0675,-0.000315,-0.016603,-0.031186,0.005947,0.011922,0.007829,-0.017651,-0.526045,-0.033039,1.233125,-262.185825,0.898264,71.873248
1.0875,-0.000257,-0.0163,-0.03143,0.005993,0.011881,0.007874,-0.017651,-0.526045,-0.033039,1.233125,-262.185825,0.898264,71.873248
1.1074,-0.00037,-0.015506,-0.031882,0.005993,0.011881,0.007874,-0.016022,-0.525556,-0.031105,1.232074,-262.178748,0.886681,71.876969
1.1277,-0.000346,-0.015625,-0.030144,0.006039,0.011837,0.007975,-0.016239,-0.525373,-0.031385,1.232074,-262.178748,0.886681,71.876969
1.1473,-0.00012,-0.015206,-0.029977,0.006056,0.01182,0.008014,-0.015513,-0.525017,-0.029891,1.226039,-262.171692,0.867759,71.880658
1.1673,-6.3e-05,-0.015628,-0.030251,0.006061,0.011812,0.00806,-0.015405,-0.524961,-0.029955,1.226039,-262.171692,0.867759,71.880658
1.1875,-0.000349,-0.015266,-0.031784,0.006066,0.011806,0.008099,-0.015405,-0.524961,-0.029955,1.226039,-262.171692,0.867759,71.880658
1.2075,-2.8e-05,-0.014721,-0.030835,0.006066,0.011806,0.008099,-0.016289,-0.524524,-0.03145,1.223186,-262.164605,0.852282,71.884325
1.2277,-0.000265,-0.014888,-0.029461,0.006124,0.01175,0.008177,-0.016037,-0.52445,-0.031158,1.223186,-262.164605,0.852282,71.884325
1.2472,0.000266,-0.014101,-0.029904,0.006145,0.011728,0.008207,-0.015084,-0.524298,-0.029204,1.223382,-262.157485,0.846709,71.887984
1.2674,0.000114,-0.01394,-0.028954,0.006153,0.011718,0.008236,-0.014982,-0.523891,-0.029831,1.223382,-262.157485,0.846709,71.887984
1.2873,-8.3e-05,-0.014009,-0.028855,0.006159,0.011709,0.00826,-0.014982,-0.523891,-0.029831,1.223382,-262.157485,0.846709,71.887984
1.3073,-9.3e-05,-0.013309,-0.029101,0.006159,0.011709,0.00826,-0.014528,-0.523316,-0.028514,1.218961,-262.150388,0.829685,71.891607
1.3278,0.000206,-0.01357,-0.02933,0.006192,0.011674,0.008304,-0.014663,-0.523169,-0.028716,1.218961,-262.150388,0.829685,71.891607
1.347,0.000153,-0.013272,-0.02911,0.006204,0.01166,0.00832,-0.014543,-0.522984,-0.029068,1.218506,-262.14326,0.824758,71.895231
1.3672,-3e-06,-0.012989,-0.031062,0.006217,0.011645,0.008337,-0.014667,-0.523031,-0.029093,1.218506,-262.14326,0.824758,71.895231
1.3873,0.000161,-0.012993,-0.02897,0.006228,0.011632,0.008351,-0.014667,-0.523031,-0.029093,1.218506,-262.14326,0.824758,71.895231
1.4071,0.000493,-0.01214,-0.029497,0.006228,0.011632,0.008351,-0.014339,-0.5223,-0.028623,1.215928,-262.136099,0.814703,71.898857
1.4269,0.000448,-0.01243,-0.029592,0.006283,0.011573,0.008378,-0.014395,-0.522084,-0.028948,1.215928,-262.136099,0.814703,71.898857
1.4472,0.000326,-0.011953,-0.027828,0.006303,0.01155,0.008389,-0.014434,-0.521845,-0.029328,1.214448,-262.128993,0.809166,71.90245
1.4669,0.000624,-0.012215,-0.02881,0.006318,0.011531,0.0084,-0.013905,-0.521745,-0.02795,1.214448,-262.128993,0.809166,71.90245
1.4872,0.000188,-0.011705,-0.02721,0.00633,0.011516,0.00841,-0.013905,-0.521745,-0.02795,1.214448,-262.128993,0.809166,71.90245
1.5077,0.000946,-0.011157,-0.027001,0.00633,0.011516,0.00841,-0.013411,-0.521041,-0.026859,1.20938,-262.121889,0.795084,71.906037
1.527,0.000769,-0.011133,-0.028433,0.006357,0.01148,0.008429,-0.013142,-0.520958,-0.026876,1.20938,-262.121889,0.795084,71.906037
1.5469,0.000691,-0.010618,-0.026977,0.006367,0.011466,0.008436,-0.013517,-0.520566,-0.028164,1.207535,-262.114756,0.789316,71.909636
1.5673,0.000424,-0.010529,-0.02672,0.006392,0.011437,0.008445,-0.013094,-0.520426,-0.027066,1.207535,-262.114756,0.789316,71.909636
1.5873,0.000701,-0.010544,-0.027912,0.006412,0.011412,0.008452,-0.013094,-0.520426,-0.027066,1.207535,-262.114756,0.789316,71.909636
1.6073,0.000908,-0.009876,-0.025625,0.006412,0.011412,0.008452,-0.013254,-0.519874,-0.02756,1.204908,-262.107643,0.781175,71.913219
1.6272,0.000978,-0.00967,-0.026108,0.006468,0.011342,0.008469,-0.012771,-0.519751,-0.026722,1.204908,-262.107643,0.781175,71.913219
1.647,0.000903,-0.009324,-0.026422,0.006489,0.011315,0.008475,-0.012123,-0.51914,-0.025841,1.201676,-262.100541,0.772584,71.916798
1.6671,0.001231,-0.009372,-0.026604,0.006522,0.011273,0.008483,-0.012524,-0.519129,-0.026361,1.201676,-262.100541,0.772584,71.916798
1.6874,0.001213,-0.009571,-0.025451,0.006549,0.011237,0.00849,-0.012524,-0.519129,-0.026361,1.201676,-262.100541,0.772584,71.916798
1.7075,0.000959,-0.00902,-0.026108,0.006549,0.011237,0.00849,-0.011484,-0.518942,-0.025098,1.195904,-262.093484,0.757623,71.920354
1.7274,0.001202,-0.009019,-0.025321,0.006572,0.011198,0.008502,-0.01181,-0.518849,-0.025473,1.195904,-262.093484,0.757623,71.920354
1.7472,0.001152,-0.008246,-0.024755,0.00658,0.011184,0.008507,-0.011494,-0.518504,-0.025052,1.19134,-262.086433,0.745978,71.923911
1.767,0.00103,-0.008147,-0.025316,0.006606,0.011146,0.008513,-0.011463,-0.518109,-0.024767,1.19134,-262.086433,0.745978,71.923911
1.7871,0.001475,-0.008171,-0.026448,0.006628,0.011115,0.008519,-0.011463,-0.518109,-0.024767,1.19134,-262.086433,0.745978,71.923911
1.8072,0.001246,-0.007496,-0.025242,0.006628,0.011115,0.008519,-0.011725,-0.517532,-0.026093,1.188775,-262.079376,0.738298,71.927468
1.8272,0.001467,-0.008152,-0.023682,0.006719,0.010987,0.008533,-0.011651,-0.517398,-0.025702,1.188775,-262.079376,0.738298,71.927468
1.8471,0.001868,-0.00715,-0.023983,0.006753,0.010938,0.008538,-0.010391,-0.517661,-0.023412,1.184987,-262.072346,0.728379,71.931013
1.8677,0.001543,-0.007166,-0.022477,0.006757,0.01092,0.008544,-0.010354,-0.517042,-0.023921,1.184987,-262.072346,0.728379,71.931013
1.8875,0.001579,-0.007533,-0.023247,0.006761,0.010905,0.008549,-0.010354,-0.517042,-0.023921,1.184987,-262.072346,0.728379,71.931013
1.9074,0.001583,-0.006396,-0.023658,0.006761,0.010905,0.008549,-0.009986,-0.51695,-0.022895,1.174837,-262.065428,0.703088,71.93451
1.9275,0.001857,-0.006863,-0.022687,0.006791,0.010845,0.008559,-0.010156,-0.516613,-0.023167,1.174837,-262.065428,0.703088,71.93451
1.9471,0.001915,-0.006351,-0.023434,0.006802,0.010822,0.008563,-0.00949,-0.516391,-0.022416,1.173765,-262.058434,0.699001,71.938043
1.9672,0.001604,-0.005961,-0.022115,0.006824,0.010783,0.008569,-0.009978,-0.51621,-0.023333,1.173765,-262.058434,0.699001,71.938043
1.9873,0.001894,-0.006359,-0.02355,0.006841,0.01075,0.008573,-0.009978,-0.51621,-0.023333,1.173765,-262.058434,0.699001,71.938043
2.0074,0.00173,-0.00531,-0.023746,0.006841,0.01075,0.008573,-0.009822,-0.515774,-0.023193,1.169961,-262.051475,0.688023,71.941559
2.0272,0.001992,-0.005963,-0.021722,0.006929,0.010598,0.008585,-0.010018,-0.515472,-0.02338,1.169961,-262.051475,0.688023,71.941559
2.0472,0.001639,-0.005266,-0.022567,0.006961,0.010541,0.008589,-0.008861,-0.515506,-0.02145,1.166441,-262.044508,0.678409,71.945079
2.0673,0.001942,-0.005159,-0.022769,0.006996,0.010476,0.008595,-0.009782,-0.51515,-0.022469,1.166441,-262.044508,0.678409,71.945079
2.087,0.002259,-0.004891,-0.021502,0.007024,0.010421,0.008599,-0.009782,-0.51515,-0.022469,1.166441,-262.044508,0.678409,71.945079
2.1077,0.001967,-0.004773,-0.021434,0.007024,0.010421,0.008599,-0.008412,-0.514347,-0.02115,1.155483,-262.037727,0.650266,71.948517
2.1274,0.001984,-0.004549,-0.021499,0.007059,0.0103,0.008613,-0.008605,-0.514425,-0.021226,1.155483,-262.037727,0.650266,71.948517
2.1473,0.002507,-0.004075,-0.020997,0.007072,0.010254,0.008618,-0.00875,-0.514105,-0.021226,1.149503,-262.030903,0.634501,71.951981
2.1671,0.002051,-0.00419,-0.022014,0.007092,0.010183,0.008625,-0.008241,-0.513958,-0.021004,1.149503,-262.030903,0.634501,71.951981
2.1874,0.00264,-0.004125,-0.02058,0.007107,0.010124,0.00863,-0.008241,-0.513958,-0.021004,1.149503,-262.030903,0.634501,71.951981
2.207,0.002631,-0.003653,-0.02308,0.007107,0.010124,0.00863,-0.007551,-0.513595,-0.020221,1.143192,-262.024129,0.614565,71.95542
2.2276,0.002484,-0.003666,-0.021533,0.007162,0.009954,0.00864,-0.008159,-0.513516,-0.021336,1.143192,-262.024129,0.614565,71.95542
2.2474,0.002629,-0.003212,-0.020719,0.007181,0.009891,0.008644,-0.008265,-0.513233,-0.02126,1.138284,-262.017376,0.599161,71.958848
2.2674,0.002437,-0.003378,-0.021457,0.007208,0.009797,0.008648,-0.007955,-0.513098,-0.020754,1.138284,-262.017376,0.599161,71.958848
2.2874,0.002762,-0.002776,-0.020738,0.007229,0.00972,0.008652,-0.007955,-0.513098,-0.020754,1.138284,-262.017376,0.599161,71.958848
2.3069,0.00254,-0.002723,-0.021768,0.007229,0.00972,0.008652,-0.007509,-0.512265,-0.020381,1.128694,-262.010757,0.570881,71.962213
2.3271,0.002781,-0.002819,-0.018947,0.007308,0.009436,0.008657,-0.007903,-0.512356,-0.020907,1.128694,-262.010757,0.570881,71.962213
2.347,0.003039,-0.002132,-0.020196,0.007336,0.009332,0.008659,-0.006647,-0.512424,-0.018674,1.121782,-262.004145,0.55032,71.96558
2.367,0.002491,-0.002386,-0.019967,0.007342,0.009221,0.00866,-0.007193,-0.512048,-0.020045,1.121782,-262.004145,0.55032,71.96558
2.3872,0.002972,-0.002444,-0.02046,0.007346,0.009131,0.008661,-0.007193,-0.512048,-0.020045,1.121782,-262.004145,0.55032,71.96558
2.4071,0.00298,-0.001665,-0.021766,0.007346,0.009131,0.008661,-0.007159,-0.511968,-0.020112,1.105769,-261.997851,0.503785,71.968803
2.427,0.002629,-0.001607,-0.019994,0.007388,0.008911,0.008664,-0.007517,-0.511752,-0.020747,1.105769,-261.997851,0.503785,71.968803
2.447,0.003437,-0.001416,-0.018452,0.007403,0.008831,0.008665,-0.007329,-0.511221,-0.01972,1.099678,-261.991431,0.481803,71.972092
2.4669,0.002993,-0.00105,-0.020064,0.007352,0.008713,0.008659,-0.006088,-0.511304,-0.018557,1.099678,-261.991431,0.481803,71.972092
2.4871,0.003097,-0.001428,-0.018783,0.007311,0.00862,0.008655,-0.006088,-0.511304,-0.018557,1.099678,-261.991431,0.481803,71.972092
2.5069,0.003363,-0.001244,-0.018381,0.007311,0.00862,0.008655,-0.006172,-0.510982,-0.018428,1.087993,-261.985197,0.445909,71.9753
2.5271,0.003262,-0.000391,-0.020503,0.007259,0.008394,0.008646,-0.006071,-0.511013,-0.018368,1.087993,-261.985197,0.445909,71.9753
2.5469,0.003354,-0.000424,-0.019058,0.00724,0.008314,0.008644,-0.006957,-0.510015,-0.020229,1.086776,-261.978944,0.427885,71.978498
2.5669,0.003452,-0.000244,-0.019152,0.007249,0.008121,0.008637,-0.006405,-0.51029,-0.019146,1.086776,-261.978944,0.427885,71.978498
2.587,0.00334,-0.000329,-0.016569,0.007257,0.007967,0.008632,-0.006405,-0.51029,-0.019146,1.086776,-261.978944,0.427885,71.978498
2.607,0.00363,0.000192,-0.01932,0.007257,0.007967,0.008632,-0.004806,-0.509922,-0.016214,1.08141,-261.972881,0.39692,71.981588
2.6269,0.003481,-0.000268,-0.016827,0.007105,0.007538,0.008599,-0.00535,-0.509797,-0.017443,1.08141,-261.972881,0.39692,71.981588
2.6472,0.00394,0.000566,-0.018041,0.007056,0.00739,0.008591,-0.004872,-0.509954,-0.016561,1.069409,-261.967018,0.35563,71.984594
2.6669,0.00374,0.000636,-0.017402,0.006992,0.007188,0.008579,-0.005213,-0.509394,-0.017892,1.069409,-261.967018,0.35563,71.984594
2.6873,0.004151,0.000245,-0.018673,0.006945,0.007029,0.008571,-0.005213,-0.509394,-0.017892,1.069409,-261.967018,0.35563,71.984594
2.7072,0.003924,0.000956,-0.018829,0.006945,0.007029,0.008571,-0.005089,-0.509381,-0.018335,1.061547,-261.961565,0.29485,71.987372
2.7271,0.003699,0.000937,-0.018906,0.006884,0.006737,0.008558,-0.005297,-0.509173,-0.018498,1.061547,-261.961565,0.29485,71.987372
2.7471,0.004211,0.001,-0.016578,0.006865,0.006634,0.008555,-0.005724,-0.508759,-0.018641,1.055544,-261.956089,0.252872,71.99016
2.7673,0.004415,0.001149,-0.01579,0.006718,0.006453,0.008538,-0.004366,-0.508903,-0.016751,1.055544,-261.956089,0.252872,71.99016
2.7872,0.004241,0.001124,-0.016502,0.006606,0.006313,0.008528,-0.004366,-0.508903,-0.016751,1.055544,-261.956089,0.252872,71.99016
2.8074,0.004099,0.000979,-0.015161,0.006606,0.006313,0.008528,-0.003895,-0.508544,-0.016158,1.046045,-261.950823,0.202521,71.992853
2.8271,0.004357,0.001493,-0.015894,0.006253,0.005979,0.008492,-0.003755,-0.508686,-0.015709,1.046045,-261.950823,0.202521,71.992853
2.8472,0.004019,0.001433,-0.016651,0.006138,0.005868,0.008484,-0.003541,-0.50825,-0.015629,1.050189,-261.945626,0.165779,71.995473
2.8677,0.004715,0.001692,-0.015694,0.006142,0.005778,0.008483,-0.004382,-0.508465,-0.01655,1.050189,-261.945626,0.165779,71.995473
2.8875,0.004312,0.002045,-0.016148,0.006147,0.005705,0.008484,-0.004382,-0.508465,-0.01655,1.050189,-261.945626,0.165779,71.995473
2.907,0.0043,0.001866,-0.014004,0.006147,0.005705,0.008484,-0.003675,-0.507659,-0.01581,1.063752,-261.940819,0.111453,71.997823
2.9273,0.004357,0.001965,-0.016646,0.005742,0.005252,0.008426,-0.003305,-0.507807,-0.01503,1.063752,-261.940819,0.111453,71.997823
2.9469,0.004401,0.002058,-0.014713,0.005611,0.005099,0.008411,-0.003936,-0.507788,-0.01638,1.056826,-261.935877,0.085064,72.000261
2.967,0.004855,0.002011,-0.014961,0.005488,0.004985,0.008399,-0.003164,-0.50787,-0.014842,1.056826,-261.935877,0.085064,72.000261
2.9873,0.004466,0.002476,-0.014875,0.005395,0.004897,0.008392,-0.003164,-0.50787,-0.014842,1.056826,-261.935877,0.085064,72.000261
3.0071,0.004377,0.002327,-0.015606,0.005395,0.004897,0.008392,-0.002913,-0.507283,-0.014571,1.069325,-261.931802,0.010059,72.00222
3.0278,0.004343,0.002888,-0.013764,0.005222,0.004628,0.008368,-0.003168,-0.507399,-0.014968,1.069325,-261.931802,0.010059,72.00222
3.0473,0.004618,0.002468,-0.014778,0.005164,0.004534,0.008363,-0.002511,-0.506918,-0.01351,1.076997,-261.927456,-0.042351,72.004281
3.0674,0.004495,0.002862,-0.01441,0.005062,0.004448,0.008352,-0.002875,-0.50742,-0.014655,1.076997,-261.927456,-0.042351,72.004281
3.0874,0.004472,0.00283,-0.014215,0.004984,0.004381,0.008345,-0.002875,-0.50742,-0.014655,1.076997,-261.927456,-0.042351,72.004281
3.107,0.004888,0.003326,-0.013805,0.004984,0.004381,0.008345,-0.002575,-0.506946,-0.013891,1.079077,-261.923402,-0.11052,72.006207
3.127,0.004658,0.002782,-0.014274,0.004616,0.004058,0.008278,-0.00238,-0.506795,-0.013819,1.079077,-261.923402,-0.11052,72.006207
3.1469,0.004647,0.003063,-0.013628,0.004494,0.003947,0.008258,-0.002464,-0.507031,-0.014013,1.086695,-261.919186,-0.142615,72.00819
3.167,0.004543,0.003235,-0.012531,0.004392,0.003875,0.008242,-0.002309,-0.506895,-0.013648,1.086695,-261.919186,-0.142615,72.00819
3.1874,0.004635,0.003007,-0.01314,0.004314,0.003818,0.00823,-0.002309,-0.506895,-0.013648,1.086695,-261.919186,-0.142615,72.00819
3.207,0.004594,0.003239,-0.014398,0.004314,0.003818,0.00823,-0.001903,-0.506808,-0.012847,1.107282,-261.915754,-0.217736,72.009769
3.2275,0.004491,0.003422,-0.013263,0.004166,0.003697,0.008199,-0.002229,-0.506751,-0.013446,1.107282,-261.915754,-0.217736,72.009769
3.2469,0.004707,0.003587,-0.012003,0.004115,0.003655,0.00819,-0.002141,-0.506419,-0.013014,1.116981,-261.912012,-0.2731,72.011473
3.267,0.004288,0.003566,-0.01293,0.003875,0.003535,0.008117,-0.001472,-0.506374,-0.01208,1.116981,-261.912012,-0.2731,72.011473
3.287,0.004641,0.003388,-0.012392,0.003691,0.003442,0.008063,-0.001472,-0.506374,-0.01208,1.116981,-261.912012,-0.2731,72.011473
3.307,0.004956,0.003456,-0.01272,0.003691,0.003442,0.008063,-0.00151,-0.506427,-0.01206,1.127036,-261.908292,-0.316285,72.013153
3.327,0.004737,0.003996,-0.012283,0.003464,0.003336,0.008008,-0.001499,-0.506441,-0.012293,1.127036,-261.908292,-0.316285,72.013153
3.3471,0.004938,0.00374,-0.012331,0.003388,0.0033,0.007991,-0.001418,-0.505866,-0.012046,1.15532,-261.904914,-0.381899,72.014622
3.367,0.004559,0.003839,-0.01264,0.003287,0.003234,0.007971,-0.001351,-0.506188,-0.012297,1.15532,-261.904914,-0.381899,72.014622
3.3876,0.00451,0.004095,-0.010717,0.003208,0.003183,0.007956,-0.001351,-0.506188,-0.012297,1.15532,-261.904914,-0.381899,72.014622
3.4075,0.004612,0.004288,-0.012258,0.003208,0.003183,0.007956,-0.000821,-0.505747,-0.010402,1.178203,-261.901571,-0.436503,72.016034
3.4272,0.005134,0.003855,-0.013255,0.002993,0.003005,0.007817,-0.001143,-0.505702,-0.011132,1.178203,-261.901571,-0.436503,72.016034
3.4473,0.004513,0.004512,-0.011895,0.002921,0.002942,0.00777,-0.001525,-0.506004,-0.01301,1.191202,-261.89823,-0.481547,72.017431
3.4678,0.004555,0.00401,-0.010472,0.002954,0.002886,0.007784,-0.001546,-0.505495,-0.01198,1.191202,-261.89823,-0.481547,72.017431
3.4874,0.004644,0.003992,-0.011503,0.002979,0.002839,0.007795,-0.001546,-0.505495,-0.01198,1.191202,-261.89823,-0.481547,72.017431
3.5072,0.004604,0.004374,-0.009669,0.002979,0.002839,0.007795,-0.001109,-0.505862,-0.011205,1.207745,-261.895211,-0.553186,72.018691
3.5274,0.00434,0.004147,-0.012015,0.002705,0.00278,0.007631,-0.000777,-0.505744,-0.010544,1.207745,-261.895211,-0.553186,72.018691
3.5472,0.004573,0.004557,-0.0113,0.002614,0.00276,0.007576,-0.001693,-0.505728,-0.011769,1.197191,-261.891978,-0.572766,72.020095
3.5675,0.004582,0.00435,-0.010688,0.002648,0.002727,0.007594,-0.001231,-0.505435,-0.01133,1.197191,-261.891978,-0.572766,72.020095
3.5877,0.004659,0.004339,-0.010164,0.002673,0.002699,0.007607,-0.001231,-0.505435,-0.01133,1.197191,-261.891978,-0.572766,72.020095
3.6077,0.004583,0.004266,-0.01028,0.002673,0.002699,0.007607,-0.000419,-0.505526,-0.009861,1.23072,-261.889009,-0.620317,72.021312
3.6271,0.004435,0.004653,-0.012224,0.002409,0.002658,0.007427,-0.000502,-0.505585,-0.009993,1.23072,-261.889009,-0.620317,72.021312
3.6477,0.004495,0.004635,-0.010254,0.002321,0.002646,0.007366,-0.001713,-0.505224,-0.011982,1.221764,-261.885891,-0.629588,72.022631
3.6678,0.004106,0.005204,-0.010587,0.00233,0.002618,0.007356,-0.000821,-0.505323,-0.010403,1.221764,-261.885891,-0.629588,72.022631
3.6875,0.004562,0.004357,-0.00928,0.002336,0.002594,0.007348,-0.000821,-0.505323,-0.010403,1.221764,-261.885891,-0.629588,72.022631
3.7077,0.004417,0.004476,-0.009998,0.002336,0.002594,0.007348,-7.7e-05,-0.505516,-0.008987,1.2567,-261.883035,-0.673738,72.02376
3.727,0.004454,0.004823,-0.009027,0.002134,0.002581,0.007155,-0.000313,-0.505497,-0.009366,1.2567,-261.883035,-0.673738,72.02376
3.7474,0.004323,0.004953,-0.007868,0.002068,0.002577,0.007091,-7.5e-05,-0.505074,-0.008794,1.252263,-261.880056,-0.681311,72.024962
3.7674,0.004353,0.004947,-0.008324,0.001883,0.002537,0.006845,0.00028,-0.505031,-0.00794,1.252263,-261.880056,-0.681311,72.024962
3.7875,0.004263,0.005233,-0.008462,0.001742,0.002505,0.006661,0.00028,-0.505031,-0.00794,1.252263,-261.880056,-0.681311,72.024962
3.8075,0.004049,0.005374,-0.008879,0.001742,0.002505,0.006661,3.3e-05,-0.504643,-0.00817,1.27995,-261.877228,-0.703278,72.026025
3.8275,0.004072,0.00539,-0.010481,0.001739,0.002401,0.006543,-0.000165,-0.504616,-0.008425,1.27995,-261.877228,-0.703278,72.026025
3.8472,0.004138,0.005196,-0.008953,0.001738,0.002362,0.006504,-0.001219,-0.504505,-0.010274,1.31166,-261.874585,-0.731363,72.026934
3.8673,0.003944,0.005553,-0.007653,0.001812,0.002343,0.006553,-0.000497,-0.504754,-0.009062,1.31166,-261.874585,-0.731363,72.026934
3.8872,0.004187,0.005261,-0.009125,0.001869,0.002326,0.006589,-0.000497,-0.504754,-0.009062,1.31166,-261.874585,-0.731363,72.026934
3.9072,0.004067,0.005385,-0.008736,0.001869,0.002326,0.006589,-0.000394,-0.50462,-0.008854,1.30297,-261.871967,-0.747101,72.027879
3.927,0.003772,0.00561,-0.008707,0.001901,0.002276,0.006574,-0.000383,-0.504599,-0.008774,1.30297,-261.871967,-0.747101,72.027879
3.9472,0.003806,0.005503,-0.008066,0.001912,0.002257,0.006568,-0.000609,-0.504298,-0.008499,1.284604,-261.869342,-0.737798,72.028881
3.9686,0.00388,0.005373,-0.007536,0.001909,0.002235,0.006472,-0.000332,-0.50446,-0.008094,1.284604,-261.869342,-0.737798,72.028881
3.9884,0.004286,0.005206,-0.007529,0.001907,0.002217,0.006397,-0.000332,-0.50446,-0.008094,1.284604,-261.869342,-0.737798,72.028881
4.007,0.003988,0.005615,-0.006146,0.001907,0.002217,0.006397,0.000528,-0.504685,-0.007252,1.2747,-261.866725,-0.742255,72.029917
4.0273,0.004097,0.005204,-0.006259,0.001524,0.002211,0.005906,0.000665,-0.504553,-0.006786,1.2747,-261.866725,-0.742255,72.029917
4.0471,0.003758,0.005814,-0.007216,0.001401,0.00221,0.005753,0.000966,-0.504716,-0.006056,1.268906,-261.864172,-0.725313,72.030931
4.0672,0.003916,0.005782,-0.008063,0.00142,0.002186,0.005696,0.000161,-0.504218,-0.007101,1.268906,-261.864172,-0.725313,72.030931
4.0874,0.004156,0.005436,-0.007663,0.001436,0.002166,0.005653,0.000161,-0.504218,-0.007101,1.268906,-261.864172,-0.725313,72.030931
4.1072,0.003805,0.005709,-0.005696,0.001436,0.002166,0.005653,0.000304,-0.504463,-0.007439,1.330793,-261.861976,-0.749348,72.031644
4.1274,0.003409,0.005908,-0.008685,0.001312,0.002159,0.005467,0.000551,-0.504381,-0.006709,1.330793,-261.861976,-0.749348,72.031644
4.1469,0.003845,0.00591,-0.007289,0.001272,0.002157,0.005408,-0.000975,-0.504004,-0.008506,1.320548,-261.859674,-0.730357,72.032409
4.1671,0.003604,0.006037,-0.006869,0.001358,0.002133,0.005481,2.6e-05,-0.504066,-0.007394,1.320548,-261.859674,-0.730357,72.032409
4.187,0.00348,0.005757,-0.005933,0.001423,0.002112,0.005534,2.6e-05,-0.504066,-0.007394,1.320548,-261.859674,-0.730357,72.032409
4.2072,0.003585,0.006083,-0.006402,0.001423,0.002112,0.005534,0.000508,-0.504145,-0.005708,1.341824,-261.857448,-0.733319,72.033089
4.227,0.003516,0.006072,-0.007256,0.001345,0.002093,0.005129,0.000438,-0.504038,-0.005963,1.341824,-261.857448,-0.733319,72.033089
4.2468,0.003199,0.006278,-0.007868,0.001323,0.002086,0.005001,-0.000139,-0.503848,-0.007081,1.31734,-261.855201,-0.72799,72.033844
4.2679,0.003502,0.006674,-0.005414,0.001551,0.002065,0.005226,-0.00075,-0.503716,-0.007788,1.31734,-261.855201,-0.72799,72.033844
4.2872,0.003654,0.005999,-0.007311,0.001727,0.002044,0.005395,-0.00075,-0.503716,-0.007788,1.31734,-261.855201,-0.72799,72.033844
4.307,0.00349,0.005677,-0.006945,0.001727,0.002044,0.005395,-2.6e-05,-0.503912,-0.007128,1.318788,-261.853365,-0.652992,72.034411
4.3272,0.00342,0.006384,-0.005988,0.00172,0.002031,0.005396,-3.1e-05,-0.504066,-0.007033,1.318788,-261.853365,-0.652992,72.034411
4.3469,0.003656,0.006092,-0.005834,0.001718,0.002026,0.005396,0.000418,-0.503547,-0.005828,1.258037,-261.851278,-0.62698,72.035204
4.3673,0.003707,0.00601,-0.004451,0.001571,0.002019,0.005157,0.00066,-0.503864,-0.005825,1.258037,-261.851278,-0.62698,72.035204
4.3875,0.003559,0.006238,-0.005422,0.001462,0.002014,0.004981,0.00066,-0.503864,-0.005825,1.258037,-261.851278,-0.62698,72.035204
4.4071,0.003546,0.006501,-0.004217,0.001462,0.002014,0.004981,0.000867,-0.50367,-0.005196,1.258463,-261.849041,-0.636197,72.036059
4.427,0.003415,0.006256,-0.006069,0.001157,0.002006,0.004318,0.001089,-0.503589,-0.004773,1.258463,-261.849041,-0.636197,72.036059
4.4471,0.003289,0.006422,-0.003837,0.001063,0.002003,0.004117,0.000366,-0.503672,-0.005914,1.289344,-261.846988,-0.613095,72.036756
4.4673,0.003384,0.006277,-0.005074,0.000944,0.002011,0.003758,0.001248,-0.50358,-0.004016,1.289344,-261.846988,-0.613095,72.036756
4.4875,0.003471,0.006939,-0.003649,0.000859,0.002016,0.0035,0.001248,-0.50358,-0.004016,1.289344,-261.846988,-0.613095,72.036756
4.5074,0.003194,0.006459,-0.003768,0.000859,0.002016,0.0035,0.001637,-0.503007,-0.00354,1.339755,-261.845834,-0.538201,72.03705
4.5275,0.00328,0.006838,-0.00483,0.000686,0.002008,0.002977,0.001492,-0.503216,-0.00362,1.339755,-261.845834,-0.538201,72.03705
4.5474,0.003319,0.006969,-0.005972,0.000633,0.002005,0.002819,0.000818,-0.503152,-0.004822,1.366915,-261.845709,-0.463146,72.037075
4.567,0.003217,0.00668,-0.004994,0.000837,0.001964,0.003237,0.000317,-0.503032,-0.00588,1.366915,-261.845709,-0.463146,72.037075
4.587,0.003233,0.006293,-0.004984,0.000993,0.00193,0.003549,0.000317,-0.503032,-0.00588,1.366915,-261.845709,-0.463146,72.037075
4.6072,0.003302,0.006543,-0.005573,0.000993,0.00193,0.003549,0.000691,-0.503701,-0.004984,1.402443,-261.845709,-0.387902,72.037075
4.6273,0.003368,0.006872,-0.005228,0.001093,0.001931,0.003704,0.000596,-0.503597,-0.005225,1.402443,-261.845709,-0.387902,72.037075
4.6469,0.00345,0.006457,-0.005585,0.001126,0.001932,0.003749,0.000722,-0.503083,-0.005155,1.333006,-261.844639,-0.313144,72.037334
4.6673,0.003392,0.006554,-0.003994,0.001165,0.001924,0.003847,0.000613,-0.503493,-0.005543,1.333006,-261.844639,-0.313144,72.037334
4.6872,0.003232,0.006691,-0.003692,0.001194,0.001918,0.003919,0.000613,-0.503493,-0.005543,1.333006,-261.844639,-0.313144,72.037334
4.707,0.003377,0.006794,-0.003791,0.001194,0.001918,0.003919,0.001397,-0.503225,-0.003536,1.310148,-261.842907,-0.308002,72.037802
4.7274,0.003193,0.006486,-0.00373,0.000921,0.001934,0.003146,0.001421,-0.503207,-0.003621,1.310148,-261.842907,-0.308002,72.037802
4.7469,0.003213,0.007057,-0.004459,0.000838,0.001939,0.002916,0.001326,-0.503454,-0.003615,1.300666,-261.84126,-0.37916,72.038276
4.767,0.00332,0.006518,-0.004508,0.000878,0.00192,0.002958,0.000976,-0.502982,-0.004377,1.300666,-261.84126,-0.37916,72.038276
4.7871,0.003375,0.006781,-0.004786,0.000909,0.001903,0.002986,0.000976,-0.502982,-0.004377,1.300666,-261.84126,-0.37916,72.038276
4.807,0.00316,0.006885,-0.005495,0.000909,0.001903,0.002986,0.000935,-0.503213,-0.004785,1.349196,-261.841253,-0.304151,72.038277
4.8269,0.003436,0.006703,-0.004996,0.001048,0.001878,0.003298,0.000701,-0.50317,-0.005073,1.349196,-261.841253,-0.304151,72.038277
4.8469,0.003275,0.006686,-0.004586,0.001094,0.001868,0.003394,0.000891,-0.503286,-0.004988,1.33159,-261.84113,-0.229153,72.038306
4.8669,0.003228,0.00681,-0.004813,0.001077,0.00187,0.003353,0.000932,-0.503306,-0.004622,1.33159,-261.84113,-0.229153,72.038306
4.8871,0.002835,0.006737,-0.006682,0.001064,0.001873,0.003322,0.000932,-0.503306,-0.004622,1.33159,-261.84113,-0.229153,72.038306
4.9073,0.003016,0.006922,-0.002849,0.001064,0.001873,0.003322,-0.000529,-0.503177,-0.006547,1.300061,-261.839569,-0.185308,72.038731
4.9269,0.003027,0.007064,-0.005082,0.001252,0.001855,0.003437,0.000332,-0.503127,-0.005018,1.300061,-261.839569,-0.185308,72.038731
4.947,0.002979,0.006953,-0.00268,0.001315,0.001847,0.003469,0.000469,-0.502872,-0.004979,1.304448,-261.837991,-0.146007,72.039151
4.9672,0.003249,0.007176,-0.004375,0.001106,0.001868,0.002879,0.001511,-0.503026,-0.002883,1.304448,-261.837991,-0.146007,72.039151
4.9873,0.002774,0.006916,-0.004089,0.000954,0.001886,0.002461,0.001511,-0.503026,-0.002883,1.304448,-261.837991,-0.146007,72.039151
5.0073,0.00284,0.006783,-0.002947,0.000954,0.001886,0.002461,0.000739,-0.50301,-0.003958,1.250512,-261.836479,-0.203953,72.039637
5.0276,0.003297,0.006885,-0.003778,0.000955,0.001888,0.002304,0.000986,-0.503085,-0.003534,1.250512,-261.836479,-0.203953,72.039637
5.047,0.003313,0.00712,-0.003449,0.000958,0.001888,0.002255,0.00137,-0.503111,-0.003778,1.296257,-261.836475,-0.12895,72.039638
5.0675,0.003127,0.006658,-0.003919,0.000875,0.001887,0.002207,0.001538,-0.502898,-0.003478,1.296257,-261.836475,-0.12895,72.039638
5.087,0.002876,0.006735,-0.002824,0.000812,0.001887,0.002172,0.001538,-0.502898,-0.003478,1.296257,-261.836475,-0.12895,72.039638
5.1071,0.003113,0.007396,-0.00376,0.000812,0.001887,0.002172,0.001436,-0.503263,-0.002823,1.285527,-261.836473,-0.053958,72.039639
5.1271,0.003023,0.006776,-0.005289,0.000764,0.001896,0.001985,0.001337,-0.502992,-0.003207,1.285527,-261.836473,-0.053958,72.039639
5.1477,0.003184,0.007089,-0.002386,0.00075,0.001899,0.001928,0.000326,-0.503217,-0.005289,1.323385,-261.836472,0.021102,72.039639
5.1676,0.002764,0.00727,-0.004533,0.000646,0.001915,0.001704,0.001818,-0.502938,-0.00265,1.323385,-261.836472,0.021102,72.039639
5.1875,0.002552,0.007262,-0.00339,0.000569,0.001928,0.001545,0.001818,-0.502938,-0.00265,1.323385,-261.836472,0.021102,72.039639
5.2077,0.003054,0.006953,-0.003573,0.000569,0.001928,0.001545,0.000823,-0.502735,-0.00339,1.331687,-261.836472,0.096049,72.039639
5.2275,0.003267,0.007431,-0.004303,0.000753,0.001904,0.001778,0.00099,-0.502861,-0.003465,1.331687,-261.836472,0.096049,72.039639
5.2474,0.002969,0.006855,-0.003947,0.000813,0.001895,0.001846,0.001072,-0.502564,-0.004303,1.375052,-261.836472,0.171049,72.039639
5.2676,0.00341,0.007443,-0.003025,0.000873,0.001888,0.002024,0.000966,-0.503089,-0.00398,1.375052,-261.836472,0.171049,72.039639
5.2874,0.003565,0.007293,-0.004325,0.000916,0.001882,0.002151,0.000966,-0.503089,-0.00398,1.375052,-261.836472,0.171049,72.039639
5.3076,0.003125,0.007381,-0.004777,0.000916,0.001882,0.002151,0.001359,-0.502702,-0.004325,1.307895,-261.836469,0.246057,72.03964
5.3273,0.002933,0.007366,-0.004775,0.000967,0.001837,0.002535,0.001084,-0.502665,-0.00451,1.307895,-261.836469,0.246057,72.03964
5.347,0.002845,0.006974,-0.003706,0.00098,0.001821,0.002652,0.000505,-0.502617,-0.004759,1.291656,-261.836189,0.321169,72.039731
5.3674,0.002907,0.0072,-0.003962,0.000991,0.001828,0.00256,0.000918,-0.502988,-0.003793,1.291656,-261.836189,0.321169,72.039731
5.387,0.003277,0.007192,-0.00477,0.001001,0.001834,0.002493,0.000918,-0.502988,-0.003793,1.291656,-261.836189,0.321169,72.039731
5.4074,0.002764,0.006858,-0.004506,0.001001,0.001834,0.002493,0.000877,-0.502741,-0.004683,1.293348,-261.835053,0.246066,72.040049
5.4274,0.003083,0.007296,-0.003117,0.001113,0.001814,0.002748,0.000713,-0.502895,-0.004601,1.293348,-261.835053,0.246066,72.040049
5.4469,0.002991,0.006914,-0.003449,0.001149,0.001806,0.002825,0.001524,-0.502646,-0.003041,1.280985,-261.833719,0.301206,72.040448
5.4671,0.003422,0.007084,-0.003836,0.00105,0.001825,0.002563,0.001259,-0.503043,-0.00341,1.280985,-261.833719,0.301206,72.040448
5.4871,0.002832,0.007365,-0.003381,0.000978,0.001839,0.002375,0.001259,-0.503043,-0.00341,1.280985,-261.833719,0.301206,72.040448
5.5074,0.003286,0.007165,-0.004966,0.000978,0.001839,0.002375,0.001128,-0.502599,-0.003334,1.256389,-261.833097,0.226062,72.040641
5.5272,0.003322,0.007306,-0.002692,0.00101,0.001818,0.002425,0.000977,-0.502689,-0.003996,1.256389,-261.833097,0.226062,72.040641
5.5472,0.003132,0.0076,-0.002845,0.00102,0.001809,0.00244,0.00197,-0.502653,-0.00264,1.281785,-261.832162,0.301032,72.040927
5.5672,0.003207,0.007702,-0.004125,0.000886,0.001817,0.002102,0.001709,-0.502419,-0.002823,1.281785,-261.832162,0.301032,72.040927
5.5871,0.003361,0.007327,-0.001741,0.000788,0.001823,0.001863,0.001709,-0.502419,-0.002823,1.281785,-261.832162,0.301032,72.040927
5.6069,0.003165,0.007143,-0.00392,0.000788,0.001823,0.001863,0.002516,-0.502597,-0.001639,1.270943,-261.830781,0.303346,72.041355
5.6271,0.003366,0.00683,-0.004222,0.000562,0.001863,0.001428,0.001966,-0.502693,-0.002565,1.270943,-261.830781,0.303346,72.041355
5.6471,0.003485,0.007236,-0.005128,0.00049,0.001878,0.001303,0.001214,-0.503163,-0.004218,1.310748,-261.830709,0.378462,72.041379
5.667,0.002578,0.007608,-0.002811,0.000652,0.001852,0.001861,0.000901,-0.502793,-0.005046,1.310748,-261.830709,0.378462,72.041379
5.6872,0.002966,0.007724,-0.003862,0.000773,0.001832,0.002281,0.000901,-0.502793,-0.005046,1.310748,-261.830709,0.378462,72.041379
5.707,0.002996,0.007625,-0.001565,0.000773,0.001832,0.002281,0.000997,-0.502272,-0.003862,1.385619,-261.830709,0.453332,72.04138
5.7271,0.003102,0.007815,-0.004119,0.000703,0.001829,0.00185,0.001492,-0.502315,-0.002915,1.385619,-261.830709,0.453332,72.04138
5.7469,0.003014,0.007743,-0.00377,0.000686,0.001827,0.001723,0.001024,-0.502128,-0.004053,1.33553,-261.829514,0.516576,72.0417
5.767,0.003014,0.007803,-0.004408,0.000763,0.001806,0.00189,0.001086,-0.50224,-0.003792,1.33553,-261.829514,0.516576,72.0417
5.787,0.002957,0.007796,-0.004522,0.000821,0.001789,0.002013,0.001086,-0.50224,-0.003792,1.33553,-261.829514,0.516576,72.0417
5.8069,0.002959,0.007501,-0.004093,0.000821,0.001789,0.002013,0.000656,-0.502187,-0.004508,1.33683,-261.829311,0.591568,72.041771
5.8272,0.002762,0.007521,-0.003506,0.001008,0.001754,0.002405,0.000746,-0.502312,-0.004336,1.33683,-261.829311,0.591568,72.041771
5.8469,0.002911,0.007672,-0.002397,0.001069,0.00174,0.002528,0.001,-0.50242,-0.003443,1.305181,-261.828083,0.598587,72.042161
5.8668,0.002845,0.00762,-0.002757,0.000925,0.001757,0.002057,0.001627,-0.502332,-0.002489,1.305181,-261.828083,0.598587,72.042161
5.887,0.003111,0.007687,-0.000754,0.000824,0.001771,0.001724,0.001627,-0.502332,-0.002489,1.305181,-261.828083,0.598587,72.042161
5.9071,0.003019,0.007571,-0.004709,0.000824,0.001771,0.001724,0.002729,-0.502309,-0.000748,1.256166,-261.828007,0.523709,72.042185
5.9274,0.002885,0.00755,-0.004494,0.000626,0.001805,0.001244,0.00187,-0.502355,-0.00236,1.256166,-261.828007,0.523709,72.042185
5.947,0.003239,0.007557,-0.005121,0.000565,0.001818,0.001103,0.000608,-0.502416,-0.004463,1.287042,-261.827374,0.598711,72.04242
5.9677,0.003304,0.007668,-0.003313,0.000763,0.001788,0.001716,0.000627,-0.502433,-0.00506,1.287042,-261.827374,0.598711,72.04242
5.9876,0.003467,0.007731,-0.002183,0.000912,0.001764,0.002177,0.000627,-0.502433,-0.00506,1.287042,-261.827374,0.598711,72.04242
6.0073,0.003351,0.007932,-0.004449,0.000912,0.001764,0.002177,0.002354,-0.502267,-0.002182,1.347873,-261.827362,0.673707,72.042426
6.0275,0.003184,0.007657,-0.001441,0.000727,0.001774,0.001907,0.001834,-0.502183,-0.003109,1.347873,-261.827362,0.673707,72.042426
6.0469,0.003289,0.007528,-0.002145,0.000667,0.001778,0.001825,0.00246,-0.502319,-0.001414,1.284083,-261.826843,0.598706,72.042589
6.0671,0.002783,0.007538,-0.002243,0.000521,0.00181,0.001409,0.002219,-0.502456,-0.00208,1.284083,-261.826843,0.598706,72.042589
6.0871,0.002911,0.007801,-0.002422,0.000415,0.001836,0.001113,0.002219,-0.502456,-0.00208,1.284083,-261.826843,0.598706,72.042589
6.1073,0.003195,0.007807,-0.002608,0.000415,0.001836,0.001113,0.001692,-0.502158,-0.002379,1.344266,-261.826194,0.673796,72.042794
6.1271,0.00303,0.007131,-0.002933,0.000435,0.001835,0.000992,0.001765,-0.502167,-0.002468,1.344266,-261.826194,0.673796,72.042794
6.1471,0.002873,0.00781,-0.003303,0.000444,0.001834,0.000954,0.001534,-0.502867,-0.002933,1.407454,-261.826189,0.748859,72.042797
6.1672,0.002765,0.00769,-0.002393,0.000555,0.001817,0.001174,0.001216,-0.502241,-0.003274,1.407454,-261.826189,0.748859,72.042797
6.1875,0.003274,0.007956,-0.002348,0.000639,0.001803,0.001333,0.001216,-0.502241,-0.003274,1.407454,-261.826189,0.748859,72.042797
6.2071,0.003162,0.007988,-0.005079,0.000639,0.001803,0.001333,0.002077,-0.502041,-0.002347,1.38905,-261.826168,0.824031,72.042808
6.2273,0.002872,0.007528,-0.004109,0.000708,0.00177,0.001642,0.001444,-0.502026,-0.003495,1.38905,-261.826168,0.824031,72.042808
6.2471,0.002618,0.007864,-0.001629,0.000728,0.001758,0.001737,0.000789,-0.502435,-0.004084,1.331181,-261.825539,0.899088,72.043083
6.2676,0.003112,0.007912,-0.002957,0.000647,0.001777,0.001242,0.001697,-0.502161,-0.00185,1.331181,-261.825539,0.899088,72.043083
6.2875,0.002936,0.007902,-0.003143,0.000594,0.001791,0.000891,0.001697,-0.502161,-0.00185,1.331181,-261.825539,0.899088,72.043083
6.3077,0.002927,0.008002,-0.003709,0.000594,0.001791,0.000891,0.001355,-0.50204,-0.00309,1.318065,-261.824671,0.82447,72.043384
6.3275,0.003156,0.007909,-0.001103,0.000743,0.001758,0.001322,0.001228,-0.502015,-0.003335,1.318065,-261.824671,0.82447,72.043384
6.3472,0.003135,0.007699,-0.003119,0.00079,0.001746,0.001454,0.002599,-0.502078,-0.001095,1.321637,-261.824451,0.899566,72.04351
6.3674,0.002839,0.008044,-0.003786,0.000747,0.001754,0.001435,0.001635,-0.502279,-0.002945,1.321637,-261.824451,0.899566,72.04351
6.3874,0.003014,0.007985,-0.002295,0.000714,0.00176,0.001422,0.001635,-0.502279,-0.002945,1.321637,-261.824451,0.899566,72.04351
6.4073,0.003064,0.008308,-0.003168,0.000714,0.00176,0.001422,0.001873,-0.501949,-0.00224,1.2796,-261.823468,0.826975,72.043926
6.4276,0.003193,0.007759,-0.003168,0.000655,0.001759,0.001227,0.001702,-0.501834,-0.002616,1.2796,-261.823468,0.826975,72.043926
6.4474,0.003307,0.007952,-0.003834,0.000638,0.001758,0.001169,0.001598,-0.502187,-0.003127,1.305732,-261.822469,0.895753,72.044345
6.4673,0.003295,0.008252,-0.003957,0.000697,0.001742,0.001463,0.001374,-0.502054,-0.00377,1.305732,-261.822469,0.895753,72.044345
6.4873,0.003153,0.008145,-0.002539,0.000739,0.00173,0.001679,0.001374,-0.502054,-0.00377,1.305732,-261.822469,0.895753,72.044345
6.5074,0.00301,0.007998,-0.003374,0.000739,0.00173,0.001679,0.00188,-0.501797,-0.0025,1.318174,-261.82168,0.970754,72.044723
6.5277,0.002898,0.008136,-0.00177,0.000688,0.001734,0.001493,0.00164,-0.501873,-0.002854,1.318174,-261.82168,0.970754,72.044723
6.5471,0.002787,0.008008,-0.003229,0.000673,0.001735,0.001439,0.002006,-0.501835,-0.001745,1.30858,-261.821119,0.895711,72.044924
6.5673,0.003062,0.00825,-0.002256,0.000728,0.001731,0.001473,0.001215,-0.501975,-0.0031,1.30858,-261.821119,0.895711,72.044924
6.5875,0.002946,0.008261,-0.001876,0.000771,0.001727,0.001498,0.001215,-0.501975,-0.0031,1.30858,-261.821119,0.895711,72.044924
6.6075,0.002657,0.008349,-0.003392,0.000771,0.001727,0.001498,0.002017,-0.501666,-0.001817,1.318912,-261.820043,0.904984,72.045358
6.627,0.002883,0.008484,-0.003309,0.000721,0.001728,0.001171,0.00157,-0.50165,-0.00246,1.318912,-261.820043,0.904984,72.045358
6.6473,0.002822,0.007928,-0.00198,0.000708,0.001727,0.001075,0.001216,-0.501466,-0.003269,1.286728,-261.8191,0.82999,72.045742
6.6672,0.003383,0.008499,-0.000852,0.000651,0.001741,0.000863,0.001768,-0.502024,-0.002075,1.286728,-261.8191,0.82999,72.045742
6.6872,0.002994,0.008072,-0.002224,0.000611,0.001752,0.000711,0.001768,-0.502024,-0.002075,1.286728,-261.8191,0.82999,72.045742
6.707,0.003309,0.008563,-0.002622,0.000611,0.001752,0.000711,0.001881,-0.501879,-0.002192,1.281904,-261.818431,0.905297,72.046087
6.727,0.002905,0.008766,-0.002852,0.000556,0.001752,0.000717,0.001921,-0.501692,-0.002365,1.281904,-261.818431,0.905297,72.046087
6.7471,0.003068,0.008337,-0.004054,0.000537,0.001752,0.000721,0.00146,-0.501209,-0.002841,1.298262,-261.81805,0.979989,72.046331
6.7679,0.003063,0.00855,-0.003004,0.000684,0.001721,0.001178,0.001043,-0.501616,-0.003943,1.298262,-261.81805,0.979989,72.046331
6.7872,0.003413,0.008902,-0.002422,0.000794,0.001696,0.001514,0.001043,-0.501616,-0.003943,1.298262,-261.81805,0.979989,72.046331
6.807,0.003011,0.008409,-0.001139,0.000794,0.001696,0.001514,0.002191,-0.50106,-0.002406,1.330449,-261.81759,1.054848,72.04662
6.8269,0.003205,0.008388,-0.002231,0.00056,0.001721,0.000819,0.00229,-0.501272,-0.001889,1.330449,-261.81759,1.054848,72.04662
6.8469,0.003093,0.008438,-0.002681,0.000488,0.001731,0.000613,0.002073,-0.501596,-0.002219,1.276473,-261.817308,0.979843,72.046734
6.8676,0.002875,0.008655,-0.003183,0.000519,0.001725,0.000735,0.001758,-0.501563,-0.002638,1.276473,-261.817308,0.979843,72.046734
6.8874,0.003091,0.008621,-0.001343,0.000542,0.00172,0.000822,0.001758,-0.501563,-0.002638,1.276473,-261.817308,0.979843,72.046734
6.9073,0.002666,0.008048,-0.00213,0.000542,0.00172,0.000822,0.002415,-0.501353,-0.001333,1.343093,-261.817005,1.054841,72.046936
6.9274,0.003585,0.008616,-0.003982,0.00044,0.001747,0.000304,0.002074,-0.501595,-0.001658,1.343093,-261.817005,1.054841,72.046936
6.9471,0.003117,0.008327,-0.001648,0.000412,0.001756,0.000149,0.001569,-0.501333,-0.003959,1.331523,-261.816219,1.129886,72.047394
6.9671,0.003226,0.008869,-0.003646,0.00038,0.001764,0.000116,0.002216,-0.50164,-0.001848,1.331523,-261.816219,1.129886,72.047394
6.9873,0.00296,0.008854,-0.002354,0.000356,0.001771,9.3e-05,0.002216,-0.50164,-0.001848,1.331523,-261.816219,1.129886,72.047394
7.0073,0.003186,0.008796,-0.003083,0.000356,0.001771,9.3e-05,0.001771,-0.501107,-0.00235,1.351208,-261.815819,1.204933,72.047757
7.0271,0.003036,0.008858,-0.004147,0.000505,0.00173,0.000554,0.001707,-0.501142,-0.002653,1.351208,-261.815819,1.204933,72.047757
7.0474,0.003461,0.008366,-0.003485,0.000553,0.001715,0.000694,0.00093,-0.501102,-0.004144,1.378511,-261.815335,1.280012,72.048212
7.0675,0.003225,0.008928,-0.002955,0.000611,0.001697,0.001052,0.001616,-0.501581,-0.003544,1.378511,-261.815335,1.280012,72.048212
7.0871,0.003216,0.008852,-0.002954,0.000652,0.001684,0.001316,0.001616,-0.501581,-0.003544,1.378511,-261.815335,1.280012,72.048212
7.1073,0.003466,0.009135,-0.000951,0.000652,0.001684,0.001316,0.001726,-0.501091,-0.002933,1.317959,-261.814658,1.205189,72.048643
7.1269,0.002775,0.008706,-0.001057,0.000514,0.001698,0.000866,0.002242,-0.500992,-0.002118,1.317959,-261.814658,1.205189,72.048643
7.147,0.002979,0.008765,-0.001692,0.000472,0.001703,0.000734,0.002242,-0.501278,-0.001045,1.314301,-261.814348,1.130153,72.048774
7.1676,0.003089,0.008464,-0.002172,0.000429,0.001716,0.000447,0.002127,-0.501237,-0.001635,1.314301,-261.814348,1.130153,72.048774
7.1875,0.002933,0.00859,-0.000922,0.000401,0.001726,0.000243,0.002127,-0.501237,-0.001635,1.314301,-261.814348,1.130153,72.048774
7.2074,0.002888,0.009071,-0.003902,0.000401,0.001726,0.000243,0.00248,-0.501347,-0.000895,1.354974,-261.813577,1.205232,72.049244
7.2272,0.003264,0.008662,-0.002341,0.000466,0.001719,0.000308,0.001843,-0.501169,-0.002107,1.354974,-261.813577,1.205232,72.049244
7.2472,0.003126,0.009019,-0.003613,0.000488,0.001716,0.000328,0.002081,-0.501293,-0.002334,1.360091,-261.812961,1.280129,72.049767
7.2671,0.003016,0.009012,-0.001712,0.00061,0.001685,0.000771,0.001356,-0.501004,-0.003497,1.360091,-261.812961,1.280129,72.049767
7.2872,0.003649,0.008692,-0.004657,0.000701,0.00166,0.001096,0.001356,-0.501004,-0.003497,1.360091,-261.812961,1.280129,72.049767
7.3073,0.003224,0.008732,-0.001033,0.000701,0.00166,0.001096,0.001294,-0.501233,-0.004644,1.321391,-261.812194,1.259309,72.050385
7.3273,0.003364,0.009,-0.002801,0.000675,0.00165,0.00135,0.001872,-0.501239,-0.003161,1.321391,-261.812194,1.259309,72.050385
7.3471,0.00316,0.009081,-0.001704,0.000663,0.001647,0.00143,0.001939,-0.500986,-0.002795,1.278657,-261.811983,1.184217,72.05049
7.3674,0.003185,0.008567,-0.000669,0.000566,0.001664,0.001011,0.002259,-0.500924,-0.001802,1.278657,-261.811983,1.184217,72.05049
7.3876,0.003237,0.00905,-0.001953,0.000498,0.001677,0.000714,0.002259,-0.500924,-0.001802,1.278657,-261.811983,1.184217,72.05049
7.4072,0.003178,0.00898,-0.002564,0.000498,0.001677,0.000714,0.002246,-0.500936,-0.001943,1.313685,-261.811793,1.109307,72.050564
7.4272,0.003261,0.009036,-0.000393,0.000473,0.001683,0.000612,0.002092,-0.500968,-0.002196,1.313685,-261.811793,1.109307,72.050564
7.4468,0.003396,0.008936,-0.002632,0.000465,0.001685,0.000582,0.003075,-0.500917,-0.000373,1.339202,-261.811018,1.184407,72.051042
7.467,0.00355,0.009538,-0.002488,0.000459,0.001685,0.000645,0.002145,-0.501047,-0.00243,1.339202,-261.811018,1.184407,72.051042
7.4871,0.00301,0.008904,-0.002576,0.000453,0.001686,0.000691,0.002145,-0.501047,-0.00243,1.339202,-261.811018,1.184407,72.051042
7.5073,0.003195,0.009233,-0.002414,0.000453,0.001686,0.000691,0.001715,-0.501027,-0.002553,1.346715,-261.810214,1.234291,72.051583
7.5273,0.003142,0.009466,-0.001316,0.000524,0.001674,0.000784,0.001819,-0.500912,-0.002493,1.346715,-261.810214,1.234291,72.051583
7.5471,0.003279,0.009283,-0.00165,0.000548,0.001669,0.000811,0.002486,-0.50048,-0.001294,1.358936,-261.809354,1.226307,72.052118
7.5677,0.002725,0.009576,-0.002869,0.000468,0.001682,0.000499,0.002443,-0.500692,-0.001616,1.358936,-261.809354,1.226307,72.052118
7.5876,0.003206,0.009253,-0.00316,0.000411,0.001692,0.000276,0.002443,-0.500692,-0.001616,1.358936,-261.809354,1.226307,72.052118
7.6074,0.002938,0.009407,-0.003915,0.000411,0.001692,0.000276,0.001614,-0.500684,-0.003131,1.322877,-261.808591,1.151306,72.052561
7.6274,0.003353,0.009534,-0.001289,0.000662,0.001637,0.001047,0.001348,-0.500639,-0.003441,1.322877,-261.808591,1.151306,72.052561
7.6474,0.003006,0.009383,-0.000825,0.000743,0.001617,0.001287,0.002705,-0.50043,-0.001282,1.353421,-261.808083,1.226335,72.052981
7.6672,0.00318,0.00909,-0.002653,0.000571,0.001643,0.000489,0.002597,-0.500599,-0.000865,1.353421,-261.808083,1.226335,72.052981
7.6872,0.003179,0.009406,-0.00335,0.000451,0.001666,-7.5e-05,0.002597,-0.500599,-0.000865,1.353421,-261.808083,1.226335,72.052981
7.7071,0.003365,0.009407,-0.002177,0.000451,0.001666,-7.5e-05,0.001473,-0.500586,-0.003346,1.278427,-261.808004,1.151341,72.053016
7.7272,0.003268,0.009525,-0.002815,0.000579,0.001633,0.000569,0.001793,-0.500588,-0.002867,1.278427,-261.808004,1.151341,72.053016
7.7472,0.003045,0.00941,-0.003121,0.000617,0.001623,0.000768,0.001843,-0.500439,-0.002816,1.29938,-261.807566,1.226332,72.053478
7.767,0.002952,0.009533,-0.002875,0.000687,0.001609,0.000981,0.001489,-0.500572,-0.003094,1.29938,-261.807566,1.226332,72.053478
7.7869,0.002807,0.009254,-0.001488,0.00074,0.001598,0.001138,0.001489,-0.500572,-0.003094,1.29938,-261.807566,1.226332,72.053478
7.807,0.003137,0.009987,-0.003029,0.00074,0.001598,0.001138,0.002066,-0.500697,-0.001466,1.283935,-261.806951,1.151325,72.053846
7.8275,0.0033,0.009535,-0.002054,0.00068,0.001609,0.00076,0.001874,-0.500411,-0.002101,1.283935,-261.806951,1.151325,72.053846
7.8472,0.003613,0.009373,-0.002715,0.000664,0.001613,0.000649,0.002259,-0.500448,-0.002044,1.258746,-261.80665,1.076349,72.053992
7.8669,0.003142,0.009437,-0.001583,0.000627,0.001614,0.000765,0.002232,-0.500607,-0.002651,1.258746,-261.80665,1.076349,72.053992
7.8869,0.003198,0.009453,-1.9e-05,0.000595,0.001616,0.000851,0.002232,-0.500607,-0.002651,1.258746,-261.80665,1.076349,72.053992
7.907,0.003064,0.009897,-0.003722,0.000595,0.001616,0.000851,0.003216,-0.500479,8e-06,1.251447,-261.805805,1.070981,72.054546
7.9269,0.003494,0.009718,-0.00093,0.000465,0.001645,0.000215,0.002387,-0.500317,-0.001503,1.251447,-261.805805,1.070981,72.054546
7.9468,0.003335,0.009146,-0.002676,0.000428,0.001655,2.6e-05,0.003038,-0.500233,-0.000904,1.299113,-261.80495,1.073471,72.055027
7.9669,0.002945,0.010248,-0.004347,0.00046,0.001649,0.00027,0.002066,-0.500795,-0.002517,1.299113,-261.80495,1.073471,72.055027
7.9872,0.003085,0.009716,-0.002529,0.000482,0.001646,0.000448,0.002066,-0.500795,-0.002517,1.299113,-261.80495,1.073471,72.055027
8.0073,0.00331,0.00997,-0.00279,0.000482,0.001646,0.000448,0.001804,-0.500256,-0.002527,1.320149,-261.804684,1.148461,72.055288
8.0271,0.003451,0.009752,-0.002643,0.000584,0.001622,0.000736,0.001839,-0.500161,-0.002633,1.320149,-261.804684,1.148461,72.055288
8.0473,0.003418,0.009777,-0.002295,0.000616,0.001613,0.000824,0.002117,-0.500199,-0.002631,1.324959,-261.803979,1.223465,72.055806
8.0671,0.003605,0.009592,-0.00305,0.000584,0.001615,0.000783,0.002237,-0.500218,-0.002324,1.324959,-261.803979,1.223465,72.055806
8.0872,0.003242,0.009829,-0.003205,0.000559,0.001617,0.000754,0.002237,-0.500218,-0.002324,1.324959,-261.803979,1.223465,72.055806
8.1073,0.00323,0.009999,-0.002853,0.000559,0.001617,0.000754,0.001623,-0.500124,-0.003183,1.287525,-261.803407,1.148465,72.056136
8.1272,0.003359,0.010043,-0.001628,0.000677,0.001588,0.00112,0.001687,-0.500068,-0.003046,1.287525,-261.803407,1.148465,72.056136
8.1474,0.002818,0.010534,-0.002065,0.000714,0.001577,0.001233,0.002547,-0.499906,-0.001604,1.307828,-261.802562,1.120371,72.05664
8.1675,0.003222,0.009802,-0.002872,0.000702,0.00158,0.000962,0.001836,-0.499502,-0.002022,1.307828,-261.802562,1.120371,72.05664
8.1871,0.003128,0.009932,-0.001925,0.000698,0.00158,0.000768,0.001836,-0.499502,-0.002022,1.307828,-261.802562,1.120371,72.05664
8.2069,0.003269,0.009989,-0.003353,0.000698,0.00158,0.000768,0.002154,-0.500045,-0.00191,1.273293,-261.802251,1.045373,72.056779
8.2271,0.003218,0.009714,-0.001394,0.000696,0.001576,0.00083,0.001911,-0.500028,-0.002499,1.273293,-261.802251,1.045373,72.056779
8.2474,0.003574,0.010051,-0.002935,0.000695,0.001575,0.000849,0.002529,-0.500237,-0.00137,1.242375,-261.801416,1.009643,72.057286
8.2675,0.003167,0.009892,-0.002781,0.000681,0.001572,0.000961,0.002119,-0.49997,-0.002794,1.242375,-261.801416,1.009643,72.057286
8.2875,0.003225,0.009969,-0.002968,0.000668,0.001569,0.001043,0.002119,-0.49997,-0.002794,1.242375,-261.801416,1.009643,72.057286
8.3073,0.00344,0.010093,-0.000381,0.000668,0.001569,0.001043,0.00174,-0.499963,-0.002933,1.250561,-261.800541,0.989294,72.057787
8.3273,0.003505,0.010378,-0.000186,0.000552,0.001595,0.000588,0.002357,-0.499933,-0.001889,1.250561,-261.800541,0.989294,72.057787
8.3475,0.003396,0.009949,-0.002571,0.000517,0.001604,0.000452,0.00343,-0.499574,-0.000154,1.276713,-261.799652,0.948936,72.058229
8.3672,0.003047,0.009994,-0.002527,0.000522,0.001603,0.00053,0.002205,-0.500005,-0.002354,1.276713,-261.799652,0.948936,72.058229
8.3873,0.002995,0.009923,-0.003118,0.000525,0.001603,0.000585,0.002205,-0.500005,-0.002354,1.276713,-261.799652,0.948936,72.058229
8.4075,0.003221,0.010196,-0.003142,0.000525,0.001603,0.000585,0.001414,-0.500051,-0.00311,1.302583,-261.799373,1.023932,72.058434
8.4276,0.003287,0.010077,-0.001633,0.000705,0.001569,0.00107,0.001499,-0.499946,-0.003122,1.302583,-261.799373,1.023932,72.058434
8.447,0.003375,0.010191,-0.003039,0.000763,0.001557,0.001218,0.002467,-0.499887,-0.001619,1.309209,-261.798802,1.099026,72.058813
8.4673,0.003331,0.010579,-0.001974,0.000761,0.001552,0.001264,0.001883,-0.499812,-0.002912,1.309209,-261.798802,1.099026,72.058813
8.4873,0.003349,0.010148,-0.002568,0.000758,0.001549,0.001297,0.001883,-0.499812,-0.002912,1.309209,-261.798802,1.099026,72.058813
8.5069,0.003116,0.010327,-0.000548,0.000758,0.001549,0.001297,0.002047,-0.499833,-0.002556,1.250634,-261.798549,1.024122,72.05893
8.5275,0.003032,0.01046,-0.002394,0.000597,0.00158,0.000609,0.00237,-0.499765,-0.001735,1.250634,-261.798549,1.024122,72.05893
8.5473,0.00297,0.010399,-0.00321,0.000549,0.001592,0.000405,0.00182,-0.499519,-0.002379,1.257697,-261.79816,0.949144,72.059099
8.5673,0.003293,0.010195,-0.001943,0.000669,0.00157,0.000738,0.001375,-0.499591,-0.003139,1.257697,-261.79816,0.949144,72.059099
8.5877,0.003253,0.010304,-0.001851,0.00076,0.001552,0.00098,0.001375,-0.499591,-0.003139,1.257697,-261.79816,0.949144,72.059099
8.6073,0.003473,0.010483,-0.002728,0.00076,0.001552,0.00098,0.002321,-0.499669,-0.001842,1.280549,-261.797845,1.024281,72.059337
8.6272,0.003592,0.010482,-0.001464,0.000669,0.001564,0.000756,0.002225,-0.499603,-0.0022,1.280549,-261.797845,1.024281,72.059337
8.6475,0.003853,0.010421,-0.001108,0.000639,0.001568,0.000691,0.002863,-0.49948,-0.001442,1.231253,-261.797166,0.949411,72.0597
8.6675,0.003445,0.01056,-0.001353,0.000478,0.0016,0.000208,0.003251,-0.499568,-0.001137,1.231253,-261.797166,0.949411,72.0597
8.6876,0.00316,0.010484,-0.000914,0.000357,0.001627,-0.000133,0.003251,-0.499568,-0.001137,1.231253,-261.797166,0.949411,72.0597
8.7075,0.003225,0.010388,-0.000978,0.000357,0.001627,-0.000133,0.002716,-0.499463,-0.00089,1.259915,-261.796491,1.024397,72.060124
8.7273,0.003033,0.010514,-0.002838,0.000285,0.001654,-0.000723,0.002723,-0.499517,-0.000923,1.259915,-261.796491,1.024397,72.060124
8.747,0.003255,0.010245,-0.001778,0.000268,0.001664,-0.0009,0.001589,-0.499478,-0.002838,1.335062,-261.796406,1.099544,72.060218
8.7671,0.003344,0.01064,-0.001123,0.000329,0.001654,-0.00063,0.002283,-0.49973,-0.001869,1.335062,-261.796406,1.099544,72.060218
8.7873,0.003035,0.010586,-0.000982,0.000374,0.001648,-0.000435,0.002283,-0.49973,-0.001869,1.335062,-261.796406,1.099544,72.060218
8.8071,0.00344,0.010394,-0.001403,0.000374,0.001648,-0.000435,0.002538,-0.499405,-0.000986,1.334814,-261.796344,1.174552,72.060338
8.8272,0.002998,0.010417,-0.001519,0.00034,0.001659,-0.000699,0.002615,-0.499486,-0.001158,1.334814,-261.796344,1.174552,72.060338
8.8473,0.003642,0.0107,-0.003317,0.000331,0.001663,-0.000779,0.002232,-0.499556,-0.001525,1.306488,-261.796054,1.249543,72.060733
8.8673,0.003466,0.010513,-0.001772,0.000452,0.001627,-0.000138,0.001976,-0.49932,-0.003154,1.306488,-261.796054,1.249543,72.060733
8.8871,0.003359,0.01044,-0.001377,0.000541,0.001599,0.000335,0.001976,-0.49932,-0.003154,1.306488,-261.796054,1.249543,72.060733
8.9073,0.003139,0.010391,-0.001374,0.000541,0.001599,0.000335,0.002669,-0.499516,-0.001396,1.298735,-261.79574,1.324408,72.061284
8.9272,0.003382,0.010575,-0.002313,0.00044,0.001622,-0.000141,0.002575,-0.499549,-0.00139,1.298735,-261.79574,1.324408,72.061284
8.947,0.003859,0.01077,-0.001868,0.000411,0.00163,-0.00028,0.002215,-0.499384,-0.002306,1.279565,-261.795154,1.249318,72.06175
8.9669,0.003335,0.010863,-0.002583,0.00039,0.001631,-0.000167,0.002847,-0.49924,-0.001906,1.279565,-261.795154,1.249318,72.06175
8.987,0.003653,0.010669,-0.000571,0.000371,0.001633,-8.4e-05,0.002847,-0.49924,-0.001906,1.279565,-261.795154,1.249318,72.06175
9.0072,0.00344,0.010709,-0.001123,0.000371,0.001633,-8.4e-05,0.003377,-0.499273,-0.000581,1.296414,-261.794636,1.324324,72.062381
9.0269,0.003294,0.010766,-0.002252,0.00022,0.00167,-0.000798,0.00317,-0.499273,-0.000804,1.296414,-261.794636,1.324324,72.062381
9.0469,0.003574,0.010863,-0.000588,0.000175,0.001684,-0.001011,0.002157,-0.499184,-0.002254,1.340091,-261.794013,1.353702,72.063042
9.067,0.003549,0.010541,-3.9e-05,0.000144,0.001695,-0.001198,0.003177,-0.499138,-0.000734,1.340091,-261.794013,1.353702,72.063042
9.0869,0.003514,0.011116,-0.002414,0.000123,0.001704,-0.001333,0.003177,-0.499138,-0.000734,1.340091,-261.794013,1.353702,72.063042
9.1073,0.003281,0.011247,-0.002537,0.000123,0.001704,-0.001333,0.00229,-0.498835,-0.002442,1.407714,-261.793721,1.428798,72.063666
9.1274,0.00354,0.011159,-0.001148,0.00038,0.001639,-0.000306,0.002165,-0.498795,-0.002485,1.407714,-261.793721,1.428798,72.063666
9.1473,0.003362,0.01104,-0.00135,0.00046,0.001616,1.3e-05,0.002959,-0.498794,-0.001185,1.43346,-261.793412,1.503893,72.064533
9.168,0.003479,0.011457,-0.001815,0.000426,0.001621,-0.000196,0.002699,-0.498943,-0.001337,1.43346,-261.793412,1.503893,72.064533
9.1874,0.003506,0.010693,-0.003431,0.000403,0.001626,-0.000343,0.002699,-0.498943,-0.001337,1.43346,-261.793412,1.503893,72.064533
9.207,0.003086,0.010859,-0.001346,0.000403,0.001626,-0.000343,0.00176,-0.49928,-0.003432,1.358572,-261.793172,1.429004,72.064771
9.2269,0.003678,0.010906,-0.002815,0.00055,0.001589,0.000277,0.002024,-0.499219,-0.002574,1.358572,-261.793172,1.429004,72.064771
9.2468,0.003452,0.01101,-0.002703,0.000596,0.001576,0.000469,0.002254,-0.499048,-0.002824,1.293322,-261.792669,1.354385,72.065413
9.267,0.003997,0.011018,-0.001841,0.000632,0.001563,0.000654,0.00209,-0.498991,-0.002714,1.293322,-261.792669,1.354385,72.065413
9.287,0.0036,0.010776,-0.001311,0.000657,0.001553,0.000789,0.00209,-0.498991,-0.002714,1.293322,-261.792669,1.354385,72.065413
9.307,0.003424,0.011442,-0.001024,0.000657,0.001553,0.000789,0.002941,-0.499192,-0.001303,1.261272,-261.792307,1.279425,72.065676
9.3277,0.003238,0.01123,-0.000102,0.00046,0.00159,-5.4e-05,0.002926,-0.498928,-0.001188,1.261272,-261.792307,1.279425,72.065676
9.3471,0.003363,0.011184,-0.002395,0.000402,0.001604,-0.000302,0.003192,-0.498752,-9.4e-05,1.258566,-261.792018,1.204436,72.065846
9.3672,0.0033,0.011195,-0.002166,0.000462,0.001592,-7.6e-05,0.002235,-0.498808,-0.002189,1.258566,-261.792018,1.204436,72.065846
9.3871,0.003634,0.011067,-0.001633,0.000507,0.001583,8.7e-05,0.002235,-0.498808,-0.002189,1.258566,-261.792018,1.204436,72.065846
9.4075,0.003575,0.011351,-0.001681,0.000507,0.001583,8.7e-05,0.002815,-0.498886,-0.001641,1.295119,-261.791607,1.279445,72.066356
9.4274,0.003732,0.011108,-0.001459,0.000444,0.001595,-6.1e-05,0.002777,-0.498783,-0.001658,1.295119,-261.791607,1.279445,72.066356
9.4471,0.003374,0.011426,-0.001896,0.000424,0.001599,-0.000104,0.003004,-0.498843,-0.001457,1.270181,-261.790937,1.25062,72.066987
9.4676,0.003819,0.011331,-0.001568,0.000449,0.001595,-5.4e-05,0.002459,-0.498594,-0.001858,1.270181,-261.790937,1.25062,72.066987
9.4875,0.003688,0.011274,-0.001189,0.000469,0.001591,-1.9e-05,0.002459,-0.498594,-0.001858,1.270181,-261.790937,1.25062,72.066987
9.5076,0.003864,0.011546,-0.002164,0.000469,0.001591,-1.9e-05,0.003098,-0.498665,-0.001192,1.301422,-261.790357,1.321073,72.067611
9.5271,0.003796,0.011773,-0.001856,0.000399,0.001604,-0.000157,0.002961,-0.498571,-0.001592,1.301422,-261.790357,1.321073,72.067611
9.5469,0.003776,0.011246,-0.001951,0.000375,0.001609,-0.000197,0.002864,-0.498177,-0.001856,1.282516,-261.789714,1.286402,72.068262
9.5672,0.003504,0.011436,7e-06,0.000382,0.001606,-8.7e-05,0.002789,-0.498701,-0.001943,1.282516,-261.789714,1.286402,72.068262
9.5874,0.003225,0.011195,-0.002543,0.000385,0.001605,-7e-06,0.002789,-0.498701,-0.001943,1.282516,-261.789714,1.286402,72.068262
9.6079,0.003623,0.011644,-0.002973,0.000385,0.001605,-7e-06,0.001942,-0.498743,-0.002551,1.323641,-261.789163,1.356994,72.068898
9.6273,0.003462,0.011263,-0.002379,0.000561,0.001564,0.00055,0.00201,-0.49858,-0.002721,1.323641,-261.789163,1.356994,72.068898
9.6475,0.003807,0.011617,-0.002344,0.000617,0.00155,0.000721,0.002261,-0.498685,-0.002379,1.334737,-261.78851,1.336003,72.069554
9.6672,0.004043,0.011574,-0.002474,0.000597,0.001549,0.00072,0.002581,-0.498406,-0.002347,1.334737,-261.78851,1.336003,72.069554
9.6874,0.00365,0.01135,-0.002827,0.000581,0.001548,0.000721,0.002581,-0.498406,-0.002347,1.334737,-261.78851,1.336003,72.069554
9.7074,0.003506,0.011556,-0.003123,0.000581,0.001548,0.000721,0.002214,-0.498629,-0.002819,1.270224,-261.788276,1.260921,72.069697
9.7272,0.003588,0.011531,-0.002686,0.000663,0.001524,0.001058,0.002091,-0.49855,-0.002943,1.270224,-261.788276,1.260921,72.069697
9.7474,0.003743,0.011511,-0.002647,0.000688,0.001515,0.001162,0.002228,-0.498436,-0.002673,1.286675,-261.787766,1.185894,72.070005
9.7673,0.00368,0.011422,-0.00209,0.000671,0.001516,0.001144,0.00238,-0.498482,-0.002648,1.286675,-261.787766,1.185894,72.070005
9.7872,0.003804,0.011673,-0.001797,0.000658,0.001516,0.001132,0.00238,-0.498482,-0.002648,1.286675,-261.787766,1.185894,72.070005
9.807,0.003696,0.011738,-0.001642,0.000658,0.001516,0.001132,0.002892,-0.498314,-0.001789,1.270688,-261.787595,1.110892,72.070082
9.8273,0.004019,0.011857,-0.00263,0.000514,0.001546,0.00053,0.002879,-0.498291,-0.001727,1.270688,-261.787595,1.110892,72.070082
9.8471,0.003653,0.011387,-0.000665,0.00047,0.001557,0.000352,0.002687,-0.498117,-0.002614,1.281285,-261.787154,1.035915,72.070284
9.867,0.003835,0.011652,-0.001717,0.000366,0.001582,-0.000173,0.003261,-0.498569,-0.00083,1.281285,-261.787154,1.035915,72.070284
9.8874,0.003569,0.011468,-0.00159,0.000293,0.001604,-0.000547,0.003261,-0.498569,-0.00083,1.281285,-261.787154,1.035915,72.070284
9.9072,0.003523,0.011447,-0.002048,0.000293,0.001604,-0.000547,0.00277,-0.498498,-0.001581,1.311258,-261.786769,1.110933,72.070583
9.9274,0.003707,0.011417,-0.002072,0.000359,0.001599,-0.000305,0.002652,-0.498516,-0.001772,1.311258,-261.786769,1.110933,72.070583
9.9472,0.003814,0.011558,-0.001128,0.00038,0.001598,-0.000232,0.002654,-0.498572,-0.002075,1.343954,-261.786661,1.185942,72.070745
9.9672,0.003721,0.011846,-0.002542,0.000329,0.001611,-0.000412,0.003185,-0.498453,-0.001215,1.343954,-261.786661,1.185942,72.070745
9.9873,0.003766,0.011827,-0.002993,0.000291,0.001621,-0.00054,0.003185,-0.498453,-0.001215,1.343954,-261.786661,1.185942,72.070745
10.0077,0.003386,0.011487,-0.00227,0.000291,0.001621,-0.00054,0.002252,-0.49813,-0.002998,1.31521,-261.786287,1.260903,72.071188
10.0272,0.003931,0.011952,-0.002063,0.000479,0.001574,0.000253,0.002244,-0.49828,-0.002702,1.31521,-261.786287,1.260903,72.071188
10.0472,0.004001,0.011909,-0.000312,0.000537,0.001558,0.000497,0.002887,-0.498014,-0.002073,1.349121,-261.785945,1.335937,72.071697
10.0673,0.003683,0.012024,-0.001687,0.000374,0.001589,-0.000258,0.00376,-0.498083,-0.000464,1.349121,-261.785945,1.335937,72.071697
10.0872,0.003923,0.0118,-0.001007,0.000256,0.001616,-0.000794,0.00376,-0.498083,-0.000464,1.349121,-261.785945,1.335937,72.071697
10.1077,0.004035,0.011934,-0.001225,0.000256,0.001616,-0.000794,0.003421,-0.498161,-0.000996,1.289768,-261.785486,1.260832,72.072021
10.1273,0.003919,0.012214,-0.00073,0.000198,0.001638,-0.000937,0.003418,-0.498117,-0.001087,1.289768,-261.785486,1.260832,72.072021
10.1471,0.003405,0.011796,-0.001915,0.000179,0.001646,-0.000979,0.003552,-0.497759,-0.000743,1.348036,-261.785238,1.335712,72.072473
10.1672,0.003285,0.012033,-9.5e-05,0.000267,0.001631,-0.000709,0.002528,-0.498163,-0.001812,1.348036,-261.785238,1.335712,72.072473
10.1872,0.003535,0.01226,-0.001369,0.000332,0.001619,-0.000513,0.002528,-0.498163,-0.001812,1.348036,-261.785238,1.335712,72.072473
10.207,0.003761,0.012107,-0.002784,0.000332,0.001619,-0.000513,0.002844,-0.497695,-0.001395,1.401708,-261.784963,1.410676,72.073055
10.227,0.004015,0.01221,-0.001724,0.000424,0.001595,-0.000168,0.002641,-0.49777,-0.001962,1.401708,-261.784963,1.410676,72.073055
10.2473,0.003934,0.01224,-0.001454,0.000453,0.001587,-6.3e-05,0.003146,-0.497743,-0.001738,1.32679,-261.784477,1.400442,72.073763
10.2671,0.003844,0.012206,-0.003836,0.000411,0.001593,-0.000181,0.003189,-0.497756,-0.001479,1.32679,-261.784477,1.400442,72.073763
10.2871,0.003838,0.012094,-0.002629,0.00038,0.001598,-0.000264,0.003189,-0.497756,-0.001479,1.32679,-261.784477,1.400442,72.073763
10.3073,0.004006,0.011966,-0.002344,0.00038,0.001598,-0.000264,0.002512,-0.497849,-0.002631,1.286257,-261.783944,1.325292,72.07432
10.3277,0.003903,0.011803,-0.003929,0.000472,0.001566,0.0003,0.002637,-0.497919,-0.002513,1.286257,-261.783944,1.325292,72.07432
10.3473,0.004009,0.012138,-0.001993,0.000498,0.001556,0.000474,0.001911,-0.498144,-0.003937,1.312244,-261.783366,1.358046,72.07502
10.367,0.003959,0.011886,-0.002328,0.000482,0.001557,0.000477,0.0029,-0.497883,-0.002162,1.312244,-261.783366,1.358046,72.07502
10.3874,0.004056,0.012065,-0.002207,0.00047,0.001558,0.000481,0.0029,-0.497883,-0.002162,1.312244,-261.783366,1.358046,72.07502
10.4072,0.003613,0.012043,-0.001639,0.00047,0.001558,0.000481,0.002942,-0.49789,-0.002195,1.3075,-261.782863,1.283103,72.075378
10.4269,0.003696,0.011921,-0.002569,0.000443,0.001564,0.000357,0.002875,-0.497912,-0.001964,1.3075,-261.782863,1.283103,72.075378
10.4472,0.003857,0.012485,-0.002177,0.000435,0.001566,0.000321,0.0024,-0.498032,-0.002554,1.322238,-261.782156,1.214937,72.075877
10.4672,0.003913,0.012226,-0.002645,0.000458,0.00156,0.000388,0.002718,-0.497556,-0.002209,1.322238,-261.782156,1.214937,72.075877
10.4872,0.00415,0.012358,-0.002982,0.000476,0.001555,0.000436,0.002718,-0.497556,-0.002209,1.322238,-261.782156,1.214937,72.075877
10.5072,0.00407,0.012538,-0.002272,0.000476,0.001555,0.000436,0.002647,-0.497576,-0.002969,1.328777,-261.781458,1.263334,72.07643
10.527,0.004051,0.012467,-0.001865,0.000518,0.001535,0.000774,0.002758,-0.497521,-0.002681,1.328777,-261.781458,1.263334,72.07643
10.5472,0.004008,0.012315,-0.000746,0.000529,0.001528,0.000877,0.003115,-0.497485,-0.001852,1.31538,-261.780732,1.217127,72.076959
10.5673,0.003768,0.012443,-0.001703,0.000399,0.001555,0.000203,0.003585,-0.497665,-0.000839,1.31538,-261.780732,1.217127,72.076959
10.5871,0.003598,0.012499,-0.000835,0.000308,0.001578,-0.000276,0.003585,-0.497665,-0.000839,1.31538,-261.780732,1.217127,72.076959
10.6073,0.004071,0.012622,-0.00211,0.000308,0.001578,-0.000276,0.003188,-0.497453,-0.000808,1.320007,-261.780099,1.142137,72.077294
10.6273,0.003814,0.012849,-0.001132,0.000307,0.001589,-0.00047,0.00311,-0.497416,-0.00134,1.320007,-261.780099,1.142137,72.077294
10.6473,0.003915,0.012547,-0.003213,0.00031,0.001593,-0.000528,0.003241,-0.497134,-0.001135,1.355777,-261.7799,1.217112,72.077538
10.6672,0.003618,0.012599,-0.001455,0.000426,0.001562,2.1e-05,0.002362,-0.497421,-0.003028,1.355777,-261.7799,1.217112,72.077538
10.6873,0.004201,0.012931,-0.002021,0.000511,0.001538,0.000424,0.002362,-0.497421,-0.003028,1.355777,-261.7799,1.217112,72.077538
10.7074,0.003739,0.012688,-0.001072,0.000511,0.001538,0.000424,0.003179,-0.497033,-0.002032,1.331322,-261.779616,1.292011,72.07796
10.727,0.004204,0.012712,-0.001308,0.000435,0.001554,9.7e-05,0.003186,-0.497144,-0.001636,1.331322,-261.779616,1.292011,72.07796
10.7479,0.003921,0.012834,-0.000663,0.000412,0.00156,1e-06,0.00355,-0.497247,-0.001297,1.293699,-261.778996,1.216865,72.078417
10.767,0.003772,0.012802,-0.001528,0.000331,0.001579,-0.00048,0.00358,-0.497171,-0.000716,1.293699,-261.778996,1.216865,72.078417
10.7872,0.00395,0.012463,-0.001372,0.000275,0.001595,-0.000823,0.00358,-0.497171,-0.000716,1.293699,-261.778996,1.216865,72.078417
10.8073,0.003834,0.013056,-0.000994,0.000275,0.001595,-0.000823,0.003265,-0.497481,-0.001372,1.312329,-261.77844,1.291905,72.078972
10.8271,0.003459,0.012578,-0.002334,0.000277,0.001603,-0.00085,0.003293,-0.49725,-0.001214,1.312329,-261.77844,1.291905,72.078972
10.8473,0.003914,0.013038,-0.002364,0.000279,0.001605,-0.000859,0.002276,-0.497386,-0.002352,1.323893,-261.778125,1.36705,72.079564
10.867,0.004095,0.012794,-0.001523,0.000373,0.001581,-0.000423,0.002672,-0.496996,-0.002364,1.323893,-261.778125,1.36705,72.079564
10.8875,0.004078,0.01301,-0.002757,0.000441,0.001563,-0.000104,0.002672,-0.496996,-0.002364,1.323893,-261.778125,1.36705,72.079564
10.9077,0.003654,0.013053,-0.002169,0.000441,0.001563,-0.000104,0.002683,-0.496926,-0.00279,1.318422,-261.777716,1.440665,72.080351
10.9277,0.004303,0.01281,-0.002485,0.000544,0.001531,0.000397,0.002629,-0.496927,-0.002537,1.318422,-261.777716,1.440665,72.080351
10.9477,0.004183,0.013065,0.000342,0.000575,0.00152,0.000551,0.003045,-0.497152,-0.002487,1.284575,-261.777257,1.365698,72.080846
10.9675,0.004102,0.012951,-0.002685,0.000377,0.001554,-0.000502,0.004243,-0.496952,9.4e-05,1.284575,-261.777257,1.365698,72.080846
10.9874,0.003959,0.012833,-0.002985,0.000236,0.001587,-0.001256,0.004243,-0.496952,9.4e-05,1.284575,-261.777257,1.365698,72.080846
11.0074,0.003786,0.013114,-0.000908,0.000236,0.001587,-0.001256,0.002444,-0.497141,-0.002977,1.27046,-261.776968,1.290547,72.081041
11.027,0.004031,0.013206,-0.002272,0.000389,0.001557,-0.00047,0.002807,-0.497033,-0.002124,1.27046,-261.776968,1.290547,72.081041
11.0471,0.004338,0.013213,-0.001527,0.000435,0.001548,-0.000227,0.00288,-0.496763,-0.002294,1.290701,-261.776768,1.365442,72.081598
11.0673,0.004155,0.013086,-0.002628,0.000401,0.001556,-0.000254,0.0035,-0.496783,-0.001595,1.290701,-261.776768,1.365442,72.081598
11.0875,0.004333,0.012989,-0.001458,0.000374,0.001563,-0.000271,0.0035,-0.496783,-0.001595,1.290701,-261.776768,1.365442,72.081598
11.1075,0.003752,0.012635,-0.001419,0.000374,0.001563,-0.000271,0.003608,-0.496948,-0.001467,1.271644,-261.776201,1.318558,72.082267
11.1274,0.004524,0.012779,-0.001575,0.000333,0.001577,-0.000394,0.003372,-0.497111,-0.001448,1.271644,-261.776201,1.318558,72.082267
11.147,0.004361,0.013078,-0.003189,0.00032,0.001583,-0.000429,0.003733,-0.497173,-0.001583,1.309034,-261.77565,1.35758,72.082941
11.1675,0.004482,0.013114,-0.002724,0.000404,0.001555,0.0001,0.002821,-0.496939,-0.00305,1.309034,-261.77565,1.35758,72.082941
11.1876,0.00392,0.013297,-0.000779,0.000464,0.001535,0.00049,0.002821,-0.496939,-0.00305,1.309034,-261.77565,1.35758,72.082941
11.2072,0.003976,0.012991,-0.002611,0.000464,0.001535,0.00049,0.003536,-0.496639,-0.000796,1.332945,-261.775125,1.398977,72.083664
11.2272,0.004212,0.013353,-0.003874,0.000412,0.001551,6.2e-05,0.003173,-0.496782,-0.00154,1.332945,-261.775125,1.398977,72.083664
11.2471,0.003985,0.013118,-0.002628,0.0004,0.001556,-6.4e-05,0.002243,-0.496615,-0.003866,1.322793,-261.774697,1.323926,72.083963
11.2672,0.004176,0.013452,-0.002771,0.000474,0.001536,0.000279,0.002609,-0.496856,-0.002736,1.322793,-261.774697,1.323926,72.083963
11.2874,0.004402,0.013182,-0.000772,0.000528,0.001521,0.00053,0.002609,-0.496856,-0.002736,1.322793,-261.774697,1.323926,72.083963
11.3073,0.004864,0.013481,-0.000488,0.000528,0.001521,0.00053,0.004025,-0.496753,-0.000775,1.312977,-261.77407,1.325072,72.08462
11.3276,0.004004,0.013212,-0.001871,0.000262,0.00158,-0.000607,0.004269,-0.496649,-0.000657,1.312977,-261.77407,1.325072,72.08462
11.347,0.004325,0.013352,-0.00171,0.00018,0.001604,-0.000942,0.003059,-0.496756,-0.001861,1.291777,-261.773592,1.250062,72.084946
11.3673,0.003988,0.013599,-0.002025,0.000221,0.001598,-0.000713,0.00342,-0.496655,-0.001722,1.291777,-261.773592,1.250062,72.084946
11.3872,0.004222,0.013358,-0.002504,0.00025,0.001594,-0.000547,0.00342,-0.496655,-0.001722,1.291777,-261.773592,1.250062,72.084946
11.4075,0.003915,0.013221,-0.000379,0.00025,0.001594,-0.000547,0.00295,-0.496618,-0.002517,1.366735,-261.773452,1.325021,72.085238
11.4273,0.004308,0.013361,-0.002635,0.0003,0.001589,-0.000395,0.003267,-0.496681,-0.001643,1.366735,-261.773452,1.325021,72.085238
11.4471,0.004233,0.013767,-0.001908,0.000317,0.001586,-0.000349,0.002971,-0.496597,-0.002648,1.375201,-261.77304,1.400007,72.085862
11.4673,0.004212,0.013494,-0.002968,0.000351,0.001577,-0.000184,0.003236,-0.496262,-0.001973,1.375201,-261.77304,1.400007,72.085862
11.4868,0.00433,0.013622,-0.002156,0.000376,0.001569,-6.6e-05,0.003236,-0.496262,-0.001973,1.375201,-261.77304,1.400007,72.085862
11.5073,0.004159,0.013598,-0.001875,0.000376,0.001569,-6.6e-05,0.003244,-0.496312,-0.00217,1.344221,-261.772485,1.396637,72.086581
11.5274,0.003961,0.01368,-0.00287,0.000409,0.001557,0.000134,0.003229,-0.496341,-0.00205,1.344221,-261.772485,1.396637,72.086581
11.5476,0.003922,0.013376,-0.002659,0.000418,0.001553,0.000194,0.002509,-0.496271,-0.002872,1.329912,-261.771888,1.341462,72.087208
11.5675,0.00437,0.01354,-0.002614,0.000492,0.001534,0.000453,0.002562,-0.496587,-0.002678,1.329912,-261.771888,1.341462,72.087208
11.5875,0.004166,0.013571,-0.000976,0.000546,0.001519,0.000641,0.002562,-0.496587,-0.002678,1.329912,-261.771888,1.341462,72.087208
11.6073,0.004414,0.013501,-0.002693,0.000546,0.001519,0.000641,0.003685,-0.496366,-0.000969,1.325485,-261.771229,1.286886,72.08778
11.6274,0.004149,0.013427,-0.002274,0.00045,0.001538,0.000248,0.00342,-0.496413,-0.001682,1.325485,-261.771229,1.286886,72.08778
11.6474,0.004047,0.013839,-0.002208,0.000421,0.001544,0.000133,0.002999,-0.496541,-0.002262,1.292345,-261.770732,1.211607,72.088093
11.6672,0.004156,0.013781,-0.002526,0.000458,0.001536,0.000255,0.002929,-0.496192,-0.002212,1.292345,-261.770732,1.211607,72.088093
11.6869,0.004168,0.013589,-0.00272,0.000486,0.001529,0.000343,0.002929,-0.496192,-0.002212,1.292345,-261.770732,1.211607,72.088093
11.7069,0.004329,0.013891,-0.002735,0.000486,0.001529,0.000343,0.002797,-0.496351,-0.002715,1.317488,-261.770131,1.286328,72.088638
11.7279,0.004277,0.01373,-0.003616,0.000557,0.001504,0.000748,0.002854,-0.496245,-0.002723,1.317488,-261.770131,1.286328,72.088638
11.7472,0.004601,0.014126,-0.001542,0.000578,0.001495,0.000872,0.002447,-0.496221,-0.003606,1.298045,-261.769466,1.217679,72.089156
11.7674,0.003861,0.013929,-0.001749,0.000503,0.00151,0.000598,0.003692,-0.495902,-0.001727,1.298045,-261.769466,1.217679,72.089156
11.7872,0.004204,0.013998,-0.002231,0.000448,0.001522,0.000402,0.003692,-0.495902,-0.001727,1.298045,-261.769466,1.217679,72.089156
11.8077,0.004266,0.0139,-0.00167,0.000448,0.001522,0.000402,0.003079,-0.495964,-0.002212,1.293261,-261.768986,1.142678,72.089411
11.8272,0.004233,0.013884,-0.001254,0.000449,0.001525,0.000341,0.003217,-0.496015,-0.001989,1.293261,-261.768986,1.142678,72.089411
11.8469,0.004519,0.013881,-0.001332,0.000451,0.001526,0.000323,0.003606,-0.496074,-0.001243,1.322777,-261.768356,1.217682,72.089879
11.867,0.004234,0.014406,-0.001249,0.000383,0.001542,3.8e-05,0.00382,-0.496112,-0.001323,1.322777,-261.768356,1.217682,72.089879
11.8874,0.004517,0.014039,-0.001564,0.000335,0.001555,-0.000165,0.00382,-0.496112,-0.001323,1.322777,-261.768356,1.217682,72.089879
11.9073,0.004196,0.01398,-0.001333,0.000335,0.001555,-0.000165,0.003738,-0.495897,-0.00155,1.315068,-261.767652,1.243754,72.090434
11.9272,0.004232,0.01424,-0.002097,0.00031,0.001566,-0.000315,0.003649,-0.49594,-0.00146,1.315068,-261.767652,1.243754,72.090434
11.9475,0.00445,0.013858,-0.002006,0.000303,0.00157,-0.000361,0.003172,-0.495721,-0.002101,1.344539,-261.767198,1.31875,72.090947
11.9672,0.004494,0.013969,-0.000716,0.000332,0.001563,-0.000172,0.003405,-0.496102,-0.002015,1.344539,-261.767198,1.31875,72.090947
11.9878,0.00469,0.014125,-0.002326,0.000352,0.001559,-3.7e-05,0.003405,-0.496102,-0.002015,1.344539,-261.767198,1.31875,72.090947
12.0072,0.004448,0.013957,-0.000691,0.000352,0.001559,-3.7e-05,0.003515,-0.495815,-0.00234,1.34996,-261.766705,1.393798,72.091594
12.027,0.004388,0.014349,-0.002026,0.000319,0.001566,-9.3e-05,0.003749,-0.495899,-0.001682,1.34996,-261.766705,1.393798,72.091594
12.0469,0.004656,0.014633,-0.001025,0.000308,0.001569,-0.00011,0.003365,-0.495602,-0.002027,1.345481,-261.766093,1.351667,72.092224
12.0675,0.004302,0.014075,-0.002502,0.000267,0.001579,-0.000363,0.004064,-0.495385,-0.001116,1.345481,-261.766093,1.351667,72.092224
12.0875,0.004055,0.014435,-0.004581,0.000239,0.001588,-0.000544,0.004064,-0.495385,-0.001116,1.345481,-261.766093,1.351667,72.092224
12.1069,0.004444,0.013986,-0.000763,0.000239,0.001588,-0.000544,0.001732,-0.495496,-0.004585,1.368665,-261.765495,1.384813,72.092873
12.1272,0.004445,0.01448,-0.00338,0.000466,0.001527,0.000419,0.002684,-0.495701,-0.003021,1.368665,-261.765495,1.384813,72.092873
12.1475,0.004392,0.014448,-0.000919,0.000538,0.001506,0.000718,0.002728,-0.49547,-0.003396,1.382829,-261.765015,1.447054,72.093598
12.1672,0.004423,0.014211,-0.002666,0.000449,0.001524,0.000225,0.00382,-0.495543,-0.001134,1.382829,-261.765015,1.447054,72.093598
12.1878,0.004382,0.014376,-0.000875,0.000388,0.001538,-0.000124,0.00382,-0.495543,-0.001134,1.382829,-261.765015,1.447054,72.093598
12.2071,0.004223,0.014483,-0.00188,0.000388,0.001538,-0.000124,0.003938,-0.495616,-0.000872,1.30778,-261.764909,1.372005,72.093662
12.2274,0.00458,0.014537,-0.002193,0.000344,0.001554,-0.000432,0.003662,-0.495574,-0.001285,1.30778,-261.764909,1.372005,72.093662
12.247,0.004675,0.014839,-0.001245,0.000332,0.00156,-0.000523,0.003474,-0.495414,-0.002197,1.311632,-261.764317,1.334994,72.094311
12.2678,0.004194,0.01463,-0.000797,0.000312,0.001566,-0.00057,0.003992,-0.49518,-0.001328,1.311632,-261.764317,1.334994,72.094311
12.2876,0.004524,0.014651,-0.000616,0.000297,0.001571,-0.000603,0.003992,-0.49518,-0.001328,1.311632,-261.764317,1.334994,72.094311
12.3072,0.004653,0.014494,-0.001867,0.000297,0.001571,-0.000603,0.004223,-0.495287,-0.000637,1.30895,-261.763834,1.395733,72.095029
12.327,0.004829,0.014583,-0.002976,0.000256,0.001584,-0.000789,0.004015,-0.495368,-0.001134,1.30895,-261.763834,1.395733,72.095029
12.347,0.005114,0.014742,-0.00208,0.000243,0.00159,-0.000845,0.003321,-0.495365,-0.002995,1.328961,-261.763345,1.418975,72.095802
12.3672,0.004424,0.014514,-0.005542,0.000274,0.001577,-0.000474,0.003985,-0.495264,-0.002167,1.328961,-261.763345,1.418975,72.095802
12.387,0.004941,0.014647,-0.00134,0.000291,0.001569,-0.000203,0.003985,-0.495264,-0.002167,1.328961,-261.763345,1.418975,72.095802
12.4074,0.004943,0.014806,-0.001565,0.000291,0.001569,-0.000203,0.004268,-0.495288,-0.001374,1.347964,-261.762917,1.4558,72.096627
12.4271,0.004187,0.014426,-0.00125,0.000237,0.001583,-0.000344,0.004219,-0.495242,-0.001455,1.347964,-261.762917,1.4558,72.096627
12.4471,0.004319,0.014729,-0.002239,0.000219,0.001588,-0.000385,0.003558,-0.495527,-0.001256,1.371831,-261.762361,1.400376,72.097275
12.4673,0.00458,0.015011,-0.003341,0.000296,0.001571,-0.000143,0.003212,-0.495291,-0.002151,1.371831,-261.762361,1.400376,72.097275
12.4873,0.004604,0.014756,-0.002997,0.000354,0.001558,3.3e-05,0.003212,-0.495291,-0.002151,1.371831,-261.762361,1.400376,72.097275
12.5077,0.004403,0.014913,-0.001571,0.000354,0.001558,3.3e-05,0.003084,-0.495179,-0.003012,1.410065,-261.761847,1.451061,72.097964
12.5271,0.004324,0.014919,-0.002656,0.00044,0.001531,0.000418,0.003296,-0.495134,-0.002428,1.410065,-261.761847,1.451061,72.097964
12.5473,0.00461,0.014731,-0.00288,0.000466,0.001521,0.000536,0.002978,-0.49504,-0.002655,1.349814,-261.761339,1.376028,72.09846
12.5672,0.004483,0.015133,-0.001977,0.000508,0.001506,0.00076,0.003127,-0.495244,-0.00286,1.349814,-261.761339,1.376028,72.09846
12.5873,0.004708,0.015192,-0.002688,0.000537,0.001494,0.000924,0.003127,-0.495244,-0.00286,1.349814,-261.761339,1.376028,72.09846
12.6075,0.004465,0.015051,-0.00102,0.000537,0.001494,0.000924,0.003347,-0.494768,-0.002676,1.323857,-261.760884,1.301057,72.098766
12.6274,0.00499,0.014844,-0.002197,0.000481,0.001505,0.000612,0.003593,-0.494837,-0.001997,1.323857,-261.760884,1.301057,72.098766
12.647,0.004957,0.015355,-0.001665,0.000465,0.001509,0.00052,0.003875,-0.495137,-0.002187,1.315469,-261.760585,1.225994,72.098917
12.6669,0.004756,0.015157,-0.002187,0.000414,0.00152,0.000341,0.004088,-0.494687,-0.00171,1.315469,-261.760585,1.225994,72.098917
12.6872,0.00471,0.015075,-0.002741,0.000377,0.001529,0.000214,0.004088,-0.494687,-0.00171,1.315469,-261.760585,1.225994,72.098917
12.708,0.004306,0.015017,-0.003547,0.000377,0.001529,0.000214,0.003331,-0.494861,-0.002719,1.321545,-261.75984,1.198754,72.099422
12.7272,0.004935,0.015229,-0.002161,0.000519,0.001489,0.000854,0.002995,-0.494902,-0.003053,1.321545,-261.75984,1.198754,72.099422
12.7471,0.005007,0.015272,-0.001567,0.000563,0.001475,0.001052,0.003843,-0.49473,-0.002155,1.347708,-261.759284,1.273734,72.099896
12.7674,0.004359,0.015146,-0.001129,0.000472,0.001495,0.000682,0.004176,-0.494726,-0.001619,1.347708,-261.759284,1.273734,72.099896
12.7874,0.004553,0.015277,-0.001729,0.000406,0.001511,0.000419,0.004176,-0.494726,-0.001619,1.347708,-261.759284,1.273734,72.099896
12.8072,0.004643,0.015169,-0.001203,0.000406,0.001511,0.000419,0.003676,-0.494708,-0.00172,1.310876,-261.759079,1.198763,72.099989
12.8275,0.004554,0.015206,-0.00137,0.000356,0.00153,1.7e-05,0.003822,-0.494756,-0.001506,1.310876,-261.759079,1.198763,72.099989
12.8474,0.00462,0.015079,-0.002341,0.000344,0.001536,-0.000103,0.003868,-0.494749,-0.001358,1.345034,-261.758408,1.258101,72.100478
12.8676,0.004544,0.015296,-0.00039,0.000384,0.001527,0.000101,0.003467,-0.494902,-0.002251,1.345034,-261.758408,1.258101,72.100478
12.8875,0.004589,0.015421,-0.002084,0.000412,0.00152,0.000248,0.003467,-0.494902,-0.002251,1.345034,-261.758408,1.258101,72.100478
12.9074,0.004755,0.015299,-0.00175,0.000412,0.00152,0.000248,0.003539,-0.494524,-0.002088,1.341283,-261.757894,1.332981,72.101034
12.9277,0.004351,0.015098,-0.000428,0.000415,0.001521,0.000238,0.003673,-0.49459,-0.00195,1.341283,-261.757894,1.332981,72.101034
12.9469,0.004813,0.01511,-0.000107,0.000416,0.001521,0.000235,0.004145,-0.494855,-0.000421,1.329205,-261.757239,1.278495,72.101578
12.967,0.004638,0.015193,-0.003337,0.000279,0.00155,-0.0006,0.004703,-0.494884,-0.000136,1.329205,-261.757239,1.278495,72.101578
12.987,0.004548,0.015332,-0.002942,0.000183,0.001577,-0.001198,0.004703,-0.494884,-0.000136,1.329205,-261.757239,1.278495,72.101578
13.007,0.004778,0.015628,-0.002298,0.000183,0.001577,-0.001198,0.003065,-0.494603,-0.002932,1.325938,-261.756553,1.277515,72.102153
13.0271,0.004638,0.01552,-0.002337,0.000384,0.001525,-0.000121,0.003286,-0.494501,-0.002674,1.325938,-261.756553,1.277515,72.102153
13.0469,0.004808,0.015536,-0.001998,0.000446,0.001508,0.000216,0.003451,-0.494456,-0.002355,1.357543,-261.756391,1.352451,72.102588
13.0675,0.00483,0.015467,-0.003214,0.00044,0.001509,0.000241,0.003757,-0.494461,-0.002032,1.357543,-261.756391,1.352451,72.102588
13.0874,0.004715,0.015332,-0.002836,0.000435,0.00151,0.000261,0.003757,-0.494461,-0.002032,1.357543,-261.756391,1.352451,72.102588
13.1072,0.004938,0.015696,-0.003113,0.000435,0.00151,0.000261,0.003284,-0.494613,-0.002829,1.304984,-261.755828,1.277452,72.103066
13.1271,0.004472,0.015524,-0.002124,0.000525,0.00148,0.000815,0.003312,-0.494481,-0.002943,1.304984,-261.755828,1.277452,72.103066
13.1471,0.00457,0.015457,-0.002404,0.00055,0.001471,0.000988,0.003403,-0.494427,-0.002116,1.315654,-261.755143,1.258985,72.10363
13.167,0.004821,0.015425,-0.001744,0.000546,0.001472,0.000928,0.00335,-0.494528,-0.002377,1.315654,-261.755143,1.258985,72.10363
13.187,0.00488,0.015586,-0.001692,0.000545,0.001473,0.000887,0.00335,-0.494528,-0.002377,1.315654,-261.755143,1.258985,72.10363
13.2071,0.004703,0.015573,-0.001678,0.000545,0.001473,0.000887,0.004024,-0.494391,-0.001678,1.311359,-261.75484,1.183981,72.103775
13.227,0.004599,0.015635,-0.001376,0.000439,0.0015,0.000376,0.003953,-0.494403,-0.001677,1.311359,-261.75484,1.183981,72.103775
13.2472,0.004634,0.015783,-0.001482,0.000408,0.00151,0.000224,0.003909,-0.49433,-0.001357,1.306815,-261.754236,1.108964,72.104087
13.2672,0.004921,0.015618,-0.001749,0.000386,0.001518,3.1e-05,0.003882,-0.494225,-0.001469,1.306815,-261.754236,1.108964,72.104087
13.2871,0.004645,0.015831,-0.001057,0.000372,0.001525,-0.000108,0.003882,-0.494225,-0.001469,1.306815,-261.754236,1.108964,72.104087
13.307,0.004777,0.015722,-0.001306,0.000372,0.001525,-0.000108,0.004118,-0.49413,-0.00105,1.328,-261.75382,1.184005,72.104438
13.3274,0.004832,0.015741,-0.002174,0.000316,0.001545,-0.000513,0.004117,-0.494186,-0.001154,1.328,-261.75382,1.184005,72.104438
13.347,0.004804,0.015741,-0.000847,0.000302,0.001552,-0.000634,0.003732,-0.494225,-0.002176,1.321132,-261.753415,1.25894,72.104878
13.3671,0.004829,0.015869,-0.002148,0.000272,0.001562,-0.000806,0.004313,-0.494254,-0.000969,1.321132,-261.753415,1.25894,72.104878
13.3872,0.004695,0.015908,-0.003438,0.000252,0.001571,-0.00093,0.004313,-0.494254,-0.000969,1.321132,-261.753415,1.25894,72.104878
13.4073,0.005064,0.015729,-0.002965,0.000252,0.001571,-0.00093,0.002952,-0.494046,-0.003455,1.317255,-261.753092,1.334012,72.105405
13.4272,0.004628,0.015844,-0.002695,0.000465,0.001504,0.000318,0.003197,-0.494132,-0.003258,1.317255,-261.753092,1.334012,72.105405
13.447,0.004674,0.016237,-0.001802,0.000531,0.001482,0.00071,0.003261,-0.494115,-0.002718,1.324368,-261.752763,1.40901,72.106089
13.4672,0.004932,0.015801,-0.003042,0.000507,0.001488,0.000539,0.00371,-0.493792,-0.001888,1.324368,-261.752763,1.40901,72.106089
13.4872,0.004644,0.016017,-0.002915,0.000492,0.001492,0.000419,0.00371,-0.493792,-0.001888,1.324368,-261.752763,1.40901,72.106089
13.5075,0.004689,0.016199,-0.002575,0.000492,0.001492,0.000419,0.003161,-0.493967,-0.00291,1.300442,-261.752593,1.334075,72.10619
13.5272,0.00478,0.015874,-0.001483,0.000572,0.001468,0.000812,0.003249,-0.493896,-0.002772,1.300442,-261.752593,1.334075,72.10619
13.547,0.004914,0.016019,-0.002592,0.000596,0.00146,0.000934,0.004034,-0.49409,-0.001474,1.296196,-261.752068,1.258892,72.106575
13.5671,0.00511,0.015549,-0.00285,0.000579,0.001462,0.000933,0.00363,-0.493987,-0.002497,1.296196,-261.752068,1.258892,72.106575
13.5872,0.005137,0.016016,-0.003064,0.000565,0.001463,0.000934,0.00363,-0.493987,-0.002497,1.296196,-261.752068,1.258892,72.106575
13.6074,0.004923,0.015897,-0.001478,0.000565,0.001463,0.000934,0.003581,-0.493964,-0.003054,1.285084,-261.751828,1.183851,72.106696
13.6271,0.00513,0.015633,-0.00218,0.000517,0.001471,0.000885,0.003822,-0.494018,-0.002408,1.285084,-261.751828,1.183851,72.106696
13.6473,0.004985,0.016219,-0.003029,0.0005,0.001475,0.000872,0.004028,-0.494338,-0.002163,1.299701,-261.751322,1.108817,72.10695
13.6671,0.004917,0.015935,-0.001986,0.000527,0.001466,0.00104,0.00349,-0.493824,-0.002955,1.299701,-261.751322,1.108817,72.10695
13.6874,0.004926,0.015944,-0.001053,0.000545,0.001459,0.001163,0.00349,-0.493824,-0.002955,1.299701,-261.751322,1.108817,72.10695
13.707,0.004758,0.015914,-0.002855,0.000545,0.001459,0.001163,0.004409,-0.493995,-0.001018,1.326865,-261.750513,1.083258,72.107367
13.7274,0.004615,0.016037,-0.004101,0.000444,0.001488,0.00059,0.003954,-0.494025,-0.001772,1.326865,-261.750513,1.083258,72.107367
13.7471,0.004703,0.015998,-0.003616,0.000415,0.001498,0.000419,0.002536,-0.493924,-0.004075,1.324657,-261.749865,1.008278,72.107635
13.7673,0.004986,0.015991,-0.001952,0.00052,0.001469,0.000898,0.002832,-0.493991,-0.003654,1.324657,-261.749865,1.008278,72.107635
13.7869,0.004954,0.016117,-0.002513,0.000598,0.001447,0.001252,0.002832,-0.493991,-0.003654,1.324657,-261.749865,1.008278,72.107635
13.8073,0.00483,0.016644,-0.002839,0.000598,0.001447,0.001252,0.003681,-0.493858,-0.002505,1.338246,-261.749582,1.083256,72.107841
13.8269,0.005155,0.016132,-0.003204,0.000577,0.00145,0.001186,0.00356,-0.49365,-0.00264,1.338246,-261.749582,1.083256,72.107841
13.8474,0.004838,0.016331,-0.001923,0.00057,0.001451,0.001168,0.003528,-0.493846,-0.003188,1.306834,-261.749202,1.008286,72.107991
13.8672,0.004716,0.015655,-0.000571,0.000527,0.001463,0.000933,0.00383,-0.493682,-0.002028,1.306834,-261.749202,1.008286,72.107991
13.8872,0.004714,0.016166,-0.000912,0.000497,0.001472,0.000765,0.00383,-0.493682,-0.002028,1.306834,-261.749202,1.008286,72.107991
13.9072,0.004983,0.016307,-0.001001,0.000497,0.001472,0.000765,0.004269,-0.493781,-0.000871,1.313265,-261.748428,0.93322,72.108314
13.927,0.004826,0.016142,-0.003218,0.000341,0.001513,-0.000256,0.004356,-0.493738,-0.00092,1.313265,-261.748428,0.93322,72.108314
13.9472,0.004842,0.016476,-0.001898,0.000298,0.001529,-0.000558,0.003195,-0.493828,-0.003203,1.319672,-261.747946,1.008278,72.108583
13.9674,0.004796,0.016544,-0.000672,0.000344,0.001522,-0.000319,0.003818,-0.493547,-0.002005,1.319672,-261.747946,1.008278,72.108583
13.9871,0.004912,0.016419,-0.003184,0.000377,0.001517,-0.000145,0.003818,-0.493547,-0.002005,1.319672,-261.747946,1.008278,72.108583
14.0068,0.00494,0.016663,-0.000252,0.000377,0.001517,-0.000145,0.00329,-0.493575,-0.003186,1.324906,-261.747913,1.083272,72.108635
14.027,0.004904,0.016525,-0.002398,0.000407,0.001512,4.8e-05,0.003921,-0.493476,-0.00197,1.324906,-261.747913,1.083272,72.108635
14.047,0.004931,0.016426,-0.001909,0.000415,0.001511,0.000107,0.003687,-0.493458,-0.002399,1.312785,-261.747711,1.158184,72.10886
14.0671,0.004936,0.016344,-0.001221,0.000418,0.001511,0.000142,0.003934,-0.493562,-0.001953,1.312785,-261.747711,1.158184,72.10886
14.0871,0.00492,0.016629,-0.001168,0.000421,0.001511,0.000168,0.003934,-0.493562,-0.001953,1.312785,-261.747711,1.158184,72.10886
14.1072,0.004825,0.016623,-0.000797,0.000421,0.001511,0.000168,0.004339,-0.493324,-0.001164,1.313269,-261.74722,1.233068,72.109314
14.1271,0.004766,0.016284,-0.001811,0.000328,0.001537,-0.000483,0.004373,-0.49334,-0.001012,1.313269,-261.74722,1.233068,72.109314
14.1469,0.004977,0.016388,-0.001056,0.000303,0.001546,-0.000677,0.003855,-0.493669,-0.001806,1.315852,-261.746577,1.280587,72.10988
14.1674,0.005045,0.016638,-0.002289,0.000286,0.001554,-0.000767,0.004387,-0.493614,-0.001123,1.315852,-261.746577,1.280587,72.10988
14.1872,0.00462,0.016624,-0.002884,0.000274,0.00156,-0.000832,0.004387,-0.493614,-0.001123,1.315852,-261.746577,1.280587,72.10988
14.207,0.00513,0.016362,-0.001835,0.000274,0.00156,-0.000832,0.003161,-0.493326,-0.002904,1.309186,-261.74623,1.355459,72.110467
14.2273,0.004346,0.016634,-0.00167,0.000423,0.001518,-2e-05,0.003584,-0.493448,-0.00247,1.309186,-261.74623,1.355459,72.110467
14.2468,0.004974,0.016863,-0.002149,0.000468,0.001504,0.000231,0.003503,-0.493321,-0.001694,1.315883,-261.745839,1.430441,72.111218
14.267,0.004858,0.016577,-0.001666,0.000476,0.001501,0.00029,0.003852,-0.493147,-0.002119,1.315883,-261.745839,1.430441,72.111218
14.2869,0.004703,0.016326,-0.004069,0.000481,0.001498,0.000334,0.003852,-0.493147,-0.002119,1.315883,-261.745839,1.430441,72.111218
14.308,0.004824,0.016662,-0.001573,0.000481,0.001498,0.000334,0.002637,-0.493635,-0.004064,1.293886,-261.745463,1.354823,72.111535
14.3272,0.004786,0.016689,-0.003341,0.000599,0.001461,0.000931,0.003183,-0.493514,-0.003084,1.293886,-261.745463,1.354823,72.111535
14.3473,0.005249,0.016351,-0.002724,0.000634,0.001448,0.001116,0.003092,-0.493273,-0.003334,1.295148,-261.744943,1.280438,72.111941
14.3673,0.004907,0.016916,-0.003057,0.00061,0.001449,0.001155,0.003806,-0.493619,-0.002766,1.295148,-261.744943,1.280438,72.111941
14.3877,0.004888,0.016784,-0.002833,0.000589,0.00145,0.001184,0.003806,-0.493619,-0.002766,1.295148,-261.744943,1.280438,72.111941
14.4071,0.004943,0.016669,-0.001598,0.000589,0.00145,0.001184,0.003445,-0.493209,-0.00283,1.281428,-261.744879,1.204825,72.11197
14.427,0.004985,0.016773,-0.003146,0.000547,0.00146,0.000942,0.003744,-0.493262,-0.00229,1.281428,-261.744879,1.204825,72.11197
14.4473,0.005227,0.016442,-0.001722,0.000535,0.001464,0.00087,0.003384,-0.493215,-0.003139,1.306102,-261.744705,1.129499,72.112042
14.4676,0.005024,0.016901,-0.001749,0.000477,0.001478,0.000652,0.004259,-0.493525,-0.001853,1.306102,-261.744705,1.129499,72.112042
14.4877,0.004918,0.016492,-0.000614,0.000434,0.00149,0.000496,0.004259,-0.493525,-0.001853,1.306102,-261.744705,1.129499,72.112042
14.5076,0.00465,0.016668,-0.001951,0.000434,0.00149,0.000496,0.004624,-0.493453,-0.000581,1.308895,-261.743958,1.055436,72.112431
14.5273,0.004516,0.016821,-0.002061,0.000345,0.001518,-0.000218,0.004233,-0.493397,-0.001134,1.308895,-261.743958,1.055436,72.112431
14.5472,0.005052,0.016732,-0.002138,0.000322,0.001529,-0.00043,0.003475,-0.493148,-0.002051,1.333154,-261.743485,1.130441,72.112755
14.5672,0.00481,0.016764,-0.002154,0.000365,0.00152,-0.000179,0.003918,-0.493255,-0.002129,1.333154,-261.743485,1.130441,72.112755
14.5872,0.004825,0.016815,0.000348,0.000394,0.001513,3e-06,0.003918,-0.493255,-0.002129,1.333154,-261.743485,1.130441,72.112755
14.6072,0.005108,0.016795,-0.002541,0.000394,0.001513,3e-06,0.005009,-0.493165,0.000343,1.321439,-261.743314,1.205484,72.112993
14.6272,0.005206,0.016755,-0.001804,0.000293,0.001543,-0.000718,0.004524,-0.493178,-0.000827,1.321439,-261.743314,1.205484,72.112993
14.6471,0.005004,0.017106,-0.001575,0.000267,0.001554,-0.000934,0.004297,-0.493204,-0.001804,1.316327,-261.742799,1.280433,72.113507
14.6676,0.005377,0.016614,-0.001835,0.000299,0.00155,-0.000752,0.00421,-0.49292,-0.001596,1.316327,-261.742799,1.280433,72.113507
14.6876,0.004947,0.017163,-0.002271,0.000323,0.001546,-0.000621,0.00421,-0.49292,-0.001596,1.316327,-261.742799,1.280433,72.113507
14.7073,0.005057,0.017129,-0.002563,0.000323,0.001546,-0.000621,0.003799,-0.492794,-0.002295,1.306179,-261.742537,1.355428,72.114057
14.7276,0.005309,0.016851,-0.001548,0.000441,0.001511,5.9e-05,0.00378,-0.49282,-0.002407,1.306179,-261.742537,1.355428,72.114057
14.7475,0.005229,0.017129,-0.002032,0.000476,0.001499,0.000268,0.004529,-0.493101,-0.001567,1.300905,-261.742071,1.404668,72.114808
14.7678,0.004727,0.017145,-0.00145,0.00046,0.001501,0.000269,0.004224,-0.492888,-0.001991,1.300905,-261.742071,1.404668,72.114808
14.7875,0.005194,0.017449,-0.001966,0.000447,0.001502,0.000271,0.004224,-0.492888,-0.001991,1.300905,-261.742071,1.404668,72.114808
14.8078,0.005145,0.017097,-0.001312,0.000447,0.001502,0.000271,0.004201,-0.492511,-0.00196,1.2918,-261.741652,1.329634,72.115152
14.8271,0.004926,0.016803,-0.000885,0.000407,0.001512,7.6e-05,0.004314,-0.492666,-0.001696,1.2918,-261.741652,1.329634,72.115152
14.847,0.005368,0.017678,-0.002085,0.000396,0.001516,1.9e-05,0.004487,-0.493154,-0.000877,1.309117,-261.741034,1.254631,72.115656
14.8671,0.004989,0.017284,-0.001624,0.000401,0.001514,8.9e-05,0.004322,-0.492395,-0.001975,1.309117,-261.741034,1.254631,72.115656
14.8876,0.005344,0.016924,-1e-06,0.000403,0.001512,0.000139,0.004322,-0.492395,-0.001975,1.309117,-261.741034,1.254631,72.115656
14.9078,0.005337,0.017304,-0.002111,0.000403,0.001512,0.000139,0.005359,-0.493016,-0.0,1.317162,-261.740438,1.313435,72.116244
14.9271,0.005216,0.017441,-0.001607,0.000269,0.001548,-0.000621,0.004914,-0.492878,-0.000859,1.317162,-261.740438,1.313435,72.116244
14.9471,0.004704,0.017542,-0.002078,0.00023,0.001561,-0.000848,0.004409,-0.49251,-0.001603,1.323451,-261.739783,1.295428,72.116834
14.9675,0.00499,0.017369,-0.001132,0.000318,0.001543,-0.00052,0.003714,-0.492459,-0.002035,1.323451,-261.739783,1.295428,72.116834
14.9869,0.005281,0.017399,-0.001258,0.000384,0.001529,-0.000282,0.003714,-0.492459,-0.002035,1.323451,-261.739783,1.295428,72.116834
15.0075,0.005081,0.017467,-0.000993,0.000384,0.001529,-0.000282,0.004648,-0.49256,-0.00128,1.353733,-261.739511,1.370381,72.117366
15.0274,0.005283,0.017793,-0.001219,0.000327,0.001544,-0.000599,0.004619,-0.492544,-0.001165,1.353733,-261.739511,1.370381,72.117366
15.0471,0.004854,0.017702,-7.7e-05,0.000311,0.001549,-0.000693,0.004673,-0.492161,-0.001228,1.295085,-261.738981,1.348854,72.118021
15.0674,0.00516,0.017318,-0.001436,0.000256,0.001564,-0.001239,0.004802,-0.492283,-0.000181,1.295085,-261.738981,1.348854,72.118021
15.0874,0.005222,0.017416,-0.002453,0.000222,0.001577,-0.001633,0.004802,-0.492283,-0.000181,1.295085,-261.738981,1.348854,72.118021
15.1074,0.005058,0.01758,-0.002429,0.000222,0.001577,-0.001633,0.003983,-0.492522,-0.002481,1.301642,-261.738546,1.414637,72.118766
