mach0312/omni-docking-bench/src/icros_test_setup/results/MPPI_sample/timeseries/trial_143.csv
t,x,y,yaw,vx,vy,wz,bl_x,bl_y,bl_yaw,front_steering_joint,front_wheel_joint,rear_steering_joint,rear_wheel_joint
0.0,0.068991,-0.022731,-0.087736,0.0,0.0,0.0,0.024597,-0.530955,-0.087802,0.434757,-257.798922,-0.170616,66.471555
0.0004,0.068992,-0.023084,-0.088483,0.0,0.0,0.0,0.024597,-0.530955,-0.087802,0.434757,-257.801248,-0.170616,66.469413
0.0007,0.069075,-0.022977,-0.087036,0.0,0.0,0.0,0.024257,-0.53106,-0.087617,0.434757,-257.802721,-0.170616,66.468058
0.001,0.06848,-0.023207,-0.086107,0.0,0.0,0.0,0.024257,-0.53106,-0.087617,0.434757,-257.802721,-0.170616,66.468058
0.0013,0.069044,-0.023077,-0.087563,0.0,0.0,0.0,0.024257,-0.53106,-0.087617,0.434757,-257.802721,-0.170616,66.468058
0.0016,0.068489,-0.023413,-0.087378,0.0,0.0,0.0,0.024871,-0.530818,-0.086935,0.434757,-257.802721,-0.170616,66.468058
0.0018,0.069202,-0.022979,-0.087265,0.0,0.0,0.0,0.024934,-0.530959,-0.086757,0.434757,-257.802721,-0.170616,66.468058
0.0021,0.069112,-0.023079,-0.088952,0.0,0.0,0.0,0.024934,-0.530959,-0.086757,0.434757,-257.802721,-0.170616,66.468058
0.0023,0.068989,-0.023151,-0.084905,0.0,0.0,0.0,0.023981,-0.531103,-0.087914,0.434757,-257.802721,-0.170616,66.468058
0.0163,0.069208,-0.022914,-0.087846,0.0,0.0,0.0,0.025739,-0.531314,-0.084905,0.434757,-257.802721,-0.170616,66.468058
0.0362,0.068647,-0.022709,-0.084817,0.0,0.0,0.0,0.024579,-0.53098,-0.087581,0.434757,-257.802721,-0.170616,66.468058
0.0568,0.069098,-0.022746,-0.087744,0.0,0.0,0.0,0.024579,-0.53098,-0.087581,0.434757,-257.802721,-0.170616,66.468058
0.076,0.068542,-0.022877,-0.087364,0.0,0.0,0.0,0.024406,-0.530784,-0.087744,0.434757,-257.802721,-0.170616,66.468058
0.0968,0.068481,-0.022914,-0.087568,0.0,0.0,0.0,0.024258,-0.530844,-0.087589,0.434757,-257.802721,-0.170616,66.468058
0.1164,0.06886,-0.022968,-0.086956,-0.003726,0.001874,0.011264,0.023878,-0.530959,-0.087568,0.434757,-257.802721,-0.170616,66.468058
0.1362,0.068903,-0.022808,-0.087381,-0.004079,0.002051,0.012032,0.024506,-0.531034,-0.087011,0.434757,-257.802721,-0.170616,66.468058
0.1561,0.068852,-0.023146,-0.086212,-0.004382,0.002202,0.012621,0.024506,-0.531034,-0.087011,0.434757,-257.802721,-0.170616,66.468058
0.1767,0.068551,-0.022743,-0.086237,-0.004645,0.00233,0.013074,0.024938,-0.531252,-0.086212,0.359735,-257.802721,-0.095595,66.468058
0.1967,0.068773,-0.02273,-0.086103,-0.004875,0.002436,0.013524,0.02481,-0.531088,-0.086222,0.359735,-257.802721,-0.095595,66.468058
0.2162,0.068891,-0.022863,-0.08784,-0.005075,0.002527,0.013873,0.024914,-0.53084,-0.086103,0.284732,-257.802721,-0.020592,66.468058
0.2361,0.068894,-0.023007,-0.085533,-0.005247,0.002607,0.014141,0.024218,-0.530892,-0.087684,0.284732,-257.802721,-0.020592,66.468058
0.2563,0.068551,-0.023013,-0.08719,-0.005397,0.002675,0.01435,0.024218,-0.530892,-0.087684,0.284732,-257.802721,-0.020592,66.468058
0.2762,0.068871,-0.022936,-0.086352,-0.005528,0.002733,0.014511,0.02414,-0.531076,-0.08719,0.209756,-257.802721,0.054384,66.468058
0.2965,0.068694,-0.022756,-0.088268,-0.005642,0.002782,0.014635,0.024449,-0.531059,-0.086843,0.209756,-257.802721,0.054384,66.468058
0.3161,0.069199,-0.022653,-0.088489,-0.005741,0.002824,0.014731,0.023735,-0.530771,-0.088268,0.134603,-257.802721,0.129537,66.468058
0.3363,0.068662,-0.022945,-0.086295,-0.00583,0.002856,0.014805,0.024093,-0.530668,-0.08847,0.134603,-257.802721,0.129537,66.468058
0.3563,0.068813,-0.022779,-0.088824,-0.005907,0.002884,0.014863,0.024093,-0.530668,-0.08847,0.134603,-257.802721,0.129537,66.468058
0.3763,0.068491,-0.023072,-0.085847,-0.005974,0.002907,0.014908,0.023572,-0.530768,-0.088824,0.059756,-257.802721,0.204384,66.468058
0.3964,0.068921,-0.022883,-0.086896,-0.006028,0.002933,0.014943,0.024057,-0.530941,-0.087612,0.059756,-257.802721,0.204384,66.468058
0.4163,0.068981,-0.023236,-0.087941,-0.006075,0.002955,0.01497,0.02466,-0.530958,-0.086896,-0.015238,-257.802721,0.279379,66.468058
0.4362,0.068662,-0.022908,-0.087256,-0.006115,0.002976,0.014991,0.02423,-0.531239,-0.08785,-0.015238,-257.802721,0.279379,66.468058
0.4564,0.068812,-0.022779,-0.087219,-0.006149,0.002993,0.015008,0.02423,-0.531239,-0.08785,-0.015238,-257.802721,0.279379,66.468058
0.4764,0.068893,-0.022955,-0.08816,-0.006179,0.003008,0.015022,0.024387,-0.530841,-0.087219,-0.090358,-257.802721,0.354498,66.468058
0.4964,0.068831,-0.022612,-0.086197,-0.00621,0.003014,0.015034,0.024225,-0.530895,-0.087604,-0.090358,-257.802721,0.354498,66.468058
0.5165,0.068823,-0.023144,-0.086958,-0.006236,0.00302,0.015043,0.024925,-0.530719,-0.086197,-0.165357,-257.802721,0.429497,66.468058
0.5364,0.068664,-0.023063,-0.08788,-0.006259,0.003025,0.015051,0.024564,-0.531175,-0.086893,-0.165357,-257.802721,0.429497,66.468058
0.5563,0.068754,-0.022955,-0.086377,-0.006278,0.00303,0.015057,0.024564,-0.531175,-0.086893,-0.165357,-257.802721,0.429497,66.468058
0.5761,0.069211,-0.023289,-0.088482,-0.006296,0.003033,0.015062,0.024757,-0.531053,-0.086377,-0.240373,-257.802721,0.504514,66.468058
0.5964,0.068723,-0.022659,-0.087731,-0.00631,0.003036,0.015067,0.024506,-0.531152,-0.087238,-0.240373,-257.802721,0.504514,66.468058
0.6161,0.06878,-0.022935,-0.087417,-0.006323,0.003039,0.01507,0.024038,-0.530697,-0.087731,-0.315269,-257.802721,0.57941,66.468058
0.6362,0.068821,-0.022845,-0.088149,-0.006334,0.003042,0.015073,0.024235,-0.530962,-0.087445,-0.315269,-257.802721,0.57941,66.468058
0.6564,0.069173,-0.022771,-0.086929,-0.006343,0.003045,0.015076,0.024235,-0.530962,-0.087445,-0.315269,-257.802721,0.57941,66.468058
0.6762,0.06875,-0.022999,-0.087304,-0.006351,0.003047,0.015078,0.024895,-0.530845,-0.086929,-0.390258,-257.802722,0.654398,66.468057
0.6964,0.068825,-0.022996,-0.08636,-0.006363,0.003042,0.01508,0.024644,-0.530932,-0.087083,-0.390258,-257.802722,0.654398,66.468057
0.7162,0.069141,-0.022851,-0.086049,-0.006373,0.003038,0.015082,0.024836,-0.531095,-0.08636,-0.465233,-257.802723,0.729374,66.468057
0.7361,0.068474,-0.023046,-0.087201,-0.006387,0.003027,0.015084,0.025269,-0.530976,-0.086076,-0.465233,-257.802723,0.729374,66.468057
0.7561,0.068893,-0.023029,-0.086393,-0.006399,0.003018,0.015086,0.025269,-0.530976,-0.086076,-0.465233,-257.802723,0.729374,66.468057
0.7761,0.068827,-0.023087,-0.087955,-0.006409,0.003009,0.015087,0.024887,-0.531127,-0.086392,-0.540351,-257.80273,0.769479,66.468052
0.7963,0.068782,-0.023026,-0.08761,-0.006409,0.003016,0.015087,0.024532,-0.531123,-0.087038,-0.540351,-257.80273,0.769479,66.468052
0.8164,0.068715,-0.022724,-0.086822,-0.006409,0.003021,0.015087,0.024156,-0.53107,-0.087608,-0.615433,-257.802765,0.769208,66.468029
0.8361,0.068705,-0.022883,-0.088051,-0.006412,0.003021,0.015088,0.024463,-0.530826,-0.086889,-0.615433,-257.802765,0.769208,66.468029
0.857,0.068516,-0.023106,-0.085907,-0.006414,0.003021,0.015088,0.024463,-0.530826,-0.086889,-0.615433,-257.802765,0.769208,66.468029
0.876,0.068694,-0.022884,-0.086525,-0.006416,0.003021,0.015089,0.024749,-0.531223,-0.085894,-0.690383,-257.8029,0.768325,66.467943
0.8963,0.069087,-0.023092,-0.087893,-0.006417,0.003024,0.015089,0.024696,-0.531123,-0.086149,-0.690383,-257.8029,0.768325,66.467943
0.9165,0.068634,-0.022806,-0.086804,-0.006417,0.003026,0.015089,0.0243,-0.531118,-0.087863,-0.765246,-257.803312,0.767756,66.467677
0.9363,0.06863,-0.023338,-0.085849,-0.006417,0.003028,0.015089,0.024408,-0.530906,-0.086893,-0.765246,-257.803312,0.767756,66.467677
0.9565,0.06851,-0.022869,-0.086204,-0.006418,0.003029,0.015089,0.024408,-0.530906,-0.086893,-0.765246,-257.803312,0.767756,66.467677
0.9761,0.068547,-0.022974,-0.086942,-0.006418,0.003031,0.01509,0.024542,-0.530954,-0.086101,-0.840355,-257.804324,0.767349,66.467024
0.9961,0.068859,-0.022743,-0.08768,-0.006417,0.003033,0.01509,0.024422,-0.53099,-0.086432,-0.840355,-257.804324,0.767349,66.467024
1.0168,0.068095,-0.023001,-0.086203,-0.006416,0.003036,0.01509,0.024115,-0.530748,-0.087514,-0.915241,-257.806374,0.766953,66.465702
1.0362,0.068256,-0.022921,-0.088795,-0.006412,0.003043,0.01509,0.024176,-0.531073,-0.086312,-0.915241,-257.806374,0.766953,66.465702
1.056,0.068428,-0.022894,-0.085844,-0.006408,0.003049,0.01509,0.024176,-0.531073,-0.086312,-0.915241,-257.806374,0.766953,66.465702
1.076,0.06791,-0.022735,-0.086541,-0.006405,0.003055,0.01509,0.024527,-0.530932,-0.085469,-0.990248,-257.809792,0.766684,66.463501
1.0962,0.067999,-0.022544,-0.084678,-0.006405,0.003055,0.015229,0.024221,-0.530879,-0.085866,-0.990248,-257.809792,0.766684,66.463501
1.1159,0.066878,-0.022566,-0.085251,-0.006405,0.003056,0.015339,0.024695,-0.530621,-0.084272,-1.065303,-257.814519,0.766023,66.460465
1.1364,0.067058,-0.022373,-0.086875,-0.006399,0.003065,0.015515,0.023553,-0.530701,-0.085145,-1.065303,-257.814519,0.766023,66.460465
1.1563,0.067524,-0.022459,-0.084031,-0.006394,0.003073,0.015654,0.023553,-0.530701,-0.085145,-1.065303,-257.814519,0.766023,66.460465
1.1764,0.066542,-0.022321,-0.084311,-0.00639,0.003079,0.015764,0.024467,-0.530513,-0.083401,-1.094791,-257.820015,0.778106,66.456929
1.1963,0.066774,-0.022145,-0.08453,-0.006394,0.003074,0.01595,0.024081,-0.530494,-0.0837,-1.094791,-257.820015,0.778106,66.456929
1.216,0.065824,-0.022108,-0.084123,-0.006398,0.00307,0.016097,0.023522,-0.53021,-0.084032,-1.104868,-257.825659,0.797673,66.453299
1.2365,0.065862,-0.02213,-0.085899,-0.006393,0.003079,0.016304,0.023012,-0.53029,-0.084089,-1.104868,-257.825659,0.797673,66.453299
1.2561,0.065782,-0.022321,-0.083121,-0.006389,0.003086,0.016469,0.023012,-0.53029,-0.084089,-1.104868,-257.825659,0.797673,66.453299
1.2763,0.065379,-0.021594,-0.083751,-0.006385,0.003092,0.016601,0.023184,-0.530411,-0.08245,-1.110409,-257.831431,0.812979,66.449568
1.2962,0.065147,-0.021929,-0.083221,-0.006383,0.003097,0.016791,0.022957,-0.530138,-0.082921,-1.110409,-257.831431,0.812979,66.449568
1.3164,0.064569,-0.02127,-0.082936,-0.006382,0.0031,0.016943,0.022561,-0.53005,-0.0827,-1.121179,-257.837217,0.834623,66.445823
1.3368,0.064415,-0.021877,-0.080244,-0.006382,0.003103,0.017137,0.022332,-0.52956,-0.082887,-1.121179,-257.837217,0.834623,66.445823
1.3568,0.064578,-0.021648,-0.081421,-0.006381,0.003105,0.017295,0.022332,-0.52956,-0.082887,-1.121179,-257.837217,0.834623,66.445823
1.3763,0.063715,-0.021666,-0.081697,-0.006382,0.003107,0.017422,0.022844,-0.529808,-0.080714,-1.127692,-257.843148,0.848794,66.441975
1.3967,0.063528,-0.021199,-0.081191,-0.006379,0.003113,0.017592,0.022511,-0.529855,-0.081032,-1.127692,-257.843148,0.848794,66.441975
1.4163,0.062927,-0.02133,-0.080796,-0.006377,0.003118,0.01773,0.021973,-0.529405,-0.08064,-1.136196,-257.849178,0.867973,66.438047
1.4365,0.062923,-0.021416,-0.080095,-0.006369,0.003131,0.017901,0.021774,-0.529638,-0.080756,-1.136196,-257.849178,0.867973,66.438047
1.4564,0.063273,-0.021739,-0.080886,-0.006363,0.003142,0.018041,0.021774,-0.529638,-0.080756,-1.136196,-257.849178,0.867973,66.438047
1.4764,0.062232,-0.021271,-0.07964,-0.006358,0.003152,0.018155,0.021812,-0.52992,-0.080147,-1.141918,-257.855285,0.879739,66.434062
1.4964,0.062478,-0.02094,-0.080258,-0.00635,0.003165,0.018296,0.02172,-0.529795,-0.079856,-1.141918,-257.855285,0.879739,66.434062
1.516,0.061421,-0.020733,-0.077358,-0.006344,0.003175,0.018411,0.021397,-0.529182,-0.079681,-1.150874,-257.861501,0.895385,66.430009
1.5364,0.061524,-0.020941,-0.079087,-0.00635,0.003171,0.018543,0.021946,-0.5292,-0.077528,-1.150874,-257.861501,0.895385,66.430009
1.5568,0.061061,-0.020931,-0.077415,-0.006354,0.003167,0.018651,0.021946,-0.5292,-0.077528,-1.150874,-257.861501,0.895385,66.430009
1.5763,0.060659,-0.02068,-0.078036,-0.006359,0.003164,0.018739,0.021365,-0.529251,-0.076645,-1.156319,-257.867789,0.904495,66.425912
1.5964,0.060768,-0.020637,-0.077643,-0.006352,0.003175,0.018835,0.021147,-0.529184,-0.077121,-1.156319,-257.867789,0.904495,66.425912
1.6161,0.059542,-0.020384,-0.076595,-0.006346,0.003185,0.018915,0.021016,-0.528985,-0.077047,-1.160274,-257.87415,0.915966,66.421744
1.6364,0.059765,-0.020968,-0.077739,-0.006338,0.003198,0.018994,0.020551,-0.528891,-0.076605,-1.160274,-257.87415,0.915966,66.421744
1.657,0.059822,-0.020134,-0.077468,-0.006331,0.003209,0.019059,0.020551,-0.528891,-0.076605,-1.160274,-257.87415,0.915966,66.421744
1.6763,0.059297,-0.019921,-0.075943,-0.006325,0.003219,0.019113,0.020099,-0.528451,-0.076677,-1.164149,-257.880551,0.9219,66.417554
1.6966,0.059199,-0.020096,-0.07491,-0.006323,0.003223,0.019167,0.020273,-0.528433,-0.07629,-1.164149,-257.880551,0.9219,66.417554
1.7164,0.058024,-0.019632,-0.074997,-0.006322,0.003227,0.019212,0.020837,-0.528549,-0.074301,-1.169166,-257.887026,0.928497,66.413328
1.7364,0.058882,-0.019904,-0.075311,-0.006318,0.003234,0.019257,0.01989,-0.528223,-0.074907,-1.169166,-257.887026,0.928497,66.413328
1.7566,0.058176,-0.020192,-0.07507,-0.006315,0.003239,0.019294,0.01989,-0.528223,-0.074907,-1.169166,-257.887026,0.928497,66.413328
1.7763,0.05771,-0.01979,-0.075205,-0.006312,0.003244,0.019324,0.019672,-0.528601,-0.074266,-1.170972,-257.893523,0.931686,66.409089
1.7965,0.05774,-0.019177,-0.074536,-0.0063,0.003261,0.019356,0.019529,-0.528481,-0.074556,-1.170972,-257.893523,0.931686,66.409089
1.8161,0.056657,-0.019643,-0.07373,-0.00629,0.003275,0.019382,0.019569,-0.527643,-0.073921,-1.173589,-257.90005,0.935286,66.404835
1.8369,0.057028,-0.01919,-0.073213,-0.006279,0.00329,0.019411,0.01912,-0.528199,-0.073716,-1.173589,-257.90005,0.935286,66.404835
1.8564,0.056592,-0.019313,-0.072342,-0.006271,0.003302,0.019435,0.01912,-0.528199,-0.073716,-1.173589,-257.90005,0.935286,66.404835
1.8765,0.055885,-0.019144,-0.072616,-0.006263,0.003313,0.019455,0.019477,-0.527823,-0.071533,-1.176395,-257.906593,0.93723,66.400588
1.8964,0.056146,-0.019138,-0.073214,-0.006264,0.003313,0.019478,0.019205,-0.527796,-0.071883,-1.176395,-257.906593,0.93723,66.400588
1.9161,0.05485,-0.018796,-0.072596,-0.006265,0.003313,0.019498,0.018649,-0.527652,-0.072594,-1.179832,-257.913164,0.939648,66.396345
1.9362,0.055041,-0.019072,-0.070126,-0.00625,0.003332,0.019518,0.017918,-0.527464,-0.072565,-1.179832,-257.913164,0.939648,66.396345
1.9565,0.055059,-0.018795,-0.071548,-0.006238,0.003348,0.019534,0.017918,-0.527464,-0.072565,-1.179832,-257.913164,0.939648,66.396345
1.9764,0.054301,-0.018907,-0.069329,-0.006227,0.003361,0.019548,0.018349,-0.527333,-0.070731,-1.18036,-257.919744,0.940936,66.392093
1.9963,0.054729,-0.018753,-0.068864,-0.006229,0.00336,0.019565,0.018574,-0.527457,-0.070066,-1.18036,-257.919744,0.940936,66.392093
2.0167,0.053601,-0.018329,-0.069053,-0.00623,0.00336,0.019579,0.019445,-0.527424,-0.068241,-1.184248,-257.926344,0.94286,66.387858
2.0367,0.053755,-0.018369,-0.070149,-0.006234,0.003355,0.019595,0.018495,-0.527136,-0.068948,-1.184248,-257.926344,0.94286,66.387858
2.0564,0.053972,-0.018645,-0.0702,-0.006238,0.003351,0.019608,0.018495,-0.527136,-0.068948,-1.184248,-257.926344,0.94286,66.387858
2.0763,0.052956,-0.018472,-0.068508,-0.006241,0.003348,0.019618,0.017949,-0.52723,-0.069381,-1.184535,-257.932958,0.943767,66.383611
2.0965,0.052681,-0.018434,-0.068757,-0.006233,0.003358,0.019629,0.017959,-0.52723,-0.06893,-1.184535,-257.932958,0.943767,66.383611
2.116,0.052178,-0.01826,-0.068648,-0.006227,0.003366,0.019637,0.017452,-0.527108,-0.068132,-1.184138,-257.939591,0.944867,66.379342
2.1362,0.052084,-0.01801,-0.06627,-0.00621,0.003386,0.019646,0.017208,-0.527057,-0.068573,-1.184138,-257.939591,0.944867,66.379342
2.1564,0.052208,-0.01859,-0.06723,-0.006197,0.003402,0.019653,0.017208,-0.527057,-0.068573,-1.184138,-257.939591,0.944867,66.379342
2.1766,0.051597,-0.017929,-0.067315,-0.006185,0.003416,0.01966,0.017696,-0.52728,-0.06641,-1.18565,-257.946208,0.945611,66.375094
2.1966,0.05085,-0.018121,-0.066294,-0.00618,0.003423,0.019667,0.017503,-0.527056,-0.066683,-1.18565,-257.946208,0.945611,66.375094
2.2165,0.050215,-0.017667,-0.064744,-0.006175,0.003429,0.019674,0.016875,-0.526879,-0.065667,-1.188362,-257.95286,0.946465,66.370847
2.2367,0.050437,-0.01746,-0.064966,-0.006173,0.003433,0.019681,0.017179,-0.526617,-0.064793,-1.188362,-257.95286,0.946465,66.370847
2.2565,0.050814,-0.017669,-0.06489,-0.00617,0.003436,0.019687,0.017179,-0.526617,-0.064793,-1.188362,-257.95286,0.946465,66.370847
2.2764,0.049656,-0.017481,-0.065116,-0.006168,0.003439,0.019691,0.017495,-0.526436,-0.064068,-1.190433,-257.959502,0.947295,66.366624
2.2963,0.049368,-0.017421,-0.064709,-0.006168,0.003439,0.019697,0.017049,-0.526403,-0.0644,-1.190433,-257.959502,0.947295,66.366624
2.316,0.048809,-0.017194,-0.063776,-0.006168,0.00344,0.019701,0.0162,-0.526231,-0.064081,-1.191275,-257.966162,0.947916,66.362395
2.3367,0.048604,-0.017311,-0.063187,-0.006157,0.003452,0.019705,0.016286,-0.526158,-0.063771,-1.191275,-257.966162,0.947916,66.362395
2.3565,0.0491,-0.017349,-0.064463,-0.006148,0.003462,0.019708,0.016286,-0.526158,-0.063771,-1.191275,-257.966162,0.947916,66.362395
2.3761,0.04785,-0.01709,-0.062205,-0.006141,0.00347,0.019711,0.015997,-0.52613,-0.063638,-1.191453,-257.97287,0.948233,66.358134
2.3962,0.048181,-0.016879,-0.063387,-0.00613,0.003483,0.019714,0.016032,-0.5261,-0.062934,-1.191453,-257.97287,0.948233,66.358134
2.4161,0.047413,-0.016947,-0.061508,-0.006121,0.003493,0.019717,0.015689,-0.525733,-0.062765,-1.193783,-257.979496,0.948943,66.353947
2.4361,0.047244,-0.01647,-0.061479,-0.006115,0.0035,0.01972,0.016021,-0.525954,-0.061589,-1.193783,-257.979496,0.948943,66.353947
2.4565,0.047351,-0.016563,-0.061866,-0.00611,0.003506,0.019723,0.016021,-0.525954,-0.061589,-1.193783,-257.979496,0.948943,66.353947
2.4764,0.046618,-0.017024,-0.059176,-0.006106,0.003511,0.019725,0.015573,-0.525426,-0.06104,-1.195477,-257.986175,0.94941,66.349742
2.4964,0.046135,-0.016596,-0.05961,-0.006104,0.003513,0.019728,0.015903,-0.525694,-0.060188,-1.195477,-257.986175,0.94941,66.349742
2.5161,0.04566,-0.016311,-0.059275,-0.006103,0.003514,0.01973,0.015564,-0.525567,-0.058982,-1.196799,-257.992871,0.949876,66.345537
2.5363,0.045976,-0.01653,-0.060054,-0.006097,0.00352,0.019733,0.015448,-0.525422,-0.059219,-1.196799,-257.992871,0.949876,66.345537
2.5564,0.045294,-0.016271,-0.058456,-0.006093,0.003525,0.019734,0.015448,-0.525422,-0.059219,-1.196799,-257.992871,0.949876,66.345537
2.5764,0.044806,-0.01571,-0.058749,-0.006089,0.00353,0.019736,0.015252,-0.525238,-0.05763,-1.197099,-257.999547,0.950091,66.341346
2.5962,0.044614,-0.016228,-0.058145,-0.006084,0.003535,0.019738,0.015065,-0.525054,-0.057989,-1.197099,-257.999547,0.950091,66.341346
2.6159,0.044137,-0.015643,-0.057588,-0.00608,0.003539,0.01974,0.014788,-0.525242,-0.057513,-1.197984,-258.006256,0.950414,66.337143
2.6365,0.04399,-0.015662,-0.058293,-0.006075,0.003544,0.019741,0.014775,-0.524828,-0.057552,-1.197984,-258.006256,0.950414,66.337143
2.6566,0.043841,-0.015959,-0.058074,-0.00607,0.003549,0.019743,0.014775,-0.524828,-0.057552,-1.197984,-258.006256,0.950414,66.337143
2.6771,0.043136,-0.015515,-0.056276,-0.006067,0.003553,0.019744,0.013993,-0.524936,-0.057244,-1.199055,-258.012933,0.950835,66.332968
2.6964,0.043032,-0.015649,-0.056034,-0.006048,0.003572,0.019744,0.014146,-0.524827,-0.056767,-1.199055,-258.012933,0.950835,66.332968
2.7161,0.042481,-0.015474,-0.055614,-0.006033,0.003589,0.019745,0.014283,-0.524725,-0.055404,-1.200146,-258.019632,0.95126,66.32879
2.7366,0.042477,-0.015392,-0.056893,-0.006022,0.0036,0.019746,0.014136,-0.524683,-0.055563,-1.200146,-258.019632,0.95126,66.32879
2.7563,0.042563,-0.015347,-0.055687,-0.006013,0.00361,0.019747,0.014136,-0.524683,-0.055563,-1.200146,-258.019632,0.95126,66.32879
2.7762,0.041738,-0.015181,-0.054141,-0.006005,0.003618,0.019748,0.013934,-0.524392,-0.05486,-1.202827,-258.026351,0.951939,66.324623
2.7961,0.041456,-0.015345,-0.054715,-0.006001,0.003622,0.01975,0.01399,-0.52439,-0.054469,-1.202827,-258.026351,0.951939,66.324623
2.8163,0.040734,-0.014832,-0.05322,-0.005998,0.003626,0.019751,0.013381,-0.524457,-0.054088,-1.205024,-258.033055,0.952551,66.320486
2.8363,0.040662,-0.015219,-0.053406,-0.00599,0.003634,0.019752,0.013575,-0.524135,-0.053265,-1.205024,-258.033055,0.952551,66.320486
2.8566,0.040701,-0.014791,-0.052979,-0.005983,0.003641,0.019753,0.013575,-0.524135,-0.053265,-1.205024,-258.033055,0.952551,66.320486
2.8762,0.04008,-0.014622,-0.051587,-0.005977,0.003647,0.019754,0.013451,-0.523911,-0.052152,-1.205631,-258.039773,0.952793,66.316346
2.8963,0.040038,-0.014394,-0.051057,-0.005977,0.003647,0.019756,0.013558,-0.523905,-0.051828,-1.205631,-258.039773,0.952793,66.316346
2.9161,0.038982,-0.014491,-0.049873,-0.005976,0.003648,0.019757,0.013825,-0.523604,-0.050429,-1.206808,-258.046504,0.953198,66.312208
2.9361,0.039085,-0.014434,-0.050458,-0.005977,0.003647,0.019758,0.013571,-0.523829,-0.04989,-1.206808,-258.046504,0.953198,66.312208
2.9563,0.039281,-0.014308,-0.052241,-0.005977,0.003646,0.019759,0.013571,-0.523829,-0.04989,-1.206808,-258.046504,0.953198,66.312208
2.9764,0.038259,-0.014325,-0.050062,-0.005977,0.003646,0.01976,0.012408,-0.523447,-0.051414,-1.207379,-258.053221,0.953497,66.308083
2.9968,0.038495,-0.01415,-0.049817,-0.005957,0.003666,0.01976,0.012515,-0.523525,-0.05077,-1.207379,-258.053221,0.953497,66.308083
3.0165,0.038351,-0.014481,-0.05083,-0.00594,0.003682,0.019759,0.012915,-0.523392,-0.049188,-1.207327,-258.059955,0.95362,66.303946
3.0363,0.037701,-0.014033,-0.0489,-0.005914,0.003708,0.019759,0.012211,-0.523597,-0.049745,-1.207327,-258.059955,0.95362,66.303946
3.0561,0.037286,-0.014036,-0.051095,-0.005892,0.003729,0.019759,0.012211,-0.523597,-0.049745,-1.207327,-258.059955,0.95362,66.303946
3.076,0.037143,-0.013773,-0.049596,-0.005874,0.003747,0.019759,0.010998,-0.523204,-0.050269,-1.210179,-258.066678,0.954509,66.299842
3.0963,0.03711,-0.014036,-0.047851,-0.005842,0.003777,0.019759,0.011322,-0.523161,-0.0499,-1.210179,-258.066678,0.954509,66.299842
3.116,0.036372,-0.01324,-0.047804,-0.005815,0.003802,0.019759,0.012534,-0.523324,-0.047221,-1.215175,-258.073435,0.956067,66.295763
3.1362,0.035969,-0.013763,-0.047439,-0.005827,0.003791,0.019763,0.012038,-0.522708,-0.047723,-1.215175,-258.073435,0.956067,66.295763
3.1564,0.036351,-0.013779,-0.048131,-0.005837,0.003782,0.019766,0.012038,-0.522708,-0.047723,-1.215175,-258.073435,0.956067,66.295763
3.1761,0.035334,-0.013773,-0.047177,-0.005845,0.003774,0.019768,0.011579,-0.523018,-0.047306,-1.219553,-258.08019,0.957661,66.291724
3.1966,0.035472,-0.013718,-0.046538,-0.005822,0.003796,0.019767,0.01143,-0.523076,-0.047157,-1.219553,-258.08019,0.957661,66.291724
3.2164,0.034728,-0.013074,-0.046065,-0.005802,0.003815,0.019767,0.011566,-0.523037,-0.04591,-1.217441,-258.086938,0.957227,66.287668
3.2364,0.034255,-0.013365,-0.044708,-0.005794,0.003822,0.019768,0.011263,-0.522572,-0.046019,-1.217441,-258.086938,0.957227,66.287668
3.2568,0.034465,-0.013274,-0.045764,-0.005787,0.003829,0.01977,0.011263,-0.522572,-0.046019,-1.217441,-258.086938,0.957227,66.287668
3.2764,0.033737,-0.013244,-0.043889,-0.005781,0.003834,0.019771,0.010898,-0.52257,-0.044937,-1.220638,-258.093703,0.958328,66.283631
3.2966,0.033841,-0.013211,-0.044231,-0.005767,0.003848,0.019771,0.01106,-0.522625,-0.044412,-1.220638,-258.093703,0.958328,66.283631
3.316,0.033097,-0.012949,-0.042033,-0.005754,0.003859,0.019772,0.011112,-0.522582,-0.043602,-1.222252,-258.100472,0.959044,66.279606
3.3361,0.032828,-0.012279,-0.042622,-0.005765,0.00385,0.019774,0.011607,-0.5225,-0.042142,-1.222252,-258.100472,0.959044,66.279606
3.3562,0.032804,-0.012683,-0.043877,-0.005773,0.003842,0.019776,0.011607,-0.5225,-0.042142,-1.222252,-258.100472,0.959044,66.279606
3.3761,0.032257,-0.012142,-0.042158,-0.00578,0.003836,0.019777,0.010201,-0.52202,-0.043049,-1.224244,-258.107277,0.959823,66.275577
3.3963,0.032007,-0.012433,-0.043293,-0.005764,0.003849,0.019777,0.010409,-0.521861,-0.04258,-1.224244,-258.107277,0.959823,66.275577
3.4164,0.031699,-0.011886,-0.042122,-0.00575,0.00386,0.019778,0.009757,-0.521826,-0.042666,-1.222427,-258.114021,0.959289,66.271567
3.4363,0.031405,-0.012102,-0.041724,-0.005742,0.003866,0.019779,0.010172,-0.521462,-0.042139,-1.222427,-258.114021,0.959289,66.271567
3.4563,0.031562,-0.012206,-0.041444,-0.005736,0.00387,0.01978,0.010172,-0.521462,-0.042139,-1.222427,-258.114021,0.959289,66.271567
3.4764,0.030711,-0.011917,-0.041045,-0.00573,0.003874,0.019782,0.010198,-0.521597,-0.040616,-1.224585,-258.120798,0.96033,66.267555
3.4962,0.03036,-0.012242,-0.041725,-0.005716,0.003886,0.019782,0.010002,-0.521533,-0.040695,-1.224585,-258.120798,0.96033,66.267555
3.5162,0.030223,-0.011877,-0.040071,-0.005704,0.003897,0.019782,0.008909,-0.521667,-0.041096,-1.22561,-258.127588,0.961018,66.263544
3.536,0.029816,-0.011587,-0.039841,-0.005683,0.003914,0.019782,0.009707,-0.521478,-0.040128,-1.22561,-258.127588,0.961018,66.263544
3.5562,0.030027,-0.011708,-0.040159,-0.005666,0.003929,0.019783,0.009707,-0.521478,-0.040128,-1.22561,-258.127588,0.961018,66.263544
3.5763,0.028855,-0.011562,-0.037899,-0.005652,0.003941,0.019783,0.009319,-0.521124,-0.039332,-1.227921,-258.134375,0.962187,66.259552
3.5962,0.029028,-0.011646,-0.038293,-0.005637,0.003953,0.019785,0.00938,-0.521134,-0.038646,-1.227921,-258.134375,0.962187,66.259552
3.6162,0.028342,-0.011273,-0.036562,-0.005625,0.003964,0.019786,0.009329,-0.52114,-0.037665,-1.231678,-258.141168,0.963935,66.25559
3.6361,0.028364,-0.010953,-0.038402,-0.005631,0.003957,0.019789,0.009659,-0.520944,-0.036626,-1.231678,-258.141168,0.963935,66.25559
3.6564,0.027964,-0.012009,-0.038812,-0.005636,0.003952,0.019791,0.009659,-0.520944,-0.036626,-1.231678,-258.141168,0.963935,66.25559
3.6763,0.027397,-0.011188,-0.036006,-0.00564,0.003948,0.019792,0.007947,-0.521451,-0.037986,-1.233683,-258.147974,0.965024,66.251636
3.6962,0.027518,-0.011104,-0.036897,-0.005576,0.003998,0.019788,0.008372,-0.521185,-0.03707,-1.233683,-258.147974,0.965024,66.251636
3.7162,0.027024,-0.011046,-0.03827,-0.005523,0.00404,0.019786,0.00853,-0.520625,-0.036267,-1.232581,-258.15477,0.964861,66.247677
3.7362,0.027,-0.011288,-0.036602,-0.005457,0.004089,0.019785,0.007594,-0.520662,-0.038057,-1.232581,-258.15477,0.964861,66.247677
3.7564,0.026908,-0.011007,-0.034935,-0.005403,0.00413,0.019785,0.007594,-0.520662,-0.038057,-1.232581,-258.15477,0.964861,66.247677
3.7761,0.025888,-0.010929,-0.035112,-0.005358,0.004165,0.019786,0.00887,-0.520519,-0.034108,-1.240781,-258.161582,0.96909,66.243777
3.7962,0.026172,-0.010781,-0.031563,-0.00537,0.004157,0.019791,0.008481,-0.520538,-0.034424,-1.240781,-258.161582,0.96909,66.243777
3.816,0.025149,-0.010675,-0.031934,-0.00538,0.004151,0.019795,0.009912,-0.52039,-0.030936,-1.252267,-258.168402,0.97595,66.239966
3.8361,0.025514,-0.010344,-0.032903,-0.005413,0.004126,0.0198,0.008947,-0.520406,-0.031817,-1.252267,-258.168402,0.97595,66.239966
3.8563,0.025138,-0.010675,-0.034244,-0.005439,0.004104,0.019803,0.008947,-0.520406,-0.031817,-1.252267,-258.168402,0.97595,66.239966
3.8764,0.024661,-0.010238,-0.033352,-0.005461,0.004086,0.019806,0.007458,-0.520195,-0.033416,-1.250921,-258.175245,0.975187,66.23613
3.8964,0.024221,-0.010482,-0.034186,-0.005419,0.004116,0.019804,0.007513,-0.520075,-0.033294,-1.250921,-258.175245,0.975187,66.23613
3.9165,0.023738,-0.01015,-0.032108,-0.005385,0.004141,0.019803,0.00662,-0.520048,-0.033557,-1.245314,-258.182075,0.972367,66.232254
3.9365,0.023715,-0.010229,-0.031276,-0.005349,0.004166,0.019803,0.007292,-0.519894,-0.032202,-1.245314,-258.182075,0.972367,66.232254
3.9565,0.02373,-0.010223,-0.031892,-0.005321,0.004186,0.019803,0.007292,-0.519894,-0.032202,-1.245314,-258.182075,0.972367,66.232254
3.9765,0.02257,-0.009947,-0.031138,-0.005297,0.004203,0.019804,0.007249,-0.519784,-0.031066,-1.250566,-258.188902,0.975678,66.22842
3.9963,0.022614,-0.009953,-0.029826,-0.005265,0.004225,0.019805,0.006996,-0.519729,-0.031,-1.250566,-258.188902,0.975678,66.22842
4.0161,0.022723,-0.009671,-0.030767,-0.005238,0.004243,0.019806,0.007241,-0.519587,-0.029196,-1.256567,-258.195787,0.979702,66.224601
4.0365,0.022026,-0.00925,-0.02877,-0.005224,0.00425,0.019809,0.006804,-0.519234,-0.029698,-1.256567,-258.195787,0.979702,66.224601
4.0565,0.022016,-0.00939,-0.029538,-0.005213,0.004256,0.019812,0.006804,-0.519234,-0.029698,-1.256567,-258.195787,0.979702,66.224601
4.076,0.021498,-0.009442,-0.028615,-0.005203,0.00426,0.019814,0.006741,-0.518984,-0.028712,-1.260555,-258.202621,0.982552,66.220842
4.096,0.021531,-0.009102,-0.028065,-0.0052,0.004259,0.019817,0.006784,-0.519065,-0.028577,-1.260555,-258.202621,0.982552,66.220842
4.1159,0.020551,-0.008736,-0.028991,-0.005198,0.004259,0.019819,0.007058,-0.518761,-0.027434,-1.26292,-258.209487,0.984956,66.217079
4.136,0.020534,-0.008938,-0.028624,-0.005154,0.00428,0.01982,0.005874,-0.518535,-0.028822,-1.26292,-258.209487,0.984956,66.217079
4.1561,0.020444,-0.008877,-0.027879,-0.005118,0.004298,0.019822,0.005874,-0.518535,-0.028822,-1.26292,-258.209487,0.984956,66.217079
4.1762,0.01952,-0.008906,-0.026769,-0.005089,0.004313,0.019823,0.006015,-0.518494,-0.027049,-1.263217,-258.216345,0.985685,66.213319
4.1966,0.019546,-0.008791,-0.025471,-0.005067,0.004324,0.019825,0.005932,-0.518566,-0.02684,-1.263217,-258.216345,0.985685,66.213319
4.2165,0.018808,-0.008634,-0.025778,-0.005048,0.004334,0.019827,0.006399,-0.518484,-0.024839,-1.270266,-258.223222,0.992389,66.209595
4.2363,0.019128,-0.008681,-0.025737,-0.00502,0.004348,0.019828,0.00572,-0.518459,-0.025664,-1.270266,-258.223222,0.992389,66.209595
4.2564,0.01904,-0.008668,-0.027233,-0.004998,0.00436,0.019829,0.00572,-0.518459,-0.025664,-1.270266,-258.223222,0.992389,66.209595
4.2762,0.018495,-0.008169,-0.024021,-0.004979,0.00437,0.019831,0.004947,-0.518292,-0.026405,-1.272912,-258.230097,0.994934,66.20589
4.2963,0.018145,-0.008523,-0.025194,-0.004956,0.004379,0.019833,0.005456,-0.518159,-0.02533,-1.272912,-258.230097,0.994934,66.20589
4.316,0.017628,-0.008392,-0.024416,-0.004937,0.004387,0.019835,0.005142,-0.518218,-0.024562,-1.277414,-258.236973,0.999238,66.202214
4.3361,0.01747,-0.008227,-0.023807,-0.004891,0.004411,0.019834,0.005167,-0.51823,-0.024397,-1.277414,-258.236973,0.999238,66.202214
4.3562,0.017341,-0.00805,-0.024192,-0.004854,0.00443,0.019835,0.005167,-0.51823,-0.024397,-1.277414,-258.236973,0.999238,66.202214
4.3763,0.016894,-0.007661,-0.023125,-0.004823,0.004446,0.019836,0.004802,-0.517712,-0.023362,-1.280082,-258.24387,1.002277,66.198542
4.3967,0.016744,-0.007572,-0.022968,-0.004803,0.004448,0.019839,0.004902,-0.517613,-0.023169,-1.280082,-258.24387,1.002277,66.198542
4.4163,0.015922,-0.0076,-0.021853,-0.004787,0.004449,0.019841,0.004881,-0.517292,-0.022337,-1.287385,-258.250757,1.009317,66.194925
4.4366,0.015957,-0.007466,-0.021677,-0.004768,0.004448,0.019841,0.00478,-0.517454,-0.021864,-1.287385,-258.250757,1.009317,66.194925
4.4565,0.016157,-0.007538,-0.021175,-0.004753,0.004448,0.019841,0.00478,-0.517454,-0.021864,-1.287385,-258.250757,1.009317,66.194925
4.4767,0.015398,-0.007388,-0.020261,-0.004741,0.004447,0.019842,0.005162,-0.517233,-0.020344,-1.289528,-258.257645,1.012851,66.191314
4.4968,0.015497,-0.007345,-0.020985,-0.004774,0.004417,0.019839,0.005101,-0.517231,-0.020215,-1.289528,-258.257645,1.012851,66.191314
4.5166,0.014754,-0.007173,-0.020614,-0.004801,0.004392,0.019835,0.004647,-0.517087,-0.020352,-1.292067,-258.264549,1.017251,66.1877
4.5364,0.014577,-0.007227,-0.019761,-0.004741,0.004409,0.019829,0.004271,-0.517059,-0.020558,-1.292067,-258.264549,1.017251,66.1877
4.557,0.014852,-0.007142,-0.019654,-0.004693,0.004423,0.019826,0.004271,-0.517059,-0.020558,-1.292067,-258.264549,1.017251,66.1877
4.5764,0.013822,-0.007169,-0.019724,-0.004655,0.004433,0.019824,0.004631,-0.516856,-0.01882,-1.287768,-258.271423,1.014642,66.184064
4.5963,0.013538,-0.006827,-0.018104,-0.00463,0.004434,0.019813,0.004258,-0.516921,-0.019091,-1.287768,-258.271423,1.014642,66.184064
4.6161,0.013199,-0.00685,-0.016867,-0.004609,0.004435,0.019805,0.00416,-0.5166,-0.017477,-1.296439,-258.278259,1.025495,66.180493
4.636,0.012957,-0.007033,-0.017221,-0.004633,0.004408,0.019764,0.004552,-0.516754,-0.016889,-1.296439,-258.278259,1.025495,66.180493
4.656,0.013344,-0.007046,-0.017486,-0.004651,0.004386,0.019732,0.004552,-0.516754,-0.016889,-1.296439,-258.278259,1.025495,66.180493
4.676,0.012408,-0.006602,-0.018021,-0.004665,0.004368,0.019707,0.004238,-0.516779,-0.016658,-1.298896,-258.285122,1.029219,66.176918
4.6964,0.012509,-0.00659,-0.01597,-0.004588,0.004391,0.019687,0.003799,-0.516651,-0.017119,-1.298896,-258.285122,1.029219,66.176918
4.7163,0.011534,-0.006006,-0.015999,-0.004526,0.004409,0.019672,0.004218,-0.516384,-0.015343,-1.293718,-258.291949,1.024183,66.173325
4.7361,0.01179,-0.006472,-0.016543,-0.004459,0.0044,0.019627,0.003448,-0.515975,-0.015901,-1.293718,-258.291949,1.024183,66.173325
4.7561,0.011645,-0.00608,-0.014068,-0.004404,0.004392,0.019593,0.003448,-0.515975,-0.015901,-1.293718,-258.291949,1.024183,66.173325
4.7763,0.011241,-0.006221,-0.014486,-0.004361,0.004386,0.019568,0.004284,-0.515843,-0.013248,-1.301873,-258.298735,1.033991,66.1698
4.7963,0.0108,-0.00624,-0.013521,-0.004424,0.004336,0.019399,0.004088,-0.515953,-0.013654,-1.301873,-258.298735,1.033991,66.1698
4.816,0.010276,-0.005577,-0.013992,-0.004471,0.004297,0.019273,0.003768,-0.516052,-0.0129,-1.30994,-258.305479,1.047888,66.166317
4.8363,0.010501,-0.00591,-0.015021,-0.00439,0.004288,0.019193,0.003188,-0.515566,-0.013866,-1.30994,-258.305479,1.047888,66.166317
4.8567,0.010458,-0.005213,-0.014044,-0.004325,0.004281,0.019135,0.003188,-0.515566,-0.013866,-1.30994,-258.305479,1.047888,66.166317
4.8781,0.009294,-0.005558,-0.012357,-0.004273,0.004275,0.019093,0.003112,-0.514981,-0.013242,-1.299381,-258.312102,1.031666,66.162858
4.8968,0.009752,-0.005718,-0.012592,-0.004227,0.004238,0.018953,0.003044,-0.51517,-0.012801,-1.299381,-258.312102,1.031666,66.162858
4.9166,0.008789,-0.00527,-0.012341,-0.00419,0.004209,0.018852,0.003196,-0.51554,-0.011985,-1.308836,-258.318669,1.046367,66.159462
4.9364,0.008406,-0.005525,-0.012496,-0.004065,0.004218,0.018699,0.002552,-0.515252,-0.012278,-1.308836,-258.318669,1.046367,66.159462
4.9561,0.00878,-0.005271,-0.011759,-0.003967,0.004226,0.018589,0.002552,-0.515252,-0.012278,-1.308836,-258.318669,1.046367,66.159462
4.9764,0.008219,-0.005248,-0.009322,-0.003888,0.004232,0.018511,0.00261,-0.515058,-0.010969,-1.310362,-258.325176,1.050005,66.156094
4.9965,0.008391,-0.005205,-0.011166,-0.003919,0.0042,0.018099,0.002935,-0.515105,-0.010214,-1.310362,-258.325176,1.050005,66.156094
5.0166,0.00758,-0.004942,-0.01095,-0.003937,0.004176,0.017811,0.002575,-0.515038,-0.010581,-1.325618,-258.331525,1.068279,66.152894
5.0366,0.007585,-0.004565,-0.009504,-0.003766,0.004182,0.017721,0.002044,-0.514916,-0.010883,-1.325618,-258.331525,1.068279,66.152894
5.057,0.007235,-0.004881,-0.009384,-0.003632,0.004188,0.01766,0.002044,-0.514916,-0.010883,-1.325618,-258.331525,1.068279,66.152894
5.0762,0.006778,-0.004552,-0.010398,-0.003527,0.004194,0.017621,0.002287,-0.514684,-0.008647,-1.315011,-258.337657,1.039695,66.149831
5.0966,0.006834,-0.004324,-0.00839,-0.003445,0.004165,0.017254,0.001942,-0.5146,-0.009269,-1.315011,-258.337657,1.039695,66.149831
5.1162,0.006157,-0.004773,-0.008589,-0.003377,0.004145,0.017,0.002448,-0.514176,-0.007847,-1.339205,-258.343605,1.078026,66.146945
5.1366,0.00604,-0.004312,-0.009388,-0.003305,0.004141,0.016618,0.001832,-0.514696,-0.008494,-1.339205,-258.343605,1.078026,66.146945
5.1562,0.006217,-0.004481,-0.008178,-0.003243,0.00414,0.016357,0.001832,-0.514696,-0.008494,-1.339205,-258.343605,1.078026,66.146945
5.1768,0.005761,-0.004433,-0.007619,-0.003189,0.004142,0.016178,0.001906,-0.514289,-0.007466,-1.342385,-258.349569,1.074597,66.144109
5.1968,0.005492,-0.00403,-0.007741,-0.003183,0.004093,0.015758,0.001877,-0.514321,-0.007446,-1.342385,-258.349569,1.074597,66.144109
5.2165,0.005274,-0.003782,-0.006137,-0.003172,0.004056,0.015472,0.001444,-0.513882,-0.007227,-1.347176,-258.355308,1.063566,66.141489
5.2367,0.004863,-0.004095,-0.005355,-0.00325,0.003934,0.014866,0.002076,-0.513775,-0.006209,-1.347176,-258.355308,1.063566,66.141489
5.2566,0.004881,-0.004054,-0.006456,-0.0033,0.00384,0.014457,0.002076,-0.513775,-0.006209,-1.347176,-258.355308,1.063566,66.141489
5.2764,0.004341,-0.003622,-0.005679,-0.003331,0.003767,0.014185,0.001458,-0.513875,-0.005815,-1.340124,-258.3608,1.039251,66.139012
5.2966,0.004397,-0.003513,-0.005794,-0.003199,0.003731,0.013791,0.001438,-0.51375,-0.005686,-1.340124,-258.3608,1.039251,66.139012
5.3167,0.003829,-0.004062,-0.005269,-0.003094,0.003703,0.013529,0.001345,-0.513393,-0.005377,-1.309017,-258.365536,0.973442,66.136832
5.3366,0.004041,-0.003952,-0.006445,-0.002943,0.003724,0.013174,0.001155,-0.513989,-0.005257,-1.309017,-258.365536,0.973442,66.136832
5.3561,0.00398,-0.003804,-0.00607,-0.002822,0.003743,0.012937,0.001155,-0.513989,-0.005257,-1.309017,-258.365536,0.973442,66.136832
5.3762,0.003541,-0.003375,-0.003473,-0.002725,0.00376,0.012781,0.000756,-0.513639,-0.005505,-1.317785,-258.370467,0.974614,66.134634
5.396,0.003534,-0.003683,-0.004486,-0.002669,0.0037,0.012424,0.001154,-0.513513,-0.004612,-1.317785,-258.370467,0.974614,66.134634
5.4162,0.003292,-0.003141,-0.004419,-0.00262,0.003655,0.012185,0.00116,-0.513558,-0.004082,-1.339376,-258.375182,0.978085,66.132698
5.4363,0.003547,-0.003245,-0.004713,-0.002558,0.003561,0.011926,0.001044,-0.513168,-0.004368,-1.339376,-258.375182,0.978085,66.132698
5.4563,0.003225,-0.003471,-0.004518,-0.002506,0.003488,0.011753,0.001044,-0.513168,-0.004368,-1.339376,-258.375182,0.978085,66.132698
5.4761,0.002353,-0.003072,-0.003928,-0.002464,0.003433,0.011637,0.000812,-0.513312,-0.004009,-1.338933,-258.379732,0.965607,66.13086
5.4962,0.002845,-0.003011,-0.002375,-0.002313,0.0034,0.011348,0.000612,-0.513195,-0.003917,-1.338933,-258.379732,0.965607,66.13086
5.5161,0.002156,-0.00291,-0.00281,-0.002195,0.003377,0.011152,0.001556,-0.5129,-0.002006,-1.341125,-258.384047,0.980063,66.129097
5.5364,0.002169,-0.002736,-0.003425,-0.002183,0.003303,0.010458,0.000794,-0.512902,-0.002719,-1.341125,-258.384047,0.980063,66.129097
5.5561,0.002512,-0.002991,-0.003724,-0.002167,0.003247,0.009981,0.000794,-0.512902,-0.002719,-1.341125,-258.384047,0.980063,66.129097
5.5763,0.001588,-0.002944,-0.00188,-0.00215,0.003205,0.009654,0.000523,-0.512847,-0.003263,-1.358607,-258.38817,1.002115,66.127484
5.5965,0.002003,-0.002404,-0.002388,-0.00206,0.003169,0.00939,0.000556,-0.51287,-0.002643,-1.358607,-258.38817,1.002115,66.127484
5.6163,0.001575,-0.002923,-0.002536,-0.001989,0.003143,0.009209,0.000729,-0.512319,-0.002131,-1.338866,-258.391278,0.927026,66.126339
5.6363,0.001743,-0.002684,-0.002201,-0.001862,0.003124,0.009002,0.00032,-0.512862,-0.002486,-1.338866,-258.391278,0.927026,66.126339
5.6562,0.001456,-0.002401,-0.00176,-0.001763,0.00311,0.00886,0.00032,-0.512862,-0.002486,-1.338866,-258.391278,0.927026,66.126339
5.6765,0.001007,-0.002706,-0.002011,-0.001685,0.003101,0.008763,0.000477,-0.512271,-0.00138,-1.347744,-258.394811,0.89508,66.12509
5.6962,0.001297,-0.002367,-0.000613,-0.001619,0.003003,0.008226,0.000271,-0.512428,-0.001587,-1.347744,-258.394811,0.89508,66.12509
5.7165,0.000804,-0.002586,-0.00058,-0.001565,0.002929,0.007849,0.000932,-0.512271,-0.000342,-1.374016,-258.398161,0.928242,66.123997
5.7362,0.000925,-0.002753,-0.000378,-0.001632,0.002899,0.007033,0.000544,-0.512552,-0.000545,-1.374016,-258.398161,0.928242,66.123997
5.7561,0.000929,-0.002402,-0.001061,-0.001674,0.002878,0.006448,0.000544,-0.512552,-0.000545,-1.374016,-258.398161,0.928242,66.123997
5.7765,0.000919,-0.00201,-0.000296,-0.001699,0.002863,0.006031,0.000326,-0.512285,-0.000748,-1.370832,-258.40116,0.872457,66.12307
5.7965,0.000548,-0.001904,-0.000691,-0.001699,0.002762,0.005737,0.000498,-0.51216,-0.000528,-1.370832,-258.40116,0.872457,66.12307
5.8162,0.00071,-0.002173,0.000908,-0.001697,0.002685,0.005527,0.000193,-0.511899,-0.000681,-1.316839,-258.401295,0.797457,66.123033
5.8365,0.000455,-0.002376,0.000495,-0.001914,0.002605,0.004791,0.001088,-0.512149,0.00077,-1.316839,-258.401295,0.797457,66.123033
5.8563,0.000839,-0.001995,-0.001509,-0.00207,0.002544,0.004252,0.001088,-0.512149,0.00077,-1.316839,-258.401295,0.797457,66.123033
5.8765,0.000923,-0.00212,-0.001617,-0.002183,0.002498,0.003859,6.6e-05,-0.511988,-0.001493,-1.297863,-258.40145,0.722366,66.122987
5.8964,0.000728,-0.002297,-0.000483,-0.001884,0.002455,0.004793,7.8e-05,-0.51204,-0.001542,-1.297863,-258.40145,0.722366,66.122987
5.9165,0.000649,-0.002376,0.00038,-0.001668,0.002423,0.005448,0.000481,-0.512296,-0.000483,-1.222952,-258.401451,0.647455,66.122987
5.9363,0.000501,-0.00206,-0.00146,-0.001797,0.002471,0.004912,0.000812,-0.512369,0.000305,-1.222952,-258.401451,0.647455,66.122987
5.9563,0.000773,-0.002253,-0.00071,-0.001889,0.00251,0.004523,0.000812,-0.512369,0.000305,-1.222952,-258.401451,0.647455,66.122987
5.9765,0.000617,-0.002141,0.001554,-0.001956,0.002541,0.00424,0.000367,-0.512189,-0.00056,-1.28846,-258.403,0.572366,66.122496
5.9962,0.00041,-0.002179,-0.001009,-0.001999,0.002522,0.004035,0.000787,-0.512162,0.000319,-1.28846,-258.403,0.572366,66.122496
6.0165,0.000466,-0.002153,-0.001388,-0.00203,0.002508,0.003884,-0.000105,-0.512178,-0.001008,-1.213555,-258.403013,0.497462,66.122492
6.0366,0.000237,-0.002072,-0.002273,-0.001683,0.002496,0.004698,-0.00023,-0.512155,-0.001355,-1.213555,-258.403013,0.497462,66.122492
6.0566,0.000404,-0.002309,-0.000254,-0.001427,0.002489,0.005268,-0.00023,-0.512155,-0.001355,-1.213555,-258.403013,0.497462,66.122492
6.0765,0.00042,-0.002527,0.000149,-0.001238,0.002486,0.005667,0.000274,-0.512308,-0.000253,-1.176545,-258.403023,0.422369,66.122488
6.0964,0.000357,-0.001949,-0.001486,-0.00134,0.002547,0.005247,0.000363,-0.512396,-9.1e-05,-1.176545,-258.403023,0.422369,66.122488
6.1164,0.000398,-0.002128,0.001304,-0.001413,0.002594,0.004945,-0.000412,-0.511931,-0.001449,-1.251457,-258.403544,0.497281,66.122353
6.1363,0.000595,-0.002371,-0.001744,-0.00167,0.002548,0.004204,0.000933,-0.512109,0.001064,-1.251457,-258.403544,0.497281,66.122353
6.1564,0.000747,-0.00201,-0.000737,-0.001857,0.002513,0.003663,0.000933,-0.512109,0.001064,-1.251457,-258.403544,0.497281,66.122353
6.1765,-0.000197,-0.001738,-0.001406,-0.001994,0.002489,0.003269,0.000345,-0.511961,-0.000637,-1.324228,-258.404628,0.422197,66.122076
6.1968,0.000275,-0.002165,-0.000241,-0.001682,0.002435,0.004044,-0.000169,-0.511864,-0.000938,-1.324228,-258.404628,0.422197,66.122076
6.2164,0.000672,-0.002329,-0.001147,-0.001456,0.002395,0.004584,0.000152,-0.512165,-0.000241,-1.249316,-258.404629,0.347285,66.122076
6.2364,0.000209,-0.001681,-0.00034,-0.001387,0.002473,0.005032,9.3e-05,-0.512314,-0.001064,-1.249316,-258.404629,0.347285,66.122076
6.2568,0.000725,-0.001917,0.000286,-0.001337,0.002535,0.005341,9.3e-05,-0.512314,-0.001064,-1.249316,-258.404629,0.347285,66.122076
6.2765,0.000241,-0.001983,-0.000712,-0.001301,0.002583,0.005552,0.000817,-0.511829,0.000455,-1.297564,-258.406526,0.272273,66.121545
6.2967,0.000234,-0.002412,0.000303,-0.001406,0.002516,0.005113,0.000431,-0.511881,2e-06,-1.297564,-258.406526,0.272273,66.121545
6.3165,-9e-06,-0.001737,0.001338,-0.001482,0.002465,0.004799,0.000377,-0.51239,0.000347,-1.356331,-258.407155,0.347358,66.121387
6.3366,0.000183,-0.002168,0.000271,-0.001635,0.00239,0.003998,0.000647,-0.511791,0.001256,-1.356331,-258.407155,0.347358,66.121387
6.3567,-0.000296,-0.001635,0.001377,-0.001744,0.002334,0.003414,0.000647,-0.511791,0.001256,-1.356331,-258.407155,0.347358,66.121387
6.3765,-0.000296,-0.001899,4.3e-05,-0.001822,0.002292,0.002989,0.000349,-0.511539,0.001563,-1.302776,-258.409242,0.304787,66.120808
6.3964,-2e-06,-0.001553,-0.00059,-0.001671,0.002236,0.002809,7.8e-05,-0.511681,0.000941,-1.302776,-258.409242,0.304787,66.120808
6.4162,-0.000178,-0.001551,-0.000117,-0.001558,0.002195,0.002681,-0.000303,-0.511552,-0.00059,-1.22742,-258.409249,0.229431,66.120805
6.4364,-3.6e-05,-0.001869,0.000746,-0.001333,0.002128,0.003176,-0.000244,-0.511551,-0.00016,-1.22742,-258.409249,0.229431,66.120805
6.4562,0.000301,-0.001577,-0.000817,-0.001168,0.002077,0.003522,-0.000244,-0.511551,-0.00016,-1.22742,-258.409249,0.229431,66.120805
6.4766,-0.0,-0.001485,0.000765,-0.001047,0.002037,0.003764,-0.000116,-0.511577,-0.000817,-1.18475,-258.409255,0.154917,66.120802
6.4964,-4.4e-05,-0.001538,0.000723,-0.00108,0.002009,0.003949,9.1e-05,-0.511539,-0.000169,-1.18475,-258.409255,0.154917,66.120802
6.5161,0.000102,-0.001646,-0.001004,-0.001105,0.001987,0.004078,0.000301,-0.511499,0.000795,-1.259748,-258.410354,0.229916,66.120537
6.5362,8.8e-05,-0.001694,0.000384,-0.000955,0.001987,0.004544,-0.00035,-0.511631,-0.000845,-1.259748,-258.410354,0.229916,66.120537
6.5562,-7.7e-05,-0.001634,0.00077,-0.000844,0.001987,0.004869,-0.00035,-0.511631,-0.000845,-1.259748,-258.410354,0.229916,66.120537
6.5765,-0.00044,-0.001905,0.000696,-0.000763,0.001988,0.005095,0.000292,-0.511591,0.000852,-1.328792,-258.411262,0.305043,66.120297
6.5965,-0.000607,-0.001549,0.000557,-0.00091,0.00201,0.004387,0.000137,-0.511714,0.000798,-1.328792,-258.411262,0.305043,66.120297
6.6161,-0.000206,-0.001623,6.5e-05,-0.001015,0.002028,0.003876,-0.000323,-0.511549,0.000557,-1.40366,-258.411263,0.379912,66.120297
6.6363,-0.000134,-0.001646,-0.000653,-0.000959,0.002017,0.003857,-0.000186,-0.511617,0.000107,-1.40366,-258.411263,0.379912,66.120297
6.6564,-0.000414,-0.001704,0.000726,-0.000916,0.002009,0.003843,-0.000186,-0.511617,0.000107,-1.40366,-258.411263,0.379912,66.120297
6.6763,-0.000332,-0.001804,-0.00017,-0.000884,0.002004,0.003832,-8.2e-05,-0.511628,0.000871,-1.343859,-258.412876,0.322405,66.119915
6.6965,-9.9e-05,-0.001537,0.000324,-0.000855,0.002017,0.003627,-0.000222,-0.51169,0.000468,-1.343859,-258.412876,0.322405,66.119915
6.7161,-0.000386,-0.001822,-0.000384,-0.000832,0.002028,0.00348,3.9e-05,-0.511475,0.000441,-1.370083,-258.414585,0.36408,66.11955
6.7362,-0.000667,-0.001613,0.000487,-0.000692,0.002041,0.003797,-0.000531,-0.511789,-0.000308,-1.370083,-258.414585,0.36408,66.11955
6.7564,-0.000693,-0.001278,0.001488,-0.000588,0.002052,0.004021,-0.000531,-0.511789,-0.000308,-1.370083,-258.414585,0.36408,66.11955
6.776,-0.00069,-0.001316,0.000481,-0.000511,0.002061,0.004179,5.3e-05,-0.511247,0.001544,-1.373237,-258.415213,0.288934,66.119426
6.7962,-0.000821,-0.001373,0.001224,-0.000596,0.00194,0.003602,-0.000154,-0.511272,0.001113,-1.373237,-258.415213,0.288934,66.119426
6.8164,-0.000699,-0.001606,0.00036,-0.000656,0.001848,0.003184,-0.000197,-0.511371,0.001226,-1.448222,-258.415251,0.363919,66.11942
6.8363,-0.00057,-0.001314,0.001263,-0.000576,0.001863,0.003188,-0.000486,-0.511584,0.00044,-1.448222,-258.415251,0.363919,66.11942
6.8561,-0.000375,-0.001122,0.000784,-0.000515,0.001875,0.003189,-0.000486,-0.511584,0.00044,-1.448222,-258.415251,0.363919,66.11942
6.8764,-0.00093,-0.001099,0.002295,-0.000468,0.001885,0.003188,1.3e-05,-0.511089,0.000845,-1.399495,-258.415939,0.288893,66.119301
6.896,-0.000458,-0.001354,0.000637,-0.000657,0.001749,0.002756,0.000105,-0.511088,0.001447,-1.399495,-258.415939,0.288893,66.119301
6.916,-0.000982,-0.001612,0.000742,-0.000794,0.001646,0.002445,-0.000143,-0.511315,0.000703,-1.449201,-258.416938,0.213918,66.119179
6.9361,-0.000752,-0.00175,0.002155,-0.000653,0.001701,0.002509,-0.000565,-0.511584,0.000741,-1.449201,-258.416938,0.213918,66.119179
6.9561,-0.000702,-0.001254,0.001696,-0.000545,0.001745,0.002552,-0.000565,-0.511584,0.000741,-1.449201,-258.416938,0.213918,66.119179
6.9761,-0.000608,-0.001013,0.000624,-0.000463,0.00178,0.002583,0.000162,-0.51125,0.001702,-1.374201,-258.417007,0.138919,66.119162
6.9961,-0.000383,-0.001534,-0.000217,-0.000594,0.001691,0.002389,-2.3e-05,-0.511153,0.001262,-1.374201,-258.417007,0.138919,66.119162
7.0162,-0.000706,-0.001138,-1.5e-05,-0.000691,0.001624,0.002252,-0.000493,-0.511533,-0.000216,-1.43376,-258.417015,0.06405,66.119161
7.0362,-0.000644,-0.001464,0.000598,-0.00049,0.001564,0.002814,-0.000695,-0.511171,-3.2e-05,-1.43376,-258.417015,0.06405,66.119161
7.0564,-0.000523,-0.001637,-0.001255,-0.000342,0.001517,0.003206,-0.000695,-0.511171,-3.2e-05,-1.43376,-258.417015,0.06405,66.119161
7.0762,-0.001044,-0.001804,0.000136,-0.000234,0.001481,0.003478,-0.001164,-0.511633,-0.001249,-1.358583,-258.417084,-0.011126,66.119144
7.0962,-0.00064,-0.001301,0.002329,-4.5e-05,0.001582,0.004018,-0.001088,-0.511701,-0.00069,-1.358583,-258.417084,-0.011126,66.119144
7.1163,-0.00058,-0.001029,0.000609,9.6e-05,0.001661,0.004396,0.000548,-0.511299,0.002329,-1.433407,-258.417084,0.063698,66.119144
7.1363,-0.000975,-0.001083,0.00114,-0.000109,0.001562,0.003915,-0.0002,-0.511052,0.000757,-1.433407,-258.417084,0.063698,66.119144
7.1565,-0.000766,-0.001114,0.001552,-0.000258,0.001487,0.003569,-0.0002,-0.511052,0.000757,-1.433407,-258.417084,0.063698,66.119144
7.1761,-0.000407,-0.0012,-0.000568,-0.000368,0.00143,0.003321,2.6e-05,-0.511113,0.001552,-1.508515,-258.417084,-0.011411,66.119144
7.1968,-0.000961,-0.001583,-6.6e-05,0.0,0.0,0.0,-0.000267,-0.511148,0.000692,-1.508515,-258.417084,-0.011411,66.119144
