mach0312/omni-docking-bench/src/icros_test_setup/results/MPPI_sample/timeseries/trial_011.csv
t,x,y,yaw,vx,vy,wz,bl_x,bl_y,bl_yaw,front_steering_joint,front_wheel_joint,rear_steering_joint,rear_wheel_joint
0.0,0.040737,0.018231,-0.030453,0.0,0.0,0.0,0.024816,-0.492055,-0.03003,-0.095499,-264.159299,1.157977,62.431799
0.0003,0.040825,0.018357,-0.032588,0.0,0.0,0.0,0.024816,-0.492055,-0.03003,-0.095499,-264.158205,1.157977,62.434514
0.0007,0.040865,0.018336,-0.030039,0.0,0.0,0.0,0.024816,-0.492055,-0.03003,-0.095499,-264.158202,1.157977,62.43452
0.001,0.040595,0.018471,-0.029341,0.0,0.0,0.0,0.024579,-0.491116,-0.030788,-0.095499,-264.158202,1.157977,62.43452
0.0013,0.040878,0.018716,-0.030341,0.0,0.0,0.0,0.024579,-0.491116,-0.030788,-0.095499,-264.158202,1.157977,62.43452
0.0016,0.040732,0.017959,-0.030604,0.0,0.0,0.0,0.024725,-0.491264,-0.030829,-0.095499,-264.158202,1.157977,62.43452
0.0018,0.040914,0.017818,-0.031026,0.0,0.0,0.0,0.024725,-0.491264,-0.030829,-0.095499,-264.158202,1.157977,62.43452
0.0021,0.040905,0.018724,-0.031105,0.0,0.0,0.0,0.024948,-0.491425,-0.030275,-0.095499,-264.158202,1.157977,62.43452
0.0163,0.040513,0.018353,-0.030267,0.0,0.0,0.0,0.025044,-0.49103,-0.031105,-0.095499,-264.158202,1.157977,62.43452
0.0367,0.040621,0.018257,-0.031232,0.0,0.0,0.0,0.025076,-0.491378,-0.030343,-0.095499,-264.158202,1.157977,62.43452
0.0562,0.040977,0.018473,-0.031981,0.0,0.0,0.0,0.025076,-0.491378,-0.030343,-0.095499,-264.158202,1.157977,62.43452
0.0766,0.04092,0.018541,-0.030512,0.0,0.0,0.0,0.02467,-0.491267,-0.031981,-0.095499,-264.158202,1.157977,62.43452
0.0967,0.040926,0.018479,-0.02982,0.0,0.0,0.0,0.024951,-0.491248,-0.031383,-0.095499,-264.158202,1.157977,62.43452
0.1163,0.040404,0.018234,-0.031702,-0.000182,-0.003857,0.002586,0.02572,-0.491294,-0.02982,-0.095499,-264.158202,1.157977,62.43452
0.1367,0.040966,0.018379,-0.031281,-0.000174,-0.0042,0.00287,0.024373,-0.49149,-0.031532,-0.095499,-264.158202,1.157977,62.43452
0.1567,0.040557,0.01853,-0.029231,-0.000162,-0.00449,0.003092,0.024373,-0.49149,-0.031532,-0.095499,-264.158202,1.157977,62.43452
0.1762,0.040786,0.018184,-0.030878,-0.000149,-0.004735,0.003267,0.025652,-0.491252,-0.029231,-0.17047,-264.158202,1.232948,62.43452
0.1965,0.040677,0.017898,-0.0298,-0.000146,-0.004927,0.003467,0.025404,-0.491382,-0.029898,-0.17047,-264.158202,1.232948,62.43452
0.2163,0.040769,0.017936,-0.030171,-0.000141,-0.005089,0.003628,0.025481,-0.491875,-0.0298,-0.245475,-264.158202,1.307954,62.43452
0.2368,0.040696,0.018077,-0.028633,-0.000141,-0.005217,0.003805,0.025393,-0.491836,-0.030137,-0.245475,-264.158202,1.307954,62.43452
0.2564,0.040539,0.018652,-0.030972,-0.000138,-0.005325,0.003948,0.025393,-0.491836,-0.030137,-0.245475,-264.158202,1.307954,62.43452
0.2766,0.040505,0.018403,-0.030069,-0.000134,-0.005417,0.004064,0.024746,-0.491104,-0.030972,-0.320512,-264.158202,1.382991,62.43452
0.2962,0.040881,0.018273,-0.029771,-0.000112,-0.005514,0.004212,0.024921,-0.491211,-0.030603,-0.320512,-264.158202,1.382991,62.43452
0.3162,0.040583,0.01838,-0.030564,-9.3e-05,-0.005596,0.004332,0.0257,-0.491501,-0.029771,-0.395612,-264.158202,1.458091,62.43452
0.3362,0.040923,0.018622,-0.029883,-8e-05,-0.00566,0.004428,0.025059,-0.491392,-0.030496,-0.395612,-264.158202,1.458091,62.43452
0.3563,0.040628,0.018327,-0.029272,-6.7e-05,-0.005714,0.004507,0.025059,-0.491392,-0.030496,-0.395612,-264.158202,1.458091,62.43452
0.376,0.040752,0.018239,-0.029903,-5.6e-05,-0.005759,0.004571,0.025702,-0.491454,-0.029272,-0.470561,-264.158202,1.533039,62.43452
0.3963,0.040835,0.01855,-0.031766,-5.4e-05,-0.005787,0.004622,0.025621,-0.491486,-0.029531,-0.470561,-264.158202,1.533039,62.43452
0.4162,0.04058,0.018248,-0.029802,-5.1e-05,-0.00581,0.004664,0.024637,-0.491193,-0.031766,-0.545594,-264.158202,1.564276,62.434519
0.4367,0.040836,0.018187,-0.030837,-4.5e-05,-0.005834,0.004698,0.025316,-0.491496,-0.029978,-0.545594,-264.158202,1.564276,62.434519
0.4564,0.04106,0.018294,-0.030777,-3.8e-05,-0.005853,0.004727,0.025316,-0.491496,-0.029978,-0.545594,-264.158202,1.564276,62.434519
0.4769,0.040809,0.018107,-0.030462,-3.2e-05,-0.00587,0.00475,0.025366,-0.491465,-0.030777,-0.620482,-264.158202,1.564882,62.434519
0.4965,0.041077,0.018451,-0.029985,-2.7e-05,-0.005883,0.004769,0.02533,-0.491542,-0.030651,-0.620482,-264.158202,1.564882,62.434519
0.5162,0.040669,0.018304,-0.030608,-2.3e-05,-0.005894,0.004785,0.025787,-0.49132,-0.029985,-0.695505,-264.158201,1.567111,62.434519
0.5366,0.040575,0.018339,-0.030389,-1.4e-05,-0.005908,0.004798,0.025125,-0.491445,-0.030553,-0.695505,-264.158201,1.567111,62.434519
0.5566,0.040632,0.01815,-0.030815,-7e-06,-0.00592,0.004809,0.025125,-0.491445,-0.030553,-0.695505,-264.158201,1.567111,62.434519
0.5764,0.040962,0.018192,-0.029876,-1e-06,-0.00593,0.004818,0.024919,-0.491608,-0.030815,-0.770513,-264.158201,1.568222,62.434518
0.5965,0.040471,0.018446,-0.031379,1e-06,-0.005933,0.004826,0.025245,-0.491597,-0.030436,-0.770513,-264.158201,1.568222,62.434518
0.6165,0.040823,0.018767,-0.029863,2e-06,-0.005936,0.004832,0.024471,-0.491303,-0.031379,-0.845476,-264.158201,1.5707,62.434518
0.6363,0.040578,0.018327,-0.030607,1e-05,-0.005946,0.004838,0.025494,-0.491033,-0.029999,-0.845476,-264.158201,1.5707,62.434518
0.6566,0.040639,0.018202,-0.029748,1.6e-05,-0.005954,0.004843,0.025494,-0.491033,-0.029999,-0.845476,-264.158201,1.5707,62.434518
0.6767,0.040801,0.018006,-0.030125,2.2e-05,-0.00596,0.004847,0.02547,-0.491572,-0.029748,-0.920496,-264.158201,1.571069,62.434517
0.6962,0.040347,0.018621,-0.030129,1.7e-05,-0.005955,0.004849,0.025458,-0.49165,-0.029902,-0.920496,-264.158201,1.571069,62.434517
0.7167,0.040624,0.0184,-0.03087,1.3e-05,-0.00595,0.004852,0.024983,-0.491147,-0.030129,-0.995485,-264.1582,1.573239,62.434514
0.7367,0.040758,0.018133,-0.03082,2.3e-05,-0.00596,0.004855,0.024892,-0.491339,-0.030803,-0.995485,-264.1582,1.573239,62.434514
0.7566,0.040672,0.018319,-0.029516,3e-05,-0.005969,0.004857,0.024892,-0.491339,-0.030803,-0.995485,-264.1582,1.573239,62.434514
0.7766,0.040606,0.018306,-0.030107,3.7e-05,-0.005976,0.004859,0.025621,-0.491459,-0.029515,-1.070469,-264.158195,1.572279,62.434499
0.7967,0.040896,0.018292,-0.029548,3.3e-05,-0.005971,0.00486,0.025473,-0.491461,-0.029754,-1.070469,-264.158195,1.572279,62.434499
0.8168,0.040946,0.018584,-0.030166,3e-05,-0.005967,0.004861,0.025829,-0.491489,-0.029545,-1.145476,-264.158172,1.574948,62.434431
0.8367,0.040692,0.018261,-0.030304,3e-05,-0.005967,0.004862,0.025583,-0.491207,-0.030119,-1.145476,-264.158172,1.574948,62.434431
0.8566,0.041161,0.01833,-0.030088,3.1e-05,-0.005967,0.004864,0.025583,-0.491207,-0.030119,-1.145476,-264.158172,1.574948,62.434431
0.8766,0.040318,0.018581,-0.029883,3.1e-05,-0.005967,0.004865,0.02582,-0.491454,-0.030075,-1.220918,-264.158103,1.574145,62.434225
0.8962,0.041009,0.018452,-0.030359,3e-05,-0.005965,0.004865,0.025519,-0.491349,-0.029996,-1.220918,-264.158103,1.574145,62.434225
0.9162,0.040612,0.018332,-0.02976,2.9e-05,-0.005963,0.004866,0.02553,-0.491342,-0.030335,-1.295475,-264.15792,1.574273,62.43368
0.9362,0.040771,0.018342,-0.030375,2.7e-05,-0.005961,0.004866,0.025445,-0.491435,-0.02981,-1.295475,-264.15792,1.574273,62.43368
0.9563,0.040949,0.017934,-0.028899,2.6e-05,-0.005959,0.004867,0.025445,-0.491435,-0.02981,-1.295475,-264.15792,1.574273,62.43368
0.9764,0.040593,0.018648,-0.030764,2.5e-05,-0.005958,0.004867,0.026214,-0.491932,-0.028833,-1.370476,-264.157536,1.574029,62.432533
0.9965,0.040169,0.017832,-0.031181,2e-05,-0.00595,0.004868,0.02566,-0.491593,-0.029644,-1.370476,-264.157536,1.574029,62.432533
1.0165,0.040473,0.018018,-0.030475,1.5e-05,-0.005944,0.004868,0.02427,-0.492024,-0.031096,-1.445984,-264.156877,1.573642,62.43056
1.0365,0.040523,0.018033,-0.031144,1.7e-05,-0.005946,0.004868,0.024881,-0.491772,-0.03052,-1.445984,-264.156877,1.573642,62.43056
1.0565,0.040897,0.018135,-0.030741,2e-05,-0.005949,0.004869,0.024881,-0.491772,-0.03052,-1.445984,-264.156877,1.573642,62.43056
1.0768,0.040792,0.017956,-0.029358,2.2e-05,-0.005951,0.004869,0.025219,-0.491821,-0.030579,-1.520875,-264.155938,1.572441,62.427743
1.0962,0.040256,0.017657,-0.031167,1.4e-05,-0.005941,0.004869,0.025463,-0.491845,-0.030066,-1.520875,-264.155938,1.572441,62.427743
1.1165,0.040221,0.017533,-0.029835,8e-06,-0.005933,0.004869,0.024358,-0.492279,-0.031017,-1.563512,-264.154782,1.573226,62.424276
1.1362,0.040432,0.017359,-0.032804,1e-06,-0.005925,0.004919,0.024949,-0.492253,-0.029933,-1.563512,-264.154782,1.573226,62.424276
1.1563,0.040677,0.017353,-0.030049,-4e-06,-0.005917,0.00496,0.024949,-0.492253,-0.029933,-1.563512,-264.154782,1.573226,62.424276
1.1762,0.040348,0.017549,-0.028861,-8e-06,-0.005911,0.004994,0.025347,-0.492665,-0.029845,-1.568175,-264.153598,1.571667,62.420715
1.1963,0.040356,0.017166,-0.029533,-2.3e-05,-0.005892,0.005036,0.025462,-0.49252,-0.029422,-1.568175,-264.153598,1.571667,62.420715
1.2163,0.039753,0.016905,-0.029513,-3.5e-05,-0.005875,0.005071,0.02529,-0.4928,-0.029374,-1.573744,-264.152454,1.569855,62.417132
1.2363,0.039597,0.01703,-0.029183,-4.4e-05,-0.005864,0.005115,0.024756,-0.492876,-0.029492,-1.573744,-264.152454,1.569855,62.417132
1.2566,0.039994,0.016914,-0.028956,-5.1e-05,-0.005853,0.005151,0.024756,-0.492876,-0.029492,-1.573744,-264.152454,1.569855,62.417132
1.2766,0.0402,0.016666,-0.028659,-5.8e-05,-0.005845,0.005181,0.02522,-0.493118,-0.028744,-1.583565,-264.151345,1.566843,62.413549
1.2964,0.03972,0.016769,-0.029739,-7.5e-05,-0.005821,0.005219,0.025368,-0.493149,-0.028685,-1.583565,-264.151345,1.566843,62.413549
1.3165,0.03977,0.016023,-0.02959,-9e-05,-0.005801,0.00525,0.024548,-0.493191,-0.029575,-1.592292,-264.150273,1.564399,62.409946
1.3362,0.039989,0.016312,-0.028937,-0.000103,-0.005782,0.00529,0.02467,-0.493715,-0.029581,-1.592292,-264.150273,1.564399,62.409946
1.3562,0.040273,0.016529,-0.027512,-0.000115,-0.005766,0.005323,0.02467,-0.493715,-0.029581,-1.592292,-264.150273,1.564399,62.409946
1.3761,0.03956,0.015977,-0.029183,-0.000125,-0.005752,0.00535,0.026234,-0.49352,-0.027294,-1.605283,-264.149237,1.560858,62.406353
1.3965,0.039769,0.016159,-0.027548,-0.000143,-0.005726,0.005387,0.025591,-0.493666,-0.028048,-1.605283,-264.149237,1.560858,62.406353
1.4164,0.03952,0.015801,-0.029207,-0.000159,-0.005704,0.005417,0.025712,-0.493829,-0.027378,-1.621054,-264.148248,1.556945,62.402764
1.4367,0.039567,0.015892,-0.028895,-0.000168,-0.005691,0.005454,0.024725,-0.493977,-0.029033,-1.621054,-264.148248,1.556945,62.402764
1.4564,0.039687,0.016047,-0.029018,-0.000176,-0.00568,0.005485,0.024725,-0.493977,-0.029033,-1.621054,-264.148248,1.556945,62.402764
1.4762,0.03932,0.01531,-0.027968,-0.000182,-0.00567,0.00551,0.024876,-0.493975,-0.028793,-1.63701,-264.14729,1.553169,62.399169
1.4964,0.039773,0.015815,-0.028709,-0.000194,-0.005652,0.005541,0.024949,-0.494215,-0.028427,-1.63701,-264.14729,1.553169,62.399169
1.5167,0.039123,0.015591,-0.028285,-0.000205,-0.005637,0.005567,0.025122,-0.494155,-0.028535,-1.649611,-264.146368,1.550655,62.395565
1.5365,0.0387,0.015272,-0.027163,-0.000212,-0.005627,0.005595,0.024738,-0.49421,-0.028299,-1.649611,-264.146368,1.550655,62.395565
1.5567,0.039412,0.015148,-0.026392,-0.000218,-0.005618,0.005619,0.024738,-0.49421,-0.028299,-1.649611,-264.146368,1.550655,62.395565
1.5768,0.039098,0.015027,-0.028067,-0.000223,-0.005611,0.005638,0.025939,-0.494909,-0.026161,-1.662149,-264.145471,1.548125,62.391956
1.5965,0.039409,0.015032,-0.027821,-0.000246,-0.005577,0.005657,0.025462,-0.49488,-0.026918,-1.662149,-264.145471,1.548125,62.391956
1.6163,0.038861,0.014449,-0.025441,-0.000265,-0.005549,0.005673,0.02521,-0.494948,-0.027642,-1.673149,-264.144602,1.546217,62.388343
1.6362,0.038927,0.014922,-0.027477,-0.000292,-0.005507,0.005688,0.025828,-0.495357,-0.025625,-1.673149,-264.144602,1.546217,62.388343
1.6564,0.038921,0.014366,-0.026488,-0.000315,-0.005472,0.005701,0.025828,-0.495357,-0.025625,-1.673149,-264.144602,1.546217,62.388343
1.6767,0.038607,0.014432,-0.026649,-0.000334,-0.005442,0.005711,0.025396,-0.495685,-0.026253,-1.697153,-264.143771,1.541439,62.384775
1.6965,0.038481,0.014287,-0.02712,-0.000348,-0.005419,0.005722,0.025242,-0.495591,-0.026385,-1.697153,-264.143771,1.541439,62.384775
1.716,0.038627,0.01418,-0.027549,-0.00036,-0.0054,0.005731,0.024636,-0.495694,-0.026943,-1.740098,-264.143002,1.533422,62.381307
1.7365,0.038468,0.014161,-0.02744,-0.000364,-0.005393,0.00574,0.024583,-0.495641,-0.027487,-1.740098,-264.143002,1.533422,62.381307
1.7564,0.038541,0.014171,-0.026003,-0.000368,-0.005386,0.005747,0.024583,-0.495641,-0.027487,-1.740098,-264.143002,1.533422,62.381307
1.7766,0.038808,0.013879,-0.027832,-0.000371,-0.005381,0.005753,0.025281,-0.495657,-0.026003,-1.665053,-264.143002,1.530383,62.381306
1.7968,0.038469,0.014091,-0.026172,-0.000379,-0.005367,0.005745,0.025009,-0.495766,-0.02675,-1.665053,-264.143002,1.530383,62.381306
1.8164,0.038361,0.014132,-0.026516,-0.000386,-0.005356,0.005738,0.025123,-0.495734,-0.026172,-1.590093,-264.143002,1.529145,62.381306
1.8366,0.038357,0.01427,-0.025394,-0.000389,-0.005351,0.005719,0.024865,-0.495693,-0.026485,-1.590093,-264.143002,1.529145,62.381306
1.8562,0.038773,0.014335,-0.026101,-0.000392,-0.005346,0.005702,0.024865,-0.495693,-0.026485,-1.590093,-264.143002,1.529145,62.381306
1.8766,0.038843,0.014261,-0.027368,-0.000394,-0.005343,0.005689,0.025463,-0.495492,-0.026101,-1.515095,-264.143002,1.527226,62.381306
1.8966,0.038669,0.014215,-0.024371,-0.000396,-0.00534,0.005664,0.025228,-0.495515,-0.026618,-1.515095,-264.143002,1.527226,62.381306
1.916,0.038825,0.014103,-0.027382,-0.000398,-0.005337,0.005643,0.026241,-0.495633,-0.024371,-1.440103,-264.143002,1.526102,62.381305
1.9366,0.038368,0.013814,-0.027313,-0.000399,-0.005335,0.00561,0.024988,-0.495699,-0.027108,-1.440103,-264.143002,1.526102,62.381305
1.9565,0.038611,0.014188,-0.026704,-0.0004,-0.005333,0.005584,0.024988,-0.495699,-0.027108,-1.440103,-264.143002,1.526102,62.381305
1.9767,0.038539,0.014065,-0.025094,-0.000401,-0.005332,0.005562,0.024993,-0.495631,-0.026704,-1.365102,-264.143002,1.52556,62.381305
1.9969,0.038667,0.014169,-0.026826,-0.000404,-0.005326,0.005529,0.025303,-0.49569,-0.026039,-1.365102,-264.143002,1.52556,62.381305
2.0165,0.038414,0.014392,-0.026575,-0.000407,-0.005322,0.005501,0.024987,-0.495647,-0.026826,-1.289986,-264.143002,1.524935,62.381305
2.0366,0.038562,0.014488,-0.027246,-0.000401,-0.005331,0.005463,0.024874,-0.495448,-0.026598,-1.289986,-264.143002,1.524935,62.381305
2.0569,0.0384,0.014232,-0.027727,-0.000395,-0.005339,0.005431,0.024874,-0.495448,-0.026598,-1.289986,-264.143002,1.524935,62.381305
2.0762,0.038399,0.014203,-0.026779,-0.000391,-0.005346,0.005405,0.024261,-0.495572,-0.027727,-1.215086,-264.143002,1.523974,62.381304
2.0966,0.0386,0.013915,-0.02575,-0.000385,-0.005355,0.005367,0.024457,-0.495589,-0.027342,-1.215086,-264.143002,1.523974,62.381304
2.1161,0.038278,0.014091,-0.02585,-0.000379,-0.005364,0.005335,0.025469,-0.495916,-0.02575,-1.140085,-264.143002,1.525628,62.381304
2.1365,0.038388,0.014007,-0.025427,-0.000384,-0.005356,0.005289,0.025131,-0.495755,-0.02584,-1.140085,-264.143002,1.525628,62.381304
2.1568,0.038519,0.014471,-0.026129,-0.000388,-0.00535,0.005252,0.025131,-0.495755,-0.02584,-1.140085,-264.143002,1.525628,62.381304
2.1768,0.038254,0.014017,-0.025921,-0.000391,-0.005345,0.005222,0.025195,-0.495355,-0.026129,-1.065091,-264.143003,1.526845,62.381304
2.1966,0.038904,0.014489,-0.026144,-0.000389,-0.005348,0.005155,0.02513,-0.49554,-0.026045,-1.065091,-264.143003,1.526845,62.381304
2.2164,0.038829,0.014383,-0.026375,-0.000388,-0.00535,0.005101,0.025572,-0.495337,-0.026144,-0.990089,-264.143003,1.524996,62.381303
2.2368,0.038325,0.013809,-0.026629,-0.000387,-0.005351,0.005057,0.025397,-0.49543,-0.026354,-0.990089,-264.143003,1.524996,62.381303
2.2565,0.038334,0.013757,-0.024622,-0.000386,-0.005352,0.005022,0.025397,-0.49543,-0.026354,-0.990089,-264.143003,1.524996,62.381303
2.277,0.038373,0.013924,-0.026566,-0.000386,-0.005353,0.004993,0.025778,-0.496088,-0.024622,-1.065086,-264.143003,1.525013,62.381303
2.2972,0.038221,0.014036,-0.0266,-0.000394,-0.005339,0.004969,0.025395,-0.496011,-0.025405,-1.065086,-264.143003,1.525013,62.381303
2.3166,0.038665,0.014336,-0.026414,-0.000402,-0.005327,0.00495,0.024656,-0.495783,-0.026599,-1.140083,-264.143002,1.524943,62.381301
2.3363,0.038654,0.014099,-0.026925,-0.000397,-0.005334,0.004935,0.025145,-0.495514,-0.026432,-1.140083,-264.143002,1.524943,62.381301
2.3564,0.038386,0.014055,-0.026439,-0.000393,-0.005339,0.004923,0.025145,-0.495514,-0.026432,-1.140083,-264.143002,1.524943,62.381301
2.3762,0.03863,0.014348,-0.025943,-0.00039,-0.005344,0.004913,0.024904,-0.495767,-0.026438,-1.215091,-264.143,1.52272,62.381294
2.3962,0.038629,0.014307,-0.026152,-0.000389,-0.005345,0.004905,0.025105,-0.495651,-0.026237,-1.215091,-264.143,1.52272,62.381294
2.4171,0.038639,0.014139,-0.027624,-0.000389,-0.005345,0.004898,0.025293,-0.495521,-0.026151,-1.290089,-264.14299,1.524074,62.381259
2.4372,0.038518,0.014456,-0.027382,-0.000383,-0.005354,0.004893,0.024629,-0.495651,-0.027471,-1.290089,-264.14299,1.524074,62.381259
2.4565,0.038682,0.014286,-0.026809,-0.000378,-0.005361,0.004889,0.024629,-0.495651,-0.027471,-1.290089,-264.14299,1.524074,62.381259
2.4761,0.038507,0.013935,-0.027458,-0.000374,-0.005367,0.004885,0.025011,-0.495539,-0.026801,-1.365163,-264.142954,1.524205,62.381131
2.4965,0.038372,0.014249,-0.027224,-0.000373,-0.005369,0.004882,0.024801,-0.495678,-0.027073,-1.365163,-264.142954,1.524205,62.381131
2.5161,0.038464,0.013918,-0.025897,-0.000372,-0.00537,0.00488,0.024489,-0.495582,-0.027206,-1.440364,-264.14284,1.526004,62.380738
2.5365,0.03864,0.013896,-0.026204,-0.000379,-0.00536,0.004877,0.025188,-0.495882,-0.026015,-1.440364,-264.14284,1.526004,62.380738
2.5564,0.038627,0.013876,-0.026282,-0.000384,-0.005351,0.004875,0.025188,-0.495882,-0.026015,-1.440364,-264.14284,1.526004,62.380738
2.5764,0.038383,0.014316,-0.026509,-0.000389,-0.005344,0.004874,0.025222,-0.496008,-0.026228,-1.515086,-264.14258,1.526228,62.379839
2.5964,0.038143,0.01446,-0.027063,-0.00039,-0.005342,0.004873,0.025073,-0.495805,-0.026339,-1.515086,-264.14258,1.526228,62.379839
2.6163,0.038261,0.013799,-0.026904,-0.000391,-0.00534,0.004872,0.024337,-0.495432,-0.026992,-1.59045,-264.142135,1.524079,62.378294
2.6365,0.038136,0.014051,-0.024985,-0.00039,-0.005342,0.004871,0.024527,-0.495977,-0.026908,-1.59045,-264.142135,1.524079,62.378294
2.6563,0.038428,0.01392,-0.024899,-0.000388,-0.005344,0.004871,0.024527,-0.495977,-0.026908,-1.59045,-264.142135,1.524079,62.378294
2.6763,0.038191,0.013536,-0.025912,-0.000387,-0.005345,0.00487,0.025718,-0.496081,-0.024755,-1.665651,-264.141454,1.523757,62.37593
2.6968,0.038373,0.013995,-0.026032,-0.000398,-0.005327,0.004869,0.025415,-0.496185,-0.025208,-1.665651,-264.141454,1.523757,62.37593
2.7164,0.038139,0.013488,-0.026605,-0.000408,-0.005312,0.004869,0.025082,-0.495991,-0.025887,-1.732725,-264.14056,1.524282,62.37283
2.7366,0.038432,0.013569,-0.024112,-0.000411,-0.005307,0.004913,0.024617,-0.496309,-0.026532,-1.732725,-264.14056,1.524282,62.37283
2.7566,0.038336,0.01348,-0.026556,-0.000413,-0.005302,0.00495,0.024617,-0.496309,-0.026532,-1.732725,-264.14056,1.524282,62.37283
2.7769,0.038002,0.013524,-0.02393,-0.000415,-0.005298,0.00498,0.024771,-0.496562,-0.026353,-1.743398,-264.139613,1.521626,62.369518
2.7967,0.037975,0.013378,-0.02661,-0.000426,-0.00528,0.005019,0.025185,-0.496493,-0.025347,-1.743398,-264.139613,1.521626,62.369518
2.8163,0.03827,0.013165,-0.024542,-0.000435,-0.005265,0.005052,0.024405,-0.496442,-0.02661,-1.668402,-264.139613,1.521039,62.369518
2.8369,0.037846,0.013005,-0.025396,-0.000449,-0.005241,0.005078,0.025638,-0.49666,-0.02472,-1.668402,-264.139613,1.521039,62.369518
2.8564,0.03789,0.013359,-0.025921,-0.000461,-0.00522,0.0051,0.025638,-0.49666,-0.02472,-1.668402,-264.139613,1.521039,62.369518
2.8769,0.038286,0.012907,-0.025311,-0.00047,-0.005203,0.005117,0.024672,-0.49647,-0.025921,-1.593274,-264.139613,1.518758,62.369517
2.8964,0.038048,0.013425,-0.024609,-0.000473,-0.005198,0.005132,0.024958,-0.496656,-0.025674,-1.593274,-264.139613,1.518758,62.369517
2.916,0.038174,0.013342,-0.026542,-0.000474,-0.005195,0.005144,0.025499,-0.49642,-0.024609,-1.518318,-264.139613,1.514369,62.369517
2.9363,0.038014,0.013712,-0.026296,-0.00047,-0.0052,0.005154,0.024686,-0.496475,-0.026436,-1.518318,-264.139613,1.514369,62.369517
2.9562,0.038037,0.013224,-0.024894,-0.000467,-0.005205,0.005162,0.024686,-0.496475,-0.026436,-1.518318,-264.139613,1.514369,62.369517
2.9763,0.037824,0.013322,-0.025109,-0.000465,-0.005209,0.005169,0.025343,-0.496618,-0.024894,-1.442323,-264.139613,1.513944,62.369517
2.9966,0.038321,0.013409,-0.025351,-0.000469,-0.005202,0.005173,0.025211,-0.496577,-0.024981,-1.442323,-264.139613,1.513944,62.369517
3.0164,0.037815,0.013728,-0.025716,-0.000473,-0.005195,0.005177,0.025393,-0.496427,-0.025351,-1.368401,-264.139613,1.515313,62.369516
3.0365,0.037927,0.013112,-0.026082,-0.000465,-0.005208,0.005179,0.024763,-0.496132,-0.025683,-1.368401,-264.139613,1.515313,62.369516
3.0568,0.038316,0.013141,-0.025544,-0.000459,-0.005219,0.00518,0.024763,-0.496132,-0.025683,-1.368401,-264.139613,1.515313,62.369516
3.0767,0.038057,0.013533,-0.025448,-0.000453,-0.005228,0.005181,0.02529,-0.496693,-0.025544,-1.293408,-264.139613,1.514222,62.369516
3.0966,0.038311,0.012813,-0.024823,-0.000459,-0.005219,0.005177,0.025205,-0.496534,-0.025505,-1.293408,-264.139613,1.514222,62.369516
3.1163,0.038119,0.012805,-0.025725,-0.000464,-0.005212,0.005174,0.025652,-0.49703,-0.024823,-1.218401,-264.139613,1.516843,62.369516
3.1367,0.037935,0.013253,-0.027003,-0.000474,-0.005196,0.005163,0.025059,-0.497027,-0.025645,-1.218401,-264.139613,1.516843,62.369516
3.1568,0.03783,0.013686,-0.025499,-0.000482,-0.005181,0.005155,0.025059,-0.497027,-0.025645,-1.218401,-264.139613,1.516843,62.369516
3.1768,0.037912,0.01285,-0.026013,-0.000489,-0.00517,0.005148,0.024827,-0.496149,-0.025499,-1.143373,-264.139613,1.515487,62.369515
3.1963,0.038008,0.013482,-0.025713,-0.000483,-0.005179,0.005095,0.024754,-0.496484,-0.025707,-1.143373,-264.139613,1.515487,62.369515
3.2162,0.037979,0.013118,-0.026316,-0.000478,-0.005186,0.005052,0.024896,-0.496349,-0.025713,-1.068418,-264.139613,1.512085,62.369515
3.2363,0.038292,0.013011,-0.026136,-0.000475,-0.005192,0.005017,0.024591,-0.496673,-0.02626,-1.068418,-264.139613,1.512085,62.369515
3.2568,0.037962,0.013121,-0.026055,-0.000472,-0.005197,0.004989,0.024591,-0.496673,-0.02626,-1.068418,-264.139613,1.512085,62.369515
3.2764,0.038517,0.013058,-0.025365,-0.00047,-0.005201,0.004966,0.024676,-0.496706,-0.026055,-0.993418,-264.139613,1.513029,62.369515
3.2966,0.038074,0.013168,-0.026791,-0.000473,-0.005196,0.004947,0.025041,-0.496735,-0.025776,-0.993418,-264.139613,1.513029,62.369515
3.3167,0.038007,0.013277,-0.024458,-0.000475,-0.005192,0.004931,0.024412,-0.496649,-0.026791,-0.918405,-264.139613,1.513813,62.369514
3.3369,0.038227,0.013135,-0.025663,-0.000479,-0.005187,0.004919,0.025433,-0.496577,-0.024669,-0.918405,-264.139613,1.513813,62.369514
3.3571,0.037946,0.013555,-0.025925,-0.000481,-0.005182,0.004909,0.025433,-0.496577,-0.024669,-0.918405,-264.139613,1.513813,62.369514
3.3764,0.037915,0.012957,-0.024522,-0.000484,-0.005178,0.004901,0.024726,-0.496273,-0.025924,-0.843402,-264.139614,1.512934,62.369514
3.3963,0.037824,0.013104,-0.02427,-0.000481,-0.005182,0.004895,0.025016,-0.496535,-0.025328,-0.843402,-264.139614,1.512934,62.369514
3.416,0.038029,0.013126,-0.024727,-0.000479,-0.005186,0.00489,0.025448,-0.496746,-0.02427,-0.767875,-264.139614,1.511681,62.369514
3.4365,0.037867,0.013076,-0.026463,-0.000484,-0.005178,0.004885,0.025422,-0.49672,-0.024685,-0.767875,-264.139614,1.511681,62.369514
3.4562,0.03821,0.013186,-0.025349,-0.000488,-0.005171,0.004882,0.025422,-0.49672,-0.024685,-0.767875,-264.139614,1.511681,62.369514
3.4764,0.037956,0.012945,-0.023559,-0.000491,-0.005165,0.004879,0.025283,-0.496651,-0.025349,-0.693394,-264.139614,1.512268,62.369513
3.4967,0.037912,0.013343,-0.023622,-0.000495,-0.005157,0.004877,0.025563,-0.496762,-0.024588,-0.693394,-264.139614,1.512268,62.369513
3.516,0.037847,0.013213,-0.026035,-0.000499,-0.00515,0.004875,0.025866,-0.496515,-0.023622,-0.617777,-264.139614,1.510617,62.369513
3.5367,0.037783,0.013335,-0.025912,-0.000492,-0.005162,0.004874,0.024687,-0.496605,-0.025819,-0.617777,-264.139614,1.510617,62.369513
3.5565,0.037955,0.013315,-0.025899,-0.000486,-0.005172,0.004873,0.024687,-0.496605,-0.025819,-0.617777,-264.139614,1.510617,62.369513
3.5761,0.037722,0.013322,-0.027202,-0.000481,-0.00518,0.004872,0.024748,-0.496514,-0.025899,-0.543401,-264.139614,1.509483,62.369513
3.5964,0.03788,0.013412,-0.026133,-0.000472,-0.005194,0.004872,0.024382,-0.496504,-0.02643,-0.543401,-264.139614,1.509483,62.369513
3.6164,0.037915,0.013265,-0.023336,-0.000465,-0.005206,0.004871,0.024553,-0.496414,-0.026133,-0.468409,-264.139614,1.511927,62.369512
3.6362,0.037831,0.01317,-0.025099,-0.000474,-0.005192,0.00487,0.02588,-0.49658,-0.023592,-0.468409,-264.139614,1.511927,62.369512
3.6566,0.037793,0.01335,-0.026826,-0.000481,-0.005179,0.004869,0.02588,-0.49658,-0.023592,-0.468409,-264.139614,1.511927,62.369512
3.6774,0.03749,0.012766,-0.025206,-0.000488,-0.005169,0.004869,0.024113,-0.496467,-0.026826,-0.39341,-264.139614,1.514075,62.369512
3.6964,0.038186,0.012973,-0.02763,-0.000481,-0.00518,0.004869,0.024324,-0.496711,-0.026173,-0.39341,-264.139614,1.514075,62.369512
3.7164,0.038224,0.012972,-0.025685,-0.000475,-0.00519,0.004869,0.024096,-0.496833,-0.02763,-0.318377,-264.139614,1.510971,62.369512
3.7376,0.038053,0.013327,-0.023962,-0.000478,-0.005184,0.004868,0.025033,-0.496858,-0.025861,-0.318377,-264.139614,1.510971,62.369512
3.7568,0.038047,0.013212,-0.02524,-0.000482,-0.005179,0.004868,0.025033,-0.496858,-0.025861,-0.318377,-264.139614,1.510971,62.369512
3.7762,0.038122,0.013558,-0.026544,-0.000484,-0.005174,0.004867,0.025175,-0.496626,-0.02524,-0.243395,-264.139614,1.51271,62.369511
3.7966,0.038183,0.013314,-0.025426,-0.00048,-0.005182,0.004868,0.024936,-0.496479,-0.025769,-0.243395,-264.139614,1.51271,62.369511
3.8165,0.038442,0.013454,-0.024529,-0.000476,-0.005188,0.004868,0.025217,-0.496521,-0.025426,-0.168395,-264.139614,1.511442,62.369511
3.8367,0.038271,0.013531,-0.024577,-0.00048,-0.005182,0.004868,0.025872,-0.496404,-0.024607,-0.168395,-264.139614,1.511442,62.369511
3.8566,0.037749,0.013293,-0.025522,-0.000483,-0.005177,0.004868,0.025872,-0.496404,-0.024607,-0.168395,-264.139614,1.511442,62.369511
3.8765,0.03808,0.013584,-0.024961,-0.000486,-0.005172,0.004867,0.024734,-0.496541,-0.025522,-0.093314,-264.139614,1.512567,62.369511
3.8964,0.037936,0.013333,-0.026553,-0.000481,-0.00518,0.004868,0.024987,-0.496425,-0.025292,-0.093314,-264.139614,1.512567,62.369511
3.9164,0.038018,0.013301,-0.025327,-0.000477,-0.005187,0.004868,0.024395,-0.496487,-0.026553,-0.018403,-264.139615,1.511197,62.36951
3.9361,0.038039,0.013203,-0.025154,-0.000475,-0.00519,0.004868,0.025039,-0.496531,-0.025438,-0.018403,-264.139615,1.511197,62.36951
3.9563,0.037941,0.013311,-0.026242,-0.000474,-0.005192,0.004868,0.025039,-0.496531,-0.025438,-0.018403,-264.139615,1.511197,62.36951
3.9764,0.037729,0.013358,-0.026711,-0.000473,-0.005193,0.004868,0.024559,-0.496514,-0.026242,0.056601,-264.139615,1.51244,62.36951
3.9968,0.038144,0.013112,-0.024905,-0.000465,-0.005206,0.004868,0.024376,-0.496492,-0.026432,0.056601,-264.139615,1.51244,62.36951
4.0165,0.037692,0.013434,-0.025097,-0.000459,-0.005217,0.004868,0.025444,-0.49673,-0.024905,0.131599,-264.139615,1.512924,62.36951
4.0363,0.037739,0.013395,-0.025706,-0.000458,-0.005218,0.004868,0.024944,-0.496435,-0.02508,0.131599,-264.139615,1.512924,62.36951
4.0566,0.038167,0.013149,-0.026034,-0.000458,-0.00522,0.004868,0.024944,-0.496435,-0.02508,0.131599,-264.139615,1.512924,62.36951
4.0762,0.037936,0.013269,-0.025653,-0.000457,-0.005221,0.004867,0.024891,-0.496678,-0.026034,0.206582,-264.139615,1.514831,62.369509
4.0965,0.03802,0.013035,-0.027358,-0.000459,-0.005218,0.004867,0.024876,-0.496631,-0.025878,0.206582,-264.139615,1.514831,62.369509
4.116,0.037787,0.013073,-0.026605,-0.000461,-0.005216,0.004867,0.024069,-0.496774,-0.027358,0.281596,-264.139615,1.515022,62.369509
4.1369,0.038028,0.013514,-0.025776,-0.000457,-0.005221,0.004867,0.024209,-0.496748,-0.02666,0.281596,-264.139615,1.515022,62.369509
4.1567,0.037813,0.01306,-0.025041,-0.000455,-0.005226,0.004867,0.024209,-0.496748,-0.02666,0.281596,-264.139615,1.515022,62.369509
4.1764,0.037871,0.013198,-0.026355,-0.000453,-0.005229,0.004867,0.025043,-0.49678,-0.025041,0.357105,-264.139615,1.514598,62.369509
4.1966,0.038191,0.013038,-0.026725,-0.000456,-0.005224,0.004866,0.024788,-0.496716,-0.025589,0.357105,-264.139615,1.514598,62.369509
4.2169,0.038148,0.013212,-0.025438,-0.000459,-0.00522,0.004866,0.024563,-0.49678,-0.026725,0.431925,-264.139615,1.515675,62.369508
4.2363,0.037735,0.013515,-0.024662,-0.000462,-0.005214,0.004866,0.025134,-0.496634,-0.025526,0.431925,-264.139615,1.515675,62.369508
4.2564,0.038098,0.013238,-0.024947,-0.000466,-0.005208,0.004866,0.025134,-0.496634,-0.025526,0.431925,-264.139615,1.515675,62.369508
4.2766,0.038216,0.01333,-0.025451,-0.000468,-0.005204,0.004866,0.025376,-0.496604,-0.024947,0.507249,-264.139615,1.514882,62.369508
4.2966,0.038193,0.012947,-0.02587,-0.000471,-0.005199,0.004866,0.02532,-0.496564,-0.025152,0.507249,-264.139615,1.514882,62.369508
4.3164,0.037704,0.013483,-0.026308,-0.000474,-0.005195,0.004866,0.025001,-0.496882,-0.02587,0.581589,-264.139615,1.513567,62.369508
4.337,0.037726,0.013565,-0.025017,-0.000464,-0.00521,0.004867,0.024353,-0.496389,-0.026269,0.581589,-264.139615,1.513567,62.369508
4.3569,0.038198,0.013387,-0.026849,-0.000456,-0.005223,0.004867,0.024353,-0.496389,-0.026269,0.581589,-264.139615,1.513567,62.369508
4.3765,0.03782,0.013321,-0.026547,-0.000449,-0.005234,0.004868,0.024507,-0.49643,-0.026849,0.656605,-264.139615,1.51286,62.369507
4.3963,0.037945,0.013395,-0.025777,-0.000445,-0.005241,0.004868,0.024414,-0.496459,-0.026723,0.656605,-264.139615,1.51286,62.369507
4.4162,0.038049,0.013278,-0.024986,-0.000441,-0.005247,0.004867,0.0248,-0.496435,-0.025777,0.731913,-264.139616,1.51614,62.369507
4.4365,0.038006,0.013173,-0.023839,-0.000448,-0.005237,0.004867,0.025259,-0.496551,-0.025061,0.731913,-264.139616,1.51614,62.369507
4.4567,0.037986,0.013284,-0.026134,-0.000454,-0.005228,0.004867,0.025259,-0.496551,-0.025061,0.731913,-264.139616,1.51614,62.369507
4.4767,0.037904,0.01334,-0.025878,-0.000459,-0.00522,0.004866,0.024659,-0.496542,-0.026134,0.806622,-264.139616,1.517141,62.369504
4.4969,0.037866,0.013182,-0.025845,-0.000457,-0.005224,0.004867,0.024679,-0.496521,-0.02603,0.806622,-264.139616,1.517141,62.369504
4.5162,0.038175,0.013092,-0.025397,-0.000455,-0.005227,0.004867,0.024687,-0.496648,-0.025844,0.881604,-264.139621,1.514873,62.369488
4.5363,0.037601,0.013117,-0.025649,-0.000461,-0.005216,0.004866,0.025175,-0.496735,-0.025437,0.881604,-264.139621,1.514873,62.369488
4.5565,0.03775,0.013293,-0.025269,-0.000467,-0.005207,0.004866,0.025175,-0.496735,-0.025437,0.881604,-264.139621,1.514873,62.369488
4.5766,0.037875,0.013573,-0.025778,-0.000471,-0.005199,0.004866,0.024863,-0.496548,-0.025265,0.956592,-264.139638,1.51538,62.369428
4.5968,0.038152,0.013384,-0.025695,-0.000467,-0.005206,0.004867,0.024808,-0.496429,-0.025476,0.956592,-264.139638,1.51538,62.369428
4.6162,0.037914,0.013032,-0.024457,-0.000463,-0.005212,0.004867,0.025047,-0.496458,-0.025684,1.031724,-264.139698,1.513204,62.369211
4.6365,0.038281,0.013446,-0.026612,-0.000472,-0.005198,0.004866,0.025407,-0.496784,-0.024565,1.031724,-264.139698,1.513204,62.369211
4.6563,0.038116,0.013347,-0.026029,-0.000478,-0.005187,0.004866,0.025407,-0.496784,-0.024565,1.031724,-264.139698,1.513204,62.369211
4.6765,0.038111,0.013106,-0.026067,-0.000484,-0.005177,0.004866,0.024836,-0.496514,-0.025996,1.106649,-264.139845,1.514238,62.368685
4.6961,0.037923,0.012992,-0.025504,-0.00048,-0.005183,0.004867,0.024828,-0.496602,-0.02602,1.106649,-264.139845,1.514238,62.368685
4.7171,0.037911,0.013323,-0.025637,-0.000477,-0.005187,0.004867,0.024908,-0.496902,-0.025446,1.181651,-264.140178,1.511492,62.367479
4.7369,0.037961,0.012892,-0.026383,-0.000474,-0.005192,0.004867,0.024843,-0.496549,-0.025617,1.181651,-264.140178,1.511492,62.367479
4.7572,0.038127,0.013317,-0.024477,-0.000471,-0.005197,0.004867,0.024843,-0.496549,-0.025617,1.181651,-264.140178,1.511492,62.367479
4.7763,0.037636,0.013147,-0.024506,-0.000469,-0.0052,0.004867,0.025627,-0.496662,-0.024352,1.256596,-264.140726,1.512407,62.365505
4.7963,0.037829,0.013013,-0.025513,-0.000475,-0.00519,0.004867,0.025429,-0.496692,-0.0244,1.256596,-264.140726,1.512407,62.365505
4.816,0.037661,0.012904,-0.025131,-0.00048,-0.005182,0.004867,0.024802,-0.496959,-0.025383,1.331651,-264.141485,1.513427,62.362775
4.8366,0.038058,0.012873,-0.025495,-0.000484,-0.005175,0.004904,0.024841,-0.496945,-0.025147,1.331651,-264.141485,1.513427,62.362775
4.8565,0.037529,0.012758,-0.026259,-0.000487,-0.00517,0.004935,0.024841,-0.496945,-0.025147,1.331651,-264.141485,1.513427,62.362775
4.8768,0.037588,0.012294,-0.025123,-0.000489,-0.005165,0.00496,0.024113,-0.49728,-0.026058,1.35671,-264.14238,1.51195,62.359541
4.8967,0.037545,0.012419,-0.02352,-0.000495,-0.005154,0.004996,0.02438,-0.497412,-0.025654,1.35671,-264.14238,1.51195,62.359541
4.9165,0.037435,0.011847,-0.02534,-0.0005,-0.005145,0.005025,0.025532,-0.497604,-0.023362,1.345581,-264.143255,1.511149,62.356264
4.9361,0.037283,0.011819,-0.024764,-0.000515,-0.005118,0.005064,0.024608,-0.497962,-0.025145,1.345581,-264.143255,1.511149,62.356264
4.9561,0.037018,0.012206,-0.024458,-0.000528,-0.005095,0.005095,0.024608,-0.497962,-0.025145,1.345581,-264.143255,1.511149,62.356264
4.9762,0.037235,0.011804,-0.025027,-0.000538,-0.005075,0.005122,0.02452,-0.497856,-0.024248,1.334493,-264.144107,1.509998,62.352979
4.9962,0.037471,0.012033,-0.026204,-0.000547,-0.005059,0.005158,0.024498,-0.497953,-0.024538,1.334493,-264.144107,1.509998,62.352979
5.0161,0.03722,0.011597,-0.022828,-0.000554,-0.005045,0.005189,0.024087,-0.49795,-0.026044,1.301094,-264.144901,1.505281,62.34975
5.0367,0.036803,0.011695,-0.02319,-0.000572,-0.00501,0.005227,0.025441,-0.498249,-0.023114,1.301094,-264.144901,1.505281,62.34975
5.0566,0.037148,0.011772,-0.023268,-0.000587,-0.004981,0.005259,0.025441,-0.498249,-0.023114,1.301094,-264.144901,1.505281,62.34975
5.0768,0.037054,0.011516,-0.022823,-0.0006,-0.004956,0.005285,0.025254,-0.4983,-0.023052,1.283732,-264.145679,1.503474,62.346473
5.0965,0.037167,0.01139,-0.022114,-0.000611,-0.004932,0.005321,0.025316,-0.498345,-0.022934,1.283732,-264.145679,1.503474,62.346473
5.1168,0.036687,0.011422,-0.024275,-0.000621,-0.004912,0.005351,0.025868,-0.498637,-0.021952,1.236708,-264.146385,1.497644,62.343306
5.1367,0.036635,0.011047,-0.02451,-0.000625,-0.004904,0.005389,0.024447,-0.498454,-0.024058,1.236708,-264.146385,1.497644,62.343306
5.1566,0.036618,0.011098,-0.024624,-0.000628,-0.004897,0.00542,0.024447,-0.498454,-0.024058,1.236708,-264.146385,1.497644,62.343306
5.1766,0.03647,0.010968,-0.022411,-0.000631,-0.004891,0.005446,0.02403,-0.49895,-0.024402,1.209683,-264.14708,1.495023,62.340063
5.1964,0.03672,0.010983,-0.023565,-0.000641,-0.004869,0.005479,0.024438,-0.498955,-0.023567,1.209683,-264.14708,1.495023,62.340063
5.216,0.036331,0.011007,-0.022196,-0.00065,-0.004852,0.005506,0.02468,-0.49903,-0.023392,1.18765,-264.147749,1.494197,62.336793
5.2364,0.036718,0.011134,-0.023663,-0.000661,-0.00483,0.005538,0.024981,-0.49889,-0.022295,1.18765,-264.147749,1.494197,62.336793
5.2561,0.036301,0.010789,-0.022499,-0.00067,-0.004811,0.005564,0.024981,-0.49889,-0.022295,1.18765,-264.147749,1.494197,62.336793
5.2765,0.036487,0.010335,-0.022497,-0.000677,-0.004795,0.005586,0.024796,-0.499282,-0.022272,1.159283,-264.148391,1.491864,62.333539
5.2962,0.036372,0.010668,-0.023535,-0.00069,-0.004767,0.00561,0.024882,-0.499408,-0.022337,1.159283,-264.148391,1.491864,62.333539
5.3165,0.03602,0.010252,-0.022551,-0.000702,-0.004744,0.00563,0.024346,-0.499338,-0.023363,1.115565,-264.148988,1.488466,62.330345
5.3362,0.036008,0.009981,-0.021264,-0.000711,-0.004722,0.00565,0.024501,-0.499599,-0.022621,1.115565,-264.148988,1.488466,62.330345
5.3569,0.035853,0.01027,-0.022204,-0.000719,-0.004705,0.005666,0.024501,-0.499599,-0.022621,1.115565,-264.148988,1.488466,62.330345
5.3763,0.035993,0.009987,-0.02178,-0.000726,-0.004689,0.00568,0.024497,-0.499799,-0.021972,1.077541,-264.149567,1.485261,62.327136
5.3962,0.036142,0.009925,-0.022274,-0.000736,-0.004666,0.005692,0.024647,-0.499858,-0.02187,1.077541,-264.149567,1.485261,62.327136
5.4165,0.035945,0.009933,-0.023853,-0.000745,-0.004646,0.005703,0.024758,-0.500093,-0.022098,1.034237,-264.150118,1.482061,62.323957
5.4365,0.035936,0.010141,-0.021845,-0.000748,-0.004638,0.005713,0.023868,-0.499945,-0.023686,1.034237,-264.150118,1.482061,62.323957
5.4569,0.035795,0.009834,-0.022762,-0.000751,-0.004631,0.005722,0.023868,-0.499945,-0.023686,1.034237,-264.150118,1.482061,62.323957
5.4766,0.035281,0.009704,-0.021804,-0.000753,-0.004626,0.005729,0.024152,-0.500225,-0.022527,1.001004,-264.150661,1.479371,62.320748
5.4965,0.035457,0.009801,-0.021306,-0.000762,-0.004607,0.005736,0.024152,-0.500226,-0.022206,1.001004,-264.150661,1.479371,62.320748
5.5162,0.035309,0.009286,-0.021777,-0.000768,-0.004591,0.005742,0.024565,-0.500229,-0.021125,0.981416,-264.151201,1.47836,62.3175
5.5365,0.035158,0.009431,-0.022386,-0.00078,-0.004565,0.005748,0.024233,-0.500569,-0.021712,0.981416,-264.151201,1.47836,62.3175
5.5564,0.035571,0.009517,-0.021371,-0.000789,-0.004543,0.005753,0.024233,-0.500569,-0.021712,0.981416,-264.151201,1.47836,62.3175
5.5768,0.034953,0.009206,-0.021246,-0.000797,-0.004524,0.005757,0.024637,-0.500555,-0.021134,0.954149,-264.151726,1.476181,62.314285
5.5963,0.03496,0.008897,-0.020819,-0.000806,-0.004504,0.005761,0.024423,-0.500627,-0.021152,0.954149,-264.151726,1.476181,62.314285
5.6168,0.034961,0.008852,-0.020701,-0.000813,-0.004487,0.005765,0.024316,-0.50113,-0.020644,0.901951,-264.152217,1.472,62.311196
5.6369,0.035132,0.009146,-0.020706,-0.000825,-0.004458,0.005769,0.024395,-0.501054,-0.020687,0.901951,-264.152217,1.472,62.311196
5.6562,0.035087,0.008618,-0.020188,-0.000834,-0.004434,0.005772,0.024395,-0.501054,-0.020687,0.901951,-264.152217,1.472,62.311196
5.6768,0.034672,0.0088,-0.020577,-0.000843,-0.004413,0.005775,0.024755,-0.501462,-0.01995,0.871075,-264.152714,1.469645,62.308026
5.6968,0.034756,0.008597,-0.019521,-0.000854,-0.004385,0.005777,0.024519,-0.501335,-0.020175,0.871075,-264.152714,1.469645,62.308026
5.7163,0.034738,0.008434,-0.018565,-0.000863,-0.004361,0.005779,0.024774,-0.501439,-0.019346,0.810803,-264.153176,1.465085,62.305013
5.7365,0.034453,0.008191,-0.023164,-0.000877,-0.004326,0.005778,0.025225,-0.501481,-0.018626,0.810803,-264.153176,1.465085,62.305013
5.7564,0.034848,0.00861,-0.019786,-0.000889,-0.004296,0.005777,0.025225,-0.501481,-0.018626,0.810803,-264.153176,1.465085,62.305013
5.7763,0.03441,0.008321,-0.020604,-0.000898,-0.004271,0.005777,0.024719,-0.501466,-0.019552,0.766278,-264.15364,1.461833,62.301939
5.7963,0.034292,0.008189,-0.020111,-0.000902,-0.00426,0.00578,0.024381,-0.501529,-0.019955,0.766278,-264.15364,1.461833,62.301939
5.8161,0.034128,0.00853,-0.021738,-0.000905,-0.00425,0.005783,0.024008,-0.501831,-0.019943,0.691335,-264.154066,1.456124,62.29907
5.8363,0.033829,0.007987,-0.018847,-0.000899,-0.004262,0.005786,0.023129,-0.501399,-0.021567,0.691335,-264.154066,1.456124,62.29907
5.8562,0.034359,0.008028,-0.01963,-0.000894,-0.004272,0.005789,0.023129,-0.501399,-0.021567,0.691335,-264.154066,1.456124,62.29907
5.8766,0.034083,0.007511,-0.020779,-0.00089,-0.004281,0.005791,0.024307,-0.502049,-0.01939,0.670392,-264.154526,1.45497,62.295952
5.8964,0.034045,0.007489,-0.018876,-0.000902,-0.004249,0.005791,0.023962,-0.502206,-0.019938,0.670392,-264.154526,1.45497,62.295952
5.9162,0.033749,0.007828,-0.01932,-0.000912,-0.004222,0.005791,0.024388,-0.502553,-0.018695,0.696423,-264.154984,1.457441,62.292845
5.9367,0.033356,0.007414,-0.018382,-0.00092,-0.004202,0.00579,0.023939,-0.502126,-0.019255,0.696423,-264.154984,1.457441,62.292845
5.9568,0.033723,0.007771,-0.019404,-0.000926,-0.004184,0.00579,0.023939,-0.502126,-0.019255,0.696423,-264.154984,1.457441,62.292845
5.9765,0.033608,0.007702,-0.019731,-0.000932,-0.00417,0.00579,0.023788,-0.502302,-0.019171,0.644404,-264.155421,1.453772,62.289854
5.9966,0.033733,0.007346,-0.017308,-0.000937,-0.004155,0.00579,0.023686,-0.50228,-0.01937,0.644404,-264.155421,1.453772,62.289854
6.0163,0.033265,0.007527,-0.019186,-0.000941,-0.004142,0.00579,0.024876,-0.502705,-0.017129,0.596957,-264.155855,1.450479,62.286859
6.0371,0.032908,0.007206,-0.017896,-0.000946,-0.004127,0.005789,0.023605,-0.502415,-0.018991,0.596957,-264.155855,1.450479,62.286859
6.057,0.033774,0.007359,-0.017452,-0.000951,-0.004115,0.005789,0.023605,-0.502415,-0.018991,0.596957,-264.155855,1.450479,62.286859
6.0766,0.033169,0.00696,-0.019583,-0.000954,-0.004104,0.005788,0.024831,-0.502735,-0.017212,0.571893,-264.156298,1.448844,62.283796
6.0965,0.033419,0.006947,-0.01961,-0.000965,-0.004073,0.005784,0.024156,-0.502839,-0.018149,0.571893,-264.156298,1.448844,62.283796
6.1168,0.032914,0.006865,-0.017213,-0.000974,-0.004047,0.005782,0.023386,-0.503083,-0.019429,0.537742,-264.156735,1.446515,62.280773
6.1367,0.03271,0.00711,-0.019367,-0.000985,-0.004017,0.005777,0.024067,-0.503068,-0.017403,0.537742,-264.156735,1.446515,62.280773
6.1573,0.033165,0.007024,-0.018377,-0.000993,-0.003991,0.005774,0.024067,-0.503068,-0.017403,0.537742,-264.156735,1.446515,62.280773
6.1762,0.032813,0.006642,-0.017299,-0.001,-0.003969,0.005771,0.02375,-0.503053,-0.018143,0.486814,-264.157158,1.442944,62.277842
6.1964,0.033162,0.006746,-0.019426,-0.001006,-0.00395,0.00577,0.023841,-0.503162,-0.017782,0.486814,-264.157158,1.442944,62.277842
6.2161,0.032466,0.006176,-0.018062,-0.001011,-0.003934,0.00577,0.023223,-0.503275,-0.019255,0.418088,-264.157563,1.438102,62.275039
6.2363,0.032721,0.006548,-0.016868,-0.001019,-0.003907,0.00577,0.023251,-0.503704,-0.018163,0.418088,-264.157563,1.438102,62.275039
6.2565,0.032784,0.006673,-0.017447,-0.001025,-0.003884,0.00577,0.023251,-0.503704,-0.018163,0.418088,-264.157563,1.438102,62.275039
6.2766,0.031845,0.005738,-0.017542,-0.001031,-0.003865,0.005771,0.023842,-0.50341,-0.017209,0.385693,-264.157992,1.436067,62.272079
6.2966,0.032476,0.006147,-0.01741,-0.001037,-0.003844,0.005768,0.023455,-0.503742,-0.017317,0.385693,-264.157992,1.436067,62.272079
6.3164,0.032494,0.006144,-0.016796,-0.001042,-0.003826,0.005766,0.023565,-0.50389,-0.017238,0.319059,-264.158397,1.432219,62.2693
6.3363,0.032218,0.005857,-0.015981,-0.001049,-0.003804,0.005762,0.023893,-0.503799,-0.016828,0.319059,-264.158397,1.432219,62.2693
6.3563,0.031933,0.006632,-0.016888,-0.001054,-0.003786,0.005759,0.023893,-0.503799,-0.016828,0.319059,-264.158397,1.432219,62.2693
6.3762,0.032029,0.006346,-0.015901,-0.001058,-0.00377,0.005757,0.023275,-0.503452,-0.016651,0.284347,-264.158824,1.429915,62.266379
6.3961,0.032047,0.006053,-0.016699,-0.001058,-0.00377,0.005752,0.023538,-0.503527,-0.016313,0.284347,-264.158824,1.429915,62.266379
6.4163,0.031797,0.005618,-0.015983,-0.001058,-0.00377,0.005747,0.023496,-0.50399,-0.016523,0.23587,-264.159242,1.426546,62.263553
6.437,0.031681,0.005786,-0.016844,-0.001066,-0.00374,0.00574,0.023631,-0.504293,-0.016022,0.23587,-264.159242,1.426546,62.263553
6.4567,0.031992,0.005544,-0.015706,-0.001073,-0.003714,0.005735,0.023631,-0.504293,-0.016022,0.23587,-264.159242,1.426546,62.263553
6.4763,0.031501,0.005368,-0.015449,-0.001078,-0.003693,0.005731,0.023935,-0.50455,-0.015465,0.240551,-264.159677,1.426481,62.260612
6.4967,0.031769,0.005426,-0.016106,-0.001086,-0.003662,0.005722,0.023803,-0.504577,-0.015431,0.240551,-264.159677,1.426481,62.260612
6.516,0.031469,0.005601,-0.015928,-0.001092,-0.003635,0.005715,0.023521,-0.504618,-0.015935,0.176865,-264.160088,1.422036,62.257886
6.5364,0.031658,0.005398,-0.016646,-0.001094,-0.003626,0.005714,0.02336,-0.504366,-0.01592,0.176865,-264.160088,1.422036,62.257886
6.5567,0.031514,0.005521,-0.015721,-0.001095,-0.003617,0.005713,0.02336,-0.504366,-0.01592,0.176865,-264.160088,1.422036,62.257886
6.5768,0.030956,0.005312,-0.014593,-0.001097,-0.00361,0.005713,0.023451,-0.504563,-0.015489,0.13214,-264.160514,1.418763,62.255094
6.5965,0.031546,0.005036,-0.015342,-0.001101,-0.003594,0.005703,0.023471,-0.504609,-0.015101,0.13214,-264.160514,1.418763,62.255094
6.6162,0.03098,0.005112,-0.014958,-0.001104,-0.003579,0.005695,0.023686,-0.505018,-0.015161,0.110361,-264.160952,1.417532,62.252242
6.6367,0.030497,0.005249,-0.015512,-0.001108,-0.003559,0.005686,0.02338,-0.504854,-0.014967,0.110361,-264.160952,1.417532,62.252242
6.6565,0.031213,0.004951,-0.014878,-0.001112,-0.003542,0.00568,0.02338,-0.504854,-0.014967,0.110361,-264.160952,1.417532,62.252242
6.6765,0.030725,0.00494,-0.014561,-0.001115,-0.003527,0.005674,0.023577,-0.505141,-0.01464,0.091593,-264.161393,1.415675,62.249401
6.6967,0.031086,0.004983,-0.014925,-0.001119,-0.003504,0.005664,0.023459,-0.505103,-0.014581,0.091593,-264.161393,1.415675,62.249401
6.7164,0.030485,0.004733,-0.014131,-0.001123,-0.003485,0.005656,0.023438,-0.50507,-0.014749,0.055302,-264.16183,1.412743,62.246628
6.7366,0.030496,0.00463,-0.014821,-0.001127,-0.003466,0.005642,0.023291,-0.505209,-0.014177,0.055302,-264.16183,1.412743,62.246628
6.7568,0.030317,0.004593,-0.015426,-0.001129,-0.003449,0.005631,0.023291,-0.505209,-0.014177,0.055302,-264.16183,1.412743,62.246628
6.7769,0.030314,0.003987,-0.014108,-0.001132,-0.003436,0.005622,0.022401,-0.50549,-0.015192,0.027349,-264.162274,1.410334,62.243854
6.7966,0.030523,0.004492,-0.015055,-0.001136,-0.003409,0.005625,0.022681,-0.505694,-0.014734,0.027349,-264.162274,1.410334,62.243854
6.8163,0.029961,0.004453,-0.013232,-0.00114,-0.003387,0.005627,0.022808,-0.505558,-0.014877,0.001439,-264.162725,1.407536,62.241077
6.8364,0.030341,0.004391,-0.013579,-0.001143,-0.003372,0.005597,0.023183,-0.505511,-0.013343,0.001439,-264.162725,1.407536,62.241077
6.8568,0.030635,0.004409,-0.013158,-0.001146,-0.003359,0.005574,0.023183,-0.505511,-0.013343,0.001439,-264.162725,1.407536,62.241077
6.877,0.029848,0.004679,-0.013179,-0.001147,-0.003348,0.005556,0.023877,-0.505683,-0.012931,-0.043957,-264.163163,1.405235,62.238419
6.8961,0.029863,0.004205,-0.014927,-0.00115,-0.003335,0.005529,0.023567,-0.505534,-0.013006,-0.043957,-264.163163,1.405235,62.238419
6.9165,0.029756,0.004002,-0.014934,-0.001152,-0.003324,0.005507,0.022213,-0.505844,-0.01475,-0.039499,-264.163626,1.402202,62.235664
6.9362,0.02984,0.003918,-0.013947,-0.001153,-0.003308,0.005536,0.022143,-0.505939,-0.014914,-0.039499,-264.163626,1.402202,62.235664
6.9568,0.029794,0.004082,-0.013608,-0.001154,-0.003295,0.005559,0.022143,-0.505939,-0.014914,-0.039499,-264.163626,1.402202,62.235664
6.9762,0.029554,0.003973,-0.012773,-0.001155,-0.003284,0.005577,0.022805,-0.506008,-0.01338,-0.034567,-264.164083,1.400241,62.232972
6.9965,0.029646,0.004137,-0.013341,-0.001159,-0.003266,0.005549,0.022895,-0.506015,-0.013106,-0.034567,-264.164083,1.400241,62.232972
7.0165,0.029218,0.003815,-0.013104,-0.001162,-0.003251,0.005526,0.022807,-0.505913,-0.013177,-0.105494,-264.164512,1.399881,62.230467
7.0367,0.02943,0.003628,-0.013429,-0.001164,-0.003236,0.005508,0.022558,-0.506126,-0.013102,-0.105494,-264.164512,1.399881,62.230467
7.0569,0.029184,0.003654,-0.013464,-0.001166,-0.003224,0.005493,0.022558,-0.506126,-0.013102,-0.105494,-264.164512,1.399881,62.230467
7.0775,0.029465,0.003737,-0.012146,-0.001167,-0.003213,0.005482,0.022266,-0.506437,-0.01323,-0.106056,-264.164979,1.397257,62.227777
7.0967,0.029522,0.003717,-0.011898,-0.001171,-0.003193,0.005461,0.022654,-0.506369,-0.012781,-0.106056,-264.164979,1.397257,62.227777
7.116,0.029202,0.003499,-0.012874,-0.001173,-0.003176,0.005444,0.023416,-0.506349,-0.011724,-0.115467,-264.165448,1.39473,62.225115
7.1365,0.029033,0.00361,-0.012619,-0.001176,-0.003158,0.005429,0.022705,-0.506454,-0.012761,-0.115467,-264.165448,1.39473,62.225115
7.1564,0.029183,0.003285,-0.012442,-0.001178,-0.003143,0.005418,0.022705,-0.506454,-0.012761,-0.115467,-264.165448,1.39473,62.225115
7.1765,0.02888,0.003386,-0.012365,-0.00118,-0.00313,0.00541,0.022787,-0.506808,-0.012214,-0.125913,-264.165921,1.392232,62.222477
7.1966,0.029086,0.003016,-0.011719,-0.001183,-0.003109,0.005379,0.022694,-0.506728,-0.01225,-0.125913,-264.165921,1.392232,62.222477
7.2161,0.028728,0.002988,-0.012997,-0.001186,-0.00309,0.005356,0.023071,-0.507048,-0.011547,-0.146385,-264.166394,1.389484,62.219878
7.2367,0.028756,0.003299,-0.012849,-0.001188,-0.003066,0.005363,0.022185,-0.506981,-0.012858,-0.146385,-264.166394,1.389484,62.219878
7.2568,0.028762,0.003251,-0.010839,-0.00119,-0.003045,0.005369,0.022185,-0.506981,-0.012858,-0.146385,-264.166394,1.389484,62.219878
7.2771,0.02853,0.003197,-0.011996,-0.001191,-0.003028,0.005374,0.023183,-0.506848,-0.010614,-0.151186,-264.166874,1.386404,62.217291
7.2965,0.028477,0.002844,-0.012681,-0.001196,-0.00302,0.005286,0.022865,-0.506829,-0.011147,-0.151186,-264.166874,1.386404,62.217291
7.3163,0.028078,0.002589,-0.01134,-0.001199,-0.003012,0.005219,0.021973,-0.507206,-0.012519,-0.209995,-264.167338,1.38418,62.214846
7.3364,0.02812,0.002966,-0.012494,-0.001202,-0.002985,0.005184,0.02227,-0.507369,-0.01142,-0.209995,-264.167338,1.38418,62.214846
7.3566,0.028152,0.002689,-0.011574,-0.001204,-0.002962,0.005157,0.02227,-0.507369,-0.01142,-0.209995,-264.167338,1.38418,62.214846
7.3769,0.02815,0.003046,-0.010884,-0.001205,-0.002942,0.005137,0.022202,-0.507393,-0.011371,-0.145309,-264.167788,1.379824,62.2125
7.3963,0.027873,0.002625,-0.00881,-0.001206,-0.002933,0.005103,0.022358,-0.507216,-0.01115,-0.145309,-264.167788,1.379824,62.2125
7.4164,0.028397,0.00284,-0.010666,-0.001206,-0.002924,0.005077,0.023341,-0.507448,-0.008646,-0.160531,-264.168275,1.375113,62.210027
7.437,0.027569,0.002491,-0.010972,-0.001208,-0.002918,0.005005,0.022989,-0.507162,-0.010484,-0.160531,-264.168275,1.375113,62.210027
7.4563,0.027833,0.002492,-0.009963,-0.001208,-0.002912,0.004951,0.022989,-0.507162,-0.010484,-0.160531,-264.168275,1.375113,62.210027
7.4765,0.028123,0.002208,-0.010257,-0.001208,-0.002907,0.00491,0.0227,-0.507605,-0.009751,-0.145642,-264.16876,1.373246,62.207582
7.4968,0.027772,0.002299,-0.012865,-0.001212,-0.002883,0.004826,0.022771,-0.507683,-0.009931,-0.145642,-264.16876,1.373246,62.207582
7.5164,0.027663,0.002199,-0.012019,-0.001215,-0.002862,0.004764,0.021174,-0.507744,-0.01272,-0.075992,-264.16921,1.369019,62.205346
7.5367,0.027584,0.002482,-0.008655,-0.001209,-0.002841,0.004862,0.021502,-0.507766,-0.01207,-0.075992,-264.16921,1.369019,62.205346
7.5566,0.027445,0.002324,-0.008696,-0.001206,-0.002823,0.004938,0.021502,-0.507766,-0.01207,-0.075992,-264.16921,1.369019,62.205346
7.5766,0.027085,0.002256,-0.012288,-0.001204,-0.002808,0.004997,0.02296,-0.507773,-0.008501,-0.038724,-264.169685,1.363389,62.203039
7.5968,0.027448,0.002163,-0.010491,-0.001209,-0.002799,0.004901,0.022066,-0.507758,-0.010048,-0.038724,-264.169685,1.363389,62.203039
7.6161,0.027473,0.001989,-0.011183,-0.001212,-0.002791,0.004828,0.022072,-0.507869,-0.010388,-0.113749,-264.170008,1.368195,62.201467
7.6365,0.027174,0.002258,-0.009608,-0.001211,-0.002773,0.004852,0.021796,-0.507973,-0.011106,-0.113749,-264.170008,1.368195,62.201467
7.6563,0.026818,0.002417,-0.009704,-0.00121,-0.002758,0.004871,0.021796,-0.507973,-0.011106,-0.113749,-264.170008,1.368195,62.201467
7.6765,0.027249,0.001965,-0.00964,-0.00121,-0.002745,0.004885,0.021818,-0.507675,-0.009502,-0.129253,-264.170494,1.362706,62.19913
7.6967,0.026844,0.001785,-0.009939,-0.001216,-0.002744,0.004755,0.02202,-0.507824,-0.009535,-0.129253,-264.170494,1.362706,62.19913
7.7165,0.026897,0.001911,-0.010046,-0.00122,-0.002743,0.004657,0.021738,-0.508271,-0.009794,-0.194772,-264.170955,1.362625,62.196944
7.7365,0.027175,0.002115,-0.010705,-0.001219,-0.00273,0.004633,0.021768,-0.508086,-0.010016,-0.194772,-264.170955,1.362625,62.196944
7.7564,0.027029,0.001516,-0.009021,-0.001218,-0.002718,0.004615,0.021768,-0.508086,-0.010016,-0.194772,-264.170955,1.362625,62.196944
7.7767,0.026608,0.001673,-0.008685,-0.001217,-0.002708,0.004601,0.022386,-0.508556,-0.00886,-0.119761,-264.171355,1.355908,62.195074
7.7966,0.026901,0.001412,-0.009845,-0.001226,-0.002686,0.004442,0.022298,-0.508467,-0.008771,-0.119761,-264.171355,1.355908,62.195074
7.8168,0.026744,0.001571,-0.009704,-0.001231,-0.002666,0.004326,0.021842,-0.508647,-0.009701,-0.083288,-264.171833,1.353753,62.192862
7.837,0.026398,0.001687,-0.009726,-0.001226,-0.002648,0.004348,0.021797,-0.508432,-0.009696,-0.083288,-264.171833,1.353753,62.192862
7.8566,0.026277,0.001692,-0.009126,-0.001223,-0.002633,0.004364,0.021797,-0.508432,-0.009696,-0.083288,-264.171833,1.353753,62.192862
7.8778,0.026242,0.001394,-0.008957,-0.00122,-0.00262,0.004377,0.021579,-0.50838,-0.008972,-0.008269,-264.172248,1.342976,62.191025
7.8965,0.026483,0.001774,-0.009182,-0.001223,-0.002611,0.004299,0.021611,-0.508472,-0.008948,-0.008269,-264.172248,1.342976,62.191025
7.9165,0.026292,0.001423,-0.009072,-0.001224,-0.002603,0.004241,0.021762,-0.508286,-0.009045,-0.04327,-264.172727,1.34423,62.188895
7.9365,0.026031,0.001016,-0.008113,-0.001224,-0.002591,0.004211,0.021672,-0.508536,-0.009062,-0.04327,-264.172727,1.34423,62.188895
7.9563,0.026156,0.001424,-0.009196,-0.001223,-0.002582,0.004189,0.021672,-0.508536,-0.009062,-0.04327,-264.172727,1.34423,62.188895
7.9768,0.02611,0.000993,-0.007864,-0.001222,-0.002574,0.004172,0.021416,-0.508658,-0.009026,0.010037,-264.173195,1.339266,62.186856
7.9968,0.02633,0.001253,-0.008247,-0.001225,-0.002556,0.00409,0.021687,-0.508805,-0.008535,0.010037,-264.173195,1.339266,62.186856
8.0163,0.026154,0.001628,-0.009632,-0.001227,-0.002541,0.004029,0.022084,-0.508812,-0.008114,0.02078,-264.173683,1.336591,62.184754
8.0363,0.025762,0.000871,-0.008539,-0.001219,-0.002545,0.004098,0.021315,-0.508394,-0.009489,0.02078,-264.173683,1.336591,62.184754
8.0567,0.025931,0.001212,-0.009293,-0.001214,-0.002548,0.004149,0.021315,-0.508394,-0.009489,0.02078,-264.173683,1.336591,62.184754
8.0767,0.02569,0.001122,-0.007489,-0.00121,-0.002551,0.004188,0.021141,-0.508869,-0.00913,0.065417,-264.17416,1.33027,62.182755
8.0967,0.025693,0.000912,-0.008592,-0.001217,-0.002535,0.004084,0.021436,-0.508879,-0.008434,0.065417,-264.17416,1.33027,62.182755
8.1164,0.025421,0.001015,-0.007639,-0.00122,-0.00252,0.004008,0.021275,-0.509144,-0.00847,-0.005716,-264.174605,1.338161,62.180823
8.1363,0.025865,0.001167,-0.007241,-0.00123,-0.002506,0.003839,0.021501,-0.508989,-0.007705,-0.005716,-264.174605,1.338161,62.180823
8.1561,0.025484,0.000814,-0.008404,-0.001235,-0.002492,0.003717,0.021501,-0.508989,-0.007705,-0.005716,-264.174605,1.338161,62.180823
8.1776,0.025079,0.000919,-0.008057,-0.001237,-0.00248,0.00363,0.02115,-0.509266,-0.008248,0.059143,-264.175064,1.329925,62.178903
8.1969,0.0255,0.000384,-0.007746,-0.001233,-0.002459,0.003636,0.02107,-0.509194,-0.008151,0.059143,-264.175064,1.329925,62.178903
8.2163,0.025597,0.000947,-0.007846,-0.001229,-0.002441,0.00364,0.021522,-0.509653,-0.007665,0.134524,-264.175412,1.313365,62.177568
8.2364,0.025268,0.000477,-0.007377,-0.001229,-0.002432,0.003591,0.021588,-0.509095,-0.007825,0.134524,-264.175412,1.313365,62.177568
8.2563,0.025412,0.000381,-0.007954,-0.001229,-0.002423,0.003556,0.021588,-0.509095,-0.007825,0.134524,-264.175412,1.313365,62.177568
8.2769,0.025156,0.000607,-0.007159,-0.001227,-0.002416,0.00353,0.021304,-0.509702,-0.007806,0.175605,-264.175898,1.313144,62.175691
8.2965,0.02542,0.00025,-0.009099,-0.001229,-0.002388,0.003462,0.021379,-0.509584,-0.007529,0.175605,-264.175898,1.313144,62.175691
8.3161,0.02522,0.000767,-0.008267,-0.00123,-0.002364,0.003414,0.02074,-0.509805,-0.008988,0.208366,-264.176391,1.308505,62.17383
8.3363,0.025052,0.000481,-0.006597,-0.001222,-0.002356,0.003498,0.020978,-0.509272,-0.008326,0.208366,-264.176391,1.308505,62.17383
8.3575,0.025075,0.000638,-0.007086,-0.001217,-0.002349,0.003559,0.020978,-0.509272,-0.008326,0.208366,-264.176391,1.308505,62.17383
8.3761,0.02478,0.000215,-0.006706,-0.001213,-0.002344,0.003605,0.021409,-0.509448,-0.006943,0.223353,-264.176893,1.301053,62.171992
8.396,0.025089,0.00033,-0.005709,-0.001227,-0.00233,0.003382,0.021384,-0.509587,-0.006833,0.223353,-264.176893,1.301053,62.171992
8.4163,0.024878,-8.1e-05,-0.007858,-0.001235,-0.002318,0.003225,0.022145,-0.509724,-0.005615,0.148355,-264.177301,1.309916,62.170421
8.4361,0.024444,-7.7e-05,-0.006786,-0.001229,-0.002283,0.003261,0.020969,-0.510041,-0.007677,0.148355,-264.177301,1.309916,62.170421
8.4561,0.02502,0.000434,-0.007595,-0.001225,-0.002253,0.003288,0.020969,-0.510041,-0.007677,0.148355,-264.177301,1.309916,62.170421
8.4765,0.024764,-1e-06,-0.005556,-0.001222,-0.002228,0.003307,0.021106,-0.509624,-0.00749,0.223661,-264.177694,1.290431,62.169054
8.4962,0.024726,-3e-05,-0.005617,-0.001231,-0.002223,0.003137,0.021443,-0.509785,-0.006676,0.223661,-264.177694,1.290431,62.169054
8.5165,0.024452,4.5e-05,-0.007706,-0.001236,-0.002219,0.003016,0.021824,-0.510089,-0.005517,0.16843,-264.178167,1.290716,62.167367
8.5365,0.024202,0.000145,-0.006647,-0.001228,-0.002202,0.003082,0.020623,-0.509955,-0.007528,0.16843,-264.178167,1.290716,62.167367
8.5565,0.024644,1.9e-05,-0.007595,-0.001222,-0.002189,0.00313,0.020623,-0.509955,-0.007528,0.16843,-264.178167,1.290716,62.167367
8.5765,0.024437,0.000264,-0.005988,-0.001218,-0.002178,0.003165,0.02073,-0.510036,-0.007496,0.243592,-264.178563,1.275388,62.166068
8.5965,0.024393,0.000337,-0.007333,-0.001223,-0.002174,0.00307,0.020993,-0.509917,-0.006867,0.243592,-264.178563,1.275388,62.166068
8.6162,0.024517,-0.000192,-0.006418,-0.001225,-0.002169,0.003002,0.020615,-0.509716,-0.007236,0.198657,-264.179043,1.282653,62.164409
8.6371,0.024193,-0.000354,-0.006395,-0.001231,-0.002157,0.002875,0.021187,-0.510145,-0.006485,0.198657,-264.179043,1.282653,62.164409
8.6567,0.024222,-0.000568,-0.008444,-0.001233,-0.002145,0.002784,0.021187,-0.510145,-0.006485,0.198657,-264.179043,1.282653,62.164409
8.6766,0.024246,-0.000203,-0.005491,-0.001234,-0.002135,0.00272,0.019868,-0.510634,-0.008327,0.267534,-264.179513,1.273716,62.162861
8.6967,0.024116,-0.000298,-0.006268,-0.001225,-0.002107,0.002801,0.020499,-0.510467,-0.00717,0.267534,-264.179513,1.273716,62.162861
8.7163,0.024099,-0.000211,-0.006237,-0.001218,-0.002084,0.00286,0.020886,-0.510345,-0.006194,0.342451,-264.179965,1.256554,62.161496
8.7364,0.023872,-0.0001,-0.005965,-0.001225,-0.002082,0.002717,0.020914,-0.510214,-0.006231,0.342451,-264.179965,1.256554,62.161496
8.7564,0.023897,-0.000425,-0.005208,-0.001229,-0.002079,0.002616,0.020914,-0.510214,-0.006231,0.342451,-264.179965,1.256554,62.161496
8.7764,0.024166,-0.000674,-0.006621,-0.00123,-0.002076,0.002545,0.021195,-0.510497,-0.005099,0.270121,-264.180428,1.262873,62.160025
8.7964,0.023918,-0.000499,-0.005564,-0.001235,-0.002058,0.002371,0.021023,-0.510574,-0.005709,0.270121,-264.180428,1.262873,62.160025
8.8165,0.023925,-0.000611,-0.006829,-0.001236,-0.002042,0.002249,0.02105,-0.51054,-0.005501,0.344722,-264.180831,1.244164,62.158869
8.8363,0.023654,-0.000317,-0.006912,-0.001223,-0.002022,0.002372,0.020498,-0.510596,-0.006699,0.344722,-264.180831,1.244164,62.158869
8.8563,0.023894,-0.000508,-0.006391,-0.001215,-0.002005,0.002462,0.020498,-0.510596,-0.006699,0.344722,-264.180831,1.244164,62.158869
8.8763,0.023888,-0.000639,-0.007441,-0.001209,-0.001991,0.002527,0.020598,-0.510555,-0.006324,0.41963,-264.181218,1.223564,62.157869
8.8964,0.023728,-0.000694,-0.006984,-0.001204,-0.00198,0.002585,0.020387,-0.51059,-0.006774,0.41963,-264.181218,1.223564,62.157869
8.9162,0.023638,-0.000505,-0.005995,-0.001201,-0.001971,0.002627,0.02013,-0.51074,-0.006909,0.355129,-264.1817,1.241292,62.156471
8.9362,0.023869,-0.000858,-0.006852,-0.001208,-0.001971,0.002508,0.020544,-0.510518,-0.006062,0.355129,-264.1817,1.241292,62.156471
8.9564,0.023426,-0.000668,-0.006355,-0.001212,-0.00197,0.002423,0.020544,-0.510518,-0.006062,0.355129,-264.1817,1.241292,62.156471
8.9766,0.023593,-0.000762,-0.005547,-0.001214,-0.001969,0.002362,0.020137,-0.510735,-0.006251,0.296591,-264.182173,1.246693,62.155051
8.9965,0.02336,-0.000622,-0.005633,-0.001215,-0.001957,0.002294,0.020386,-0.510752,-0.005954,0.296591,-264.182173,1.246693,62.155051
9.0165,0.023408,-0.000557,-0.006112,-0.001215,-0.001945,0.002246,0.020456,-0.510664,-0.00557,0.371208,-264.182603,1.228951,62.153874
9.0367,0.023895,-0.000808,-0.006445,-0.001214,-0.001945,0.002234,0.020304,-0.510561,-0.006059,0.371208,-264.182603,1.228951,62.153874
9.0567,0.023404,-0.000856,-0.004537,-0.001212,-0.001944,0.002226,0.020304,-0.510561,-0.006059,0.371208,-264.182603,1.228951,62.153874
9.0768,0.022864,-0.00136,-0.004704,-0.001211,-0.001943,0.00222,0.021043,-0.510926,-0.00445,0.441198,-264.183099,1.219592,62.15257
9.0964,0.023502,-0.000799,-0.004456,-0.001229,-0.001922,0.001813,0.020804,-0.511108,-0.004543,0.441198,-264.183099,1.219592,62.15257
9.1167,0.023046,-0.001103,-0.005453,-0.001237,-0.001902,0.001532,0.021191,-0.510855,-0.004385,0.449325,-264.183637,1.219143,62.151164
9.1366,0.023132,-0.001052,-0.005502,-0.001229,-0.001879,0.001532,0.020299,-0.511162,-0.005244,0.449325,-264.183637,1.219143,62.151164
9.1569,0.023235,-0.001005,-0.006037,-0.001222,-0.001858,0.001533,0.020299,-0.511162,-0.005244,0.449325,-264.183637,1.219143,62.151164
9.1768,0.023245,-0.001314,-0.005168,-0.001216,-0.001841,0.001534,0.020132,-0.51103,-0.006005,0.52432,-264.183921,1.159632,62.150603
9.1966,0.023195,-0.000998,-0.006657,-0.001206,-0.001826,0.001635,0.020321,-0.511145,-0.005666,0.52432,-264.183921,1.159632,62.150603
9.2164,0.023345,-0.001254,-0.004308,-0.001199,-0.001814,0.001707,0.019768,-0.511033,-0.006616,0.59931,-264.184412,1.158149,62.149621
9.2365,0.023468,-0.001349,-0.007167,-0.001211,-0.001806,0.001448,0.021028,-0.511233,-0.004503,0.59931,-264.184412,1.158149,62.149621
9.2565,0.022801,-0.001043,-0.00485,-0.001216,-0.001798,0.001269,0.021028,-0.511233,-0.004503,0.59931,-264.184412,1.158149,62.149621
9.2761,0.022772,-0.001269,-0.006348,-0.001217,-0.001791,0.001144,0.020278,-0.511111,-0.00478,0.571354,-264.184974,1.173224,62.1484
9.296,0.022941,-0.001452,-0.004807,-0.001204,-0.001779,0.001297,0.019965,-0.511181,-0.00542,0.571354,-264.184974,1.173224,62.1484
9.316,0.022989,-0.001303,-0.005335,-0.001195,-0.001771,0.001406,0.020464,-0.51148,-0.004783,0.646427,-264.185387,1.116128,62.1477
9.3367,0.02266,-0.001489,-0.004511,-0.00119,-0.001759,0.001451,0.020281,-0.51131,-0.005294,0.646427,-264.185387,1.116128,62.1477
9.3562,0.023018,-0.001357,-0.004413,-0.001187,-0.00175,0.001483,0.020281,-0.51131,-0.005294,0.646427,-264.185387,1.116128,62.1477
9.3763,0.022725,-0.001458,-0.004603,-0.001185,-0.001742,0.001505,0.020718,-0.511425,-0.004355,0.652074,-264.185976,1.144288,62.146568
9.3964,0.022969,-0.001418,-0.006892,-0.001195,-0.001733,0.001289,0.020573,-0.511445,-0.00445,0.652074,-264.185976,1.144288,62.146568
9.4162,0.022452,-0.001341,-0.004818,-0.0012,-0.001724,0.001138,0.019417,-0.51146,-0.006846,0.606607,-264.186534,1.151806,62.145441
9.4364,0.022667,-0.0015,-0.004347,-0.001194,-0.001717,0.001185,0.01994,-0.511349,-0.005001,0.606607,-264.186534,1.151806,62.145441
9.4563,0.022572,-0.001464,-0.005178,-0.00119,-0.00171,0.001219,0.01994,-0.511349,-0.005001,0.606607,-264.186534,1.151806,62.145441
9.4765,0.02262,-0.001373,-0.006248,-0.001187,-0.001705,0.001242,0.019889,-0.511515,-0.005138,0.681592,-264.187055,1.110295,62.144552
9.4968,0.022572,-0.001832,-0.004203,-0.001177,-0.001692,0.001397,0.019699,-0.51146,-0.005584,0.681592,-264.187055,1.110295,62.144552
9.5164,0.02278,-0.001866,-0.005023,-0.001171,-0.001682,0.001508,0.019699,-0.51146,-0.005584,0.673378,-264.18766,1.121936,62.143462
9.5364,0.022661,-0.001545,-0.005044,-0.001174,-0.001656,0.00141,0.020179,-0.511941,-0.004881,0.673378,-264.18766,1.121936,62.143462
9.5566,0.022629,-0.002054,-0.006029,-0.001176,-0.001633,0.00134,0.020179,-0.511941,-0.004881,0.673378,-264.18766,1.121936,62.143462
9.577,0.022177,-0.001633,-0.004538,-0.001176,-0.001614,0.00129,0.019513,-0.512104,-0.005976,0.598365,-264.188135,1.148097,62.14249
9.5965,0.022599,-0.001635,-0.005056,-0.00117,-0.001594,0.001382,0.01965,-0.511918,-0.005386,0.598365,-264.188135,1.148097,62.14249
9.6165,0.022523,-0.002386,-0.004185,-0.001165,-0.001577,0.001447,0.019983,-0.511678,-0.005016,0.612065,-264.188699,1.115312,62.141442
9.6365,0.022222,-0.001866,-0.003816,-0.001177,-0.001552,0.001181,0.02035,-0.512321,-0.004258,0.612065,-264.188699,1.115312,62.141442
9.6567,0.022547,-0.001833,-0.004449,-0.001183,-0.001529,0.000996,0.02035,-0.512321,-0.004258,0.612065,-264.188699,1.115312,62.141442
9.6767,0.022548,-0.001996,-0.004393,-0.001185,-0.00151,0.000868,0.020233,-0.511888,-0.004394,0.537121,-264.189193,1.128475,62.14045
9.6963,0.022336,-0.001828,-0.005011,-0.001184,-0.00151,0.000819,0.020258,-0.511936,-0.004387,0.537121,-264.189193,1.128475,62.14045
9.7165,0.022331,-0.001931,-0.004056,-0.001182,-0.00151,0.000785,0.019757,-0.51185,-0.004992,0.612118,-264.189568,1.053477,62.139874
9.7363,0.022204,-0.002026,-0.004448,-0.001184,-0.001511,0.000688,0.020216,-0.511921,-0.00414,0.612118,-264.189568,1.053477,62.139874
9.7561,0.022162,-0.00185,-0.00532,-0.001184,-0.001511,0.000621,0.020216,-0.511921,-0.00414,0.612118,-264.189568,1.053477,62.139874
9.7762,0.022081,-0.002052,-0.004874,-0.001183,-0.001511,0.000576,0.019407,-0.511895,-0.005291,0.687124,-264.190092,1.034708,62.139101
9.7967,0.022261,-0.001941,-0.004738,-0.001168,-0.001501,0.000807,0.019479,-0.511962,-0.005118,0.687124,-264.190092,1.034708,62.139101
9.8164,0.021818,-0.002151,-0.005233,-0.001158,-0.001494,0.000972,0.019811,-0.511977,-0.004722,0.762128,-264.190671,1.004802,62.138329
9.8364,0.021795,-0.002089,-0.003789,-0.00115,-0.001478,0.001106,0.019201,-0.512133,-0.005191,0.762128,-264.190671,1.004802,62.138329
9.8564,0.021977,-0.002283,-0.003935,-0.001145,-0.001466,0.0012,0.019201,-0.512133,-0.005191,0.762128,-264.190671,1.004802,62.138329
9.8764,0.02236,-0.001735,-0.003105,-0.001143,-0.001456,0.001267,0.019931,-0.512329,-0.003903,0.68678,-264.191141,1.064345,62.137565
9.8965,0.022278,-0.002236,-0.005198,-0.00117,-0.001458,0.000829,0.020271,-0.512093,-0.003575,0.68678,-264.191141,1.064345,62.137565
9.9163,0.021915,-0.001936,-0.0056,-0.001186,-0.001459,0.000529,0.019603,-0.512262,-0.005172,0.611799,-264.191509,1.096994,62.136873
9.9366,0.021614,-0.002229,-0.004916,-0.001163,-0.001454,0.000856,0.019098,-0.511954,-0.005568,0.611799,-264.191509,1.096994,62.136873
9.9565,0.021684,-0.001984,-0.004538,-0.001149,-0.001452,0.00109,0.019098,-0.511954,-0.005568,0.611799,-264.191509,1.096994,62.136873
9.9765,0.021805,-0.00241,-0.003961,-0.001141,-0.001452,0.001256,0.019342,-0.512012,-0.004523,0.686989,-264.191876,1.021803,62.136394
9.9967,0.022011,-0.002123,-0.003404,-0.001154,-0.001449,0.001038,0.019525,-0.512181,-0.004285,0.686989,-264.191876,1.021803,62.136394
10.0164,0.022066,-0.002355,-0.004889,-0.001161,-0.001445,0.000885,0.020253,-0.512151,-0.003379,0.612122,-264.19222,1.095776,62.135749
10.0366,0.021707,-0.002361,-0.005022,-0.001157,-0.001433,0.00091,0.019633,-0.512333,-0.004751,0.612122,-264.19222,1.095776,62.135749
10.0566,0.021945,-0.002128,-0.005058,-0.001154,-0.001423,0.000927,0.019633,-0.512333,-0.004751,0.612122,-264.19222,1.095776,62.135749
10.0769,0.021607,-0.002549,-0.003383,-0.001152,-0.001415,0.000938,0.019321,-0.512177,-0.005024,0.661828,-264.192761,1.041812,62.134904
10.0969,0.021927,-0.002071,-0.005628,-0.001156,-0.001409,0.000833,0.019545,-0.512335,-0.004349,0.661828,-264.192761,1.041812,62.134904
10.1167,0.021574,-0.002489,-0.003911,-0.001158,-0.001403,0.00076,0.019021,-0.512107,-0.005598,0.630966,-264.193322,1.045583,62.134
10.1365,0.021797,-0.002615,-0.00346,-0.001162,-0.001393,0.000623,0.019526,-0.512453,-0.004063,0.630966,-264.193322,1.045583,62.134
10.1567,0.021432,-0.002775,-0.004266,-0.001164,-0.001384,0.000529,0.019526,-0.512453,-0.004063,0.630966,-264.193322,1.045583,62.134
10.1766,0.021648,-0.002414,-0.003009,-0.001163,-0.001375,0.000464,0.01921,-0.512826,-0.004236,0.681475,-264.193887,1.01586,62.133167
10.1965,0.021998,-0.002776,-0.004613,-0.001167,-0.001358,0.000316,0.019571,-0.512664,-0.003735,0.681475,-264.193887,1.01586,62.133167
10.2161,0.021747,-0.002293,-0.004787,-0.001167,-0.001343,0.000214,0.019613,-0.512809,-0.004601,0.753785,-264.194448,0.959304,62.132455
10.2366,0.021703,-0.002265,-0.005486,-0.001152,-0.001342,0.000443,0.019327,-0.512327,-0.004772,0.753785,-264.194448,0.959304,62.132455
10.2565,0.021733,-0.002663,-0.003866,-0.001142,-0.001342,0.000605,0.019327,-0.512327,-0.004772,0.753785,-264.194448,0.959304,62.132455
10.2766,0.021832,-0.002613,-0.005468,-0.001137,-0.001342,0.00072,0.019717,-0.512709,-0.003858,0.804644,-264.195055,0.9014,62.131776
10.2963,0.021444,-0.002516,-0.002939,-0.001135,-0.001328,0.00073,0.019438,-0.512673,-0.004511,0.804644,-264.195055,0.9014,62.131776
10.3161,0.021047,-0.002575,-0.005149,-0.001133,-0.001316,0.000737,0.019922,-0.512541,-0.002926,0.730185,-264.195428,0.975859,62.131233
10.3363,0.02114,-0.002437,-0.004171,-0.001126,-0.001303,0.000869,0.01852,-0.512567,-0.005001,0.730185,-264.195428,0.975859,62.131233
10.3562,0.021463,-0.002545,-0.003953,-0.001121,-0.001293,0.000963,0.01852,-0.512567,-0.005001,0.730185,-264.195428,0.975859,62.131233
10.3763,0.021513,-0.002858,-0.003832,-0.001119,-0.001285,0.001028,0.019405,-0.51259,-0.003925,0.654469,-264.195937,1.000277,62.130485
10.3962,0.020928,-0.0026,-0.005197,-0.001136,-0.001281,0.000751,0.019462,-0.512702,-0.003885,0.654469,-264.195937,1.000277,62.130485
10.416,0.021474,-0.002642,-0.003637,-0.001146,-0.001277,0.00056,0.018246,-0.512629,-0.005171,0.58017,-264.19639,1.033097,62.129736
10.4363,0.021126,-0.002501,-0.003727,-0.001154,-0.001276,0.000393,0.019493,-0.512639,-0.003774,0.58017,-264.19639,1.033097,62.129736
10.4565,0.021405,-0.00296,-0.004072,-0.001157,-0.001275,0.000279,0.019493,-0.512639,-0.003774,0.58017,-264.19639,1.033097,62.129736
10.4767,0.02153,-0.002529,-0.004944,-0.001158,-0.001274,0.000202,0.019291,-0.512996,-0.004053,0.655151,-264.19684,0.958115,62.129132
10.4964,0.021298,-0.002582,-0.002346,-0.001145,-0.001259,0.000335,0.019176,-0.512815,-0.0044,0.655151,-264.19684,0.958115,62.129132
10.516,0.021,-0.003024,-0.003549,-0.001136,-0.001248,0.00043,0.020075,-0.512608,-0.00234,0.730148,-264.197298,0.883118,62.128623
10.5363,0.020968,-0.002749,-0.004655,-0.001146,-0.001231,0.000201,0.019257,-0.51299,-0.003455,0.730148,-264.197298,0.883118,62.128623
10.5563,0.02165,-0.003208,-0.00399,-0.00115,-0.001217,4.4e-05,0.019257,-0.51299,-0.003455,0.730148,-264.197298,0.883118,62.128623
10.5766,0.021016,-0.002891,-0.005531,-0.001151,-0.001205,-6.3e-05,0.019569,-0.513254,-0.003973,0.714412,-264.197877,0.925903,62.127896
10.5961,0.021039,-0.002883,-0.004895,-0.00113,-0.001183,0.000205,0.019007,-0.513109,-0.004603,0.714412,-264.197877,0.925903,62.127896
10.6165,0.021086,-0.002814,-0.00358,-0.001116,-0.001165,0.000395,0.01852,-0.512901,-0.004895,0.789014,-264.198296,0.851301,62.12749
10.6364,0.020875,-0.00285,-0.004437,-0.001125,-0.00117,0.000262,0.019193,-0.51282,-0.003698,0.789014,-264.198296,0.851301,62.12749
10.6562,0.021447,-0.002901,-0.003585,-0.001129,-0.001174,0.000169,0.019193,-0.51282,-0.003698,0.789014,-264.198296,0.851301,62.12749
10.6762,0.020994,-0.002978,-0.003458,-0.001132,-0.001177,0.000106,0.01958,-0.512938,-0.003572,0.714009,-264.198777,0.900083,62.126894
10.6967,0.02096,-0.003165,-0.005194,-0.001136,-0.001174,5e-06,0.01943,-0.512958,-0.003523,0.714009,-264.198777,0.900083,62.126894
10.7171,0.020807,-0.002797,-0.003254,-0.001137,-0.001171,-6.4e-05,0.01828,-0.51319,-0.005191,0.7765,-264.199327,0.831445,62.126311
10.7364,0.021057,-0.00329,-0.004649,-0.001139,-0.001173,-0.000142,0.019066,-0.512833,-0.003431,0.7765,-264.199327,0.831445,62.126311
10.757,0.021261,-0.002728,-0.004659,-0.001139,-0.001173,-0.000195,0.019066,-0.512833,-0.003431,0.7765,-264.199327,0.831445,62.126311
10.7769,0.021184,-0.002788,-0.00426,-0.001139,-0.001174,-0.000231,0.01884,-0.512769,-0.004662,0.816662,-264.199956,0.78337,62.125704
10.7966,0.020784,-0.002983,-0.006041,-0.001121,-0.001172,6e-05,0.018907,-0.51278,-0.004492,0.816662,-264.199956,0.78337,62.125704
10.8165,0.02124,-0.003094,-0.003769,-0.00111,-0.001172,0.000267,0.017669,-0.513008,-0.006048,0.857129,-264.200606,0.736795,62.12513
10.837,0.020823,-0.003278,-0.004486,-0.001109,-0.001161,0.000263,0.019169,-0.513085,-0.003972,0.857129,-264.200606,0.736795,62.12513
10.8565,0.02089,-0.002962,-0.003511,-0.001109,-0.001152,0.00026,0.019169,-0.513085,-0.003972,0.857129,-264.200606,0.736795,62.12513
10.8768,0.021121,-0.003103,-0.003311,-0.001109,-0.001145,0.000257,0.019072,-0.512987,-0.003507,0.782651,-264.200954,0.811273,62.124727
10.8967,0.020786,-0.003129,-0.004149,-0.00112,-0.001144,7.8e-05,0.019216,-0.513036,-0.003427,0.782651,-264.200954,0.811273,62.124727
10.9163,0.020599,-0.003247,-0.004831,-0.001127,-0.001143,-4.5e-05,0.018638,-0.513158,-0.004142,0.727627,-264.201494,0.865342,62.124105
10.9365,0.021158,-0.00333,-0.002669,-0.001105,-0.001118,0.000261,0.018179,-0.513235,-0.004768,0.727627,-264.201494,0.865342,62.124105
10.9565,0.021042,-0.002697,-0.003006,-0.001092,-0.001099,0.000478,0.018179,-0.513235,-0.004768,0.727627,-264.201494,0.865342,62.124105
10.9764,0.020636,-0.00329,-0.00339,-0.001084,-0.001084,0.000632,0.019471,-0.512733,-0.003007,0.802645,-264.20202,0.790325,62.123591
10.9965,0.020753,-0.003549,-0.005012,-0.001112,-0.001097,0.000239,0.019237,-0.512963,-0.003163,0.802645,-264.20202,0.790325,62.123591
11.0162,0.020751,-0.003395,-0.003112,-0.001129,-0.001107,-3e-05,0.018186,-0.513553,-0.005008,0.727647,-264.202176,0.865322,62.12337
11.0363,0.020883,-0.003703,-0.002786,-0.001132,-0.001092,-0.000172,0.019076,-0.513408,-0.003281,0.727647,-264.202176,0.865322,62.12337
11.0562,0.020519,-0.003406,-0.003077,-0.001132,-0.001079,-0.000269,0.019076,-0.513408,-0.003281,0.727647,-264.202176,0.865322,62.12337
11.0763,0.020904,-0.003648,-0.003095,-0.00113,-0.001068,-0.000334,0.018911,-0.513441,-0.003078,0.783605,-264.202696,0.790337,62.122859
11.0962,0.020514,-0.003278,-0.004164,-0.00113,-0.001052,-0.000447,0.019076,-0.513529,-0.003085,0.783605,-264.202696,0.790337,62.122859
11.1163,0.020468,-0.003569,-0.005002,-0.001128,-0.001038,-0.000523,0.018365,-0.513298,-0.00417,0.844334,-264.203169,0.715283,62.122463
11.1362,0.020574,-0.00334,-0.004314,-0.001093,-0.001009,-4.5e-05,0.017957,-0.51354,-0.004927,0.844334,-264.203169,0.715283,62.122463
11.1562,0.019991,-0.002923,-0.001832,-0.001072,-0.000987,0.000299,0.017957,-0.51354,-0.004927,0.844334,-264.203169,0.715283,62.122463
11.1762,0.020981,-0.003211,-0.003618,-0.001059,-0.000969,0.000545,0.019025,-0.512953,-0.001845,0.877467,-264.203657,0.640362,62.122094
11.1966,0.020801,-0.003684,-0.004071,-0.001101,-0.000992,-4.8e-05,0.019066,-0.513059,-0.002562,0.877467,-264.203657,0.640362,62.122094
11.2164,0.020376,-0.00357,-0.003441,-0.001127,-0.001011,-0.00045,0.018723,-0.513682,-0.004071,0.802467,-264.203686,0.715362,62.122054
11.2366,0.02036,-0.003453,-0.004165,-0.001116,-0.000997,-0.000388,0.01863,-0.513577,-0.003498,0.802467,-264.203686,0.715362,62.122054
11.2569,0.020386,-0.003119,-0.004206,-0.001108,-0.000986,-0.000343,0.01863,-0.513577,-0.003498,0.802467,-264.203686,0.715362,62.122054
11.2761,0.020772,-0.00382,-0.004844,-0.001102,-0.000976,-0.000311,0.018207,-0.513146,-0.004218,0.850922,-264.204173,0.640356,62.121671
11.2962,0.020561,-0.003501,-0.003113,-0.001083,-0.000969,-3e-06,0.018241,-0.513415,-0.004469,0.850922,-264.204173,0.640356,62.121671
11.3167,0.020718,-0.003663,-0.004621,-0.001071,-0.000965,0.000216,0.018939,-0.513529,-0.003122,0.814004,-264.204797,0.619865,62.121145
11.3366,0.020759,-0.003559,-0.005039,-0.001063,-0.000951,0.000375,0.018412,-0.513648,-0.004487,0.814004,-264.204797,0.619865,62.121145
11.3567,0.020877,-0.003483,-0.004454,-0.001058,-0.000941,0.000487,0.018412,-0.513648,-0.004487,0.814004,-264.204797,0.619865,62.121145
11.3761,0.020208,-0.003337,-0.005275,-0.001056,-0.000932,0.000565,0.018586,-0.513494,-0.004453,0.738998,-264.205021,0.694872,62.120891
11.3963,0.02048,-0.003443,-0.005626,-0.001054,-0.000933,0.000697,0.018156,-0.51343,-0.004782,0.738998,-264.205021,0.694872,62.120891
11.417,0.02054,-0.003601,-0.00432,-0.001054,-0.000935,0.00079,0.017602,-0.513442,-0.005623,0.663957,-264.205139,0.769912,62.12073
11.4365,0.020683,-0.003634,-0.004219,-0.001058,-0.000932,0.00076,0.018271,-0.513583,-0.004437,0.663957,-264.205139,0.769912,62.12073
11.4561,0.020718,-0.003269,-0.003871,-0.001062,-0.000929,0.000738,0.018271,-0.513583,-0.004437,0.663957,-264.205139,0.769912,62.12073
11.4767,0.020332,-0.003424,-0.005518,-0.001064,-0.000927,0.000722,0.018734,-0.513275,-0.003866,0.588923,-264.205242,0.844946,62.120571
11.4963,0.020302,-0.003709,-0.003073,-0.001067,-0.000936,0.000749,0.018212,-0.513336,-0.004574,0.588923,-264.205242,0.844946,62.120571
11.516,0.020646,-0.0041,-0.00512,-0.001069,-0.000945,0.000767,0.018714,-0.513725,-0.00306,0.513371,-264.205529,0.909563,62.120145
11.5362,0.020349,-0.003486,-0.002914,-0.001059,-0.000911,0.000877,0.01809,-0.514063,-0.004948,0.513371,-264.205529,0.909563,62.120145
11.5561,0.020383,-0.003475,-0.004546,-0.001052,-0.000884,0.000954,0.01809,-0.514063,-0.004948,0.513371,-264.205529,0.909563,62.120145
11.5771,0.020545,-0.003557,-0.005239,-0.001048,-0.000861,0.001008,0.018026,-0.513504,-0.004519,0.438815,-264.205936,0.922994,62.11953
11.5966,0.02053,-0.003793,-0.00373,-0.001052,-0.00087,0.001012,0.017957,-0.513527,-0.004819,0.438815,-264.205936,0.922994,62.11953
11.6164,0.020296,-0.003417,-0.005293,-0.001056,-0.000877,0.001015,0.018612,-0.513803,-0.003716,0.363566,-264.206145,0.953704,62.119178
11.6368,0.020262,-0.00357,-0.003965,-0.001056,-0.000883,0.0011,0.017688,-0.513446,-0.005149,0.363566,-264.206145,0.953704,62.119178
11.6562,0.020463,-0.003416,-0.003302,-0.001057,-0.000889,0.001159,0.017688,-0.513446,-0.005149,0.363566,-264.206145,0.953704,62.119178
11.6765,0.020577,-0.003564,-0.003474,-0.001058,-0.000894,0.0012,0.018745,-0.513443,-0.00327,0.288998,-264.206486,0.956264,62.118603
11.6962,0.02017,-0.003805,-0.005191,-0.001093,-0.000909,0.000683,0.018767,-0.513497,-0.003353,0.288998,-264.206486,0.956264,62.118603
11.7166,0.020202,-0.003742,-0.006192,-0.001113,-0.00092,0.000329,0.017499,-0.513819,-0.005165,0.213378,-264.206792,0.994163,62.118049
11.7366,0.020222,-0.00405,-0.00105,-0.001078,-0.000889,0.000797,0.017084,-0.513742,-0.006096,0.213378,-264.206792,0.994163,62.118049
11.7564,0.020168,-0.003532,-0.00404,-0.001055,-0.000866,0.001139,0.017084,-0.513742,-0.006096,0.213378,-264.206792,0.994163,62.118049
11.7763,0.020137,-0.00338,-0.003481,-0.001041,-0.000848,0.001387,0.018105,-0.51353,-0.004038,0.287773,-264.206824,0.919769,62.118011
11.7964,0.020288,-0.003843,-0.00578,-0.001072,-0.000868,0.000964,0.01821,-0.513468,-0.003809,0.287773,-264.206824,0.919769,62.118011
11.8163,0.020136,-0.003635,-0.003822,-0.00109,-0.000883,0.000673,0.017333,-0.513841,-0.005771,0.212739,-264.206917,0.994803,62.117833
11.8364,0.020294,-0.003563,-0.003826,-0.001095,-0.000885,0.000532,0.018114,-0.513649,-0.003988,0.212739,-264.206917,0.994803,62.117833
11.8564,0.020227,-0.004041,-0.004927,-0.001096,-0.000886,0.000437,0.018114,-0.513649,-0.003988,0.212739,-264.206917,0.994803,62.117833
11.8764,0.020278,-0.003702,-0.002702,-0.001096,-0.000886,0.000372,0.017695,-0.51405,-0.004913,0.287803,-264.207117,0.919738,62.117548
11.8965,0.020035,-0.00376,-0.00332,-0.001091,-0.000873,0.000335,0.018186,-0.513908,-0.004006,0.287803,-264.207117,0.919738,62.117548
11.9163,0.020435,-0.003553,-0.002575,-0.001086,-0.000862,0.00031,0.018332,-0.513764,-0.003315,0.362696,-264.207258,0.844845,62.117375
11.9363,0.020322,-0.003714,-0.003913,-0.001116,-0.000877,-0.00019,0.019066,-0.513566,-0.002626,0.362696,-264.207258,0.844845,62.117375
11.9567,0.020088,-0.003872,-0.005165,-0.001132,-0.000889,-0.000527,0.019066,-0.513566,-0.002626,0.362696,-264.207258,0.844845,62.117375
11.9767,0.020345,-0.004244,-0.004121,-0.001139,-0.000898,-0.000754,0.01743,-0.513882,-0.005156,0.438313,-264.207514,0.769228,62.117073
11.9963,0.019753,-0.004026,-0.003282,-0.001097,-0.000863,-0.000259,0.017755,-0.514028,-0.004738,0.438313,-264.207514,0.769228,62.117073
12.0164,0.020186,-0.003909,-0.003492,-0.001068,-0.000836,9.8e-05,0.01808,-0.514023,-0.003282,0.512688,-264.207516,0.694853,62.117071
12.0364,0.02009,-0.003634,-0.003494,-0.001073,-0.000832,-1.6e-05,0.018386,-0.513913,-0.003479,0.512688,-264.207516,0.694853,62.117071
12.0566,0.020182,-0.003988,-0.003513,-0.001075,-0.000828,-9.4e-05,0.018386,-0.513913,-0.003479,0.512688,-264.207516,0.694853,62.117071
12.076,0.020279,-0.00352,-0.002838,-0.001075,-0.000824,-0.000146,0.018354,-0.514012,-0.003509,0.588603,-264.207938,0.697862,62.116626
12.0967,0.020217,-0.003997,-0.002574,-0.001081,-0.000828,-0.000266,0.018546,-0.513812,-0.003233,0.588603,-264.207938,0.697862,62.116626
12.116,0.020396,-0.004155,-0.004496,-0.001083,-0.00083,-0.000347,0.018881,-0.514013,-0.002575,0.662907,-264.208327,0.623558,62.116266
12.1361,0.020359,-0.003608,-0.002495,-0.001061,-0.000809,-6.5e-05,0.018169,-0.514139,-0.004331,0.662907,-264.208327,0.623558,62.116266
12.1562,0.019941,-0.0037,-0.003934,-0.001046,-0.000792,0.000135,0.018169,-0.514139,-0.004331,0.662907,-264.208327,0.623558,62.116266
12.1764,0.0202,-0.004156,-0.003222,-0.001037,-0.000778,0.000276,0.017902,-0.513721,-0.003943,0.737792,-264.208752,0.548673,62.115914
12.1963,0.019904,-0.003769,-0.004592,-0.001046,-0.000781,0.000166,0.018167,-0.513901,-0.003648,0.737792,-264.208752,0.548673,62.115914
12.2163,0.019897,-0.003891,-0.002155,-0.001051,-0.000784,9e-05,0.017553,-0.51377,-0.004591,0.662775,-264.208887,0.623689,62.115756
12.2364,0.019824,-0.003465,-0.003095,-0.001083,-0.00079,-0.000439,0.018695,-0.51388,-0.002354,0.662775,-264.208887,0.623689,62.115756
12.2564,0.020002,-0.003735,-0.004561,-0.001102,-0.000794,-0.000798,0.018695,-0.51388,-0.002354,0.662775,-264.208887,0.623689,62.115756
12.2763,0.019815,-0.003472,-0.003393,-0.001111,-0.000797,-0.001041,0.017636,-0.513759,-0.004558,0.606082,-264.209353,0.673542,62.115267
12.2962,0.020188,-0.003689,-0.003008,-0.001082,-0.000801,-0.000624,0.017814,-0.513644,-0.004082,0.606082,-264.209353,0.673542,62.115267
12.3164,0.019744,-0.003947,-0.005141,-0.001063,-0.000806,-0.000328,0.018654,-0.513687,-0.003008,0.680894,-264.209354,0.59873,62.115266
12.3366,0.02006,-0.003983,-0.002149,-0.001036,-0.000785,0.000101,0.017257,-0.513917,-0.004953,0.680894,-264.209354,0.59873,62.115266
12.3567,0.019868,-0.003713,-0.003935,-0.00102,-0.00077,0.00041,0.017257,-0.513917,-0.004953,0.680894,-264.209354,0.59873,62.115266
12.377,0.019832,-0.003633,-0.003805,-0.001011,-0.000759,0.00063,0.017825,-0.513737,-0.003946,0.75587,-264.209833,0.523754,62.114865
12.3968,0.019924,-0.003576,-0.004216,-0.001027,-0.000773,0.000487,0.017847,-0.513697,-0.003891,0.75587,-264.209833,0.523754,62.114865
12.4168,0.019979,-0.004084,-0.003509,-0.001038,-0.000784,0.000387,0.017774,-0.513572,-0.004216,0.680922,-264.209839,0.598702,62.114858
12.4366,0.019776,-0.00392,-0.002681,-0.001048,-0.00078,0.000218,0.018145,-0.514026,-0.003584,0.680922,-264.209839,0.598702,62.114858
12.4566,0.019868,-0.003923,-0.002717,-0.001055,-0.000776,0.000102,0.018145,-0.514026,-0.003584,0.680922,-264.209839,0.598702,62.114858
12.4762,0.020173,-0.003605,-0.00497,-0.001058,-0.000773,2.2e-05,0.018468,-0.513932,-0.002714,0.605902,-264.209991,0.673722,62.114669
12.497,0.019927,-0.004106,-0.003233,-0.001061,-0.000781,-1.8e-05,0.018129,-0.513798,-0.00363,0.605902,-264.209991,0.673722,62.114669
12.5161,0.019791,-0.003969,-0.00471,-0.001062,-0.000788,-4.5e-05,0.018245,-0.514128,-0.003233,0.622703,-264.210499,0.639066,62.114154
12.5363,0.020006,-0.004212,-0.00663,-0.001044,-0.000773,0.000211,0.017466,-0.51398,-0.004573,0.622703,-264.210499,0.639066,62.114154
12.5568,0.019655,-0.004195,-0.004055,-0.001033,-0.000762,0.000392,0.017466,-0.51398,-0.004573,0.622703,-264.210499,0.639066,62.114154
12.5768,0.019639,-0.004105,-0.003197,-0.001027,-0.000753,0.00052,0.017543,-0.514223,-0.004057,0.654913,-264.211024,0.621457,62.113643
12.5963,0.019291,-0.003724,-0.002822,-0.001036,-0.000741,0.000354,0.017721,-0.514179,-0.003719,0.654913,-264.211024,0.621457,62.113643
12.6163,0.019934,-0.004028,-0.002576,-0.00104,-0.000731,0.000239,0.017845,-0.513727,-0.00282,0.579904,-264.211115,0.696466,62.113522
12.6366,0.019987,-0.003838,-0.003007,-0.00107,-0.000739,-0.000243,0.018548,-0.513999,-0.002598,0.579904,-264.211115,0.696466,62.113522
12.6565,0.019873,-0.004215,-0.003095,-0.001088,-0.000745,-0.000569,0.018548,-0.513999,-0.002598,0.579904,-264.211115,0.696466,62.113522
12.677,0.019861,-0.004016,-0.004334,-0.001096,-0.000749,-0.00079,0.018255,-0.514241,-0.003085,0.5122,-264.211558,0.700396,62.113016
12.6963,0.020013,-0.004334,-0.003118,-0.001076,-0.000739,-0.000595,0.018008,-0.514152,-0.003585,0.5122,-264.211558,0.700396,62.113016
12.716,0.019408,-0.003579,-0.003706,-0.001061,-0.000732,-0.000458,0.018422,-0.514332,-0.003118,0.58727,-264.211562,0.625326,62.113014
12.7366,0.019413,-0.004427,-0.002307,-0.001055,-0.000748,-0.00034,0.017597,-0.513641,-0.003655,0.58727,-264.211562,0.625326,62.113014
12.7569,0.019937,-0.004102,-0.00366,-0.001051,-0.000761,-0.000256,0.017597,-0.513641,-0.003655,0.58727,-264.211562,0.625326,62.113014
12.7761,0.02019,-0.00372,-0.003309,-0.00105,-0.000773,-0.000198,0.018059,-0.514107,-0.003662,0.662411,-264.211723,0.550185,62.112887
12.7967,0.019159,-0.004148,-0.004056,-0.00105,-0.000774,-0.000202,0.018238,-0.513949,-0.003519,0.662411,-264.211723,0.550185,62.112887
12.8162,0.019777,-0.004106,-0.004171,-0.00105,-0.000775,-0.000204,0.017058,-0.514168,-0.004062,0.705598,-264.212258,0.555841,62.112407
12.8364,0.019804,-0.004426,-0.004258,-0.001036,-0.000758,-9e-06,0.017593,-0.514109,-0.004161,0.705598,-264.212258,0.555841,62.112407
12.8568,0.019642,-0.004273,-0.002963,-0.001027,-0.000744,0.000127,0.017593,-0.514109,-0.004161,0.705598,-264.212258,0.555841,62.112407
12.8766,0.019915,-0.004444,-0.003678,-0.001021,-0.000733,0.000223,0.018087,-0.514303,-0.002972,0.708017,-264.212811,0.554194,62.111914
12.8965,0.019593,-0.00429,-0.004708,-0.001034,-0.000718,-2e-06,0.018062,-0.514363,-0.003259,0.708017,-264.212811,0.554194,62.111914
12.9168,0.019576,-0.00425,-0.003116,-0.00104,-0.000704,-0.000157,0.017179,-0.514294,-0.004707,0.633053,-264.213008,0.629158,62.11169
12.9367,0.019554,-0.004065,-0.005608,-0.001044,-0.000697,-0.00027,0.017923,-0.514251,-0.003241,0.633053,-264.213008,0.629158,62.11169
12.9567,0.019364,-0.003962,-0.003672,-0.001046,-0.00069,-0.000347,0.017923,-0.514251,-0.003241,0.633053,-264.213008,0.629158,62.11169
12.9765,0.019744,-0.003959,-0.002839,-0.001046,-0.000685,-0.000399,0.017455,-0.513984,-0.003676,0.655776,-264.213451,0.553793,62.111283
12.9969,0.019574,-0.004272,-0.004394,-0.001046,-0.000693,-0.000406,0.017804,-0.513975,-0.003325,0.655776,-264.213451,0.553793,62.111283
13.0166,0.019652,-0.004479,-0.003295,-0.001046,-0.0007,-0.00041,0.017313,-0.514282,-0.004401,0.726173,-264.213802,0.478787,62.110999
13.0369,0.019699,-0.004287,-0.005064,-0.001039,-0.000683,-0.000389,0.01791,-0.514459,-0.003398,0.726173,-264.213802,0.478787,62.110999
13.0565,0.019353,-0.00442,-0.00377,-0.001033,-0.000668,-0.000373,0.01791,-0.514459,-0.003398,0.726173,-264.213802,0.478787,62.110999
13.0762,0.019945,-0.004103,-0.004479,-0.001028,-0.000655,-0.000363,0.017389,-0.514443,-0.003786,0.737736,-264.214321,0.40629,62.110581
13.0964,0.019163,-0.004344,-0.004164,-0.001014,-0.000645,-0.000146,0.017495,-0.514306,-0.004069,0.737736,-264.214321,0.40629,62.110581
13.1161,0.019791,-0.004253,-0.005154,-0.001005,-0.000637,6e-06,0.017007,-0.51436,-0.004176,0.705713,-264.214852,0.398922,62.110142
13.1368,0.019362,-0.004174,-0.003123,-0.000986,-0.000625,0.000368,0.017146,-0.514259,-0.005061,0.705713,-264.214852,0.398922,62.110142
13.1566,0.019621,-0.004381,-0.004136,-0.000976,-0.000616,0.000626,0.017146,-0.514259,-0.005061,0.705713,-264.214852,0.398922,62.110142
13.1768,0.019255,-0.004128,-0.003627,-0.000972,-0.00061,0.000809,0.017492,-0.514388,-0.004139,0.630712,-264.215069,0.473923,62.109924
13.1963,0.019687,-0.004211,-0.003485,-0.000989,-0.000613,0.000621,0.017454,-0.514281,-0.003928,0.630712,-264.215069,0.473923,62.109924
13.2165,0.019032,-0.004204,-0.004027,-0.001,-0.000615,0.00049,0.01791,-0.514208,-0.003485,0.555432,-264.215069,0.549203,62.109924
13.2365,0.019426,-0.004275,-0.004767,-0.001005,-0.000615,0.000416,0.017048,-0.5142,-0.003986,0.555432,-264.215069,0.549203,62.109924
13.2564,0.019575,-0.004457,-0.003402,-0.001009,-0.000615,0.000365,0.017048,-0.5142,-0.003986,0.555432,-264.215069,0.549203,62.109924
13.2769,0.019828,-0.004502,-0.004124,-0.001011,-0.000615,0.00033,0.017832,-0.514459,-0.0034,0.480232,-264.215154,0.624403,62.109814
13.297,0.019438,-0.004211,-0.004363,-0.001017,-0.00061,0.000212,0.017787,-0.514475,-0.003691,0.480232,-264.215154,0.624403,62.109814
13.3162,0.019383,-0.003768,-0.004064,-0.00102,-0.000606,0.000131,0.017186,-0.514223,-0.004355,0.405707,-264.21552,0.679395,62.109379
13.3365,0.019246,-0.0042,-0.004921,-0.00102,-0.000631,0.000198,0.017299,-0.513798,-0.004086,0.405707,-264.21552,0.679395,62.109379
13.3566,0.01945,-0.004437,-0.003198,-0.001022,-0.000652,0.000245,0.017299,-0.513798,-0.004086,0.405707,-264.21552,0.679395,62.109379
13.3765,0.019718,-0.004361,-0.003902,-0.001024,-0.00067,0.000278,0.017785,-0.514455,-0.003194,0.47626,-264.215892,0.603799,62.10898
13.3965,0.019418,-0.00426,-0.003729,-0.001031,-0.000659,0.000105,0.017758,-0.514419,-0.003476,0.47626,-264.215892,0.603799,62.10898
13.4161,0.019305,-0.004593,-0.004627,-0.001035,-0.000649,-1.3e-05,0.017487,-0.514275,-0.003721,0.454819,-264.216297,0.678188,62.10851
13.4365,0.019121,-0.004214,-0.002828,-0.001013,-0.000619,0.000224,0.016993,-0.51456,-0.004544,0.454819,-264.216297,0.678188,62.10851
13.4564,0.019416,-0.004691,-0.002883,-0.000998,-0.000595,0.000392,0.016993,-0.51456,-0.004544,0.454819,-264.216297,0.678188,62.10851
13.4766,0.019343,-0.004179,-0.003731,-0.000989,-0.000576,0.00051,0.017918,-0.514706,-0.002881,0.529828,-264.216612,0.60318,62.108197
13.4964,0.019281,-0.00424,-0.003131,-0.00101,-0.000575,0.000176,0.017722,-0.514495,-0.003223,0.529828,-264.216612,0.60318,62.108197
13.5162,0.018994,-0.004488,-0.002762,-0.001023,-0.000573,-5.3e-05,0.017677,-0.514243,-0.003129,0.454836,-264.216709,0.678171,62.10807
13.5364,0.019152,-0.004366,-0.00413,-0.001038,-0.000571,-0.000365,0.017593,-0.514465,-0.002795,0.454836,-264.216709,0.678171,62.10807
13.5563,0.019126,-0.004499,-0.003679,-0.001045,-0.000568,-0.000577,0.017593,-0.514465,-0.002795,0.454836,-264.216709,0.678171,62.10807
13.5763,0.019299,-0.00415,-0.003979,-0.001048,-0.000566,-0.000721,0.017229,-0.514508,-0.003678,0.529846,-264.216947,0.603161,62.107839
13.5962,0.019564,-0.004365,-0.004429,-0.001027,-0.000564,-0.000479,0.017243,-0.51436,-0.003802,0.529846,-264.216947,0.603161,62.107839
13.6163,0.019608,-0.004398,-0.003527,-0.001014,-0.000563,-0.00031,0.017305,-0.51436,-0.004429,0.604994,-264.216952,0.528014,62.107835
13.6366,0.019217,-0.004216,-0.003839,-0.00101,-0.000569,-0.000251,0.017765,-0.514392,-0.003607,0.604994,-264.216952,0.528014,62.107835
13.6566,0.019541,-0.004413,-0.002485,-0.001008,-0.000573,-0.000211,0.017765,-0.514392,-0.003607,0.604994,-264.216952,0.528014,62.107835
13.6764,0.019425,-0.004295,-0.002651,-0.001007,-0.000577,-0.000182,0.018249,-0.514427,-0.002491,0.63837,-264.217256,0.453138,62.107575
13.6964,0.019122,-0.004472,-0.003471,-0.001031,-0.000585,-0.000539,0.018175,-0.514375,-0.002556,0.63837,-264.217256,0.453138,62.107575
13.7162,0.019071,-0.004281,-0.003564,-0.001044,-0.000591,-0.000781,0.01732,-0.514486,-0.003477,0.599554,-264.21773,0.433189,62.107144
13.7365,0.019136,-0.004294,-0.004406,-0.001028,-0.000589,-0.000595,0.017258,-0.514298,-0.003556,0.599554,-264.21773,0.433189,62.107144
13.7564,0.019139,-0.00431,-0.00172,-0.001018,-0.000588,-0.000465,0.017258,-0.514298,-0.003556,0.599554,-264.21773,0.433189,62.107144
13.7764,0.019601,-0.00455,-0.004657,-0.001011,-0.000587,-0.000374,0.018258,-0.514312,-0.001722,0.674585,-264.217787,0.358158,62.107104
13.7966,0.019007,-0.004373,-0.004403,-0.001021,-0.000588,-0.000535,0.017841,-0.514406,-0.002905,0.674585,-264.217787,0.358158,62.107104
13.8162,0.019342,-0.004691,-0.005315,-0.001026,-0.000588,-0.000645,0.016732,-0.514385,-0.004416,0.708369,-264.218275,0.289938,62.106717
13.8364,0.018977,-0.004196,-0.003673,-0.000985,-0.000552,-6.9e-05,0.016639,-0.514658,-0.005235,0.708369,-264.218275,0.289938,62.106717
13.8569,0.019326,-0.004346,-0.005526,-0.000958,-0.000523,0.000349,0.016639,-0.514658,-0.005235,0.708369,-264.218275,0.289938,62.106717
13.8767,0.019325,-0.004412,-0.002732,-0.000943,-0.0005,0.00065,0.016473,-0.514358,-0.005547,0.763551,-264.218732,0.214874,62.106381
13.8967,0.019041,-0.004585,-0.004153,-0.000951,-0.000508,0.000658,0.017055,-0.514382,-0.004419,0.763551,-264.218732,0.214874,62.106381
13.9161,0.019137,-0.004286,-0.003638,-0.000958,-0.000515,0.000663,0.016923,-0.51458,-0.004153,0.688623,-264.218732,0.289802,62.106381
13.9364,0.018853,-0.004562,-0.002809,-0.000978,-0.000528,0.00044,0.017249,-0.51431,-0.003685,0.688623,-264.218732,0.289802,62.106381
13.9571,0.018738,-0.004632,-0.002492,-0.000992,-0.000539,0.000285,0.017249,-0.51431,-0.003685,0.688623,-264.218732,0.289802,62.106381
13.9762,0.019078,-0.004273,-0.004623,-0.001001,-0.000547,0.000179,0.017467,-0.51463,-0.002492,0.613599,-264.218732,0.364826,62.106381
13.9969,0.019092,-0.004536,-0.004186,-0.00101,-0.000543,-6e-06,0.017165,-0.514484,-0.003353,0.613599,-264.218732,0.364826,62.106381
14.0169,0.019077,-0.004451,-0.002294,-0.001014,-0.00054,-0.000133,0.01695,-0.514535,-0.004186,0.538612,-264.21884,0.439813,62.106263
14.0364,0.019161,-0.004557,-0.00386,-0.001038,-0.000545,-0.000551,0.017824,-0.514457,-0.002457,0.538612,-264.21884,0.439813,62.106263
14.0568,0.019208,-0.004447,-0.003714,-0.001051,-0.000549,-0.000835,0.017824,-0.514457,-0.002457,0.538612,-264.21884,0.439813,62.106263
14.0767,0.018876,-0.004681,-0.004285,-0.001056,-0.000551,-0.001026,0.017272,-0.514466,-0.003719,0.549317,-264.219312,0.424983,62.105821
14.0968,0.018911,-0.00448,-0.002872,-0.001025,-0.000536,-0.000653,0.017034,-0.514553,-0.003946,0.549317,-264.219312,0.424983,62.105821
14.1166,0.019325,-0.004373,-0.0042,-0.001003,-0.000525,-0.000388,0.017446,-0.514478,-0.002872,0.624192,-264.219315,0.350108,62.105819
14.1367,0.018828,-0.004455,-0.003894,-0.00099,-0.000528,-0.000162,0.017206,-0.514378,-0.004082,0.624192,-264.219315,0.350108,62.105819
14.1564,0.01891,-0.004668,-0.003432,-0.000983,-0.000531,-3e-06,0.017206,-0.514378,-0.004082,0.624192,-264.219315,0.350108,62.105819
14.1772,0.018436,-0.004976,-0.004098,-0.000979,-0.000534,0.000109,0.017121,-0.514685,-0.003447,0.649733,-264.219775,0.2798,62.105438
14.1965,0.018808,-0.004438,-0.004235,-0.000977,-0.00051,7e-05,0.016809,-0.514801,-0.003706,0.649733,-264.219775,0.2798,62.105438
14.2163,0.019099,-0.004794,-0.005114,-0.000974,-0.00049,4.2e-05,0.016643,-0.514436,-0.004235,0.574735,-264.219843,0.354798,62.105366
14.2366,0.01886,-0.004337,-0.003765,-0.000951,-0.000465,0.000385,0.016504,-0.514755,-0.005035,0.574735,-264.219843,0.354798,62.105366
14.2566,0.018873,-0.004294,-0.005009,-0.000938,-0.000446,0.000631,0.016504,-0.514755,-0.005035,0.574735,-264.219843,0.354798,62.105366
14.2766,0.018428,-0.004516,-0.004681,-0.000931,-0.000431,0.000805,0.016295,-0.514299,-0.00501,0.499741,-264.220092,0.429792,62.105112
14.2964,0.019101,-0.004526,-0.004464,-0.000934,-0.000436,0.000888,0.01619,-0.514386,-0.004877,0.499741,-264.220092,0.429792,62.105112
14.316,0.01898,-0.004503,-0.003126,-0.000938,-0.000441,0.000945,0.016824,-0.514521,-0.004464,0.424752,-264.220092,0.504781,62.105112
14.3365,0.018247,-0.004953,-0.003897,-0.000974,-0.000457,0.000477,0.017335,-0.514503,-0.003247,0.424752,-264.220092,0.504781,62.105112
14.3566,0.018924,-0.004575,-0.003606,-0.000996,-0.000469,0.000157,0.017335,-0.514503,-0.003247,0.424752,-264.220092,0.504781,62.105112
14.3764,0.0188,-0.004739,-0.004635,-0.001009,-0.000479,-6.1e-05,0.017085,-0.514571,-0.003606,0.349753,-264.220092,0.57978,62.105111
14.3968,0.018981,-0.004896,-0.004429,-0.000997,-0.000472,4e-05,0.016825,-0.514636,-0.004018,0.349753,-264.220092,0.57978,62.105111
14.4162,0.019178,-0.003973,-0.004957,-0.000988,-0.000467,0.000112,0.016706,-0.514899,-0.004429,0.424748,-264.220319,0.504785,62.104891
14.4369,0.018885,-0.004677,-0.004045,-0.000978,-0.000488,0.000403,0.016655,-0.514052,-0.004909,0.424748,-264.220319,0.504785,62.104891
14.4566,0.018829,-0.004987,-0.004562,-0.000974,-0.000507,0.00061,0.016655,-0.514052,-0.004909,0.424748,-264.220319,0.504785,62.104891
14.477,0.01899,-0.004701,-0.002958,-0.000974,-0.000524,0.000757,0.016462,-0.515001,-0.004558,0.382798,-264.220736,0.496273,62.104452
14.4966,0.018836,-0.004316,-0.003601,-0.000979,-0.000502,0.000567,0.016884,-0.514876,-0.003888,0.382798,-264.220736,0.496273,62.104452
14.5166,0.018961,-0.004658,-0.004907,-0.000981,-0.000482,0.000436,0.016998,-0.514314,-0.0036,0.307275,-264.220753,0.571797,62.104426
14.5365,0.018588,-0.004738,-0.005668,-0.00097,-0.000469,0.000602,0.016506,-0.514622,-0.004791,0.307275,-264.220753,0.571797,62.104426
14.5567,0.018739,-0.004643,-0.003452,-0.000963,-0.000459,0.00072,0.016506,-0.514622,-0.004791,0.307275,-264.220753,0.571797,62.104426
14.5769,0.018884,-0.004474,-0.003221,-0.000958,-0.000452,0.000802,0.016946,-0.514656,-0.003438,0.232775,-264.221071,0.646296,62.104036
14.5967,0.019019,-0.004754,-0.004935,-0.000984,-0.000458,0.000415,0.017061,-0.514584,-0.003349,0.232775,-264.221071,0.646296,62.104036
14.616,0.018429,-0.004671,-0.005199,-0.000999,-0.000463,0.000149,0.016496,-0.514752,-0.00493,0.157815,-264.221159,0.721257,62.103913
14.6366,0.019108,-0.004455,-0.003154,-0.000972,-0.000437,0.000487,0.015842,-0.514673,-0.005174,0.157815,-264.221159,0.721257,62.103913
14.6568,0.018791,-0.004256,-0.003603,-0.000954,-0.000417,0.000729,0.015842,-0.514673,-0.005174,0.157815,-264.221159,0.721257,62.103913
14.6764,0.018622,-0.004936,-0.004405,-0.000942,-0.000401,0.000902,0.016944,-0.514257,-0.003599,0.232822,-264.221266,0.646249,62.103798
14.6965,0.01864,-0.004402,-0.003467,-0.000961,-0.000415,0.000676,0.016714,-0.514528,-0.003923,0.232822,-264.221266,0.646249,62.103798
14.716,0.018881,-0.004633,-0.004076,-0.000972,-0.000426,0.000519,0.016871,-0.5144,-0.003466,0.157826,-264.221289,0.721245,62.103766
14.7369,0.018795,-0.00476,-0.005198,-0.000976,-0.000431,0.000442,0.016808,-0.514608,-0.00402,0.157826,-264.221289,0.721245,62.103766
14.7568,0.018879,-0.004876,-0.003898,-0.000979,-0.000435,0.000389,0.016808,-0.514608,-0.00402,0.157826,-264.221289,0.721245,62.103766
14.7761,0.018778,-0.004644,-0.005712,-0.00098,-0.000438,0.000353,0.016854,-0.514888,-0.003878,0.111281,-264.221639,0.652411,62.103328
14.7962,0.018757,-0.004739,-0.005021,-0.000967,-0.000423,0.000498,0.016451,-0.514788,-0.004617,0.111281,-264.221639,0.652411,62.103328
14.8161,0.01892,-0.005037,-0.004361,-0.000958,-0.000411,0.0006,0.016172,-0.514742,-0.005012,0.18628,-264.221947,0.588649,62.102968
14.8363,0.019214,-0.004618,-0.003445,-0.000952,-0.000394,0.000617,0.016648,-0.515007,-0.004418,0.18628,-264.221947,0.588649,62.102968
14.8563,0.018554,-0.004804,-0.004124,-0.000948,-0.00038,0.000629,0.016648,-0.515007,-0.004418,0.18628,-264.221947,0.588649,62.102968
14.8763,0.018732,-0.004408,-0.005048,-0.000944,-0.000368,0.000638,0.016425,-0.514811,-0.00411,0.111209,-264.222191,0.66372,62.102654
14.8966,0.018357,-0.004676,-0.004478,-0.000944,-0.000372,0.000663,0.016314,-0.514647,-0.004487,0.111209,-264.222191,0.66372,62.102654
14.9161,0.018487,-0.004706,-0.003159,-0.000945,-0.000375,0.000681,0.016051,-0.51468,-0.004464,0.036285,-264.222473,0.676187,62.102292
14.9364,0.018456,-0.004681,-0.003508,-0.00097,-0.000383,0.000305,0.016801,-0.514702,-0.003275,0.036285,-264.222473,0.676187,62.102292
